/* XPM */
static char *c637f4d75f624f70efda0302414ad32fF56dgYzvnFYdlNBw[] = {
/* columns rows colors chars-per-pixel */
"423 423 255 2 ",
"   c #0D0D0D",
".  c #040504",
"X  c #151515",
"o  c #1C1C1C",
"O  c #181918",
"+  c #0D1011",
"@  c #23161A",
"#  c #251A1E",
"$  c #22221E",
"%  c #191E21",
"&  c #2C1C21",
"*  c #311F25",
"=  c #1F2121",
"-  c #1B272A",
";  c #133537",
":  c #1F3236",
">  c #163B3A",
",  c #112C2F",
"<  c #232323",
"1  c #2A2325",
"2  c #232A2D",
"3  c #2B2B2C",
"4  c #282827",
"5  c #302126",
"6  c #322C2E",
"7  c #3A292E",
"8  c #36252A",
"9  c #32322E",
"0  c #3C2C31",
"q  c #322F30",
"w  c #263530",
"e  c #2B3532",
"r  c #2B3A35",
"t  c #223539",
"y  c #2E3E39",
"u  c #2A373B",
"i  c #343434",
"p  c #3C3336",
"a  c #313A37",
"s  c #3D3739",
"d  c #343C3A",
"f  c #3B3B3B",
"g  c #393A36",
"h  c #272E31",
"j  c #1F201B",
"k  c #44353A",
"l  c #46373C",
"z  c #402E34",
"x  c #19403D",
"c  c #2F423C",
"v  c #34433E",
"b  c #3A403E",
"n  c #42413F",
"m  c #001858",
"M  c #001A4C",
"N  c #3D3E42",
"B  c #363E41",
"V  c #2B3E42",
"C  c #001769",
"Z  c #001862",
"A  c #022B65",
"S  c #0C344F",
"D  c #4D3E43",
"F  c #423F40",
"G  c #513F45",
"H  c #194C4D",
"J  c #1B4644",
"K  c #10555C",
"L  c #14585D",
"P  c #0B4B50",
"I  c #264949",
"U  c #334640",
"Y  c #384642",
"T  c #38484B",
"R  c #2A524F",
"E  c #3A4D51",
"W  c #2A5C52",
"Q  c #295958",
"!  c #355759",
"~  c #365958",
"^  c #294B52",
"/  c #14665B",
"(  c #31635A",
")  c #39605D",
"_  c #29605D",
"`  c #185A63",
"'  c #125479",
"]  c #12496B",
"[  c #2C5F60",
"{  c #26566B",
"}  c #365E65",
"|  c #0C6865",
" . c #1B6067",
".. c #18686A",
"X. c #087967",
"o. c #047B6C",
"O. c #08796B",
"+. c #047769",
"@. c #19766E",
"#. c #167369",
"$. c #166E72",
"%. c #1B6A75",
"&. c #057B75",
"*. c #0A7D71",
"=. c #027E7C",
"-. c #0A7D79",
";. c #077578",
":. c #197175",
">. c #1E7B73",
",. c #127A7D",
"<. c #1A767A",
"1. c #046C76",
"2. c #216965",
"3. c #246C68",
"4. c #276569",
"5. c #396666",
"6. c #2A726E",
"7. c #2D7571",
"8. c #267778",
"9. c #3F7273",
"0. c #327979",
"q. c #276B72",
"w. c #444444",
"e. c #4B4446",
"r. c #4A4946",
"t. c #4E4649",
"y. c #45494D",
"u. c #4B4B4B",
"i. c #454649",
"p. c #514046",
"a. c #53494C",
"s. c #52524E",
"d. c #4A4E51",
"f. c #544F51",
"g. c #5B4C51",
"h. c #4A5154",
"j. c #485B5F",
"k. c #44565A",
"l. c #535353",
"z. c #5B5355",
"x. c #5B5B5B",
"c. c #585958",
"v. c #655459",
"b. c #625559",
"n. c #604E54",
"m. c #505E62",
"M. c #486466",
"N. c #4F7173",
"B. c #46797A",
"V. c #576A6E",
"C. c #646464",
"Z. c #6B6B6C",
"A. c #676968",
"S. c #697174",
"D. c #687679",
"F. c #747474",
"G. c #7B7B7B",
"H. c #797976",
"J. c #6D706F",
"K. c #62615D",
"L. c #00826D",
"P. c #028869",
"I. c #008574",
"U. c #0F8275",
"Y. c #008B77",
"T. c #01827C",
"R. c #0D827C",
"E. c #018A7C",
"W. c #088B7B",
"Q. c #138478",
"!. c #00927B",
"~. c #0C8E6D",
"^. c #26817A",
"/. c #00925F",
"(. c #7F807A",
"). c #82827D",
"_. c #0E508C",
"`. c #0F5086",
"'. c #135187",
"]. c #057082",
"[. c #047B87",
"{. c #157B83",
"}. c #017B94",
"|. c #0E7293",
" X c #21769D",
".X c #227993",
"XX c #277688",
"oX c #2175A3",
"OX c #5C7F82",
"+X c #048481",
"@X c #008B83",
"#X c #058389",
"$X c #099183",
"%X c #049485",
"&X c #018596",
"*X c #0F888D",
"=X c #2E8288",
"-X c #098DA2",
";X c #548687",
":X c #558B8D",
">X c #659697",
",X c #759797",
"<X c #6F8C8E",
"1X c #77A4A3",
"2X c #7AA19E",
"3X c #848484",
"4X c #8A8A85",
"5X c #8C8C8C",
"6X c #858889",
"7X c #91918D",
"8X c #898D91",
"9X c #889599",
"0X c #939393",
"qX c #9B9B9B",
"wX c #989895",
"eX c #908F8D",
"rX c #A09F9D",
"tX c #A2A29E",
"yX c #979EA2",
"uX c #85A7A7",
"iX c #95AEB1",
"pX c #A4A4A4",
"aX c #A9AAA5",
"sX c #ABABAB",
"dX c #A5A9A9",
"fX c #B1B1AC",
"gX c #B3B3B3",
"hX c #BCBCBC",
"jX c #B9B9B5",
"kX c #ABB2B4",
"lX c #A0A09D",
"zX c #C2C2BD",
"xX c #A4BEC1",
"cX c #B2CFD0",
"vX c #B9DEDD",
"bX c #C3C3C3",
"nX c #CBCAC6",
"mX c #CCCCCC",
"MX c #C6C8C8",
"NX c #D1D2CD",
"BX c #D4D4D4",
"VX c #D9DAD6",
"CX c #DBDBDB",
"ZX c #D6D7D6",
"AX c #CAD1D3",
"SX c #E1E1DD",
"DX c #E3E3E3",
"FX c #EBEAE7",
"GX c #EBEBEB",
"HX c #F3F3F3",
"JX c #FBFBFB",
"KX c #F0F0ED",
"LX c #C8E7E7",
"PX c #BFC0BB",
"IX c #807F7C",
/* pixels */
"-X-X&X#X#X[.[.[.{.,.-.U.R.I.I.I.Y.Y.Y.Y.Y.Y.Y.Y.Y.Y.Y.Y.Y.Y.Y.Y.Y.Y.Y.Y.Y.Y.Y.Y.Y.Y.Y.Y.Y.Y.Y.Y.Y.Y.Y.Y.Y.Y.Y.Y.Y.Y.Y.Y.Y.Y.Y.Y.Y.Y.Y.Y.Y.Y.Y.Y.Y.Y.Y.Y.Y.Y.Y.Y.Y.Y.Y.Y.Y.Y.Y.Y.Y.Y.Y.Y.Y.Y.Y.Y.Y.Y.Y.Y.Y.Y.Y.Y.Y.Y.Y.Y.Y.Y.Y.Y.Y.Y.Y.Y.Y.Y.Y.Y.Y.Y.Y.Y.Y.Y.Y.Y.Y.Y.Y.Y.Y.Y.Y.Y.Y.Y.Y.Y.Y.Y.Y.Y.Y.Y.Y.Y.Y.Y.Y.Y.Y.Y.Y.Y.Y.Y.Y.Y.Y.Y.Y.Y.Y.Y.Y.Y.Y.Y.Y.Y.Y.Y.Y.Y.Y.Y.Y.Y.Y.Y.Y.Y.Y.Y.Y.Y.Y.Y.Y.Y.Y.Y.Y.Y.Y.Y.Y.Y.Y.Y.Y.Y.Y.Y.Y.Y.Y.Y.Y.Y.Y.Y.Y.Y.Y.Y.Y.Y.Y.Y.Y.Y.Y.Y.Y.Y.Y.Y.Y.Y.Y.Y.Y.Y.Y.Y.Y.Y.Y.Y.Y.Y.Y.Y.Y.Y.Y.Y.Y.Y.Y.Y.Y.Y.Y.Y.Y.Y.Y.Y.Y.Y.Y.Y.Y.Y.Y.Y.Y.Y.Y.Y.Y.Y.Y.Y.Y.Y.Y.Y.Y.Y.Y.Y.Y.Y.Y.Y.Y.Y.Y.Y.Y.Y.Y.Y.Y.Y.Y.Y.Y.Y.Y.Y.Y.Y.Y.Y.Y.Y.Y.Y.Y.Y.Y.Y.Y.Y.Y.Y.Y.Y.Y.Y.Y.Y.Y.Y.Y.Y.Y.Y.Y.Y.Y.Y.Y.Y.Y.Y.Y.Y.Y.Y.Y.Y.Y.Y.Y.Y.Y.Y.Y.Y.Y.Y.Y.Y.Y.Y.Y.Y.Y.Y.Y.Y.Y.Y.Y.Y.Y.Y.Y.Y.Y.Y.Y.Y.Y.Y.Y.Y.Y.Y.Y.Y.Y.Y.Y.Y.Y.Y.Y.Y.Y.Y.Y.Y.Y.Y.Y.Y.Y.Y.Y.Y.Y.Y.Y.Y.Y.Y.Y.E.&X&X&X&X&X&X&X",
"-X&X@X#X[.[.[.{.,.,.,.*.*.&.L.L.I.I.I.I.I.I.I.I.I.I.I.I.I.I.I.I.I.I.I.I.I.I.I.I.I.I.I.I.I.I.I.I.I.I.I.I.I.I.I.I.I.I.I.I.I.I.I.I.I.I.I.I.I.I.I.I.I.I.I.I.I.I.I.I.I.I.I.I.I.I.I.I.I.I.I.I.I.I.I.I.I.I.I.I.I.I.I.I.I.I.I.I.I.I.I.I.I.I.I.I.I.I.I.I.I.I.I.I.I.I.I.I.I.I.I.I.I.I.I.I.I.I.I.I.I.I.I.I.I.I.I.I.I.I.I.I.I.I.I.I.I.I.I.I.I.I.I.I.I.I.I.I.I.I.I.I.I.I.I.I.I.I.I.I.I.I.I.I.I.I.I.I.I.I.I.I.I.I.I.I.I.I.I.I.I.I.I.I.I.I.I.I.I.I.I.I.I.I.I.I.I.I.I.I.I.I.I.I.I.I.I.I.I.I.I.I.I.I.I.I.I.I.I.I.I.I.I.I.I.I.I.I.I.I.I.I.I.I.I.I.I.I.I.I.I.I.I.I.I.I.I.I.I.I.I.I.I.I.I.I.I.I.I.I.I.I.I.I.I.I.I.I.I.I.I.I.I.I.I.I.I.I.I.I.I.I.I.I.I.I.I.I.I.I.I.I.I.I.I.I.I.I.I.I.I.I.I.I.I.I.I.I.I.I.I.I.I.I.I.I.I.I.I.I.I.I.I.I.I.I.I.I.I.I.I.I.I.I.I.I.I.I.I.I.I.I.I.I.I.I.I.I.I.I.I.I.I.I.I.I.I.I.I.I.I.I.I.I.I.I.I.I.I.I.I.I.I.I.I.I.I.I.I.I.I.I.I.I.I.I.I.I.I.I.I.I.I.I.I.T.&X&X&X&X&X&X&X",
"@X@X#X#X[.[.{.{.<.<.<.<.*.O.O.L.I.I.I.I.I.I.I.I.I.I.I.I.I.I.I.I.I.I.I.I.I.I.I.I.I.I.I.I.I.I.I.I.I.I.I.I.I.I.I.I.I.I.I.I.I.I.I.I.I.I.I.I.I.I.I.I.I.I.I.I.I.I.I.I.I.I.I.I.I.I.I.I.I.I.I.I.I.I.I.I.I.I.I.I.I.I.I.I.I.I.I.I.I.I.I.I.I.I.I.I.I.I.I.I.I.I.I.I.I.I.I.I.I.I.I.I.I.I.I.I.I.I.I.I.I.I.I.I.I.I.I.I.I.I.I.I.I.I.I.I.I.I.I.I.I.I.I.I.I.I.I.I.I.I.I.I.I.I.I.I.I.I.I.I.I.I.I.I.I.I.I.I.I.I.I.I.I.I.I.I.I.I.I.I.I.I.I.I.I.I.I.I.I.I.I.I.I.I.I.I.I.I.I.I.I.I.I.I.I.I.I.I.I.I.I.I.I.I.I.I.I.I.I.I.I.I.I.I.I.I.I.I.I.I.I.I.I.I.I.I.I.I.I.I.I.I.I.I.I.I.I.I.I.I.I.I.I.I.I.I.I.I.I.I.I.I.I.I.I.I.I.I.I.I.I.I.I.I.I.I.I.I.I.I.I.I.I.I.I.I.I.I.I.I.I.I.I.I.I.I.I.I.I.I.I.I.I.I.I.I.I.I.I.I.I.I.I.I.I.I.I.I.I.I.I.I.I.I.I.I.I.I.I.I.I.I.I.I.I.I.I.I.I.I.I.I.I.I.I.I.I.I.I.I.I.I.I.I.I.I.I.I.I.I.I.I.I.I.I.I.I.I.I.I.I.I.I.I.I.I.I.I.I.I.I.I.I.I.I.I.I.I.I.I.I.I.I.I.I.T.&X&X&X&X}.&X#X",
"+X+X#X#X[.{.{.<.XX8.8.8.8.>.>.@.U.U.U.U.U.U.U.U.U.U.U.U.U.U.U.U.U.U.U.U.U.U.U.U.U.U.U.U.U.U.U.U.U.U.U.U.U.U.U.U.U.U.U.U.U.U.U.U.U.U.U.U.U.U.U.U.U.U.U.U.U.U.U.U.U.U.U.U.U.U.U.U.U.U.U.U.U.U.U.U.U.U.U.U.U.U.U.U.U.U.U.U.U.U.U.U.U.U.U.U.U.U.U.U.U.U.U.U.U.U.U.U.U.U.U.U.U.U.U.U.U.U.U.U.U.U.U.U.U.U.U.U.U.U.U.U.U.U.U.U.U.U.U.U.U.U.U.U.U.U.U.U.U.U.U.U.U.U.U.U.U.U.U.U.U.U.U.U.U.U.U.U.U.U.U.U.U.U.U.U.U.U.U.U.U.U.U.U.U.U.U.U.U.U.U.U.U.U.U.U.U.U.U.U.U.U.U.U.U.U.U.U.U.U.U.U.U.U.U.U.U.U.U.U.U.U.U.U.U.U.U.U.U.U.U.U.U.U.U.U.U.U.U.U.U.U.U.U.U.U.U.U.U.U.U.U.U.U.U.U.U.U.U.U.U.U.U.U.U.U.U.U.U.U.U.U.U.U.U.U.U.U.U.U.U.U.U.U.U.U.U.U.U.U.U.U.U.U.U.U.U.U.U.U.U.U.U.U.U.U.U.U.U.U.U.U.U.U.U.U.U.U.U.U.U.U.U.U.U.U.U.U.U.U.U.U.U.U.U.U.U.U.U.U.U.U.U.U.U.U.U.U.U.U.U.U.U.U.U.U.U.U.U.U.U.U.U.U.U.U.U.U.U.U.U.U.U.U.U.U.U.U.U.U.U.U.U.U.U.U.U.U.U.U.U.U.U.U.U.+X&X&X&X}.}.[.[.",
"=.+X#X[.[.{.%.%.0.0.7.7.7.7.7.7.8.>.>.>.>.>.>.>.>.>.>.>.>.>.>.>.>.>.>.>.>.>.>.>.>.>.>.>.>.>.>.>.>.>.>.>.>.>.>.>.>.>.>.>.>.>.>.>.>.>.>.>.>.>.>.>.>.>.>.>.>.>.>.>.>.>.>.>.>.>.>.>.>.>.>.>.>.>.8.8.>.>.>.>.>.>.>.>.>.>.>.>.>.>.>.>.>.>.>.>.>.>.>.>.>.>.>.>.>.>.>.>.>.>.>.>.>.>.>.>.>.>.>.>.>.>.8.8.>.>.>.>.>.>.>.>.>.>.>.>.>.>.>.>.>.>.>.>.>.>.>.>.>.>.>.>.>.>.>.>.>.>.>.>.>.>.>.>.>.>.>.>.>.>.>.>.>.>.>.>.>.>.>.>.>.>.>.>.>.>.>.>.>.>.>.>.>.>.>.>.>.>.>.>.>.>.>.>.>.>.>.>.>.>.>.>.>.>.>.>.>.8.>.>.>.>.>.>.>.>.>.>.>.>.>.>.>.>.>.>.>.>.>.>.>.>.>.>.>.>.>.>.>.>.>.>.>.>.>.>.>.>.>.>.>.>.>.>.>.>.>.>.>.>.>.>.>.>.>.>.>.>.>.>.>.>.>.>.>.>.>.>.>.>.8.>.>.>.>.>.>.>.>.>.>.>.>.>.>.>.>.>.>.>.>.>.>.>.8.>.>.>.>.>.>.>.>.>.>.>.>.>.>.>.>.>.>.>.>.>.>.>.>.>.>.>.>.>.>.>.>.>.>.>.>.>.>.>.>.>.>.>.>.>.>.>.>.>.>.>.>.>.>.>.>.>.>.>.>.>.>.>.>.>.>.>.>.>.>.>.>.>.>.>.>.>.>.>.>.,.#X&X}.}.[.[.].",
"=.+X#X*X{.%.` ` { } } 5.4.4.4.2.2.2.2.2.2.2.2.2.2.2.2.2.2.2.2.2.2.2.2.2.2.2.2.2.2.2.2.2.2.2.2.2.2.2.2.2.2.2.2.2.2.2.2.2.2.2.2.2.2.2.2.2.2.2.2.2.2.2.2.2.2.2.2.2.2.2.2.2.2.2.2.2.2.2.2.2.2.2.2.2.2.2.2.2.2.2.2.2.2.2.2.2.2.2.2.2.2.2.2.2.2.2.2.2.2.2.2.2.2.2.2.2.2.2.2.2.2.2.2.2.2.2.2.2.2.2.2.2.2.2.2.2.2.2.2.2.2.2.2.2.2.2.2.2.2.2.2.2.2.2.2.2.2.2.2.2.2.2.2.2.2.2.2.2.2.2.2.2.2.2.2.2.2.2.2.2.2.2.2.2.2.2.2.2.2.2.2.2.2.2.2.2.2.2.2.2.2.2.2.2.2.2.2.2.2.2.2.2.2.2.2.2.2.2.2.2.2.2.2.2.2.2.2.2.2.2.2.2.2.2.2.2.2.2.2.2.2.2.2.2.2.2.2.2.2.2.2.2.2.2.2.2.2.2.2.2.2.2.2.2.2.2.2.2.2.2.2.2.2.2.2.2.2.2.2.2.2.2.2.2.2.2.2.2.2.2.2.2.2.2.2.2.2.2.2.2.2.2.2.2.2.2.2.2.2.2.2.2.2.2.2.2.2.2.2.2.2.2.2.2.2.2.2.2.2.2.2.2.2.2.2.2.2.2.2.2.2.2.2.2.2.2.2.2.2.2.2.2.2.2.2.2.2.2.2.2.2.2.2.2.2.2.2.2.2.2.2.2.2.2.2.2.2.2.2.2.2.2.2.2.2.2.2.2.2.2.2.2.2.2.2.2.2.2.2.2.2.2.2.$.[.&X}.[.[.;.1.",
"[.#X#X*X<...K H ^ ^ ^ I I I I H H H H H H H H H H H H H H H H H H H H H H H H H H H H H H H H H H H H H H H H H H H H H H H H H H H H H H H H H H H H H H H H H H H H H H H H H H H H H H H H H H H H H H H H H H H H H H H H H H H H H H H H H H H H H H H H H H H H H H H H H H H H H H H H H H H H H H H H H H H H H H H H H H H H H H H H H H H H H H H H H H H H H H H H H H H H H H H H H H H H H H H H H H H H H H H H H H H H H H H H H H H H H H H H H H H H H H H H H H H H H H H H H H H H H H H H H H H H H H H H H H H H H H H H H H H H H H H H H H H H H H H H H H H H H H H H H H H H H H H H H H H H H H H H H H H H H H H H H H H H H H H H H H H H H H H H H H H H H H H H H H H H H H H H H H H H H H H H H H H H H H H H H H H H H H H H H H H H H H H H H H H H H H H H H H H H H H H H H H H H H H H H H H H H H H H H H H H H H H H H K [.&X#X[.;.1.1.",
"+X#X*X*X<.` H S ; : : : : : : ; ; ; ; ; ; ; ; ; ; ; ; ; ; ; ; ; ; ; ; ; ; ; ; ; ; ; ; ; ; ; ; ; ; ; ; ; ; ; ; ; ; ; ; ; ; ; ; ; ; ; ; ; ; ; ; ; ; ; ; ; ; ; ; ; ; ; ; ; ; ; ; ; ; ; ; ; ; ; ; ; ; ; ; ; ; ; ; ; ; ; ; ; ; ; ; ; ; ; ; ; ; ; ; ; ; ; ; ; ; ; ; ; ; ; ; ; ; ; ; ; ; ; ; ; ; ; ; ; ; ; ; ; ; ; ; ; ; ; ; ; ; ; ; ; ; ; ; ; ; ; ; ; ; ; ; ; ; ; ; ; ; ; ; ; ; ; ; ; ; ; ; ; ; ; ; ; ; ; ; ; ; ; ; ; ; ; ; ; ; ; ; ; ; ; ; ; ; ; ; ; ; ; ; ; ; ; ; ; ; ; ; ; ; ; ; ; ; ; ; ; ; ; ; ; ; ; ; ; ; ; ; ; ; ; ; ; ; ; ; ; ; ; ; ; ; ; ; ; ; ; ; ; ; ; ; ; ; ; ; ; ; ; ; ; ; ; ; ; ; ; ; ; ; ; ; ; ; ; ; ; ; ; ; ; ; ; ; ; ; ; ; ; ; ; ; ; ; ; ; ; ; ; ; ; ; ; ; ; ; ; ; ; ; ; ; ; ; ; ; ; ; ; ; ; ; ; ; ; ; ; ; ; ; ; ; ; ; ; ; ; ; ; ; ; ; ; ; ; ; ; ; ; ; ; ; ; ; ; ; ; ; ; ; ; ; ; ; ; ; ; ; ; ; ; ; ; ; ; ; ; ; ; ; ; ; ; ; ; ; ; ; ; ; ; ; ; ; ; ; S [.&X[.[.;.1.1.",
"=.=.-.{.XXq.H , t t h h h h h h t : : : : : : : : : : : : : : : : : : : : : : : : : : : : : : : : : : : : : : : : : : : : : : : : : : : : : : : - - : V t - - t t t t t t t t t t t t t t t t t t t t t t t t t t t t t t t t t t t t t t t t t t t t t t t t t t t t t t t t t t t t t t t t t t t t t t t t t t t t t t t t t t t t t t t t t t t t t t t t t u - - : t t t u - : : : : : - - u t : - - : : t : : - - % - , - u u t t t t t t t t t t t t t t t t t t t t t t t t t t t t t t t t t t t t t t u u u u t : : : % - - : : : - - : : t t t : - - t t u t t : - % V t : : t u : - : : : : : : : : : : : : : : t : : : : : : : : : : : : : : : : : : : : : : : : : : : : : : : : : : : : : : : : : : : : : : : t : : : : : : : : : : : : : : : : : : : : : : : : : : : : : : : : : : : : : : : : : : : : : : : : : : : : : : : : : : : : : : : : > {.[.[.[.#X;.| ",
"T.=.-.{.XXq.H ; : h h 3 3 3 3 2 2 2 2 2 2 2 2 2 2 2 2 2 2 2 2 2 2 2 2 2 2 2 2 2 2 2 2 2 2 2 2 2 2 2 2 2 2 2 2 2 2 2 2 2 2 2 2 2 2 2 2 2 2 2 2 2 O % < u d d Y y.2 2 2 2 2 2 < < < < 2 < 2 2 < < 2 2 2 2 2 2 2 2 2 2 2 2 2 2 2 2 2 2 2 < < < 2 2 2 2 2 2 2 2 2 2 2 2 2 2 2 2 < < < < 2 < 2 2 < < 2 2 2 2 2 2 2 2 2 2 2 2 2 2 2 2 2 2 2 < < < 2 2 2 2 2 2 2 2 2 2 y.Y Y Y Y e - % - 2 h h h 2 - - d a e h h e u a Y B d a a a B B 2 2 - - - - - - - - - - - - < - - - - - - - - - - < < - - - - - - - - - < < < - 2 2 2 2 - - - - a d B Y Y B d d h h e e e h 2 - a a d d d d a a d e 2 2 e u h - 2 2 2 2 2 2 2 2 2 2 2 2 2 2 2 2 2 2 2 2 2 2 2 2 2 2 2 2 2 2 2 2 2 2 2 2 2 2 2 2 2 2 2 2 2 2 2 2 2 2 2 2 2 2 2 2 2 2 2 2 2 2 2 2 2 2 2 2 2 2 2 2 2 2 2 2 2 2 2 2 2 2 2 2 2 2 2 2 2 2 2 2 2 2 2 2 2 2 2 2 2 2 2 2 2 2 2 2 2 2 2 2 2 2 2 2 2 2 2 2 2 2 2 2 2 2 2 ; ,.[.=.[.+X-.| ",
"E.I.&.Q.8.6.^ > : h h 6 3 3 3 3 3 3 3 3 3 3 3 3 3 3 3 3 3 3 3 3 3 3 3 3 3 3 3 3 3 3 3 3 3 3 3 3 3 h 3 3 3 3 3 3 3 3 3 3 3 3 3 3 3 3 3 3 3 3 3 3 q q 2 % o o O O N N N N Y Y Y Y N Y N N Y Y Y Y N N N N N N Y Y N N N N N N N N Y Y Y Y N N N N N N N N N N Y Y N N N N Y Y Y Y N Y N N Y Y Y Y N N N N N N Y Y N N N N N N N N Y Y Y Y N N N N N N N N N N Y N + O 4 q i i 3 4 < 2 3 q q q 3 4 4 < = = = < 4 3 < = o O O % = < f f f f f f f f N N N N N N N N N N N N N N f N N N N N N N f N N N N N N N N N N N N f d g g i o = < < < - % o % = - - = o X + - < < 4 4 3 3 3 N i 4 4 q i 3 4 3 2 2 2 2 2 3 3 2 2 2 2 2 2 2 2 2 2 3 3 2 2 2 2 2 2 3 2 2 2 2 2 2 2 2 2 2 2 3 3 2 2 2 2 2 2 3 3 3 2 2 2 2 2 3 3 2 2 2 2 2 2 2 2 3 3 3 3 3 3 3 3 3 3 3 3 3 3 3 3 3 3 3 3 3 3 3 3 3 3 3 3 3 3 3 3 3 h 3 3 3 3 3 3 3 3 3 3 3 3 3 3 3 3 3 3 3 3 3 3 3 3 3 3 3 3 3 ; ,.=.&.=.+X-.| ",
"E.I.I.Q.8.6.Q I V B s s p p p p p p p p p p p p g g g g p p p p p p p p p p p p p p p p p p p p g g p p p p p p p p p p p p g g p p p p p p p p l l i < 4 f w.i < < < < < < < < < < < < < < < < < < < < < < < < < < < < < < < < < < < < < < < < < < < < < < < < < < < < < < < < < < < < < < < < < < < < < < < < < < < < < < < < < < < < < < < < < < < < < < < < i w.l 3 < 3 i 3 < 4 3 i i i 6 3 f f i i i f l w.f p i i i g f F X O O O O O o o # o o o o # o o o o o o o o o # o # o o o o o # o # o o o o o o # o o O O X X X f f w.w.F f g i f F w.F f i 6 3 f g i q 3 3 3 3 w.i 4 < 3 3 3 < i i i i i i i i i i i i i i i i i i i i i i i i i i i i i i i i i i i i i i i i i i i i i i i i i i i i i i i i i i i i i i i i p p p p p p p p g g g i p p p p p p p p p p p p p p p p p p p p g g p p p p p p p p p p p p g g p p p p p p p p g g i i p p p I <.=.&.=.-.;.| ",
"!.Y.I.U.Q.7._ I E y.r.r.e.e.r.r.r.r.r.r.r.r.r.r.r.r.r.r.r.r.r.r.r.r.r.r.r.r.r.r.r.r.r.r.r.r.r.r.r.r.r.r.r.r.r.r.r.r.r.r.r.r.r.r.r.r.r.r.r.r.r.r.6 f f w.F.hXVXNXFXFXFXFXFXFXFXFXFXFXFXFXFXFXFXFXFXFXFXFXFXFXFXFXFXFXFXFXFXFXFXFXFXFXFXFXFXFXFXFXFXFXFXFXFXFXFXFXFXFXFXFXFXFXFXFXFXFXFXFXFXFXFXFXFXFXFXFXFXFXFXFXFXFXFXFXFXFXFXFXFXFXFXFXFXFXFXFXFXFXFXFXFXFXFXFXZXZXaXl.o o < o < 4 3 i i i i 9 G.H.H.H.G.).6X5XpXtXqXqXpXdXsXfXBXBXVXZXCXSXSXSXDXDXDXDXDXDXDXSXDXDXDXDXSXSXSXDXDXDXDXDXSXSXDXDXDXDXDXDXSXSXSXSXSXSXCXCXZXZXBXBXsXfXfXfXfXaXpXlX0X0X0X0X5X4XIXH.4XG.J.C.x.l.s.s.u.f 4 $ < 3 4 < n n n n n n n n n n n n n n n n n n n n n n n n n n n n n n n n n n n n n n n n n n n n n n n n n n n n n n n n n n n n n n n n r.r.r.r.r.r.r.r.r.r.r.r.r.r.r.r.r.r.r.r.r.r.r.r.r.r.r.r.r.r.r.r.r.r.r.r.r.r.r.r.r.r.r.r.r.r.r.r.r.r.r.r.r.r.r.r.r.r.r.r.r.r.r.R <.=.&.=.-.$.| ",
"!.Y.L.I.Q.7.4.R k.h.l.l.l.s.s.s.s.l.l.l.l.s.s.l.l.l.l.l.s.s.l.l.l.l.l.l.l.s.l.l.l.l.l.l.l.s.l.l.l.l.l.l.l.l.l.l.l.l.s.l.l.l.l.l.l.l.l.l.s.l.l.l.f s.r.r.).CXJXKXnXnXnXnXnXnXnXnXnXnXnXnXnXnXnXnXnXnXnXnXnXnXnXnXnXnXnXnXnXnXnXnXnXnXnXnXnXnXnXnXnXnXnXnXnXnXnXnXnXnXnXnXnXnXnXnXnXnXnXnXnXnXnXnXnXnXnXnXnXnXnXnXnXnXnXnXnXnXnXnXnXnXnXnXnXnXnXnXnXnXnXnXnXnXnXnXJXJXzXs.  X 4 < $ < 3 i g g g g eXeXeXeX0XqXtXpXjXjXjXjXhXbXnXNXfXfXgXjXhXzXzXbXbXbXbXbXbXbXbXzXbXbXzXbXbXbXbXbXbXbXbXbXbXbXzXzXbXbXbXbXzXzXzXzXzXPXhXhXjXjXgXgXNXNXNXNXnXbXhXjXgXgXgXfXsXtXqX0XtX0X).Z.b.z.l.s.s.l 4 o $ 4 4 4 r.r.r.r.r.r.r.r.r.r.r.r.r.r.r.r.r.r.r.r.r.r.r.r.r.r.r.r.r.r.r.r.r.r.r.r.r.r.r.r.r.r.r.r.r.r.r.r.r.r.r.r.r.r.r.r.r.r.r.r.r.r.r.r.l.l.l.l.l.l.s.l.l.l.l.l.s.s.s.s.l.l.l.l.l.s.l.l.l.l.l.l.l.s.l.l.l.l.l.l.l.l.l.l.l.l.s.l.l.l.l.l.l.l.l.l.l.l.s.l.l.l.l.l.l.l.l.~ @.=.&.-.,.$.K ",
"!.!.P.L.Q.^.6.( k.k.l.l.l.s.s.s.l.l.s.s.l.s.l.l.l.l.l.l.s.s.s.s.l.l.l.l.l.s.l.s.l.l.l.l.l.s.l.s.l.l.l.l.l.l.s.s.s.s.l.l.l.l.l.l.l.l.s.s.s.l.l.l.s.K.r.9 C.PXVXjXDXDXDXDXDXDXDXDXDXDXDXDXDXDXDXDXDXDXDXDXDXDXDXDXDXDXDXDXDXDXDXDXDXDXDXDXDXDXDXDXDXDXDXDXDXDXDXDXDXDXDXDXDXDXDXDXDXDXDXDXDXDXDXDXDXDXDXDXDXDXDXDXDXDXDXDXDXDXDXDXDXDXDXDXDXDXDXDXDXDXDXDXDXDXDXDXbXVXaXg . O i 3 $ < 3 i g g g g ).(.(.).3X4X0XwXqXqXwXqXtXaXfXgXzXbXnXnXNXZXVXCXVXVXVXVXVXVXVXVXVXVXVXVXVXVXVXCXVXVXVXVXVXVXVXVXVXVXVXVXCXVXCXCXBXBXNXNXNXnXnXnXgXjXjXgXfXaXtXqXaXaXpXtXqXeX4X).5X).Z.x.r.r.r.r.l.n 4 O O $ 4 4 r.r.r.r.r.r.r.r.r.r.r.r.r.r.r.r.r.r.r.r.r.r.r.r.r.r.r.r.r.r.r.r.r.r.r.r.r.r.r.r.r.r.r.r.r.r.r.r.r.r.r.r.r.r.r.r.r.r.r.r.r.r.r.r.l.l.s.s.s.s.l.l.l.l.l.l.l.s.l.l.l.l.l.l.l.s.l.s.l.l.l.l.l.s.l.s.l.l.l.l.l.l.s.s.s.s.l.l.l.l.l.l.l.l.s.s.s.s.l.l.l.l.l.l.l.l.l.~ @.&.o.&.,.$.K ",
"!.!.L.L.Q.^.6.( ~ h.h.s.s.s.s.s.s.s.s.s.s.s.s.s.s.s.s.s.s.s.s.s.s.s.s.s.s.s.s.s.s.s.s.s.s.s.s.s.s.s.s.s.s.s.s.s.s.s.s.s.s.s.s.s.s.s.s.s.s.s.s.s.w.c.w.3 A.BXHXNXCXCXCXCXCXCXCXCXCXCXCXCXCXCXCXCXCXCXCXCXCXCXCXCXCXCXCXCXCXCXCXCXCXCXCXCXCXCXCXCXCXCXCXCXCXCXCXCXCXCXCXCXCXCXCXCXCXCXCXCXCXCXCXCXCXCXCXCXCXCXCXCXCXCXCXCXCXCXCXCXCXCXCXCXCXCXCXCXCXCXCXCXCXCXCXCXVXHXnXl.  O 4 X $ < 3 i g b b f 3X3X3X4X5X0XqXtXfXfXfXfXjXPXMXnXgXjXhXzXbXnXNXNXNXNXNXNXNXNXNXNXNXNXNXNXNXNXNXNXNXNXNXNXNXNXNXNXNXNXNXNXNXNXNXNXnXnXMXbXzXzXPXhXnXNXNXnXMXPXjXfXaXaXaXtXqXeX4X).eX3XJ.K.x.l.x.K.c.w.4 O O $ 4 4 w.w.w.w.w.w.w.w.w.w.w.w.w.w.w.w.w.w.w.w.w.w.w.w.w.w.w.w.w.w.w.w.w.w.w.w.w.w.w.w.w.w.w.w.w.w.w.w.w.w.w.w.w.w.w.w.w.w.w.w.w.w.w.w.s.s.s.s.s.s.s.s.s.s.s.s.s.s.s.s.s.s.s.s.s.s.s.s.s.s.s.s.s.s.s.s.s.s.s.s.s.s.s.s.s.s.s.s.s.s.s.s.s.s.s.s.s.s.s.s.s.s.s.s.s.s.s.~ *.=.&.&.,.:.K ",
"I.I.I.o.#.3.5.5.k.h.h.l.s.s.s.s.s.s.s.s.s.s.s.s.s.s.s.s.s.s.s.s.s.s.s.s.s.s.s.s.s.s.s.s.s.s.s.s.s.s.s.s.s.s.s.s.s.s.s.s.s.s.s.s.l.l.l.c.l.s.r.w.u.u.w.r.f HXhXDXDXDXDXSXCXZXVXVXVXVXVXVXVXVXVXVXSXDXDXDXDXCXVXBXFXDXCXZXZXCXSXSXVXVXVXVXVXVXVXVXVXVXVXVXVXVXVXVXVXVXVXVXVXVXVXVXVXVXVXVXVXVXVXVXCXCXCXSXSXSXDXSXBXZXCXDXDXDXDXSXVXVXVXVXVXVXVXVXDXBXBXDXDXmXmXSXSXGXhXl.X o 4 o < 4 3 i f f f f 0XwX0X5X4X5XpXgXpXdXsXgXjXhXbXMXjXjXbXMXNXBXBXBXnXmXBXBXBXmXMXMXBXBXBXBXBXBXBXBXmXmXmXmXmXmXmXmXBXBXBXBXBXBXBXBXbXbXbXbXbXbXbXbXbXbXbXbXhXjXfXsXsXdXsXjXsX5X5XpX0X4XF.C.x.l.l.l.l.n 3 < < < < o w.u.s.r.f f f w.u.r.w.w.w.r.u.s.r.r.r.r.r.r.r.r.r.r.r.r.r.r.r.r.r.r.r.r.r.r.r.r.r.r.r.r.r.r.r.r.w.w.r.r.r.r.u.u.w.w.n f f f g i u.l.c.x.x.x.c.l.s.s.s.s.l.l.l.l.s.s.s.s.l.l.l.l.s.s.s.s.l.l.l.l.s.s.s.s.s.s.s.s.l.l.l.l.s.s.s.s.s.s.s.s.s.s.l.l.l.l.l.s.s.s.s.~ Q.T.=.=.,.$.K ",
"I.I.L.O.#.3.5.5.k.h.h.l.s.s.s.s.s.l.l.l.l.l.l.l.l.l.l.l.l.l.l.l.l.l.l.l.l.l.l.l.l.l.l.l.l.l.l.l.l.l.l.l.l.l.l.l.l.l.l.l.l.l.l.l.l.l.c.c.c.f.r.w.u.u.w.r.f HXhXFXDXDXDXCXCXZXZXZXZXZXZXZXBXBXBXBXZXCXSXDXCXZXBXBXDXCXZXBXBXBXZXCXBXBXZXZXZXZXZXBXBXBXZXBXBXBXZXZXZXZXZXZXBXBXBXBXZXZXZXZXBXBXBXBXZXZXZXZXZXZXZXZXNXBXZXCXDXCXCXZXBXBXZXBXBXBXZXZXFXBXBXCXZXMXbXBXmXCXgXr.X O 3 o < 3 3 i f f f f 0X0X0X5X4X5XdXjXsXsXgXgXjXhXhXbXzXbXMXmXmXAXmXmXmXmXBXBXBXBXmXMXBXBXBXBXBXBXBXBXmXmXmXmXmXmXmXmXBXBXBXBXBXBXBXBXbXbXbXbXbXbXbXbXjXjXjXjXjXgXsXsXsXdXsXjXdX3X3X0X4X3XF.C.c.u.u.u.l.w.3 < < < < o w.w.u.r.f f w.u.r.w.w.w.w.w.u.l.r.r.r.r.r.r.r.r.r.r.r.r.r.r.r.r.r.r.r.r.r.r.r.r.r.r.r.r.r.r.r.r.r.w.r.r.r.r.r.r.u.u.u.r.w.w.w.w.l.c.x.x.x.x.c.c.l.l.f.l.l.l.l.l.l.s.s.u.l.l.l.l.l.s.s.u.l.l.l.l.l.l.l.l.l.l.l.l.l.l.l.l.l.l.s.s.l.l.s.s.s.s.l.l.l.l.l.l.l.l.s.! R.E.T.=.,.$.K ",
"I.I.I.O.#.3.5.5.k.h.h.l.s.s.s.s.s.l.l.l.l.l.l.l.l.l.l.l.l.l.l.l.l.l.l.l.l.l.l.l.l.l.l.l.l.l.l.l.l.l.l.l.l.l.l.l.l.l.l.l.l.l.l.l.l.l.c.c.c.l.r.w.u.u.w.r.f HXbXFXDXDXDXCXZXZXBXBXBXBXBXBXBXBXBXBXBXBXVXZXBXBXmXMXBXBXmXmXmXmXBXBXBXBXBXBXBXBXBXBXBXBXBXBXBXBXBXBXBXBXBXBXBXBXBXBXBXBXBXBXBXBXBXBXBXBXBXBXBXBXBXBXMXmXBXBXZXZXBXBXBXBXBXBXBXBXBXBXDXBXmXZXBXjXsXjXjXMXqXw.. O 3 o < 3 3 i f f f f 0X0X0X5X4X0XdXjXjXjXjXjXjXjXjXjXhXhXjXjXjXjXgXgXjXjXhXbXbXbXhXjXjXjXjXjXjXjXjXjXjXjXjXjXjXjXjXjXjXjXjXjXjXjXjXjXsXfXfXgXfXfXgXgXpXpXdXsXsXsXsXsXgXdXsXgXqXF.Z.G.G.F.C.c.r.w.w.w.u.f 3 < < < < o f w.w.w.f w.u.x.x.c.c.c.c.x.C.C.x.x.x.x.K.K.K.x.x.b.x.x.x.K.K.K.K.x.K.K.b.x.x.x.x.x.K.K.x.K.x.x.x.x.x.x.x.x.x.x.C.K.x.x.x.c.c.c.c.x.x.x.x.x.c.l.u.u.u.u.s.s.s.s.s.u.u.u.s.s.s.s.s.s.u.u.s.u.s.s.u.u.u.u.u.u.u.u.s.s.s.s.u.u.u.u.s.s.s.u.u.u.s.s.s.s.s.f.u.u.u.~ R.E.T.=.,.$.K ",
"I.I.L.O.#.3.5.5.k.h.l.f.s.s.s.s.s.l.l.l.l.l.l.l.l.l.l.l.l.l.l.l.l.l.l.l.l.l.l.l.l.l.l.l.l.l.l.l.l.l.l.l.l.l.l.l.l.l.l.l.l.l.l.l.l.l.c.c.c.l.r.w.u.s.w.r.f HXcXFXCXCXCXZXZXBXBXBXBXBXBXBXBXBXBXBXmXNXBXBXBXmXMXbXMXMXMXMXMXMXmXBXBXBXBXBXBXBXBXBXBXBXBXBXBXBXBXBXBXBXBXBXBXBXBXBXBXBXBXBXBXBXBXBXmXnXMXMXMXMXMXMXbXMXmXBXBXBXBXmXBXBXBXBXBXBXBXBXDXmXMXBXMXdX0XqX0XsX5Xi . O 3 o < 3 3 i f f f f 0X0X0X4X4X0XsXhXzXhXhXjXjXjXjXgXsXsXpXqX0X5X5X5X0XqXpXdXdXdXpXqX0X0X8X5X5X8X0X0X0X0X0X0X0X0X0X0XeX0X0X0X0X0X0X0X5X5X5X5X5X5X5X5X0X0X0X0XqXpXdXsXfXdXsXgX0XZ.x.C.Z.C.x.r.w.f f w.w.i < o < < < o i f n b f w.c.C.F.F.F.F.F.H.3X4X3X3X3X3X3X3X3X3X3X3X3X3X3X3X3X3X3X3X3X3X3X3X3X3X3X3X3X3X3X3X3X3X3X3XIXG.G.H.H.H.F.F.Z.Z.Z.Z.C.C.x.x.C.C.b.x.c.l.u.u.u.u.u.u.u.u.u.u.u.u.u.u.u.u.u.u.u.u.u.u.u.u.u.u.u.u.u.u.u.u.u.u.u.u.u.u.r.r.u.u.u.u.u.u.u.u.u.u.u.u.u.u.r.! R.E.T.=.,.$.K ",
"I.I.&.O.#.3.5.5.k.h.l.f.s.s.s.s.s.l.l.l.l.l.l.l.l.l.l.l.l.l.l.l.l.l.l.l.l.l.l.l.l.l.l.l.l.l.l.l.l.l.l.l.l.l.l.l.l.l.l.l.l.l.l.l.l.l.c.c.c.l.r.w.u.u.w.r.f HXbXFXCXCXZXZXBXBXBXBXBXBXBXBXBXBXBXBXMXmXmXBXmXMXMXbXbXhXhXhXbXMXMXmXBXBXBXBXBXBXBXBXBXBXBXBXBXBXBXBXBXBXBXBXBXBXBXBXBXBXBXBXBXBXBXBXMXMXMXMXbXhXhXhXbXMXMXmXBXmXmXMXBXBXBXBXBXBXBXBXCXMXMXBXbXqX4X5X3XqX3Xi . O 3 o < 3 3 i f f f f 5X5X5X4X4X0XsXhXMXMXbXhXjXjXgXgXsXdXqX5X4X3XG.3X4X5X0XqXqXqXqXqX3X3X3X3X3X3X3X3X4X4X4X4X4X4X4X6X3X3X3X3X3X3X3X3X3X3X3X3X3X3X3X3X4X4X4X4X5XqXpXdXsXdXsXgX0XC.u.c.C.x.u.w.f i f f w.i < O < < < < i f f f f w.x.Z.H.H.H.H.IX6X5X0X8X8XeXeX0X0X0XeX8X8X8X8X0X0X0X0X8X0X0X0X8X8X8XeX8X0X0X0X0X0X0XeX0X5X5X4X4X4X3X3XH.H.H.F.F.F.F.Z.C.C.C.C.C.x.c.l.r.r.r.r.r.r.r.r.r.r.r.r.r.r.r.r.r.r.r.r.r.r.r.r.r.r.r.r.r.r.r.r.r.r.r.r.r.r.r.r.r.r.r.r.r.r.r.r.r.r.r.r.r.r.r.R R.E.T.=.,.$.K ",
"I.I.I.O.#.3.5.5.k.h.l.f.s.s.s.s.s.l.l.l.l.l.l.l.l.l.l.l.l.l.l.l.l.l.l.l.l.l.l.l.l.l.l.l.l.l.l.l.l.l.l.l.l.l.l.l.l.l.l.l.l.l.l.l.l.l.c.c.c.l.r.w.u.u.w.r.f HXhXFXZXZXZXBXBXBXBXmXAXAXmXmXAXAXmXNXmXmXBXBXBXMXMXbXhXhXhXhXbXMXmXBXmXmXAXmXmXmXmXAXmXmXmXmXmXNXAXAXAXAXmXmXmXmXmXmXAXAXmXmXmXmXmXmXmXmXMXMXbXhXjXjXbXMXMXBXBXBXmXmXmXmXmXmXmXmXmXmXBXMXMXBXbXqX3X4XF.0XG.i . O 3 O < 3 3 i f f f f 4X5X5X4X4X0XsXbXMXMXbXhXhXjXjXjXhXjXdX0X5X4X5X5X0XqXqXdXsXsXsXsX5X5X5X5X5X5X5X5X0X0X0X0X0X0X8XeX5X5X5X5X5X5X5X5X5X5X5X5X5X5X5X5X4X4X3X3X4X0XqXdXsXdXsXgX0XC.r.l.x.c.r.f i i f f f 3 o O o < < < f f f i i w.x.Z.Z.Z.Z.Z.F.G.4X4X6X6X6X6X4X4X6X6X6X6X6X6X4X4X4X4X6X4X4X4X6X6X6X6X6X6X4X4X4X4X4X4X4X4X4X3XG.H.F.F.H.H.H.F.F.F.F.F.C.C.Z.C.C.x.c.l.r.r.r.r.r.r.r.r.r.r.i.i.r.r.r.r.r.r.i.i.r.r.r.r.r.r.r.r.r.r.r.r.r.r.r.r.r.r.r.r.r.r.r.r.i.i.r.i.r.r.r.r.r.r.r.R R.E.T.=.,.$.K ",
"I.I.I.O.#.3.5.M.k.h.l.l.s.s.s.s.s.l.l.l.l.l.l.l.l.l.l.l.l.l.l.l.l.l.l.l.l.l.l.l.l.l.l.l.l.l.l.l.l.l.l.l.l.l.l.l.l.l.l.l.l.l.l.l.l.l.c.c.c.l.r.w.u.s.w.r.f HXhXFXZXZXBXBXBXBXmXmXmXmXmXmXmXmXmXmXBXBXBXBXBXmXMXMXhXhXhXhXbXMXBXBXmXmXmXmXmXmXmXmXmXmXmXmXmXmXmXmXmXmXmXmXmXmXmXmXmXmXmXmXmXmXmXmXBXBXmXMXbXhXjXjXMXMXmXBXBXBXBXBXmXmXmXmXmXmXmXmXBXMXMXBXMXqX3X4XF.0X3Xi . o 3 O < 3 3 i f f f f 6X5X5X4X4X0XfXMXbXbXbXbXhXhXhXhXbXjXsXqX0X5X0XqX0XqXpXsXsXfXsXsX0X0X0X0X0X0X0X0X0X0X0X0X0X0X0X0X0X0X0X0X0X0X0X0X8X8X0X8X0X0X0X0X5X4X3XG.3X4XqXpXsXdXsXjXqXC.u.l.x.c.r.f f f f f i 3 O X o < < < w.w.f i i f c.Z.C.C.C.Z.F.H.3X4X4X4X4X4X4X4X4X4X4X4X4X4X4X4X4X4X4X4X6X4X4X4X4X4X4X4X6X4X4X4X6X6X4X4X3XG.H.F.F.Z.F.F.F.F.F.Z.Z.Z.Z.Z.Z.Z.C.x.c.u.w.w.w.w.w.w.w.w.w.w.w.w.w.w.w.w.w.w.w.w.w.w.w.w.w.w.w.w.w.w.w.w.w.w.w.w.w.w.w.w.w.w.w.w.w.w.w.w.w.w.w.w.w.w.w.R R.E.T.=.,.$.K ",
"I.I.I.O.#.3.5.5.k.h.l.l.s.s.s.s.s.l.l.l.l.l.l.l.l.l.l.l.l.l.l.l.l.l.l.l.l.l.l.l.l.l.l.l.l.l.l.l.l.l.l.l.l.l.l.l.l.l.l.l.l.l.l.l.l.c.c.c.c.l.r.w.u.s.w.r.f HXhXFXZXBXBXBXBXmXmXmXmXmXmXmXmXmXmXmXBXBXZXZXBXBXmXMXhXhXhXhXMXmXBXZXmXmXmXmXmXmXmXmXmXmXmXmXmXmXmXmXmXmXmXmXmXmXmXmXmXmXmXmXmXmXmXmXBXBXmXMXMXhXhXjXMXmXBXBXZXZXBXBXmXmXmXmXmXmXmXmXmXbXMXZXMXpX4X4XF.0X3Xi   o 3 O < 3 3 i f f f f 4X4X5X4X4XwXgXMXbXbXbXbXbXbXbXbXjXsXqX5X4X4X5X0X4XeXqXqXdXdXdXdX4X5X5X5X5X5X5X5X4X4X4X4X4X4X4X4X4X4X5X4X5X5X5X5X4X4X4X4X4X4X4X4X0X5X3XG.G.4X0XqXdXpXgXjXqXZ.l.c.x.c.r.f f f f w.i < X X o < < < w.w.f i i f c.Z.Z.Z.Z.F.H.3X5X0X0X0X0X0X0X0X0X0X0X0X0X0X0X0X0X0X0X0X0X0X0X0X0X0X0X0X0X0X0X0X0X0X0X0X5X4X3XG.H.H.F.F.F.Z.Z.Z.Z.Z.Z.Z.Z.Z.C.x.c.l.w.w.w.w.w.w.w.w.w.w.w.w.w.w.w.w.w.w.w.w.w.w.w.w.w.w.w.w.w.w.w.w.w.w.w.w.w.w.w.w.w.w.w.w.w.w.w.w.w.w.w.w.w.w.w.R R.E.T.=.,.$.K ",
"I.Y.Y.O.| / 5.M.M.x.x.x.x.x.x.x.x.x.x.x.x.x.x.x.x.x.x.x.x.x.x.x.l.l.l.l.l.l.l.l.l.l.l.l.l.l.l.l.l.l.l.l.l.l.l.l.F.x.w.w.l.x.l.w.l.l.c.c.c.f.r.w.u.l.w.r.f HXbXFXCXZXBXBXmXmXBXBXBXBXmXMXMXMXMXmXmXMXMXbXbXbXMXMXMXMXMXMXMXMXbXhXMXMXmXBXBXNXmXMXZXBXmXMXMXMXMXmXhXMXMXMXhXbXmXZXmXmXBXBXBXmXMXbXbXbXbXbXbXbXbXbXbXbXbXbXbXbXbXbXmXMXmXZXSXZXMXgXmXhXhXMXhXqX5X0X3X4XF.w.o o o X < 3 i i f f f f 0X0X0X5X4X0XsXbXbXjXjXmXMXsXpXsXjXsXdXqX5X6X4X3X5XqXdXsXdXpXsXgX4X3X3X3X3X4X5X0X5X0X0X0X0X0X5X4X4X5X0X0X0X0X0X5XdXqX5X4X5X0X5X4XIX3X5X0X0XqXwX0XpXqXpXsXeXC.l.x.x.c.u.w.f f f f f i < < < 3 < O i f f i 3 f C.4XF.F.C.c.C.4X0X4X5X5X5X5X5X5X5X5X5X5X5X5X5X5X5X5X0X0X0X0X0X0X0X0X5X5X5X5X5X5X5X5X5X4X4X3X3X3X4X4XG.F.F.Z.Z.Z.Z.F.Z.C.x.C.C.C.c.i.u.u.u.u.u.u.u.u.u.u.u.u.u.u.u.u.u.u.u.u.u.u.u.u.u.u.u.u.u.u.u.u.u.u.u.u.u.u.u.u.u.u.u.u.u.u.u.u.u.u.u.u.u.u.u.! R.@X@X+X,...` ",
"L.I.Y.*.#.6.B.;X,X6X6X4X4X4X4X4X4X4X4X4X4X4X4X4X6X6X4X6X4X4X4X4X4X4X4X4X4X4X4X4X4X4X4X4X4X4X4X4X5X5X5X5X5X5X5X5XF.c.i < 3 i 3 o l.l.c.c.c.f.r.w.u.l.w.r.f HXbXFXCXZXBXBXmXmXBXBXNXMXMXbXhXPXbXMXbXhXjXjXjXhXbXMXbXMXMXMXMXhXjXjXjXhXMXMXmXmXmXMXAXmXMXbXhXhXbXMXjXhXbXhXjXjXMXBXMXMXmXmXmXMXbXhXhXhXhXhXhXhXhXhXjXjXjXjXjXjXjXjXMXMXMXBXBXmXjXdXwX4X4X0X4XZ.x.C.Z.F.C.i O o < O < 3 i i f f f f dXsXsXpXpXsXbXBXZXmXmXDXZXhXsXjXjXsXpX0X5X4X4X4X5XqXdXsXdXpXsXgX5X4X4X4X4X5X0XqXqXqXlXpXqX0X0X5X5X0X0XqXpXlXqXqXsXqX5X4X5X0X5X4X0XqXlXdXdXdXdXpXqX0XqXpX4Xx.r.c.x.c.u.w.f f f f f i < < < 3 < O i f f i 3 f C.4X8X0X5X4XqXMXBXMXBXBXZXZXZXZXBXZXZXBXZXZXZXZXBXZXCXCXCXCXCXCXCXCXBXBXBXBXBXZXZXZXmXMXMXhXjXjXhXhXjXjXgXsXsXsXsXsXsXpXqXpXdXpX0X4X4X4X4X4X4X3X3X4X3X3X3X3X3X3X3X3X3X3X3X3X3X3X3X3X3X3X3X3X3X3X3X3X3X3X3XIX3X3X3X3X3X3X3X3X3X3X3X3X3X3X3XIX<X<X3X<XR.@X@X+X,.$.` ",
"o.I.I.U.>.0.:X,X9X9X0X0XeXeXeXeXeX0X0X0X0X0X0X0X0X0X0X0X0X0X0X0X0X0X0X0X0X0X0X0X0X0X0X0X0X0X0X0XwXwX0X0X0X0X0X0X4Xx.3 X X X X . l.l.c.c.c.f.r.w.u.u.w.i.f HXbXFXCXZXBXBXmXmXAXBXMXMXhXjXjXjXjXhXgXgXgXgXjXjXbXMXMXMXMXMXbXjXgXsXgXjXhXMXmXmXmXmXMXMXhXjXjXjXjXhXsXjXjXjXsXgXhXMXMXMXMXMXMXMXPXjXjXjXjXjXjXjXjXjXgXgXgXgXgXgXgXgXmXMXMXMXmXPXdX0XeX3X3X5X3XC.l.x.x.C.c.3 X o < o < 3 3 i f f f f gXjXjXsXsXjXmXDXFXZXZXFXCXhXsXjXgXsXpXwX5X4X4X4X4X0XdXsXpXpXdXsX0X0X0X5X0X0XqXpXsXsXsXsXpXqX0X5X5X0XqXpXsXsXsXsXsXqX5X4X8X0X5X4XdXdXsXsXsXdXpXqX5X4X0XqX3Xc.w.l.x.c.u.w.f f f f f i < < < 3 < O i f f i 3 f C.4X3X5X4X4XdXZXGXDXFXFXFXFXFXFXFXFXFXFXFXFXFXFXFXFXGXGXGXGXGXGXGXGXFXFXFXFXFXFXFXFXDXCXBXmXMXMXMXMXMXMXhXjXjXjXhXhXjXgXsXsXgXgXpX0X0X0X0X0X0X0X0X0X0X0X0X0X0X0X0X0X0X0X0X0X0X0X0X0X0X0X0X0X0X0X0X0X0X0X0X0X0X0X0X0X0X0X0X0X0X0X0X0X0X0X0X0X0XeX0X,XR.@X@X+X,.$. .",
"I.I.I.*.@.0.:X,X,X6X5X4X4X4X4X4X4X4X4X4X4X4X4X4X4X4X4X4X4X4X4X4XG.G.G.G.3X3XIX3X3X3X3X3XIX3X3X3X4X4X4X4X4X4X4X4XqXZ.i X X O o O l.l.c.c.c.f.r.w.u.u.w.i.f HXhXFXCXZXBXBXmXmXmXBXMXMXhXjXjXjXjXhXsXsXsXgXjXhXMXMXBXBXBXmXMXjXgXsXsXgXhXMXmXBXBXBXMXMXhXjXjXjXhXhXgXjXjXjXgXgXhXMXMXmXmXNXmXMXMXbXhXbXhXhXhXhXhXhXgXgXgXgXgXgXgXgXBXmXmXmXMXjXpX5XpX0X0XqX0XF.C.Z.x.Z.x.3 X O < o < 3 3 i f f f f sXsXfXsXdXgXMXCXFXBXBXDXBXsXqXpXsXsXpX0X5X4X4X4X4X0XpXdXpXqXdXsX0X0X5X5X0X0XqXlXsXsXsXsXpX0X5X4X4X5X0XpXsXsXsXsXsXqX5X4X5X0X5X4XdXdXdXdXlXqX0X5X5X6X0XqX3Xx.r.c.x.c.u.w.f f f f f i < < < 3 < O i f f i 3 f C.4XF.G.H.H.qXmXDXZXBXBXBXBXBXBXBXBXBXBXBXBXBXBXBXBXBXBXBXBXBXBXBXBXBXBXBXBXBXBXBXBXZXBXMXbXjXjXgXgXjXgXsXsXdXdXsXsXsXpXqXqXpXqX0X4X4X5X5X5X5X4X4X5X5X5X5X5X5X5X5X5X5X5X5X5X5X5X5X5X5X5X5X5X5X5X5X5X5X5X5X5X5X5X5X5X5X5X5X5X5X5X5X5X5X5X5X5X5X5X5X,X*.@X+XT.,.$. .",
"E.Y.I.+.| 3.B.<X9X8X8XeX5X5XeXeX5X5X5X5X5X5XeX8X5X5X8X8X8X8XeXeX5X5X5X5X5X5X5X5X5X5X5X5X5X5X5X5X0X0X0X0X0X0X0X0XqXZ.i X X < 3 3 l.l.c.c.c.l.r.w.u.u.w.r.f HXhXFXCXZXBXmXmXmXmXBXmXMXMXbXhXhXbXbXjXjXjXjXhXbXmXBXZXZXBXBXMXbXjXgXgXjXhXMXBXBXZXZXmXMXMXbXhXhXbXbXjXhXbXhXjXjXbXmXBXBXBXBXBXmXMXMXMXMXbXbXbXbXbXMXjXjXjXjXjXjXjXjXCXBXBXBXNXhXpX5X0X4X4X0X4XC.c.x.Z.F.C.i X O o X < 3 3 i f f f f sXsXsXsXdXgXMXCXGXZXZXDXBXsXqXpXsXdXqX0XeX5X5X5X4X0XlXpXqXqXpXsX5X5X4X4X4X0X0XqXsXsXsXpXqX0X4X3X3X4X0XqXpXdXsXsXsXqX5X4X5X0X5X3XsXsXsXdXlX0X5X4X8X4X0XqX4XC.l.x.x.c.u.w.f f f f f i < < < 3 < O i f f i 3 f C.4X5XwX0X5XsXZXGXDXSXSXSXSXSXSXSXSXCXSXSXSXSXSXSXSXCXCXCXCXCXCXCXCXSXSXSXSXSXDXSXCXFXDXZXmXMXbXhXhXhXjXgXsXsXsXgXgXsXdXpXpXsXdX0X4X5X5X5X5X5X5X5X5X0X0X0X0X0X0X0X0X0X0X0X0X0X0X0X0X0X0X0XqXwX0X0X0X0X0X0XqX0X0X0X0X0X0X0XqXwX0X0X0X0X0X0XqX0X0X0X2X&.T.+XT.,.:.q.",
"!.E.I.+.| 2.B.<X,X6X6X6X6X3X4X4X4X4X4X4X4X4X6X6X4X4X4X6X6X6X6X6X5X5X5X5X5X5X5X5X5X5X5X5X5X5X5X5X5X5X5X5X5X5X5X5X4Xx.4   X = 3 3 l.l.c.c.c.l.r.w.u.u.w.r.f HXhXFXCXZXBXmXmXmXBXBXAXmXMXbXhXhXbXbXjXjXjXjXhXbXMXmXBXBXBXmXMXbXjXjXgXjXhXMXMXmXmXmXmXMXMXbXhXzXbXbXjXhXbXhXjXjXbXNXmXBXBXBXBXmXMXbXbXbXbXbXbXbXbXbXjXjXjXjXjXjXjXjXCXBXBXBXBXbXdX0X0X3X3X0X4XC.l.x.Z.H.C.i X O o X < 3 3 i f f f f gXjXjXsXsXjXmXDXHXDXSXFXZXjXdXsXsXdXqX0XeX5X5X0X3XeXqXpXqXqXpXdX5X4X4X4X4X5X0XqXdXdXdXpXqX0X4X4X4X4X0XqXpXpXdXdXsXqX5X4X5X0X5X3XgXgXgXsXsXpXqX0X5X4X0XqX4XC.c.C.x.c.u.w.f f f f f i < < < 3 < O i f f i 3 f C.4X0XqX0X5XdXBXFXZXFXFXFXFXFXFXFXFXFXFXFXFXFXFXFXFXDXDXDXDXDXDXDXDXFXFXFXFXFXFXFXFXSXZXBXMXMXbXbXbXhXjXgXfXsXsXgXgXsXdXpXpXsXdXqX4X3X3X3X3X4X4X3X3X5X5X5X5X5X5X5X5X5X5X5X5X5X5X5X5X5X5X5X5X5X5X5X5X5X5X5X5X5X5X5X5X5X5X5X5X5X5X5X5X5X5X5X5X5X5X5X,Xo.T.T.T.,.:.3.",
"E.E.I.+.| 7.:XuX9X8X0XeXeXeXeXeX5X8X8X0X0X0X0X0XeX8XeX0X0X0X0X0X4X4X4X4X4X4X4X4X4X4X4X4X4X4X4X4X3X3X3X3X3X3X3X3X4Xx.3 X X o < o l.l.c.c.c.l.r.w.u.l.w.r.f HXhXFXCXZXBXmXmXmXBXBXMXMXhXjXjXjXjXhXjXjXjXgXgXjXjXhXhXPXbXbXhXjXgXsXsXsXgXjXjXjXjXjXMXMXhXjXjXjXjXhXsXjXjXjXsXfXhXMXbXbXMXMXbXhXjXjXgXjXjXgXgXgXgXgXgXgXgXgXgXgXgXgXmXMXMXmXMXhXpX5X0X4X4X0X4XC.x.C.x.Z.c.3 X O < O < 3 3 i f f f f dXsXsXpXpXsXbXBXFXZXZXDXBXjXpXsXdXpXqX0X0X0X0X0X3X5XqXqXqXqXqXdX0X0X0XeX0X0XqXpXdXdXdXdXpXqXqX0X0XqXqXdXdXdXdXdXsXqX5X4XeX0X5X3XdXdXsXsXdXqXqX0X4XIX4X0X4Xx.l.x.x.c.u.w.f f f f f i < < < 3 < O i f f i 3 f C.4X3X6X3XG.0XMXZXmXBXBXBXBXZXZXZXZXBXZXZXBXZXZXZXZXBXBXBXBXBXBXBXBXBXBXZXZXZXZXBXBXmXMXMXhXhXhXhXhXbXhXjXgXgXgXjXjXgXsXdXsXsXsXqX5X0X0X0X0X0X0X0X0X0X0X0X0X0X0X0X0X0X0X0X0X0X0X0X0X0X0X0X0X0X0X0X0X0X0X0X0X0X0X0X0X0X0X0X0X0X0X0X0X0X0X0X0X0X0X0X,Xo.T.T.T.,.<.q.",
"Y.Y.I.O.@.=X1XiXcXhXhXhXhXhXhXhXhXhXhXhXhXhXhXhXhXhXhXhXhXhXhXhXqXqXqXqXqXqXqXqXqXqXqXqXqXqXqXqX0X0X0X0X0X0X0X0X0XZ.f o o < & O l.c.c.c.c.l.r.i.u.l.w.r.f HXzXFXCXZXBXmXmXmXBXBXhXjXjXgXsXsXgXgXjXgXsXsXsXsXsXfXsXsXgXgXgXsXsXdXpXdXdXsXsXsXsXdXhXjXjXgXfXsXgXgXdXsXgXsXdXdXjXbXjXjXjXjXjXgXsXsXdXsXsXsXdXdXdXdXsXsXsXsXsXsXsXsXbXbXhXbXbXjXqX4X3XF.F.3XF.l.w.u.w.c.i.<   O < < < 3 3 i f f f f 0X0X0X5X4X0XsXbXBXMXMXBXMXdX0XqXdXpXqX0X0X0X0X0X3X5XqXqXqX0XqXdXqXqXqXqXqXqXdXsXdXsXsXsXsXsXdXpXpXdXsXsXsXsXsXdXsXqX5X4X8X0X5X4X0X0X0X0X0X5X4X4XG.F.3X5XG.c.r.c.x.c.u.w.f f f f f i < < < 3 < O i f f i 3 f C.4XG.6X4X3XpXBXFXCXBXBXBXBXBXBXBXBXBXBXBXBXBXBXBXBXmXAXBXBXBXBXBXBXBXBXBXBXBXBXBXBXZXBXBXmXmXmXBXBXCXZXBXmXmXmXBXBXmXMXbXMXMXMXjXsXMXMXMXMXMXMXMXMXhXhXhXhXhXhXhXhXhXhXhXhXhXhXhXhXhXhXhXhXhXhXhXhXhXhXhXhXhXhXhXhXhXhXhXhXhXhXhXhXhXhXhXhXhXhXhXcX+.I.T.T.,.<.q.",
"%XI.o.*.#.0.1XLXcXAXAXNXBXBXZXVXBXBXBXBXBXmXmXmXBXBXBXBXBXBXBXBXjXjXjXhXjXgXsXsXpXpXpXpXlXqX0X0X0X0X0X0X0X0X0X0X5XC.i X X o O X l.l.c.c.c.f.r.w.i.r.Y w.f JXbXGXDXCXZXBXmXMXmXmXMXjXdXqXpXpXlXqXsXsXsXsXsXsXsXsXsXsXsXsXsXsXsXsXsXsXpXqXwX0X0XqX0X0XqXdXsXsXsXsXsXsXsXsXsXsXsXsXgXsXsXsXsXdXpXpXgXsXsXpXqXqXqXqXqXqXpXdXsXdXdXpXdXpXdXsXsXpX5XH.4XF.F.4XG.x.u.x.r.x.s.3 X < < o < 3 q i f f f f G.3X4X4X4X0XdXjXmXjXjXbXjX5XG.4X5X5X5X0X0X0XwXqX4X4X4X4X4X4X4X4XsXsXsXsXsXsXsXsXqXqXqXpXdXdXdXdXdXdXdXpXpXqXqXqXsXpX0X4X4X5XqXpX0X8X5X0XwX0X3XF.Z.Z.Z.Z.C.x.c.l.x.c.u.w.f f f f f i < < < 3 < O i f f i i w.Z.0X5X0X4X3XqXMXDXZXDXDXDXSXCXZXZXZXDXBXMXMXMXmXMXhXMXMXMXbXhXjXjXjXMXMXMXMXMXMXMXMXMXmXBXBXBXBXBXBXCXCXCXCXCXCXCXCXmXBXBXBXZXZXCXCXBXBXBXBXBXBXBXBXZXZXZXZXZXZXZXZXbXbXMXMXmXNXBXBXMXMXmXBXBXBXZXZXMXMXMXMXmXmXBXBXBXBXmXmXMXMXMXMXMXmXmXmXMXMXMXcX-.T.T.T.*X=X;X",
"%XI.o.*.#.0.1XLXcXMXmXmXNXNXBXBXBXBXBXBXmXmXMXMXBXmXNXmXmXmXmXmXjXjXjXjXjXgXsXsXpXpXdXpXqXqX0X5X5X5X5X5X5X5X5X5X5XC.i X X o o X l.l.c.c.c.s.r.w.i.r.w.i.f JXbXFXCXZXBXAXmXmXmXmXmXhXsXpXpXdXpXqXsXsXsXsXsXsXsXsXsXsXsXsXsXsXsXsXsXsXpXqX0X0X0X0X0X0XqXdXsXsXsXsXsXsXsXsXsXsXsXsXsXsXsXsXdXdXpXpXgXsXdXpXqXqXqXqXqXqXpXdXsXdXdXpXdXpXdXsXsXpX5XH.3XF.F.4XG.x.u.c.r.x.f.3 X < < o < 3 e i f f f f 3X4X4X4X4X5XpXjXmXhXjXMXjX0X3X4X5X5X5X5X0X0X0X0X5X5X5X5X5X5X5X5XpXpXpXpXpXpXpXpXdXdXdXdXdXdXdXdXdXdXdXdXdXdXdXdXsXpX0X4X4X4X0XqX8X4X4X5X0X5XH.Z.Z.Z.Z.Z.C.x.c.l.x.c.u.w.f f f f f i < < < 3 < O i f f i i w.Z.0X5X0X4X3XqXMXDXZXDXDXDXDXSXCXCXCXCXBXbXbXMXMXbXjXMXbXbXhXhXjXjXjXbXbXbXbXMXMXMXMXMXmXBXBXBXBXBXBXZXZXZXZXZXZXZXZXBXBXBXBXZXZXCXCXFXFXFXFXFXFXFXFXZXBXBXBXBXBXBXBXBXBXZXCXCXDXDXFXMXMXMXmXBXBXBXBXMXMXMXMXmXmXmXmXmXmXmXmXmXMXMXMXMXnXnXmXMXMXMXcX-.T.T.T.*X=X=X",
"!.I.o.*.#.0.1XvXcXAXmXmXNXNXBXBXBXBXBXBXmXmXMXMXBXmXmXmXmXmXmXmXjXjXjXjXjXgXsXsXdXdXdXdXqXqX0X5X4X4X4X4X4X4X4X4X4XC.i X O o o X l.l.c.c.c.f.r.w.r.r.w.i.f JXMXFXZXBXBXmXmXmXBXBXBXbXsXdXdXsXdXpXsXsXsXsXsXsXsXsXsXsXsXsXsXsXsXsXsXsXpX0X8X4X4X4X0XqXqXdXsXsXsXsXsXsXsXsXsXsXsXsXsXsXsXdXdXdXpXpXgXsXdXqXqXqXqXqXqXqXpXdXsXdXdXpXdXpXdXsXsXpX4XH.3XF.F.3XH.x.u.c.r.x.s.3 X < < o < 3 i i f f f f 5X0X5X4X4X5XdXjXAXhXhXMXjXqX4X5X5X5X5X5X4X4X4X4XeX8X8X8X8XeX5X5XpXpXpXpXqXqXqXqXsXsXsXsXsXdXdXdXdXdXdXsXsXsXsXsXsXpX0X4X4X4X4X5X5X4X4X4X5X4XH.A.H.F.F.F.Z.K.c.l.x.c.u.w.f f f f f i < < < 3 < O i f f i i w.Z.0X5X0X4X3XqXMXDXZXCXCXDXDXDXDXFXFXZXmXhXhXbXbXhXjXbXbXbXhXhXjXjXjXjXhXhXbXMXMXMXmXMXmXBXZXZXZXZXBXZXZXZXZXZXZXZXZXZXZXZXZXCXCXCXDXBXBXBXBXBXBXBXBXZXZXBXBXBXmXmXMXmXmXmXBXBXBXBXBXMXMXmXmXBXBXBXBXBXBXBXBXmXmXmXmXmXmXmXmXBXBXBXBXBXBXBXBXBXBXBXvX-.T.T.=.{.XXXX",
"E.L.o.*.@.7.1XvXAXAXAXBXBXVXVXVXVXZXZXBXBXBXmXmXBXBXBXBXBXBXBXBXgXgXjXjXjXfXsXdXsXsXsXdXqX0X5X4X4X4X4X4X5X5X5X5X4XK.3 X O < < O l.l.c.c.c.f.r.w.r.r.w.i.f JXMXFXZXBXBXmXmXBXBXBXBXbXsXdXsXsXsXpXsXsXsXsXsXsXsXsXsXsXsXsXsXsXsXsXgXsXlX0X5X4X4X4X0XqXpXdXsXsXdXdXsXsXsXsXsXsXsXsXdXdXdXdXpXdXpXpXsXsXpXqXqX0X0XqXqXqXpXdXsXdXdXpXdXpXdXsXsXpX4XH.G.F.F.3XH.x.r.l.r.x.h.3 X < < o < 3 i i f f f f qXqX0X5X4X0XsXhXmXhXhXMXhXqX4X0X5X5X5X4X4X4X4X4X5X5X5X5X5X5X5X5XpXpXpXpXpXpXpXpXgXsXsXsXsXsXdXdXdXdXdXsXsXsXsXgXdXlX0X5X4X4X4X4X5X4X4X5X0X4XH.Z.H.H.H.F.Z.C.c.l.x.c.u.w.f f f f f i < < < 3 < O i f f i i w.Z.0X5X0X4X3XqXmXDXZXCXCXCXSXDXFXFXFXCXmXbXhXbXMXbXjXMXbXbXbXbXbXzXbXhXhXbXMXMXmXNXBXmXBXZXCXDXDXDXDXCXZXZXZXZXZXZXCXDXDXDXDXDXDXDXFXBXBXBXBXBXBXBXBXCXCXZXBXBXBXmXMXMXMXMXmXmXmXmXmXBXBXBXBXBXBXBXBXZXZXZXBXBXBXBXBXBXBXBXBXBXZXZXZXBXBXBXBXBXBXBXvX-.E.T.=.,.8.XX",
"E.L.o.U.>.7.>XcXAXAXBXBXBXVXVXVXZXZXBXBXBXBXBXmXBXBXBXBXBXBXBXBXsXgXgXjXgXsXdXpXsXsXsXdXqX0X5X4X5X5X5X5X5X5X5X5X3Xx.3 X O < < o l.l.c.c.c.l.r.i.r.r.w.i.N JXMXFXZXZXBXmXmXmXBXBXBXhXsXdXdXsXdXpXsXsXsXsXsXsXsXsXsXsXsXsXsXsXsXsXsXsXpX0XeX5X4X4XqXqXpXdXsXdXdXpXsXsXsXsXsXsXsXsXpXpXpXpXpXpXpXpXsXsXpXqX0X0X0X0XqXqXpXdXsXsXdXpXdXpXdXsXsXpX4XH.G.Z.Z.G.F.c.r.f.r.x.l.3 O < 4 = < 3 3 i f f f f qX0X8X4X3X0XsXMXMXjXjXMXhXqX5X0X5X5X5X5X5X4X4X4X4X4X4X4X4X4X4X4XdXdXdXdXdXdXdXdXsXsXsXsXsXsXsXdXdXdXdXdXsXsXsXsXpXqXqX0X5X4X4X6X0X5X4X5X0X5XG.Z.F.F.F.F.Z.C.c.l.x.c.u.w.f f f f f i < < < 3 < O i f w.i i w.Z.0X5X0X4X3XqXmXDXZXZXZXCXCXCXCXCXCXDXBXMXbXMXMXbXhXbXbXbXbXbXbXMXMXbXbXMXMXMXmXmXmXMXmXBXCXDXDXDXDXZXZXZXZXZXZXZXZXDXDXDXSXCXCXCXCXGXGXGXGXGXGXGXGXZXZXBXBXBXmXmXmXCXSXCXCXCXCXCXZXBXBXBXBXBXBXBXBXBXBXBXBXBXBXBXBXBXBXBXBXBXBXBXBXBXBXBXBXBXBXBXvXR.E.T.=.,.<.0.",
"Y.o.o.U.>.6.>XcXcXcXMXMXMXnXnXnXmXmXmXMXMXMXMXbXMXMXMXMXMXMXMXMXsXsXgXgXfXsXdXpXsXsXsXdXqX0X4X3X4X4X4X4X4X4X4X4X3Xx.3 X O < < < l.l.c.c.c.l.r.i.r.r.w.i.f JXMXFXDXCXBXBXmXMXMXMXMXjXdXqXpXpXpXqXsXsXsXsXsXsXsXsXsXsXsXsXsXsXsXsXsXsXpXqX0X0XwXqXqXpXdXsXdXdXpXqXsXsXsXsXsXsXsXsXqXqXqXqXpXpXpXdXsXdXqX0X0X0X0X0XqXqXpXdXsXsXdXpXdXpXdXsXsXpX4XH.H.Z.Z.G.F.c.w.u.r.x.l.3 O < 3 = < 3 3 i f f f f 3XIXH.Z.Z.3XdXhXhXsXgXhXjX0X4X0X5X5X5X0X0X0XqXqXeX5X5X5X5X5X5X5XlXlXqXqXpXpXpXpXqXqXqXpXdXdXsXsXsXdXdXpXpXqXqXqXqXqXqXqXqX0X0X0X5X6X4X4X5X4XF.Z.C.Z.Z.Z.C.x.x.l.x.c.u.w.f f f f f i < < < 3 < O i f f i i w.Z.0X5X0X4X3XqXMXDXZXZXZXZXBXBXBXmXmXZXmXbXhXbXbXhXjXgXgXjXjXjXjXjXhXhXhXhXhXhXhXhXhXjXjXbXMXBXBXBXBXmXmXmXmXMXMXmXMXBXBXBXmXmXMXMXMXmXmXmXmXmXmXmXmXMXMXMXMXMXMXMXMXMXMXMXbXbXhXhXhXmXmXmXMXMXMXMXMXhXhXhXbXMXMXMXMXMXMXMXMXbXhXhXhXbXbXbXbXbXbXbXcXR.@XT.&.;.:.7.",
"Y.o.o.Q.>.3.:XxXiXkXgXgXgXgXjXjXjXjXjXjXgXgXsXsXgXgXgXgXgXgXgXgXsXsXsXgXsXsXpXlXgXgXsXdXqX0X4X3XH.H.H.H.H.G.H.G.G.c.3 X O < 3 < l.l.c.c.c.l.r.w.r.r.w.i.f JXbXFXGXFXCXBXMXMXbXbXbXgXqX0XqXqXqX0XsXsXsXsXsXsXsXsXsXsXsXsXsXsXsXsXsXsXdXpXlXpXdXsXpXpXdXsXdXdXpXqXsXsXsXsXsXsXsXsX0XqXqXqXlXpXpXdXsXdXqX0X0X0X0X0XqXqXpXdXsXdXdXpXdXpXdXsXsXpX4XH.H.Z.Z.H.F.l.w.u.r.x.l.3 O < < = < 4 3 i f f f f x.x.c.u.l.Z.0XsXjXdXsXjXfX0X3X5X4X5X0X0XqXpXdXsXqXqXqXqXqXqXqXqX0X0X0X0X0X0X0X0X4X5X0XqXqXdXsXsXsXsXdXlXqX0X5X4X0XqXqXpXpXpXpXpXG.H.F.H.3XH.Z.x.c.x.x.C.x.x.c.c.x.c.u.w.f f f f f i < < < 3 < O i f f i i w.Z.0X5X0X4X3XqXMXDXZXCXZXBXmXMXbXhXjXmXhXgXsXgXjXsXsXqXqXqXlXpXdXdXdXgXgXsXsXdXpXqXqX0XqXpXsXgXjXjXjXjXjXjXjXgXgXgXjXjXjXjXgXsXsXsXsX0X0X0X0X0X0X0X0XpXdXdXsXfXgXjXjXqXqXqX0X0X0X5X5XjXjXjXjXgXsXsXsX0XwXqXpXsXsXgXjXjXgXsXsXpXqX0X0XdXdXdXdXdXdXdXuXR.E.T.&.;.:.q.",
"I.o.I.Q.>.3.:XiXyXyXlXlXpXpXpXaXdXdXdXpXpXqXqXqXpXpXpXpXpXpXpXpXsXsXsXsXsXdXpXqXgXgXsXdXqX0X4XIXZ.Z.Z.Z.Z.Z.Z.Z.G.c.3 X O < 3 < l.c.c.c.c.l.r.w.r.r.w.w.f JXMXFXHXGXDXBXMXbXhXjXhXsXqX0X0X0X0X5XsXsXsXsXsXsXsXsXsXsXsXsXsXsXsXsXsXdXdXdXdXsXgXjXpXdXdXsXdXpXqXqXsXsXsXsXsXsXsXsX0X0XwXqXqXpXpXdXdXpXqX0X0X8X0X0XqXqXpXdXsXsXdXpXdXpXdXsXsXpX4XH.H.Z.Z.H.F.l.w.u.r.x.f.3 O < < o < 3 3 i f f f f w.F f i f c.G.qXfXpXpXgXsX5XG.4X4X5X0XqXpXsXgXjXsXsXsXsXsXsXsXsX4X4X4X4X4X4X4X4XIX3X4X0XqXpXsXsXsXsXpXqX0X4X3X3X0XqXpXdXsXsXsXsXF.Z.Z.Z.F.Z.x.u.r.s.c.x.x.x.x.c.x.c.u.w.f f f f f i < < < 3 < O i f f i i w.Z.0X5X0X4X3XqXMXDXZXCXZXBXMXbXjXgXsXhXgXdXpXdXsXpXqX4X4X4X5X0X0X0XqXdXdXqXqX0X5X4X4XG.3X4X0XqXpXpXpXpXpXpXpXpXpXpXpXpXpXqXqXqX0X0X0X3X3X3X3X3X3X3X3X4X5X0X0XqXpXsXsXqX0X0X0X5X4X4X4XsXsXdXpXqXqXqXqXH.H.3X4X0XqXpXdXdXpXqX0X4X3XH.H.5X5X5X5X5X5X5X,XR.E.T.&.;.$.q.",
"L.I.I.+.| 7.>XiXiXdXsXsXsXsXaXaXsXsXsXsXsXdXdXdXsXsXsXsXsXdXdXpXsXsXdXdXdXsXsXgXdXdXpXqX0X4XH.F.3XG.F.F.Z.Z.F.F.F.l.< X O < o X l.l.l.l.l.l.l.l.r.u.w.u.w.JXmXHXJXHXCXNXbXhXhXhXhXsXqX0X0XqX0X5XpXpXdXsXdXdXqXqXdXdXdXsXsXsXsXsXsXsXsXsXsXdXdXdXqXqXpXdXsXdXdXpXsXdXdXdXpXpXqXqX0XqXqXpXdXsXsXgXgXsXpX0X5X4X4X4XqXqXpXdXsXsXdXdXdXpXdXsXsXqXG.C.F.C.Z.G.H.x.l.x.r.x.s.3 X < < o < 3 3 i f f f f w.u.u.w.F c.4XsXsXsXsXsXpX0X4XG.4X4X0XqXqXpXpXpXdXsXsXsXsXsXdXpX4X5X5X0X0X5X4X4X5X5X5X0X0XqXdXsXsXsXlX0X8X5X5X5X4XqXsXsXsXdXdXsXG.F.Z.Z.F.F.Z.x.l.l.l.l.l.l.l.l.x.l.r.w.f f f f l i < < < 3 < O i f f i i w.Z.0X5X0X4XIXqXmXDXZXZXDXBXgXsXjXjXsXsXpXqXqXdXsXpXqX4X6X4X4X4X0XpXsXsXsXsXsXpX0X4XG.G.4X0XpXsXsXsXsXdXdXdXdXpXpXpXpXdXdXsXsXdXqX5X4X4X4X5X8X0X5X5X4X4X4X0XqXqXpXpXpXsXpX0X5X4X4X4X5XpXdXsXsXsXpXqX0X0X0X5X5X0XqXdXsXgXsXpX0X5X4X4X4X5X0X0XqXqXqXqX2XR.@X+X=.;.$. .",
"L.I.I.+.| 7.>XiXiXdXsXsXsXsXaXpXsXsXsXsXsXdXdXdXsXsXsXsXdXdXpXpXsXsXdXdXdXsXsXsXsXsXdXpX0X5X3XH.3XG.F.F.Z.Z.F.F.F.l.< X O < o X l.l.l.l.l.s.s.s.r.u.w.u.w.JXmXHXJXHXDXAXMXhXhXhXbXsXqX0X0XqX0X0XdXsXsXsXsXsXdXdXdXdXdXdXsXsXsXsXsXsXsXsXdXdXdXdXpXdXsXsXsXsXsXsXsXdXdXdXpXqXqXqX0XqXqXpXdXsXsXsXsXsXqX0X5X4X4X4XwXqXpXdXsXsXdXpXdXpXdXsXsXqXG.A.F.C.C.H.F.c.r.l.r.x.s.3 X < < o < 3 3 i f f f f w.u.u.w.N c.3XsXsXgXgXsXdXqX5X4X5X0XqXpXdXdXdXdXdXsXsXsXsXsXdXpX4X5X5XeX5X5X4X4X4X4X4X4X5X0XqXpXsXsXlX0X8X5X5X5X4XqXsXsXsXdXdXsXG.F.Z.Z.F.F.C.x.c.c.c.c.c.c.c.c.c.l.r.w.f f f f f i < < < 3 < O i f f i i w.Z.0X5X0X4XIXqXmXDXZXZXDXBXgXsXjXjXsXjXsXpXdXsXsXsXpX4X3X3X3X4X0XqXpXsXsXsXdXpX0X4X3X3X4X0XpXsXsXsXsXsXsXsXsXdXdXdXdXsXsXsXsXsXqX0X5X3X3X4X4X4X4X4X3X5X0XqXpXdXdXdXdXdXlX0X5X4X4X4X5XpXdXsXsXsXpXqX0X4X4X4X5X0XpXsXjXsXsXqX0X5X4X4X4X5X0X0XqXqXqXqX2XR.@X+X=.;.$.q.",
"L.I.I.+.| 0.>XiXiXdXkXsXsXaXpXpXdXdXdXdXdXdXdXdXsXsXsXdXdXdXpXpXsXsXdXdXdXdXdXdXsXsXdXpXqX0X4X3XG.H.F.F.Z.Z.F.F.F.l.< X O < o X s.s.s.s.u.u.u.u.r.u.w.u.w.JXmXHXJXGXDXBXMXbXbXbXbXgXpX0XqXqXqX0XsXsXsXsXsXsXsXsXdXdXdXdXdXdXdXdXdXdXdXdXdXdXdXdXsXsXsXsXsXsXsXsXdXdXdXpXpXqXqXqX0XqXqXqXpXdXsXsXsXdXqX0X5X4X4X4X0XqXlXpXdXdXdXpXsXdXdXsXsXqX3XZ.F.C.C.F.Z.l.w.u.r.x.l.3 X < < o < 3 3 i f f f f w.u.u.w.f l.G.pXsXsXsXsXdXqX0X8X0X0XqXpXdXdXdXdXpXdXsXsXsXsXdXpX5X5X5X5X5X5X5X5X4X4X4X4X5X0XqXqXsXsXqX0X8X5X5X5X4XqXsXsXsXdXdXsXH.F.Z.Z.F.Z.C.c.c.c.c.c.c.c.c.c.l.u.w.F f f f f b i < < < 3 < O i f w.i i w.Z.0X5X0X4X3XqXmXDXZXBXDXBXgXsXjXjXsXhXgXdXdXsXsXsXpX4X4X3X3X4X5X0XqXdXdXdXpXqX0X5X4X4X5X0XqXpXdXdXdXsXsXsXsXsXsXsXsXsXsXsXsXsXpXqX0X3X3X4X4X4X4X3XG.0X0XqXpXdXdXdXdXpXqX0X5X4X4X4X5XpXpXdXdXdXpXqX0X4X4X4X5XqXdXgXjXsXdXqX0X5X4X4X4X0X0XqXqXpXqXqXuXR.@XT.=.,.$.q.",
"L.I.I.+.| 0.>XiXiXdXkXfXsXaXtXtXtXpXpXpXdXdXdXdXsXsXdXdXpXpXpXqXdXdXsXsXdXpXlXqXlXpXqXqX0X4X3XG.G.H.F.F.Z.Z.F.F.F.l.< X O < o X u.u.u.u.u.u.u.u.r.u.w.u.w.JXmXHXJXGXDXBXMXMXMXMXMXjXdXqXqXpXqXqXpXpXqXqXpXdXsXsXsXsXdXdXpXpXpXpXpXpXpXpXdXdXdXdXsXsXdXpXpXpXpXpXpXpXpXpXqXqXqXqX0XqXqXqXpXpXdXdXdXpXqX0X5X4X4X4X0XwXqXpXdXdXpXqXsXdXpXdXsXqX4XH.G.Z.Z.G.F.c.r.l.r.x.l.3 X < < o < 3 3 i f f f f w.r.u.w.Y l.F.qXpXpXqXqXqX0X0X8X5X0X0XqXqXqXqXqXqXqXdXsXsXsXdXdX8X5X5X5X5X0X0X0X0X0X0X0X0XqXqXpXsXsXqX0X5X5X5X5X4XqXsXsXsXdXdXsXH.F.Z.F.F.Z.x.u.u.u.u.u.u.u.u.u.u.r.w.f f f f f b i < < < 3 < O i f w.i i w.Z.0X5X0X4X3XqXmXDXZXZXDXBXgXsXjXjXsXhXsXqXqXqXpXpXqXeX5X5X5X0X0X0X0XpXqXqXqXqX0X0X5X5X0X0XqXqXqXqXpXqXqXqXqXqXqXlXlXqXpXpXpXqXqXqXqX4X5X5X0X5X5X4X3X5XeX0XqXqXqXqXqXqXqX0X0X5X5X5X5XqXqXlXpXpXqXqXqX5XeX0X0XqXpXsXsXpXlX0X0X5X4X4X4X0X0XqXlXpXpXqXuX*.T.T.=.,.:.3.",
"L.Y.Y.O.| 0.>XiXiXkXfXfXsXaXtXqXqXqXqXpXpXdXdXsXsXdXdXpXpXqXqXqXpXdXsXsXdXpXqX0XeXeX8X5X4XG.H.F.G.H.F.F.Z.Z.F.F.F.l.< X O < = X r.r.r.r.r.r.r.r.r.u.w.u.w.JXmXHXHXGXDXBXmXMXmXmXmXhXsXpXpXdXpXqX0X0X0X5X0XqXpXdXsXsXdXpXpXqXqXqXqXqXqXpXpXdXdXsXdXlXwX0X8X0X0X0XpXpXqXqXqXqX0X0XqXqXqXqXqXqXqXpXlXqX0X5X4X4X4X5X0X0XqXlXpXpXqXqXsXdXpXdXsXpX0X3X5XG.G.5X3XC.c.x.r.x.l.3 X < 3 < < 3 3 i f f f f f r.l.r.f u.J.5X5X5X4X4X4X6X4X4X3X4X4X5X0X5X5X4X0XqXlXdXdXdXdXdX0X8X5X4X5X0XqXpXdXpXpXqXpXdXsXsXsXsXqX0X5X5X4X5X4XqXsXsXsXdXdXsXF.F.Z.F.F.Z.c.w.f f f f f f f f w.w.f f f f f f b i < < < 3 < O i f f i i w.Z.0X5X0X4X3XqXMXDXZXBXDXBXgXsXjXhXsXjXdX0X4X5X0X0X5XqXlXpXlXqXqXqXqXqXqX0X0X0X0X0X0X0X0X0X0X0XwXqXqX0X5X5X5X0X0X0X0X0X5X5X5XeX0X0X0XqXqXqXqXqX0X0X5X3X4X5X5X0X5X5X4X0X0X0X0X0X0X5X5XqXqXqXqXqXqXqXpXpXpXpXpXpXqXqXqXqXqX0X5X4X4X4X5X0XwXqXpXdXdXpXuX&.T.=.=.,.:.q.",
"L.Y.I.O.| 0.>XiXkXkXgXfXsXpXqXwX0X0XqXqXpXdXsXsXdXdXpXpXlXqXqXqXlXpXsXsXsXqX0X4X4X4X4X4XIXH.F.Z.G.H.F.F.Z.Z.F.F.F.l.< X O < o X r.r.r.r.r.r.r.r.r.r.w.u.w.JXmXJXHXGXDXBXBXmXBXBXBXbXsXdXdXsXdXpX5X4X4X3X4X0XqXpXsXsXdXpXqXqX0X0X0X0XqXqXpXdXsXsXpXqX0X4X3X4X5X5XqXqXqXqXqX0X0X0XqXqXqXqXqXqXqXqXqX0X0X5X4X4X4X5X0X0XqXqXpXqXqXqXsXdXpXpXdXdX0X4X0X4X4X0X4XZ.x.C.r.x.l.3 X < 3 < < 3 3 i f f f f f r.l.r.w.r.Z.4X3XIXG.H.G.IX4X4XG.3X4X4X4X4X3XIX0X0XqXpXdXdXdXdX0X0X4X4X5X0XpXsXfXsXsXdXdXsXsXgXsXsXqX0X5X5X4X5X6XqXsXsXsXdXdXsXF.Z.Z.F.F.C.u.f i i i i i i i i w.f f i i f f w.f i < < < 3 < O i f f i i w.Z.0X5X0X4X3XqXMXDXZXBXDXBXgXsXjXhXsXjXpX4XG.3X4X4X4XsXsXsXsXsXpXqX0X0X0X0X5X0X0XqXqXqXqX0X0X5X0X0X0X4X4X4X4X4X4X4X4X4X4X3X3X4X5X0XwXdXdXdXdXpXqX0X0XG.3X4X4X4X4X3X3X5X0X0X0X0X0X5X5XqXwX0X0X0XqXpXdXsXsXsXsXpXqX0X5XqX0X0X5X4X4X5X5X0XqXpXdXaXdXdXuXo.T.=.=.,.:.q.",
"L.I.I.O.| 7.>XiXkXkXgXfXsXtXqXwXeX0X0XqXpXdXsXsXdXpXpXqXqXqXqXqXqXpXsXsXsXqX5X4X4X4X4X4X3XG.F.F.3XG.F.F.Z.Z.F.F.F.l.< X O < o X w.w.w.w.w.w.w.w.r.u.w.u.w.JXmXHXHXGXDXBXBXBXBXZXBXMXgXsXsXsXsXdX0X5X4X3X6X0XpXsXsXsXdXpXqX0X0X0X0X0X0XqXpXdXsXsXsXpX0X4X3X4X5X0XqXqXqXqX0X0X0X0XqXqXqXqXqX0X0X0X0X0X5X4X4X4X4X5X5X0X0XqXqXqXqXqXgXdXlXpXdXdXqX0X0X4X4X0X4XC.c.x.r.x.l.3 X < < $ < 3 3 i f f f f f r.l.u.w.r.C.G.IXG.H.H.H.3X5X0X3X4X4X4X4X4X3X3X5X0XqXlXdXdXdXdXwX0X4X4X5XqXdXgXfXsXdXdXpXdXsXsXsXsXqX0X5X5X4X5X6XqXsXsXsXdXdXsXF.Z.F.F.F.C.r.i i i i i i i i i f f i i i f f w.f i < < < 3 < O i f f i i w.Z.0X5X0X4X3XqXMXDXZXBXDXBXgXsXjXhXsXhXdX5XIX3X4X4X4XsXsXsXsXsXqX0X5X0X5X4X4X5X0XqXpXpXqX0X5X4X4X5X0X6X4X4X4X4X4X6X6X4X3X3X3X4X0XqXpXdXdXdXdXpXqX0X5X3X4X4X4X4X4X3X3X4X5X0XqXqX0XeX4XqX0X0X5X0XqXpXdXdXsXsXsXsXlX0X0X0X0X5X4X6X4X5X5XwXqXpXdXsXsXdXuXo.=.=.&.,.<.7.",
"L.I.I.o.| 7.>XiXkXkXgXgXsXtXqX0X5X0X0XqXlXdXsXsXpXpXpXqXqXqXwXwXqXpXsXsXsXqX5X3X4X4X5X5X4X3XG.H.3XG.F.F.Z.Z.F.F.F.l.< X O < o X w.w.w.w.w.w.w.w.r.u.w.u.w.JXmXHXHXGXDXBXBXBXBXZXBXMXgXsXsXfXsXdXwX0X4X4X4XqXsXgXsXsXdXpXqX0X0X5X5X0X0XqXlXdXsXsXgXsXqX5X4X4X0X0XqXqXqXwX0X0X0X0XqXqXqXqX0X0X0X0X0X0X5X6X4X4X4X5X5X0X0XqXqXqXqXqXgXsXlXpXdXdXqX0X0X3X3X5X3Xx.u.c.r.x.u.3 X < < o < 3 3 i f f f f f r.l.u.w.w.C.G.3X3XG.H.G.4X0XqX4X5X5X0X0X5X4X4X4X5X0XqXdXdXdXdXqX0X4X4X5XqXsXjXsXsXpXqXqXlXpXdXsXsXlX0X5X5X4X5X4XqXsXsXsXdXdXsXF.Z.F.F.F.C.w.i f f f f f f f f f f i i i f f w.f i < < < 3 < O i f f i i w.Z.0X5X0X4X3XqXMXDXZXBXDXBXgXsXjXhXsXMXsX0X4X4X5X0XeXdXdXsXsXdXqX5X4X8X5X4X4X4X0XqXdXdXqX0X4X4X6X5X5X4X4X4X4X4X4X4X4X4X4X4X4X4X0XpXsXpXpXpXqXqX0X4X4X4X5X5X0X8X5X4X4X4X4X0XqXqX0X0X4XqX0X5X5XeXqXpXsXqXpXdXsXsXdXlXqX0X0X5X6X4X4X5X8XqXqXpXaXsXsXdXuX+.=.=.&.-.<.0.",
"I.E.W.*.#.0.1XxXxXkXkXsXdXtXqXqX5X0XqXdXsXgXgXgXpXsXsXdX0X5X5X0XsXsXgXjXgXsXlXqX4XG.4XqX0XG.F.3X4X3XH.F.Z.Z.Z.Z.C.u.q o O o o o w.w.w.w.w.w.u.l.r.r.w.u.w.JXmXHXGXFXDXBXBXmXmXmXZXMXgXdXsXgXgXgX0X5X4X4X4X0XqXpXsXsXsXdXqX0X4X4X5X0X0XqXpXdXsXsXpXqX0X5X4X4X4X4XqXqXqXqXqXwX0X5XpXpXlXqXqXqXqXqXqXqX0X0X0X5X4X4X4X4X5X0X0X0X0X0XsXsXdXsXgXsXqX4XqX0X0X4XH.Z.x.c.r.x.l.3 X < < o < 3 i i f f f f r.w.N f r.x.Z.F.3X5X4XH.3XqX0XH.G.3X4X4X4X4X4X3X4X5X0XqXdXdXdXdX4X3X3X4X4X5X0XqXsXsXsXsXsXsXsXsXdXdXpXqX0X0X5X4X4XqXsXsXsXdXdXsXF.Z.Z.F.F.C.u.i f f f f f f f f f f f f f f f f i 3 3 < < < < < i f w.i i w.Z.0X5X0X4X3XqXMXDXZXBXDXBXgXsXjXjXsXpXqX0X5X4X4X4X4XsXsXgXjXgXsXqXqX3X4X4X5X0X0X5X5XqXqX0X8X5X5X5X5X0X0X5X4X4X4X4X4XwX0X0X0X0XqXqXpXdXsXsXsXpX0X4X3X0X0X4X4X4X4X4X5X4X5X0XqXqXpXqXqXqX0X0X0X0X0XqXqXsXsXsXsXdXpXqX0XlXqX0X5X4X4X5X5X0XqXpXsXsXsXdXuXR.@X+XT.,.<.0.",
"I.E.W.*.#.0.1XxXxXkXkXsXaXpXtXqX0X0XqXpXdXdXdXdXqXdXsXdXqX0X0XqXdXdXsXsXsXdXqX0X0X3X4XqX0XH.Z.H.3XH.F.Z.Z.C.Z.Z.C.u.3 o O o o o w.w.f f w.w.r.u.r.r.w.u.w.JXmXHXGXFXDXBXBXmXmXmXBXbXsXlXdXsXsXsX0X5X4X4X4X0XqXpXdXdXdXpXqX0X0X5X0X0X0XqXpXdXsXsXdXpXqX0X5X5X5X5X0X0XqXqX0X0X5X4XqXqXqXqXwXwX0X0XqXqX0X0X0X5X5X4X4X5X0XqXqXqXqX0XdXpXpXdXsXdX0X3X5X4X4X3XF.Z.x.c.r.x.l.3 X < < o < 3 i i f f f f u.r.w.w.i.c.C.Z.F.3XH.F.G.0X0XG.3X4X4X5XeX5X5X4X5X0XqXpXdXdXdXdX5X5X5X5X5X0X0XqXdXdXdXdXdXdXdXdXpXpXqXqX0X0X5X4X4XqXsXsXsXdXdXsXF.Z.Z.F.F.C.u.i f f f f f f f f f f f f f f f f i 3 3 < < < < 3 i f F i i w.Z.0X5X0X4X3XqXMXDXZXBXDXBXgXsXjXjXsXsXpXqX0X5X5X5X5XdXdXsXsXsXdXqX0X4X4X5X0X8X5X4X4XwX0X0X8X8X0X0X0XqX0X0X5X4X4X5X5X0X0X5X5X5X0XqXqXpXpXdXdXpXqX5X4X0X0X5X4X4X4X5X5X4X5X0XqXqXpXpXqXqXqX0X0X0XqXqXqXdXdXdXdXpXqX0XeXwX0X0X5X8X0X0X0X0XqXpXsXsXsXdXuXR.@X+XT.,.<.0.",
"I.E.W.*.#.0.1XxXkXkXkXsXsXaXtXtXqXqXqXqXqX0X0X0XeXqXdXdXlXqXpXsXqXqXpXpXpXqX0X0XqX4X5XqX0XF.C.F.F.F.Z.C.x.x.x.x.C.r.3 o O o < o w.w.f f f w.r.u.r.u.w.u.w.JXmXHXGXFXDXBXBXmXmXmXmXjXpXqXqXpXpXqX0X0X5X4X5X0XwXqXqXqXqXqXqXqXqXqX0X0XqXqXpXdXsXsXsXsXpXqXqX0XwXqX5X5X0X0X0X4X4X3X8X8X8X0XeX0X0X0X0X0X0X0X0X5X5X5X0X0XqXpXpXpXlXqXqX0X0XqXqXqX4XH.H.H.H.F.Z.C.x.c.r.x.f.3 X < < o < 3 3 i f f f f l.u.i.w.w.u.x.K.C.Z.Z.C.F.0X0XIX4X5X0X0XqXqX0X0X0X0XqXpXdXdXdXdXqXqXqXqXqX0X0X0XqXqXqXqXqXqXqXqXqXqXqX0X0X0X5X5X6XqXsXsXsXdXdXsXF.Z.Z.F.F.C.u.i f f f f f f f f f f f f f f f f i i 3 < < < 3 3 i f f i i w.Z.0X5X0X4X3XqXMXDXZXBXDXBXgXsXjXjXsXsXsXpXqXqX0XwXqXqXqXpXpXlXqX0X0X0X0X0X0X5X4X3XG.4X5X5X0X0XqXqXqXpXqXwX0X0X0X0X0X4X4X4X3X4X4X0X0X0XqXqXlXpXqXqX0XqX0XeX4X4X4X5X5X4X5X0XqXpXpXpXpXqXqXqXqXqXqXqXqXqXqXqXqXqX0X4X4X4X5X5X0X0XqXqXlX0XqXpXdXdXdXpXuXR.@X+XT.,.<.0.",
"I.E.W.*.#.0.1XxXkXkXkXsXsXaXaXaXaXdXqX0X4X4X3X3X3X0XpXsXdXdXsXgX0X0X0X0X0X0X0X0XpX0X0XqX0XF.C.Z.Z.Z.C.x.c.c.c.c.x.r.3 o O < < < w.f f f f w.w.r.r.u.w.u.w.JXmXHXGXFXDXBXBXmXmXmXMXjXqX0X0X0X0X0X0X0X0X5X8X0X0X0X0X0X0X0XqXqXpXdXqXqXqXpXpXdXsXsXjXgXsXdXpXpXpXdX4X4X4X5X4X4X3XG.3X4X4X6X4X4X4X4X0X0X0X0X0X0X0X0XqXqXpXdXsXsXdXdX0X5X4XeX0X5XG.Z.Z.Z.Z.Z.C.C.x.c.r.x.s.3 X < < o < 3 3 i f f f f c.l.r.w.w.r.u.l.l.x.c.l.C.5X0X3X5X0XqXqXpXpXpXpX0XqXpXdXdXsXdXdXsXsXsXdXpXqX0X0X0X0X0X0X0X0X0X0XqXqX0X0X0X0X5X5X4XqXsXsXsXdXdXsXF.Z.Z.F.F.C.u.i f f f f f f f f f f f f f f f f i i 3 3 < < 3 3 i f f i i w.Z.0X5X0X4X3XqXMXDXZXBXDXBXgXsXjXjXsXjXgXsXdXpXpXpXdX0X0X0X0X0X0X0X0XqXqXqX0X5X3XH.F.G.3X5X0XqXdXsXsXdXpXqXqX0XqXqXqX3XG.G.G.G.3X4X5X5X8X0XwXqXpXpXpXqXqX0X5X4X4X4X5X5X0XqXqXpXdXdXpXqXqXpXpXqXqXqX0X0X0X0X0X0X4X3XG.G.3X5X0XqXdXsXsXqXqXqXpXpXpXlXuXR.@X+XT.,.<.0.",
"I.E.W.O.#.0.1XxXkXkXgXgXfXsXsXsXgXsXqX5X3XG.H.H.H.5XdXgXgXsXgXjX5X5X5X5X5X5X0X0XdX0X0XqX0XJ.x.C.Z.C.x.c.l.l.l.l.x.w.3 O O < < < f f f f f w.w.r.r.u.w.u.w.JXmXHXGXFXDXBXBXmXmXmXMXgXqX5X5X5X5X4X0X0X0X0X0X0X5X5X4X4X4X5X0XqXsXsXpXpXpXpXdXdXdXdXjXgXsXdXdXsXsXsX4X4X4X4X6X3XG.H.G.G.IX3X3X4X4X4X0X0X0X0X0X0X0X0XqXqXdXsXsXsXsXdX4X4X3X4X5X4XF.C.C.C.C.C.C.x.x.c.r.x.l.3 O < 3 < < 3 3 i f f f f l.u.r.r.w.w.i.r.w.u.r.w.x.4X0X4X5X0XqXpXsXsXsXsXqXqXdXsXsXsXdXpXgXgXgXgXsXpX0X0X5X5X5X5X5X5X5X5X0X0X0X0X0X5X5X5X4XqXsXsXsXdXdXsXF.Z.Z.F.F.C.u.i f f f f f f f f f f f f f f f f f i i 3 3 3 3 3 i f f i i w.Z.0X5X0X4X3XqXMXDXZXBXDXBXgXsXjXhXsXjXgXsXdXdXsXsXsX5X5X5X5X5X5X0X0XqXqXqX0X5X3XH.F.F.G.4XqXdXsXsXsXsXdXpXqXqXqXqXlXG.H.H.F.H.G.3X4X4X4X5X0XqXqXdXsXdXpXqX0X5X4X4X5X5X0XqXpXdXdXdXdXqXpXdXdXdXqX0X0X5X0X0X8X4X4XG.H.F.G.4XqXdXsXsXfXlXqXqXqXqXqXqXuXR.@X+XT.,.<.0.",
"I.E.W.O.#.0.1XxXkXkXgXgXgXfXfXfXhXgXpX5X3XH.H.H.H.5XdXjXjXgXgXjX5X5X4X4X4X5X0XqXdX0X0XqX0XF.x.C.Z.C.x.c.l.l.l.l.x.w.3 O o < 3 3 f f i i f f w.w.r.u.w.u.w.JXmXHXGXFXDXBXBXmXmXmXMXjXqX5X4X5X4X4X0X0X0XwX0X0X4X4X4X4X4X4X5XqXsXgXdXdXdXdXdXdXdXdXgXgXsXdXsXsXsXgX4X4X4X5X4X4XG.H.H.H.G.3X4X4X4X5X5X5X5X0X0X0X0X0XqXqXpXdXsXsXdXdX4X3X3X4X4X3XF.C.C.C.C.C.C.x.c.l.r.x.l.3 X < 3 < < 3 3 i f f f f r.r.r.r.r.w.w.w.w.u.w.f c.3X0X4X5X0XqXpXsXsXsXsXpXdXsXsXsXsXdXpXsXsXgXjXsXpX0X5X5X5X5X5X5X5X5X5X5X5XeX5X5X5X5X5X6XqXsXsXsXdXdXsXF.Z.Z.F.F.C.u.i f f f f f f f f f f f f f f f f f f i 3 3 3 3 i i f f i i w.Z.0X5X0X4X3XqXmXDXZXBXDXBXgXsXjXhXsXgXgXsXdXsXsXsXgX5X5X4X4X4X5X0XqXqXqXqX0X5X3XH.F.F.G.5XlXsXgXgXsXsXdXqXqXqXqXqXqXH.H.F.F.H.G.3X4X4X4X4X5X0XqXdXsXsXdXqX0X5X4X4X4X0X0XqXpXsXsXsXdXpXdXsXsXsXqX0X5X5X5X0X8X4X4XG.H.F.G.5XqXsXgXgXfXpXlXqX0X0X0XqX2XR.@X+XT.,.<.0.",
"I.E.W.O.#.0.1XxXkXkXgXgXgXgXgXgXbXjXpX5X3XG.G.G.H.0XsXjXjXjXgXgX0X5X4X4X4X0XqXqXqX5X0XqX0XF.C.Z.Z.C.x.x.c.l.c.c.x.w.< O o < 3 3 f i i i f f w.w.r.r.w.u.w.JXmXHXGXFXDXZXBXmXmXmXmXjXqX5X5X5X4X4X0X0XqXqXqX0X4X3X5X4X4X3X4X0XdXsXsXsXsXsXdXdXdXdXsXsXdXdXdXsXsXgX4X5X5X8X5X4X3XG.H.H.G.3X4X4X5X0X4X5X5X0X0X0XqXqX0XqXqXpXdXdXpXpX6X3X3X4X5X4XF.C.Z.Z.Z.Z.C.x.c.u.r.x.s.3 X < < o < 3 3 i f f f f w.w.w.r.r.r.w.w.r.l.w.f c.3X0X4X4X5X0XpXdXsXsXsXdXdXsXsXsXsXdXpXpXdXsXgXgXdXqX5X0X0X0X0X0X0X0X0X4X5X5X5X5X5X5X5X6XqXsXsXsXdXdXsXF.Z.Z.F.F.C.u.i f f f f f f f f f f f f f f f f f f i 3 3 3 i i i f w.i i w.Z.0X5X0X4X3XqXMXDXZXBXDXBXgXsXjXhXsXsXsXsXdXdXsXsXgX0X5X4X4X4X0XqXqX0X0X0X0X5X4XG.H.F.3X0XdXfXgXsXsXdXpXqX0X0X0XqXqXG.G.H.H.G.3X4X4X4X4X4X4X5XqXpXsXsXsXlXwX5X4X4X4X0X0XqXdXsXsXsXsXpXsXsXgXsXpX0X4X0X0X0X0X5X4XG.H.F.IX0XdXsXgXsXsXdXpXqX0X5X0X0X2XR.@X+XT.,.<.7.",
"I.E.W.O.#.0.1XxXkXkXgXgXjXjXjXjXMXjXdX0X3XG.3X4XG.0XsXhXjXjXgXgX0X5X4X4X4X0XqXdXqX5X5XqX0XF.C.J.Z.Z.C.x.c.c.c.c.c.w.< O o < 3 3 f i i i i f w.w.r.r.w.u.w.JXmXHXGXFXDXZXBXmXmXmXBXhXpX0X5X5X4X4X0X0XqXqXqX0X4X3X0X5X4X3X4X0XpXsXsXsXsXsXsXdXdXdXsXsXdXpXdXdXsXfX5X5X0X0X0X5X4X3XH.H.G.4X4X5X0X0X4X4X5X0X0X0XqXqX0X0XqXlXpXpXlXqX4X3X3X6X5X4XF.C.Z.Z.Z.Z.C.x.l.u.r.x.l.3 X < < o < 3 3 i f f f f f f w.r.u.r.r.w.l.l.w.f l.3X0X4X4X4X0XqXdXsXsXsXdXsXsXsXsXsXdXpXqXpXsXgXgXdXqX5X0X0X0X0X0X0X0X0X4X4X4X5X5X5X5X5X4XqXsXsXsXdXdXsXF.Z.Z.F.F.C.u.i f f f f f f f f f f f f f f f f f f i i 3 3 i i i f w.i i w.Z.0X5X0X4X3XqXmXDXZXBXDXBXgXsXjXjXsXsXsXdXpXdXdXsXfX0X8X4X4X4X0XqXdX0X0X0X0X5X4X3XG.F.3X0XdXgXgXsXsXpXqXqX0X0X0X0X0X3XG.G.G.G.3X6X5X5X4X4X4X4X0XpXsXgXsXpXwX8X5X4X4X0XwXqXdXsXsXsXsXpXsXgXjXsXpX0X4X0X0X0X0X5X6X3XG.F.3X0XdXgXgXsXdXsXpXqX0X4X5X0X2XR.@X+XT.,.<.7.",
"E.E.I.O.#.0.>XuXiXdXdXpXdXaXfXgXjXgXsXqX5X3XH.F.5X0XpXfXjXjXjXgX4X6X4X0XqX0X4XH.pX0X5XqX8XZ.x.C.x.x.x.x.x.x.x.x.r.f < o < < = O 3 i i 3 3 3 f u.i u.r.f Z.bXGXCXGXFXFXCXBXmXMXMXbXgXqX0X0X0X0X5X0X0X0X0X0XqXqXpX4X5X0XqXdXsXsXsXpXdXsXsXsXsXsXdXjXgXsXdXdXdXsXsX5X5X0X0X5X4X4X3X4X3X3XG.3X4X5X5X0X0X0X0X0X5X5X5XqXqXqXqXlXlXlXqXqX0X0XwXqX5XF.x.Z.Z.Z.Z.C.x.c.l.r.x.u.< X O o X 3 3 3 3 3 3 3 3 r.r.w.w.w.u.l.c.g f w.c.C.F.G.3X3XF.4XpXsXqXqXdXhXsXpXqXpXpXqX0XqXqX0X0X0XqXqXqX4X5X5X5X5X5X5X5X4X4X4X4X4X4X4X4XqXqX0XwX0XqXwXwXZ.F.F.Z.Z.C.x.l.i i i i i i i i f i i i 3 i i i 3 3 i f f f i i i i i i i w.C.G.4XeX6XIXqXmXDXZXBXBXBXmXMXMXMXbXMXgXqX5X0XqXpXdX4X5X0X0X0X0X0X5X0X0X0X5X6XG.F.Z.H.3X5XqXpXsXsXsXpXqXqX0X5X5X5X5X4X4X3X3XG.G.H.H.5X5X5X8X0XqXsXsXdXpXqX0X0X8X0X0X0XwXqXpXpXpXpXqX0XqXdXpXqXqXlXsX0X0X5X5X4X4X3X3XG.4X5XqXpXdXdXdXqXqXqXqXqX0X0X2X&.E.+X+X,.:. .",
"E.E.I.O.#.0.>XuXiXyXyXqXqXtXaXaXgXgXsXsXdXqXqXqX0X0XqXpXdXsXsXsXqX0X0XqXpXqX4XH.G.Z.Z.H.Z.u.f w.l.l.l.l.l.l.l.l.r.f < o < < o O 3 i i 3 3 3 f u.f l.r.i x.gXZXMXmXmXMXMXMXMXMXbXMXjXpXqXqXpXqXqX0X0X0X0X0XqXqXpXqXqXpXpXpXqXqX0X0XqXqXpXdXdXdXdXsXdXqXqXqXqXqXqX0X0X0X0X0X5X4X4X4X4X4X3X4X4X0X0X0X0X0X0X0X5X5X5X5X5X5X5X5X5X5X5XsXdXdXsXsXqX4XF.Z.Z.Z.Z.C.x.c.u.r.x.u.< X O o X 3 3 3 3 3 3 3 3 r.r.w.w.w.u.l.c.x.c.c.c.c.l.l.l.l.r.x.H.3XF.F.3XF.C.u.w.w.r.w.w.w.w.w.w.w.w.w.w.w.w.w.w.w.w.w.w.f f f f f f f f w.w.w.w.w.w.w.w.f f f f f i 3 3 i i i i i i i i i i 3 3 < < < 3 < 3 3 i i i i i i i i i i w.C.G.3X4X3XH.0XMXCXBXDXDXDXCXCXZXBXBXmXjXqX5X0XqXqXqXqXpXdXdXdXpXqXqX0X0X0X5X6XG.F.J.H.G.4X0XqXdXdXdX0X5X4X3XG.H.G.G.0X0X5X5X4X4X4X4X5X4X5X8X0XqXsXsXsXdXqX0X0X5X5X5X0X0XqXpXpXpXqXqX3X6X5X4X3X4X0XqXdXdXdXdXpXpXpXpXpXlXqX0X0X5X4X4X0X0X0X0X0X0X0X2X&.E.+XT.,.:. .",
"E.E.I.O.#.0.>XuXuXqXwX0X0XqXtXpXdXdXsXsXsXgXgXgXqXqX0X0X0XqXqXqXqXqX0XqXqX0X3XF.G.Z.Z.H.Z.u.f w.w.w.w.w.w.w.w.w.r.g < o < < o O 3 3 i 3 3 3 f u.w.c.r.i c.pXMXjXjXjXhXhXbXMXMXMXMXjXdXpXdXsXsXsXqX0X0X0X0XqXpXpXfXsXsXdXqX0X4X3X4X4X0XqXpXdXdXdXqXqX0X5X4X5X5X0X0X0XqXqXqX0X5X4X5X5X4X4X5X0X0XqXwX0X0X0X0X5X5X5X4X4X4X4X4X4X4X4XgXsXsXsXsXpX4XF.F.F.F.Z.C.x.l.r.r.x.l.3 X O o X < < < < < < < < r.r.w.w.w.r.l.c.C.C.x.l.r.w.f i w.f u.F.G.F.F.3XZ.l.i < < 3 3 3 3 3 3 3 3 3 3 3 3 3 3 3 3 3 3 3 3 3 4 4 3 3 3 3 3 3 3 3 3 3 3 3 i f f f f f i i f f f f f f f f p i 3 < o O O O < < 3 3 i i 3 3 i f i i i w.C.H.G.4XG.F.0XMXCXBXFXFXFXDXDXCXCXCXBXhXpX5X5X0X0X0XsXsXsXsXsXdXqXqX0X0X0X5X4XG.F.F.F.H.4X5XqXqXqXpX5X4X3XH.F.F.F.F.qXqXqXqX0X0X0X0X5X4X5X8X0XqXsXsXgXsXpX0X5X4X4X4X0X0XqXqXpXpXqXqXH.H.H.F.F.H.5XpXsXsXsXgXgXgXgXgXjXsXqX4X3XH.H.H.3X4X4X5X5X0X0X2X&.E.+XT.,.:. .",
"E.E.I.O.#.0.>XuXyXqXwX0XwXqXtXpXqXqXqXpXdXsXsXsXsXdXqX0X5X0XqXqXqX0X0X0X0X4XF.C.G.Z.Z.G.F.l.w.u.w.w.w.w.w.w.w.w.r.g < o < < o O 3 3 i 3 3 3 f u.w.c.r.i c.dXMXjXbXbXMXMXMXMXmXmXhXgXpXqXdXsXsXsXqXqX0X0XqXqXpXdXgXgXsXdXqX0X4X3X3X4X0XqXpXsXsXsXqX0X5X4X4X4X4X5XqXqXqXqXqXwX0X5X0X8X5X5X5X0XqXqXwX0X0X0X0X5X5X5X0X0X0X0X0X0X0X0XdXpXpXdXdXqX3XZ.F.F.F.Z.C.x.u.r.u.x.l.3 X o < O o o o o o o o o r.r.w.w.w.r.l.c.l.l.l.u.u.u.u.u.w.f u.F.3XF.H.5X4XF.u.i i f f w.w.w.w.w.w.w.w.w.w.w.w.w.w.w.w.w.N N f f f f f f w.w.w.w.w.w.w.w.w.w.r.u.u.u.r.w.f f f f f f f f f f 3 < o O X X o < < 3 3 3 3 3 f f f i i w.C.F.G.4XG.H.0XMXDXCXZXZXZXZXZXBXBXBXZXbXpX5X4X4X4X6XdXdXdXdXqX0X5X5X5X5X5X5X4X3XH.F.F.H.3X5X0XwXqXqX0X0X4X3XIXG.G.3XpXpXqXqXqXqX0X0X5X5X5X8X0XpXsXsXgXsXpX0X5X4X4X4X5X0XqXqXpXqXqXqXG.G.H.F.F.3XqXgXqXqXpXdXdXsXsXsXsXpX0XIXH.H.G.4XH.H.G.3X4X5X0X2X&.E.+XT.,.:. .",
"E.E.I.O.#.0.>XuXiXyXqXqXqXtXaXaXpXdXpXdXpXpXpXpXjXsXpXqX0X0XqXpXpXqX0XwXqX0XG.Z.C.x.x.Z.C.w.i f w.w.w.i.i.i.w.i.r.f < o < < o O 3 i i 3 3 3 f u.f l.r.i x.gXZXMXMXMXMXMXMXbXbXbXjXsXqXqXpXsXsXdXqXqXqXqXqXpXdXsXdXdXdXdXqX0X5X4X4X5X0XpXsXsXsXsXqXqX0X0X5X5X0X0XqXqXqXqXqX0X0X5X0X8X5X5X5X0XqXqXqX0X0X0X0X5X5X5X0X0X0X0X0X0X0X0XdXpXpXdXdXqXIXZ.F.F.Z.Z.C.x.l.u.l.x.c.3 X o < O O O O O O O O O r.r.w.w.w.u.l.c.u.u.u.l.c.x.x.x.i q w.C.F.Z.Z.3X4XZ.w.i 3 i f f f f f f f f f f f f f i g g f g i i i i i i i i f f f f f f f f 3 i i f f f i i f f f f f f f f w.f i 3 < o o o o < < 3 3 3 3 3 f f f i i w.x.F.G.4XG.H.qXNXFXDXBXBXBXZXZXZXZXZXCXbXpX5X4X6X4X3XdXdXdXdXqX0X5X4X4X5X5X5X4X3XG.H.H.G.4X5X0X0X0X0X0X0X4X3XG.G.G.IXqXqXqX0X0X0X0X0X5X5X5X5X0XqXsXsXsXsXpX0X5X4X4X4X5X0X0XqXqXqXqX0XG.G.H.F.F.3XqXgXqXqXqXqXpXdXdXsXgXdX0X3XH.H.G.3XF.H.G.3X6X5X0X,X&.E.+XT.,.:. .",
"E.E.I.O.#.0.>XuXiXyXqXqXqXtXaXaXjXjXgXsXsXdXdXpXsXsXdXqXqXqXqXqXdXpXqXpXdXqX4XH.Z.C.C.F.Z.s.w.u.u.u.u.u.u.u.u.u.r.f < o < < o O 3 i i 3 3 3 f s.f l.r.i x.gXZXmXbXbXhXjXjXjXgXgXhXsXqXqXqXdXdXpXpXqXqXqXqXpXdXsXlXpXpXdXpXqX0X0X5X0XqXdXsXsXsXsXpXqXqX0X0X0X0XqX0X0XqXqXqX0X5X4X5X5X4X4X4XeX0XqX0X0X0X0X0X5X5X5X4X4X4X4X4X4X4X4XgXsXsXsXsXpX4XF.A.Z.Z.Z.C.x.x.c.l.C.c.i O < < o o o o o o o o o r.r.w.w.w.u.l.c.x.x.x.c.l.l.u.u.w.w.l.F.3XF.F.4XF.x.f 3 3 i i i i i i i i i i i i i i i i i i i 3 3 3 3 3 3 3 3 i i i i i i i i i i i f f i i 3 i i i i i i i i f f i 3 < < < < < < 3 3 i i 3 3 w.w.f i i f x.F.F.G.F.F.0XmXFXDXCXCXCXDXDXDXFXFXZXhXqX4X3X4X4X3XsXsXsXsXsXdXqXqX4X4X4X5X4X3XIXG.G.3X4X0X0XqXwX0X5X4X3XH.F.F.F.F.0X0X0X0X0X5X5X4X5X5X5X5X0XqXsXsXdXpXqX0X0X0X0X0X4X5X0XqXqXqX0X0XH.H.H.F.J.H.0XpXdXdXdXsXsXsXsXsXbXjXpX5XG.F.F.J.G.G.3X4X6X5X5X,X&.E.+XT.,.:. .",
"E.E.I.O.#.0.>XuXyXqXwX0X0XqXtXtXsXsXsXsXdXdXpXpXqXqXqXqXqXqX0X0X0X5X5X0XqX0X3XF.F.Z.Z.G.H.x.l.x.r.r.r.r.r.r.r.r.r.f < o < < o O 3 i i 3 3 3 f u.f l.r.i c.dXMXjXjXjXjXhXhXzXbXbXmXhXsXpXdXsXdXpXpXpXqXqXqXdXsXsXdXdXdXdXpXqX0X5X5X0X0XqXpXpXqXqXpXqXwX0X0X0X0X0X0X0X0X0X0X5X4X4X4X4X4X3X4X4XeX0X0X0X0X0X0X5X5X5X5X5X5X5X5X5X5X5XsXdXdXsXsXqX4XF.x.C.C.C.C.C.C.x.c.C.x.i O < 4 o < < < < < < < < r.r.w.w.w.u.l.c.x.x.c.l.r.w.w.w.l.r.x.H.3XF.F.3XZ.x.w.f f w.f f f f f f f f f f N N f f f f w.F f f f f f f f f f f f f f f f f w.w.w.w.w.f i i 3 3 3 3 3 3 3 3 i 3 < < o o < < < 3 3 i i i i i w.w.f i i f x.Z.C.Z.C.C.4XhXZXBXBXBXZXZXCXDXDXDXBXjXqX4X3X6X6X4XqXpXdXdXdXpXqXqX4X4X4X5X4X4X3XG.4X4X0XwXqXqXqXqX0X5X4X3XH.H.H.G.qX0X0X0X0X5X5X5X5X5X5X5X0XlXsXsXqXqX0X0X0X0XqXqX4X5X0X0XqX0X0X0X3X4X5X4X3X4X0XqXsXsXsXsXsXsXsXdXgXsXdXqX5X4XG.H.6X4X4X4X4X5X5X,X&.E.+XT.,.:.q.",
"E.E.I.O.#.0.>XuX9X8X8X5X5XeXwXqXeX0X0X0X0XwXqXqX4X5X0XqXqX0X5X4XF.Z.F.H.3XG.Z.x.x.u.l.C.C.w.f w.w.w.w.w.w.w.w.w.r.f < o < < o O 3 i i 3 3 3 f u.w.c.i.3 r.0XjXpXjXhXbXMXBXZXCXDXZXMXgXsXsXsXsXdXpXpXqXqXlXdXsXsXsXsXsXdXqX0X4X4X4X5X0X0X0X0X0X5XqXqX0X5X5X5X5X0X5X5X0X0X5X4X4X3X4X3X3XG.3X4X5X8X0X0X0X0X0X5X5X5XlXlXqXqXlXlXlXlXqX0X0XwXqX5XF.x.c.x.C.C.Z.Z.C.C.c.C.x.i o < 3 < < < < < < < < < r.r.w.w.w.u.l.c.w.w.w.w.w.w.w.w.i 3 f x.C.l.u.x.x.u.f f f w.f i i i i i i i i i w.w.w.w.w.w.w.w.f f f f f f f f i i i i i i i i f f f f i 3 < < < < < < < < < < < < O O X O o o 3 3 i f f f i i w.w.f i i f c.Z.c.x.x.c.H.gXmXMXbXMXMXMXmXBXBXBXmXjXwX4X3X6X4X4X4X4X0X0X0X0X0X5X4X4X4X5X4X4X3XG.4X8X0XqXlXqXqXqXpXqXqX0X5X4X5X5XqXqXqXqX0X0X0X0X5X5X5XeX0XqXsXsX0X0X0X0X0XqXqXpX4X4X0X0X0X0X0X0X0XlXdXdXqXqXpXsXsXsXdXpXlXqXqXqX0X0XqXqXqXqXqX0X5X5X5X5X5X5X4X<X&.E.+XT.,.:.q.",
"+.L.I.*.@.0.:X,X9X8X0XeXeXeXeXeXeX0X0X0X0X0X0X0X0X0X0X0X0X0X0X0XZ.F.F.Z.Z.C.x.x.r.u.l.l.u.r.w.w.w.w.w.w.w.w.w.w.w.i < o < < < o 3 i i 3 < 3 f u.u.l.r.w.C.0XsXpXdXqXsXBXGXFXSXFXHXBXsXqXdXsXsXqXpXpXpXdXsXsXgXgXqXqXqXqXqX0X5X6X0X0X5X5X5X4X6X4X4X4X0X0X0X0X0X0X0X0X0X5X4X4X4X3XqX0X0X0X0X5X5X5X5X5X5X0X0X0XwXqX4X0XpXsXsXdXqX0X4X4X4X4X4XG.C.u.x.c.l.l.x.Z.H.4XZ.F.C.f < 3 i 3 3 3 < o o o o < f g i i i f w.w.w.w.r.w.w.f i i f f f f f f f f i i i i i i i i f f f f f f f f f f f f f f f f f f l f f f f f f f f f f f f f f f f w.f f i 3 o o o o o o o o < < < < < < < < o 3 w.r.r.w.r.u.w.w.w.w.w.w.w.w.f l.r.g x.sXmXjXbXbXbXMXMXMXMXmXBXjXqX4X3X4X4X4X4X4X4X4X5X0X0X0X0X0X5X5X5X0X0XqXqXqXqXqX0X0X0X0XwXwXwXwXwXwXwXwX0X0X0X0X0X0X4X6X0X0X0X0X0X0X0X0X0X0XqXdXsXsXsXsXpXlX0X8X4X4X4X4XpXpXpXpXpXpXpXpXqXqXqXqXqX0X4X4X4X4X0XqXqXqXqXqXpXqX0X5X4X4X4X<XR.@X@XT.,.<.0.",
"o.L.I.O.@.0.:X,X,X8X8X5X5X5X4X5X5X5X5X5X5X5X5X5X5X5X5X5X5X5X5X5XF.F.F.F.Z.C.x.x.u.l.l.l.l.u.w.w.r.r.r.r.r.r.r.r.w.i < o < < < o 3 i i 3 < 3 f u.r.s.r.w.C.0XsXdXsXqXsXZXHXFXDXFXHXBXsXpXdXsXsXpXpXpXdXdXsXsXsXgXdXdXdXpXqX0X4X4X5X5X5X5X5X5X4X4X4X5X0XqXqXqX0X0X0X0XeX5X4X4X4X4X0X0X0X0X8X5X5X5X5X5X5X5X0X0X0X0X4X0XpXsXsXsXpXqX5X4X4X5X5X3XZ.c.x.c.l.l.x.Z.H.4XF.G.Z.f < 3 i 3 3 3 < o o o o < f g i i i f f w.w.w.r.w.w.f i i f f f f f f f f i i i i i i i i f f f f f f f f f f f f f f f f f f f f f f f f f f f f f f f f f f f f f f i 3 o o o o o o o o < < < < < < < < o 3 w.r.r.w.r.u.w.w.w.w.w.w.w.w.f l.r.f x.sXmXjXPXbXMXMXMXmXBXBXNXjXqX4X3X4X4X4X3X4X4X4X5X5X0X0X0X0X5X5X5X0X0XqXqXqXqXqX0X0X0X0XqXqXqXqXqXqXqXqX0X0XqXqXqX0X5X4X5X5X5X5X5X5X5X5X5X0XqXpXdXsXsXsXpXqX0X5X4X4X4X4XjXjXgXgXgXgXgXgXpXpXpXqXqX0X4X3X3X6XeXqXqXpXpXpXpXqX0X5X4X4X4X<XR.@X+X+X,.<.0.",
"o.I.I.*.@.0.;X,X,X6X6X4X6X4X4X4X4X4X4X4X4X4X4X4X4X4X4X4X6X4X4X4XF.F.F.F.Z.Z.C.x.l.c.c.c.c.l.u.i.r.r.r.r.u.u.u.u.w.i < o < < < o 3 i i 3 3 3 f u.w.r.w.w.C.0XgXsXsXpXgXCXHXGXFXGXHXBXgXpXsXgXsXpXdXdXdXsXsXsXsXsXsXsXsXdXqX0X4X4X4X4X4X5X5X5X5X8X5X0XwXqXqXqXqXqX0X0X5X5X5X4X4X4X4X4X4X5X5X5X5X5X5X5X5X5X4X4X4X4X5X0XpXsXgXfXsXdX0X5X5X0X0X4XZ.c.c.l.l.l.x.Z.H.4XH.4XF.w.< 3 i 3 3 3 < o o o o < f g i i i f w.w.w.w.r.w.w.f i i i i i i i i i i f f f f f f f f f f f f f f f f f f f f f f f f i i i i i i i i f f f f f f f f f f f f f i i 3 o o o o o o o o o o o o o o o o o 3 w.r.r.w.r.u.r.r.r.r.i.r.r.r.f l.u.f x.sXmXjXhXbXMXMXmXBXZXZXmXjX0X4X4X4X4X4X3X3X4X4X4X4X5X5X0X5X5X5X5X0XqXqX0X0X0X0XqXqXqXqXqXqXqXqXqXqXlXlXqXqXqXqXqXwX0X5X4X4X4X4X4X4X4X4X4X4X0XqXdXsXsXsXqXqX0X5X4X6X4X4XdXdXdXdXdXdXdXdXsXsXsXpXqX0X4X3X3X4X0XqXpXsXsXsXqXqX0X5X4X6X4X<XR.@X+XT.,.<.0.",
"L.I.I.*.@.7.;X<X,X8X8X5X5X4X4X4X4X4X4X4X5X5X5X5X4X5X4X4X4X4X4X4XF.F.F.F.Z.C.C.x.c.c.x.x.c.l.u.r.u.u.u.u.u.u.u.u.w.i < o < < < o 3 i i 3 3 3 f l.f w.w.f x.0XfXsXsXpXgXCXJXGXFXGXHXBXgXpXsXgXsXpXdXsXsXsXsXsXsXsXgXgXsXsXpX0X4X4X4X4X4X4X5X5X0X0X5X0XqXqXlXqXqXqX5X5X5X5X5X5X4X4X4X4X4X4X5X5X5X5X5X5X5X4X4X4X4X4X5X0XqXsXsXgXgXfX0X5X4X5X5X3XZ.c.l.l.l.c.C.Z.H.3XG.4XF.w.< 3 i 3 3 3 < o o o o < f g i i i f w.w.w.w.r.w.w.f i i i i i i i i i i f f f f f f f f f f f f f f f f f f f f f f f f f f f f f f f f f f f f f f f f i f f f f i 3 3 < < < < < < < < O O O O O O O O o 3 w.r.r.w.r.u.r.r.r.r.r.r.r.r.f l.u.f x.sXAXjXhXbXMXMXBXBXCXCXMXgX0X4X4X4X5X5X6X6X4X4X4X4X4X4X5X5X4X4X5X0XqXpX0X0X0X0XqXqXqXqXlXlXlXlXlXlXlXlXqXqXqXqXqXqX0X8X5X5X4X4X5X5X5X5X4X5X0XpXsXsXgXgXlXqX0X8X5X5X5X0XpXpXpXpXpXpXpXpXgXgXsXsXpX0X5X4X4X5X0XpXsXsXgXgXqXqX0X0X5X5X8X,XR.@X+XT.,.<.0.",
"I.Y.Y.*.@.7.;X<X9X8X8X5XeXeX5X5X5X5X5X5X5X5X5X5X5X5X8X5X5X5X5X5XZ.Z.Z.Z.Z.C.x.c.l.l.c.c.c.u.r.w.r.r.r.r.u.u.u.u.w.i < o < < < = 3 i i 3 3 3 w.l.f w.w.f x.0XsXpXsXpXgXCXHXGXFXGXKXmXsXqXdXsXdXqXsXsXsXsXsXsXsXdXsXsXsXdXqX0X5X4X4X5X5X5X5X5X5X5X5X0X0XqXqXqXqXwX4X4X4X4X5X5X5X5X5X4X4X5X5X5X5X5X5X5X5X5X5X4X4X4X0X0XqXpXdXsXsXsX5X4X4X5X5XG.C.l.c.c.c.x.C.Z.F.F.F.3XF.w.< 3 i 3 3 3 < o o o o < f i i i i f w.w.w.w.r.w.w.f i 3 i i i i i i i i f f f f f f f f f f f f f f f f f f f f f f f f f f f f f f f f f f f f f f f f i i f f i i 3 3 < < < < < < < < o o o o o o o o o q w.r.r.w.r.u.u.u.u.u.u.u.u.u.f l.r.f x.sXBXhXbXbXMXMXmXBXBXZXMXsX0X4X4X5XeX5X8X8X5X5X5X5X5X5X4X4X4X4X5X0XqXpX0X0X0X0XqXwXqXqXqXqXqXqXqXqXqXqXqXqXqXqXqX0X0X5X5X5X5X5X5X5X5X5X4X5X0XqXdXsXsXsXqXqX0X0X5X0X0X0XjXjXjXgXgXgXgXjXsXsXsXdXpX0X5X6X4X5X0XpXdXsXsXsXqXqX0X0X5XeX0X2XR.@X+XT.,.<.7.",
"Y.Y.W.*.#.6.B.<X,X6X5X4X4X4X4X4X4X4X4X4X4X4X4X4X4X4X4X4X4X4X4X4XC.C.C.C.C.x.l.u.r.u.s.s.u.r.w.F w.w.w.w.w.w.w.w.w.i < o < < < o 3 i i 3 3 3 w.l.w.r.w.f c.4XpXqXdXqXsXBXKXFXDXFXFXMXpX0XqXdXqX0XsXsXsXsXsXdXdXdXqXqXqXqXqX0X5X4X0X0X0X5X4X4X4X4X6X4X0X0XwX0X0X0X6X4X4X4X5X5XeX0XqXqX0X0X0X5X5X5X5X5X5X0X0X0XqXqXqXqXqXqXqXlXpXpX0X5X5X0X0X4XZ.x.x.x.x.C.C.C.C.C.Z.F.C.f < 3 i 3 3 3 < o o o o < f i i i i f w.w.w.w.r.w.w.f i q i i i i i i i i i i i i i i i i i i i i i i i i i i i i i i i i g g i i i i g f i i i i i i i i i i i i i 3 3 < < < < < < < < < < < < < < < < < o q w.r.r.w.r.u.s.s.s.s.u.u.u.u.f l.r.f x.sXBXhXbXbXbXMXMXMXMXMXbXsX0X3X4X5X0X0XqXqXwX0X0X0X0X0X4X4X4X4XeXqXpXdXqXqXqXqX0X0X0X0XwXwX0XwXwX0XwXwX0X0X0X0X0X0X4X6X4X4X4X4X4X4X4X4X3X4X5X0X0XqX0X0X5X4X4X4X3X4X4X5XqXqXqXwXqXwXqXqX0X0X0X0X0X4X3XG.G.3X4X0X0X0X0X0X5X5X4X4X3X4X4X,XR.@X+XT.,.<.7.",
"Y.E.W.U.#.6.B.<XD.G.G.G.H.H.H.H.H.H.H.H.H.H.H.H.H.H.H.H.H.H.H.H.x.x.x.x.x.l.r.w.w.w.w.r.w.w.f f f f f f f f f f w.i < o < < < o 3 i i 3 3 3 f u.u.l.w.f l.3XwX5XqX0XpXmXFXDXZXSXCXhXqX4X0XqX0X4XfXsXsXsXsXdXpXpX4X5X0X0X0X0X5X4XqXqX0X8X4X3XG.H.IX3X4X5X0X8X5X4X4X4X4X4X5X0X0X0XsXdXpXqX0X0X5X4X4X5X0X0XqXpXdXsXqXqX0X0X0X0X0X0XpXqXqXpXpX0XH.C.C.C.A.C.C.K.x.x.x.C.x.i o 3 i 3 3 3 < o o o o < f i i i i f w.w.w.w.r.w.w.f i q 3 3 3 3 3 3 3 3 3 3 3 3 3 3 3 3 < < < < < < < < < < < < < < < < 3 3 3 3 3 3 3 3 < < < < < < < < 3 i i i i 3 3 < < < < < < < < 4 3 3 3 3 3 3 3 3 o q w.r.r.w.r.u.l.l.l.l.s.s.s.s.f l.r.f x.sXBXhXMXbXbXbXhXhXjXjXhXsX0X3X4X5X0X0XdXdXpXlXqXqXqXwX4X4X4X4X0XqXpXsXsXdXpXqX0X5X4X6X0X0X0X0XeXeXeX0X4X5X5X0X5X4X3XIXH.H.H.H.H.H.H.H.F.H.H.G.G.H.F.F.F.F.Z.Z.Z.F.F.H.Z.Z.Z.Z.Z.Z.Z.Z.Z.Z.F.F.F.F.Z.Z.Z.Z.F.F.F.F.J.Z.F.F.Z.Z.Z.F.F.;XR.@X+XT.,.<.7.",
"E.E.W.U.#.6.B.;XS.S.J.Z.Z.Z.Z.Z.Z.Z.Z.Z.Z.Z.Z.Z.Z.Z.Z.Z.Z.Z.Z.Z.c.c.x.c.l.r.w.F f w.w.w.w.f g i f f f f f f f f w.i < o < < < & 3 3 i 3 3 3 f u.l.c.r.f l.G.0X4XqX5XqXMXDXCXBXZXZXjX0X4X5X0X0X4XgXfXsXsXdXpXpXpX3X3X4X5X0X0X5X5XpXqXqX0X6XIXH.F.G.G.4X4X4X4X6X4X3X4X4X4X5X0X0X0XjXgXsXpXqX0X4X4X4X5X0XqXpXsXgXjXpXqX0X5X4X6X4X4XsXsXsXsXsXpX4XF.Z.Z.Z.Z.C.x.c.l.u.x.s.3 O < i 3 3 3 < o o o o < f i i i i f w.w.w.w.r.w.w.f i i 3 3 3 3 3 3 3 3 < < < < 3 < < < < < < < < < < < < < < < < < < < O O O O O O o O < < < < < < < < 3 i i i i 3 < < 3 3 3 3 3 3 3 3 i 3 3 3 3 3 3 3 o q w.r.r.w.r.u.l.l.l.l.l.l.l.l.f l.r.f x.sXNXhXMXbXbXhXjXgXfXsXhXsX5X3X4X8X0X0XsXsXsXdXpXlXqXqX3X3X4X4X0XqXdXsXsXsXdXqX0X4X4X3X5X5X5X5X4X4X4X4X4X4X4X4X4X4XG.G.Z.Z.Z.Z.Z.Z.Z.Z.C.Z.Z.Z.Z.C.x.x.C.C.x.x.x.C.C.Z.C.C.C.C.C.C.C.C.u.l.x.x.x.x.x.x.x.x.x.x.x.x.l.s.C.C.x.x.x.C.C.N.R.@X+XT.,.<.7.",
"E.Y.I.O.>.0.;X;XD.S.J.J.J.J.J.J.Z.Z.Z.Z.F.F.F.F.J.J.J.J.Z.Z.J.J.x.c.r.r.l.c.l.u.u.u.r.w.f g i i i i i i i i i i i i 3 < O O O O 3 i i 3 3 3 w.u.w.r.r.w.x.4X0X4X4X3X0XMXFXCXBXZXFXmXdX4X4X4X0X0XpXdXsXsXdXqX5X4X4X4X3XIX4X5XqXpXqX0X5X4XG.G.G.G.3X3X3X4X4X4X4X5XqX0X5X5X0XqXpXsXsXsXsXdXqX0X4X4X4X4X0XqXqXpXpXpXqXwX0X4X4X3X4X4XdXdXdXsXsXqXG.C.F.F.Z.Z.C.x.l.r.l.x.r.3 < i i < 3 3 < o o o o < f i i i i f w.w.u.u.i.w.f g i i w.f f i i 3 3 < 3 3 3 3 3 3 3 3 o o o o < < < < < < < < o o o o o o < < < = o X X O O O O O X O 3 3 3 3 3 3 3 3 3 3 3 e i i i i < < 3 3 i q 3 3 3 w.c.x.u.f f w.l.l.c.c.c.l.r.w.i u.r.i x.sXBXhXbXhXjXgXfXfXfXgXsXqX5X4X5X0X5X4XpXpXdXdXpXqXqX0X0X5X5X0X0XqXdXsXsXdXqX0X0X5X5X0X0X0X0X5X5X4X4X4X4X5X0XqX0X4XF.Z.Z.Z.Z.Z.Z.Z.Z.Z.F.F.Z.C.C.C.C.Z.C.C.C.C.C.C.C.C.C.C.C.C.C.C.C.C.C.C.C.C.C.C.C.C.C.C.C.C.C.C.C.C.C.C.C.C.C.C.C.N.R.@XT.=.,.$.q.",
"E.I.I.O.>.0.B.;XD.D.F.F.F.F.F.F.J.F.F.F.F.F.F.F.F.F.F.F.F.F.F.F.C.x.l.l.c.x.c.u.l.u.u.w.w.f f i f f f f f f f f i 3 < < O O O O 3 i i 3 3 3 w.u.w.r.r.w.x.4X0X4X4XG.0XMXFXCXBXZXDXMXqX4X3X4X5X5XsXsXsXsXsXqX0X5X5X4X4X3X4X5X0XqX0X0X4X3XG.G.G.G.3X3X3X4X4X6X4X4X0X8X4X6X4X0XqXpXsXsXsXdXqX0X4X4X5X0XqXpXdXdXdXdXpXqX0X5X4X4X4X4XsXsXsXsXsXqX4XZ.F.F.F.Z.C.x.l.u.l.x.u.3 < i i < 3 3 < o o o o < f i i i i f w.w.u.u.r.w.f f i i f f i i 3 < < < 3 3 3 3 3 3 3 3 < < < < < < < < < < < < < < < < o < < < < < o O 3 3 3 3 3 3 3 3 3 3 3 3 3 3 3 3 e 3 3 i i i i i 3 3 i i i i i i < f u.c.u.w.r.s.l.l.c.c.c.l.r.w.i l.r.f x.sXBXhXMXMXhXjXgXgXjXjXgXpX0X4X0X0X0X5XwXqXqXqXqX0X5X5X4X4X4X4X5X0XqXpXpXqX0X5X4X4X6X4X4X4X4X4X3X3X3XG.IX4X5X5X4XG.Z.C.F.F.F.F.F.F.F.F.H.F.Z.Z.Z.Z.Z.Z.Z.Z.Z.Z.Z.Z.A.A.Z.A.A.A.Z.Z.Z.Z.A.A.C.C.Z.Z.Z.Z.Z.Z.Z.A.Z.Z.Z.Z.Z.Z.Z.Z.Z.Z.C.N.R.@XT.=.,.$.q.",
"Y.Y.I.O.>.0.B.N.D.D.F.F.F.F.F.F.F.F.F.F.F.F.F.F.F.F.F.F.F.F.F.F.A.x.c.c.x.x.c.u.s.u.r.w.w.f f f f f f f f f f f i 3 < o O O O o 3 i i 3 3 3 w.l.w.r.w.w.x.3X5X3X3XH.0XMXDXCXBXZXZXhXqX4X3X4X4X5XsXsXsXsXsXpXqX0X5X5X4X4X4X5X0X0X0X5X4X3XG.G.G.G.G.G.3X3X4X4X4X4X0X5X5X4X4X0X0XqXdXdXdXpXqX0X5X4X0X0XqXpXdXdXdXdXpXqXqX0X5X5X5X5XsXsXsXsXsXpX4XF.F.F.F.Z.C.x.c.l.l.x.u.3 < i i < 3 3 < o o o o < f i i i i f w.w.u.u.r.w.w.f f i i i i 3 3 < < < 4 4 4 3 4 4 3 3 X X X X X X X X X X X X X X O O     X X X X X   X X X X X X X X o o o o o o o o < < < < < & < < < < < < < o o o 3 i w.u.r.r.u.c.l.l.c.c.c.l.r.w.f l.u.f x.sXmXjXmXMXhXjXgXgXgXgXgXpX0X5X0X0X0X5XsXsXsXsXsXdXpXqXqXqXqXqXqXdXsXgXgXsXdXqXqXqXqXqXqXqXqX0X0X0X0X0X0X0XqXqXqX5X3XG.F.F.F.F.F.F.F.F.H.F.J.Z.Z.Z.Z.Z.Z.Z.Z.Z.Z.C.C.Z.Z.Z.A.A.Z.Z.Z.Z.Z.Z.A.Z.Z.Z.Z.Z.Z.Z.C.C.Z.Z.Z.Z.A.Z.Z.Z.A.C.Z.N.R.@XT.=.;.$.q.",
"I.I.I.*.>.7.B.N.V.Z.Z.Z.A.A.A.A.A.Z.C.C.C.C.C.C.C.C.C.C.C.C.C.C.x.c.l.l.c.c.r.f w.w.f f f i i i i i i i i i i i 3 3 < o o o o o 3 i i 3 3 3 w.u.w.r.w.w.c.G.4XH.G.F.5XbXDXCXBXCXCXbXpX8X5X0X0X0XpXpXpXpXqXqX0X0XeX5X5X4X4X4X4X4X5X4X3XG.G.G.G.IXG.G.G.3X3X4X4X4XwX0X0X0X0X0XqXqXpXpXpXpXqX0X5X4X5X0X0XqXqXqXqXqXqXqX0X4X4X4X4X4XdXpXqXpXdXqX4XF.Z.F.F.Z.Z.C.x.c.c.x.s.q < i f 3 3 3 < o o o o < f i i i i f w.w.u.r.r.w.w.w.f f f f g i i 3 3 3 i i i i i i i i 3 3 3 3 3 3 3 3 3 3 3 3 3 i i i 3 3 i i f i i i 3 3 3 3 3 3 3 3 f f f f f f f f w.w.w.w.f f f f w.f f i i i i i f w.w.w.w.w.r.u.l.l.c.c.c.l.r.w.f c.u.f x.sXMXjXMXhXjXsXsXdXdXdXsXqX4X3X4X5X4X4XqXpXpXpXpXqXqX0X0X0X0X0X0XqXpXdXdXpXqX0X0X0X0X0X0X0X0X5X5X4X4X4X4X4X5X8X5X4XG.H.Z.Z.Z.Z.Z.Z.Z.Z.J.Z.C.C.x.x.C.C.K.x.x.K.x.x.x.x.x.x.x.x.K.K.K.x.x.x.x.x.K.K.K.x.C.C.x.x.x.x.K.x.x.x.x.x.x.x.x.M.R.@XT.=.;.$.q.",
"I.I.I.U.>.7.9.M.M.m.x.x.x.x.c.c.x.x.x.c.l.l.u.u.c.c.c.c.c.c.c.c.l.r.w.r.u.r.f 3 i q 3 3 3 3 3 3 < < < < < < 3 3 3 < < o o o < < 3 3 i 3 3 3 f u.w.u.w.f c.H.4XF.F.F.4XhXCXCXBXCXDXMXsXqXqXpXpXpX0X0X0X8X5X5X5X5X0X0X0X8X5X4X3X3X4X4XG.G.H.H.G.3XH.H.G.G.3X3X3X4XdXdXdXdXdXpXpXpXqXqXqXqXqX0X5X4X3X4X4X5X0X5X5X4X8X4X4XG.H.H.H.H.qX0X8X0X0X5XG.Z.Z.F.F.F.Z.C.C.x.c.C.l.i 3 f f 3 3 3 < o o o < < f i i i i f w.w.r.r.r.i.w.w.w.w.w.w.w.w.N f f f w.w.w.w.w.w.w.w.Z.Z.Z.Z.Z.Z.Z.Z.Z.Z.Z.F.F.H.H.H.H.G.4X4X5X5X4X4XqXqXqXqXqXqXqXqX0X0X0X0X0X0X0X0XqXqX0X0X0X5X4X4X5X4XG.F.Z.Z.J.F.C.c.r.f f f f f l.l.c.c.c.l.r.w.w.c.u.f x.sXMXjXjXgXsXpXqX0X0X0XqX4XH.F.F.G.H.F.Z.F.F.F.F.Z.C.C.Z.C.C.C.C.Z.Z.F.F.Z.Z.C.C.C.C.Z.C.C.x.x.x.x.c.c.c.x.x.x.x.c.l.s.x.x.x.x.x.x.x.x.x.x.c.l.u.l.l.c.s.s.s.u.s.s.u.u.u.u.s.l.l.f.u.u.u.u.s.l.l.l.u.u.u.u.u.u.l.l.h.u.u.u.u.u.u.u.u.~ -.@XT.=.,.$.q.",
"L.I.I.U.>.6.5.) k.h.l.l.l.s.s.s.l.l.u.r.w.w.f f r.r.r.r.r.r.r.r.r.w.w.w.r.w.3 o < < < < < < < < < < < < o o < < 3 < < o o < < < 3 3 i 3 3 3 f u.w.u.w.f l.F.3XF.F.Z.4XhXCXCXBXCXDXmXjXsXsXsXsXdX0X5X4X4X4X4X4X5X0X0X0X0X5X4XG.H.3XG.H.H.H.H.G.3XF.H.H.G.G.3X3X3XsXsXfXgXgXsXdXpX0X0XqXqXqX0X5X4XG.3X4X4X4X4X3XIX4X3XG.F.F.F.F.F.0X4X4X4X4X4XH.Z.Z.Z.F.F.Z.Z.C.C.x.C.c.i 3 f f 3 3 3 < o o o & < f i i i i f w.w.r.r.r.r.r.r.r.r.r.r.r.r.i.i.i.w.r.r.r.r.r.r.u.u.3X3X3X3X3X3X3X3X3X3X4X4X5X0X0X0XqXqXdXsXsXfXsXsXjXjXjXgXjXjXjXjXgXgXgXgXjXjXgXjXjXjXjXgXsXsXsXdXsXpX0X4XIXG.3X3XF.C.w.i i i i i l.l.c.c.c.l.r.w.w.x.l.f x.dXMXgXgXsXpX0X5X4X4X4X0X3XZ.Z.Z.F.F.Z.C.C.Z.Z.Z.C.x.x.C.x.x.x.x.x.C.C.C.C.x.x.x.x.x.C.c.c.c.c.l.u.u.u.u.u.u.u.u.u.u.u.l.l.l.l.l.l.l.l.c.l.u.r.w.w.r.r.w.w.w.w.w.w.w.w.w.w.w.w.w.w.w.w.w.w.w.w.w.w.w.w.w.w.w.w.w.w.w.w.w.w.w.w.w.w.w.R -.@XT.=.,.$.q.",
"L.I.I.Q.>.6.4.! k.h.l.l.l.s.s.s.l.l.u.r.w.w.f f i.i.w.w.w.w.w.w.u.r.w.r.u.w.3 O < < < < < < < < < < < < < < < < < < o o o < < 3 3 i i 3 < 3 f u.w.u.w.f s.F.G.Z.Z.Z.3XjXCXZXBXCXZXMXjXsXsXsXsXdX0X5X4X4X4X4X0X0XqXqXqXqX8X3XH.J.G.G.H.F.F.H.G.3XF.F.H.H.G.G.3X3XsXsXsXgXfXdXpXqX0X0XwXqX0X0X5X4X3X4X4X4X4X4X3X3X4X4XG.H.F.F.F.F.0X5X4X4X4X4XG.F.Z.Z.F.F.F.Z.Z.C.x.C.c.i 3 f f 3 3 3 < o o o < < f i i i i f w.w.r.r.r.r.r.r.u.u.w.w.w.w.w.w.w.w.r.r.r.r.r.r.r.r.F.F.F.F.F.F.F.F.F.F.F.H.G.4X6X4X4X5X0XqXlXpXpXpXqXqXwXwXwX0X0XqXdXdXdXdXdXdXdXdXsXsXdXpXqXqX0X0XpX0X4XF.Z.Z.Z.F.H.x.f 3 i f f f l.c.c.c.c.l.r.w.w.x.l.f x.dXMXfXjXsXpXwX5X4X4X4X0X3XZ.Z.Z.F.F.Z.F.H.H.H.H.F.Z.Z.F.F.Z.Z.Z.Z.F.F.F.F.Z.Z.Z.Z.F.F.Z.Z.C.C.C.C.x.x.C.x.x.x.x.x.C.C.l.l.l.l.l.l.l.l.c.l.u.r.w.w.r.r.w.w.w.w.w.w.w.w.w.w.w.w.w.w.w.w.w.w.w.w.w.w.w.w.w.w.w.w.w.w.w.w.w.w.w.w.w.w.w.R -.@XT.=.,.$.q.",
"o.I.I.Q.>.3.[ ! j.c.c.c.c.l.l.l.x.c.l.u.i.w.f f u.u.r.r.r.r.r.r.l.u.u.l.c.r.i o < < < < 3 3 3 3 3 3 3 3 < 3 3 3 < < o o o < < 3 3 i i 3 < 3 f u.w.u.w.f u.F.H.Z.Z.C.3XjXCXZXBXCXBXbXsXdXdXdXdXqXqX0X5X4X4X5XqXqXqXqXqXqX0X3XF.Z.G.H.F.F.F.H.G.3XF.F.F.H.G.G.IXIXpXdXsXsXsXpXqX0X5X0X0XwX0X0X5X4X4X5X5X0X0X5X4X4XeX4X3XG.H.H.H.H.qX0X4X4X5X5X4XG.Z.Z.F.F.F.Z.Z.C.x.C.c.f 3 f f i 3 3 < o o o < < f i i i i f w.w.r.r.r.u.u.u.u.u.f f f f w.w.w.w.w.w.w.w.w.w.w.w.F.F.F.F.F.F.F.F.F.F.H.3X4X5X5X0X4X5X0XqXpXpXpXdXsXsXsXsXsXsXsXsXdXdXdXdXdXdXdXdXsXsXdXpXqXqX0X0XsXqX5XH.J.Z.F.F.F.c.i 3 i w.w.w.l.l.c.c.c.l.r.w.w.x.l.f x.dXbXsXhXjXsXqX0X5X4X4X0X4XF.Z.F.H.F.F.Z.Z.F.F.F.Z.C.C.Z.Z.C.C.C.C.C.Z.Z.C.C.C.C.C.Z.Z.C.C.x.x.x.x.c.c.c.c.l.l.l.c.x.x.c.c.c.c.c.c.c.c.x.c.l.u.u.r.u.l.u.u.u.u.u.u.r.r.r.r.u.u.u.u.r.r.r.u.r.u.u.u.u.r.r.r.r.r.u.u.u.u.u.u.u.u.u.u.u.! -.@XT.=.,.$.q.",
"E.I.o.+.>.7.5.~ m.c.x.x.x.x.x.x.u.u.u.u.u.u.u.u.u.u.u.u.u.u.u.u.u.l.c.l.u.w.i 3 < < < < < < < < < < < < < < < < < < < < < < < < 3 i i 3 3 3 f u.w.w.w.r.c.C.F.G.G.C.G.AXJXDXmXZXBXbXsXqXpXdXpXpX5X5X5X5X5X5X5X5XqXqX0X5X4X4XIXG.F.F.F.H.H.G.G.G.H.H.H.H.H.H.H.H.dXpXpXpXdXdXdXdXqXqXqXqXqX0X0X5XG.3X4X8X0X0X0X0X4X4X4X3XG.H.H.F.5X4X4X5X0X4XH.Z.F.C.C.F.H.A.Z.H.Z.C.x.u.w.f f i i 3 < o O O O o f i i i i f w.w.r.i.w.w.N w.w.r.c.w.w.l.l.f f u.r.r.r.r.w.r.r.r.F.H.H.H.H.F.F.F.3X3X3X3X6X5X0XqX3X4X5X0XpXsXgXjXdXdXpXpXlXqXqXqXsXdXlXpXsXgXsXpXsXsXsXsXsXpXqX0X0X0X4X3XH.F.F.F.F.x.w.f f f f f l.l.c.c.c.u.r.w.r.l.r.r.Z.pXhXjXgXsXdXqX0X0X0X0X3XG.F.F.Z.F.F.F.Z.Z.Z.Z.Z.Z.C.x.Z.Z.Z.Z.Z.C.C.C.C.C.C.C.C.C.C.C.x.x.x.x.x.x.x.x.l.l.l.l.l.l.l.l.x.x.x.x.x.x.x.x.l.l.l.l.l.l.l.l.u.u.u.u.u.u.u.u.u.u.u.u.u.u.u.u.u.u.u.u.u.u.u.u.u.u.u.u.u.u.u.u.w.w.w.w.w.w.w.R &.@X+XT.,.:. .",
"!.I.o.o.>.6.4.R m.x.x.x.x.x.c.c.u.u.u.u.u.u.u.l.w.w.w.w.w.w.w.w.w.w.r.r.w.f i 3 < < < < < < < < < < < < < < < < < < < < < < < < 3 i i 3 3 3 w.l.w.w.w.r.l.C.Z.F.F.c.F.MXHXDXNXCXZXMXgXdXsXsXsXsX5X5X5X5X5X5X5X5XqX0X0X5X4X4X3XIXH.H.G.G.3X3X3X4XG.IXIXIXIXIXG.G.qXqXqXqXlXlXlXlX0X0XqXqXqXqX0X0X4X4X5X8X8X5X5X4X4X6X4X3XG.G.G.H.0X5X5X0X0XeXG.Z.H.Z.Z.H.H.C.C.F.C.C.c.r.w.f f i i 3 < o O O O o f i i i i f w.w.r.w.w.w.w.r.l.c.u.N w.c.x.w.w.x.f f f f f f N N Z.Z.Z.Z.Z.Z.Z.Z.F.F.F.F.H.3X4X5X5X8X0XqXpXsXsXgXgXgXfXsXsXsXsXdXjXgXsXsXgXgXsXqXpXdXdXdXpXqX0X0X0X5X3XH.F.Z.Z.Z.Z.x.f i i i i i l.l.c.c.c.f.r.w.r.l.r.w.C.qXgXsXsXsXpX0X0X5X5X5XH.F.F.Z.Z.Z.Z.F.Z.Z.Z.Z.Z.C.C.x.Z.Z.C.C.C.C.x.x.x.x.x.x.x.x.x.x.l.l.l.l.l.l.l.l.u.u.u.u.u.u.u.u.l.l.l.l.l.l.l.l.u.u.u.u.u.u.u.u.w.w.w.w.w.w.w.w.w.w.w.w.w.w.w.w.w.w.w.w.w.w.w.w.w.w.w.w.w.w.w.w.w.w.w.w.w.w.w.I &.@X+X+X,.:. .",
"%XY.I.O.@.3.Q I E y.i.w.r.r.w.w.f f f f f f f f i i i i i i i i i i f f f i i 3 < < < < < < < < < < < < < < < < < < < < < < < < 3 i i 3 3 q w.l.u.u.u.u.l.x.C.C.C.r.Z.bXHXCXBXCXDXmXhXjXjXjXjXgX5X5X5X5X5X5X5X5X0X0X0X5X4X4X3X3X3X3X4X4X4X4X5X5X6X6X4X4X4X4X4X4X0X0X0X0X0X0X0X0X5X5X0X0XqXqXpXpX0X0X0X5X4X4X3X3X4X4X4X3X3X3XG.G.qX0X0XqXqXqX4XH.4XF.F.3XH.C.x.C.C.x.l.r.w.f f f i 3 < o O O O o f i i i i f w.w.w.w.w.r.u.c.x.C.x.u.c.F.F.Z.Z.G.F.F.F.F.F.F.F.F.pXpXpXdXpXpXpXpXpXpXpXpXdXsXjXjXgXjXjXjXhXhXhXhXMXbXbXhXhXjXjXjXMXbXjXjXhXjXsXqXqXqXqXqXqX0X4X4X4X3XF.Z.Z.C.C.C.C.u.i 3 3 3 3 3 l.l.c.c.c.f.r.w.u.l.r.w.x.5XpXqXpXqX0X5X4X3X3X3XF.F.Z.C.C.C.C.Z.C.Z.Z.Z.Z.C.x.x.C.C.x.x.x.x.c.c.c.c.c.c.c.c.c.c.u.u.u.u.u.u.u.u.w.w.w.w.w.w.w.w.w.w.w.w.w.w.w.w.w.w.w.w.w.w.w.w.w.w.w.w.w.w.w.w.f f f f f f f f f f f f f f f f f f f f f f f f f f f f f f f J &.@X+XT.,.:. .",
"%XE.I.*.@. .H ; - 2 4 < < < 4 4 o o o o o o o o < < < < < < < < < < 3 3 3 3 i i < < < < 3 3 3 < < < < 3 < < < < 3 3 < < < < 3 3 i i i i 3 i w.c.l.l.l.l.l.l.l.c.l.f x.jXGXCXBXDXFXBXMXbXMXMXbXhX5X5X5X5X5X5X5X5X0X0X0X5X4X4X4X4X4X4X5X5X0X0X0X0X8X8X0X0X0X0X0X0X5X5X5X5X5X5X5X5X4X4X5X0XqXpXsXsXdXlX0X5X4XG.H.H.4X4X4X4X4X4X3X3XdXpXqXpXdXpXeX3X0XG.G.4XG.x.l.x.x.x.u.w.f f f f i 3 < o O O O o f i i i i f w.w.w.w.w.u.c.C.Z.F.F.Z.H.qXdX0XqXsXdXsXsXsXsXsXsXsXCXCXCXCXCXCXCXCXBXBXBXBXZXDXFXGXFXFXDXDXSXCXCXCXBXBXBXmXmXmXMXMXBXmXMXMXMXhXsXqXwXqXqX0X5X6XIXH.G.F.Z.C.x.x.x.x.x.w.3 < < < < < l.l.c.c.c.f.r.w.s.l.w.f l.3X0X5XqX0X4X3XH.F.F.F.Z.Z.C.x.x.x.C.C.C.C.Z.Z.C.C.x.x.x.c.c.c.l.u.u.u.u.u.u.u.u.u.u.u.w.w.w.w.w.w.w.w.f f f f f f f f f f f f f f f f f f f f f f f f f f f f f f f f i i i i i i i i i i i i i i i i i i i i i i i i 3 3 3 3 3 3 3 > &.@X+XT.,.:. .",
"%XE.I.U.@./ J , % O o O O O O O X X X X X X X X o o o o o o o o O O o < < 3 3 i 3 3 3 3 3 3 3 3 3 3 3 3 3 3 3 3 3 3 3 3 3 3 3 3 i i f i 3 i w.c.c.c.c.l.l.u.r.r.u.i x.jXFXCXBXDXFXZXmXMXBXBXmXbX5X5X5X5X5X5X5X5X0X5X5X5X5X4X4X4X8X0X0X0X0XqXqXqX0X0X0X0X0X0X0X0X4X4X4X4X4X4X4X4X4X4X4X5X0XpXsXgXfXdXqX4XG.H.F.F.4X4X4X4X4X6X4X4XsXdXpXdXsXdX0X4X0X4X4X0X3Xx.r.l.x.l.r.w.f f f f i 3 < o O O o o f i i i i f w.w.w.w.r.s.x.C.F.H.H.F.4XsXjXsXsXhXdXdXdXdXdXdXdXdXCXCXCXCXCXCXCXCXBXBXBXBXZXSXFXFXJXJXHXHXGXFXFXDXCXCXCXZXZXBXBXBXZXBXBXBXmXbXsX0X0X0X0X0X4X3XF.F.F.Z.C.x.c.l.l.l.c.w.3 o o < o o l.c.c.c.c.l.r.i.u.l.w.f l.G.0X4X0X5X3XH.F.F.Z.F.Z.C.C.x.x.x.x.C.C.C.C.C.C.C.x.c.l.l.l.s.u.r.r.r.r.r.r.r.r.r.r.r.w.w.w.w.w.w.w.w.i i i i i i i i i i i i i i i i i i i i i i i i i i i i i i i i 3 3 3 3 3 3 3 3 3 3 3 3 3 3 3 3 3 3 3 3 3 3 3 3 3 3 3 3 3 3 3 ; &.E.+XT.,.:. .",
"E.Y.I.U.>. .J , - - < < < $ $ $ < < < < < < < < o o o o o o o o o o O O o < 3 3 3 3 3 3 3 3 3 3 3 3 3 3 3 3 3 3 3 3 3 3 3 3 3 3 i f f i i i r.x.l.l.c.c.l.u.w.w.l.f x.jXFXCXBXDXDXBXmXBXBXZXBXMX5X5X5X5X5X5X5X5X5X5X5X5X5X5X5X5X0X0X0X0X0XqXqXqX0X0X0X0X0X0X0X0X4X4X4X4X4X4X4X4X5X4X4X4X0XqXsXjXgXsXqX4XG.F.F.H.3X4X4X6X4X5X5X5XsXdXpXdXsXdX0X4X0X4X4X0X4XC.r.u.l.u.w.f f f f f i 3 < o O O o o f i i i i f w.w.w.w.w.u.c.C.Z.F.C.C.H.pXsXpXqXsXpXpXpXpXpXpXpXpXCXCXCXCXCXCXCXCXBXBXBXBXZXDXFXGXKXGXFXFXSXZXZXBXSXCXCXZXZXBXBXBXBXBXBXBXBXMXsX0XqXwX0X0X4XG.F.Z.F.Z.C.x.l.l.u.u.c.w.3 o o < o O l.c.c.c.c.l.r.i.u.l.w.f l.3X0X4X5X4X3XF.F.Z.Z.Z.Z.Z.C.x.x.x.C.C.C.C.C.C.C.x.x.c.l.l.l.u.u.r.r.r.i.i.i.i.r.w.w.w.w.w.w.w.w.w.w.w.i i i i i i i i i i i i i i i i i i i i i i i i f f f f f f f f < < < < < < < < < < < < < < < < 4 3 < < < < < < 3 3 3 3 3 3 3 ; &.E.+XT.,.:. .",
"I.L.o.U.>. .J , , - < < < < < < < < < < < < < < < < < < < < < < < < o O O < < 3 3 3 3 3 3 3 3 3 3 3 3 3 3 3 3 3 3 3 3 3 3 3 3 3 i f f f i f r.x.r.u.l.c.l.u.w.f x.w.C.hXGXCXBXCXCXBXmXBXZXZXNXMX5X5X5X5X5X5X5X5X4X4X4X4X5X5X5X5X5X5X0X0X0X0XqXqX0X0X0X0X0X0X0X0X4X4X4X4X4X4X4X5X0X0X4X4X5XqXsXgXjXsX0X4XH.H.H.G.3X3X4X4X5X8X0X0XsXpXpXdXsXdX0X3X0X4X4XqX5XC.u.l.u.r.w.f f f f f i 3 < o o O o o f i i i i f w.w.w.w.w.r.l.x.C.Z.C.x.F.qXsXqX0XpXsXsXsXsXsXsXsXsXFXFXFXFXFXFXFXFXDXDXCXDXFXFXHXHXFXFXDXCXZXBXBXBXZXZXZXBXBXBXBXBXmXMXmXBXBXMXsX0XqXqXqX0X4XG.F.Z.F.Z.C.x.c.l.u.u.c.w.3 o o < < o l.l.c.c.c.s.r.w.u.l.r.f c.4XqX0X5X4X3XH.F.Z.Z.Z.F.Z.C.C.C.C.C.C.x.C.C.C.C.x.c.l.c.c.l.l.u.u.r.r.r.r.r.r.r.r.r.r.r.r.r.r.r.r.r.r.f f f f g f f f i i i i i i i i f f f f f f f f f f f f f f f f < < < < 3 < < < < < < < < < < 4 < < < < < < < < 3 3 3 3 3 3 3 ; &.E.+X+X,.:. .",
"o.o.o.U.>.2.J , % % % o o O O o o o o o o o o o 3 3 3 3 3 3 3 3 3 < o O O o < 3 3 3 3 3 3 3 3 3 3 3 3 3 3 3 3 3 3 3 3 3 3 3 3 3 i f f f i f r.x.w.r.l.c.c.u.w.f x.w.Z.hXHXDXBXCXBXBXmXBXZXZXmXMX5X5X5X5X5X5X5X5X4X4X4X4X5X5X5X8X5X5X5X0X0X0X0XwX0X0X0X0X0X0X0X0X5X5X5X5X5X5X5X5XqX0X5X4X5XqXdXgXjXdX0X3XH.H.G.3X3X4X4X4X5X0X0X0XdXpXqXdXsXpX0X3X5X3X4XqX0XZ.l.l.r.r.w.f f f f f i 3 < o o O o o f i i i i f w.w.w.w.w.r.s.x.K.C.Z.C.G.dXgXpXqXdXqXqXqXqXqXqXqXqXBXBXBXBXBXBXBXBXBXBXBXBXZXDXFXGXGXFXFXFXDXCXCXZXBXBXBXBXBXmXmXmXMXMXMXBXBXMXsX0XpXqXqX0X5X3XF.Z.F.Z.C.x.c.l.l.l.x.w.3 < < < < o l.l.c.c.c.s.r.w.u.l.r.N x.4XpXqX0X4X3XH.F.Z.Z.Z.F.F.Z.C.C.C.C.Z.x.x.C.C.C.x.c.l.c.c.c.l.l.u.u.u.u.u.u.u.u.u.u.u.u.u.u.u.u.u.u.u.f f f f f f f f i i i i i i i i f f f f f f f f w.w.f w.w.w.w.w.3 3 3 3 3 3 3 3 3 3 3 3 3 3 3 3 3 3 3 3 3 3 3 3 3 3 3 3 3 3 3 ; *.@X+XT.,.:. .",
"Y.I.I.U.8.3.H ; - - < < < $ $ $ $ < < < < < < < < < < < < < < < 3 3 3 3 3 3 < < 3 3 3 3 3 3 3 3 3 3 3 3 3 3 3 3 3 3 3 3 3 3 3 3 i f f f i f r.x.l.l.c.c.c.f.r.w.u.r.Z.dXmXBXBXCXbXmXBXBXMXMXmXBX5X4X4X3X3X3X4X4X5X0X0X0X0X0X5X4X0X0X0X0X0X0X0X0X4X5X0X0XqXqX0X0X4X4X0X0X0X0X0X5X4X5X5X0X0XwXqXqXpXqX0X5X4XG.H.F.G.G.3X4X6X4X5X5XdXpXpXdXsXdX0X3X4X4X4XG.F.Z.x.c.x.c.u.w.f f f f f 3 o O < < o X 3 3 3 3 3 3 i f c.c.w.3 f Z.G.F.F.G.4X0XqXdXsXsXsXsXgXgXgXsXsXdXFXFXFXFXDXCXBXBXBXZXCXDXDXSXCXZXBXZXCXDXDXSXCXZXFXZXmXMXmXBXMXbXBXmXMXmXmXMXgXqX0X0X0X5X4XG.F.F.Z.G.F.l.w.s.x.l.w.i < o < < < o u.u.u.u.u.u.u.r.f w.u.x.C.F.G.3XH.H.H.H.H.H.H.H.C.C.C.C.C.C.C.C.x.x.x.x.C.C.C.C.w.w.w.w.w.w.w.w.w.w.w.w.w.w.w.w.w.w.w.w.w.w.w.w.i i f f i i 3 3 i i i i i i i i f f i i i i i i 3 q i i 3 3 3 3 3 i 3 3 3 3 3 3 3 3 3 3 3 3 i i 3 q i i 3 3 3 3 3 3 i i i 3 3 > R.E.T.=.,.$.K ",
"Y.I.I.U.8.3.H ; : 2 3 3 3 4 4 4 4 3 3 3 3 3 3 3 3 3 3 3 3 3 3 3 3 3 3 3 3 3 3 3 3 3 3 3 3 3 3 3 3 3 3 3 3 3 3 3 3 3 3 3 3 3 3 3 i f f f i f r.x.l.l.c.c.c.f.r.w.u.w.C.qXhXhXjXbXhXMXBXBXMXMXmXBX0X5X5X4X4X5X0X0XqXqXqXqXqX0X5X4X3X3X3X3X3X3X3X4X4X4X5X0X0X0X0X5XqXpXdXdXdXpXqXqX4X5X5X5X0X0X0XqX0X0X0X5X5X5X5X5X4X4X5X5X8X0X0X0XqX0X0XqXqXqX4XF.G.G.G.F.Z.C.c.l.x.c.u.w.f f f f f 3 o O < < o X 3 3 3 3 3 3 i f i f i 3 l.4XsXdXqXpXsXjXhXbXMXMXbXMXMXmXmXmXMXMXMXMXMXMXMXzXjXgXjXjXjXfXdXqX5X6X0XqXlXdXsXsXdXdXsXpX0X0X0X0X0X4XgXsXsXsXsXdX0X3X0X0X0X5X6XG.F.F.C.H.F.u.f w.r.w.w.i < o < < < o N F f f w.w.w.w.< < 3 3 i f f w.f f f f f w.f f i i i i i i i i i i i i i i i i f f f f f f f f f f f f f f f f f f f f f f f f i i f f i i 3 3 i i i i i i i i 3 3 < < < < o o o o o o o o o o o o o o o o o o o o o o o o o o o o o o o o o o o o o o o o o , R.E.T.=.,.$.K ",
"Y.I.I.U.8.3.H ; t e e q i 9 9 9 9 i i i i i i i i i i i i i i i 3 3 3 3 3 3 3 3 3 3 3 3 3 3 3 3 3 3 3 3 3 3 3 3 3 3 3 3 3 3 3 3 i f f f i f r.x.l.l.c.c.c.f.r.w.r.w.x.5XsXsXpXsXjXMXBXBXMXMXmXBX0XeX5X5X0XqXqXpXdXdXdXdXqX0X5X4XG.G.G.G.G.G.G.G.IX3X4X5X8X5X5X4XsXsXsXsXsXdXqXqX4X5X5X5X0X0X0X0X4X4X5X0XwXqXpXdXqXqX0X0X0X0X0X0X5X4X4X5X0X4XH.Z.F.F.F.Z.C.x.l.r.x.c.u.w.f f f f f 3 o O < < o X 3 3 3 3 3 3 i f 3 i 3 i x.qXbXbXdXsXgXjXhXhXhXhXmXBXZXCXDXDXDXDXmXNXBXBXMXMXhXjXjXjXgXsXqX5X3XH.3X4X5X0XqXlXlXpXpX0X4X3X4X4X4XG.gXsXdXsXsXdX0X3X5X0X5X4X4XG.F.Z.C.F.Z.w.i f f i w.i < o < < < o i i i i i i i i f i i i i 3 3 3 i i i i i i i i 3 3 3 3 3 3 3 3 i i i i i i i i i i i i i i i i i i i i i i i i i i i i i i i i i i f f i i 3 3 3 3 3 3 3 3 3 3 < < < < o O O O O O O O O O O O O O O O O O O O O O O O O O O O O O O O O O O O O O O O O O O , R.E.T.=.,.$.K ",
"Y.I.I.U.8.3.H ; t e i q 9 9 9 9 9 i i i i i i i i i i i i i i i 3 3 3 3 3 3 3 3 3 3 3 3 3 3 3 3 3 3 3 3 3 3 3 3 3 3 3 3 3 3 3 3 i f f f i f r.x.l.l.c.c.c.f.r.w.w.f c.4XsXdXqXdXgXhXmXBXmXMXMXNX4X4X4X5X0XqXpXdXgXgXgXsXdXqX0X4X4X4X4X4X4X4X3X3XG.G.3X4X4X4X6X4XdXdXdXdXqX0X5X4X5X5X5X5X5X5X5X8X4X4X5X0XqXpXsXsXqXqXqX0X0X0X5X5X4X4X4X4X5X4XH.C.F.F.F.Z.C.x.c.s.x.c.u.w.f f f f f 3 o O < < o X 3 3 3 3 3 3 i f f w.f i c.0XgXsXdXsXgXjXjXjXjXjXbXMXNXZXCXDXDXSXBXBXZXBXBXMXMXhXjXjXjXjXgXsXpXqX4X0XqXpXsXfXgXgXsXpX0X0X0X0X0X4XgXsXsXsXgXsXqX4X5X5X5X4X3XH.F.Z.Z.H.F.r.i i f i w.i < o < < < o i i i i i i i i r.r.w.w.w.f f f N N N N w.w.w.w.f f f f f f f f w.w.w.w.w.w.w.w.i i i i f f f f f f f f f f f f f f f i i i f f i i f f i i 3 3 < < < < < < < < 3 3 3 3 < < < < < < < < < < < < < < < < < < < < < < < < < < < < < < < < < < < < < < < < < < < , R.@XT.=.,.$.K ",
"Y.I.I.U.8.3.H ; : h 3 3 3 4 4 4 3 3 3 3 3 3 3 3 3 3 3 3 3 3 3 3 3 3 3 3 i i i i 3 3 3 3 3 3 3 3 3 3 3 3 3 3 3 3 3 3 3 3 3 3 3 3 i f f f i f u.x.l.l.c.c.c.l.r.i.f i l.4XsXsXsXgXdXjXmXBXNXMXMXmX4X4X4X4X5X0XqXpXjXjXgXsXdXqX0X5X5X5X4X6X4X3X3XG.H.G.4X4X5X4X4X4XdXdXdXdXlXwX8X5X5X5X4X4X4X4X4X4X5X0X0XwXqXqXpXpX0X0X0X0X5X4X4X4X8X5X4X5X0X5XG.Z.F.F.F.F.Z.C.x.x.x.c.u.w.f f f f f 3 o O < < o X 3 3 3 3 3 3 i f w.w.f i u.4XpXqXjXhXbXMXMXMXMXMXhXbXMXBXZXZXZXZXMXMXMXMXbXjXgXsXsXsXsXsXdXqX0X0XG.4X5X0XqXdXdXdXpX0X6X4X4X4X4XG.qX0X0XqXlXqX4XH.5X4X4X4X3XF.Z.Z.F.3XF.u.i f w.i w.i < o < < < o i i i i i i i i 3 3 3 i i i i i i i i i i i i i i i i i i i i i i i i i i i i i f f f f f f f f f f f f f f f f f f f f f f f f i i f f i i 3 3 < < < < < < < < 3 3 3 3 3 < < < < < < < < < < < < < < < < < < < < < < < < < < < < < < < < < < < < < < < < < < , R.E.T.=.,.$.K ",
"Y.I.I.U.8.3.H ; : 2 3 3 4 4 4 4 4 3 3 3 3 3 3 3 3 3 3 3 3 3 3 3 i i i i i i i i 3 3 3 3 3 3 3 3 3 3 3 3 3 3 3 3 3 3 3 3 3 3 3 3 i f f f i f u.x.l.l.c.c.c.l.r.w.f i l.5XgXgXsXjXqXgXMXBXBXMXMXMX4X4X4X4X4X0XqXqXsXsXsXsXdXqX0X0X6X4X3XG.H.F.F.F.G.3X4X5X8X5X5X4XsXsXsXsXsXdXqXqX5X5X4X4X4X4X4X4X0X0X0X0X0X0X0X0X0X0X0X5X5X5X4X4X0X0X5X0XqX0X3XF.F.F.F.F.Z.C.C.x.x.c.u.w.f f f f f 3 o O < < o X 3 3 3 3 3 3 i g q i 3 3 l.5XsXsXsXsXgXhXbXbXbXbXMXMXBXZXCXCXZXZXMXmXmXmXMXbXjXjXhXjXjXsXpX0X4XG.4X4X0XqXpXpXpXpXpX0X4X4X4X5X4XIXpXqXqXdXsXdX0X6X4X4X4X4XG.F.Z.C.Z.G.F.u.i w.w.f w.i < o < < < o f f f f f f f f < < 3 3 i i i i i i i i i i i i i i i i i i i i 3 3 3 3 3 3 3 3 f f f f f f f f f f f f f f f f f f f f f f f f i i f f i i 3 3 3 3 3 3 3 3 3 3 < < < < o o O O O O O O O O O O O O O O O O O O O O O O O O O O O O O O O O O O O O O O O O O , R.E.T.=.,.$.K ",
"Y.I.I.U.^.3.H ; t e i i 9 9 9 9 9 i i i i i i i i i i i i i i i i i i i i i i i 3 3 3 3 3 3 3 3 3 3 3 3 3 3 3 3 3 3 3 3 3 3 3 3 i f f f i f r.x.l.l.c.c.c.l.r.i.w.f c.5XsXdXpXdX0XsXMXBXBXmXMXMXqX0X0X0X0X0XqXqXpXdXdXdXpXqXwX0X8X5X4X4XIXH.F.F.4X4X5X0X0X0X0X5XqXpXdXdXdXpXqXqX5X5X5X4X4X3X3XG.4X4X4X5X0X0X0X0X0X0X0X0X0XwXqXqX0X8X5X0X0X0XG.Z.Z.Z.Z.Z.Z.C.x.c.x.c.u.w.f f f f f 3 o O < < o X 3 3 3 3 3 3 i i i f i i x.0XjXjX0XqXdXsXjXhXhXhXMXmXBXBXBXBXBXmXNXBXBXBXmXMXhXjXjXjXjXsXdXqX5X4X0XqXpXdXsXsXdXdXsXpX0X8X0X0X0X4XsXdXdXfXjXgXpX0X6X4X4X3XG.F.Z.C.x.F.Z.w.i f w.f w.i < o < < < o f f f f f f f f i i i f f f f f f f f f f f f f f f f f f f f f f f f f f f f f i i i i i i i i i i i i i i i i i i i i i i i i i i f f i i 3 3 i i i i i i i i 3 3 < < < < o o o o o o o o o o o o o o o o o o o o o o o o o o o o o o o o o o o o o o o o o , R.E.T.=.,.$.K ",
"Y.I.I.U.8.3.H ; U d f f f g g g g f f f f f f f f f f f f f f f i i i i i i i i 3 3 3 3 3 3 3 3 3 3 3 3 3 3 3 3 3 3 3 3 3 3 3 3 i f f f i f r.x.l.c.c.c.c.l.r.i.u.w.x.4XpXqX5X0X0XsXMXBXBXmXMXMXdXpXqXqXqXqXqXqXqXqXlXpXpXqXqX0XpXlXqX0X8X4X4X4X4X5X0X0XqXqX0X0X4X5X0X0X0X0X0X5X5X5X4X6X3X3XIXG.H.G.3X4X5X0XqXqX0X0XqXqXlXpXdXdXeX4X4X5X0X5XH.Z.C.C.C.C.C.x.l.u.x.c.u.w.f f f f f 3 o O < < o X 3 3 3 3 3 3 i i r.u.w.f x.qXjXgXsXfXjXMXBXZXCXCXbXMXMXMXMXMXbXhXgXjXjXgXfXsXpXqX4X5X0X0X0X0X0X0X5X5X0X0X0X0X0XeXqXeX3XIX4X4X3XH.0X5X5X0XqXqX5XG.4X4X4X3XH.F.Z.C.l.C.x.f 3 i w.f w.i < o < < < o i i i i i i i i i i i q 3 3 3 3 3 3 3 3 3 3 3 3 3 3 3 3 3 3 3 3 3 3 3 3 3 3 3 3 3 3 3 3 3 3 3 3 3 3 3 3 3 3 3 3 3 3 3 3 3 3 3 3 i i f f i i 3 3 i i i i i i i i f f f i i i i i 3 3 3 3 3 3 3 3 i i 3 3 3 3 3 3 3 3 3 i i i 3 3 3 3 3 3 3 3 3 q q q 3 3 3 3 3 ; R.E.T.=.,.$.K ",
"%XE.Y.Q.8.3.Q > V d f f f g g g 9 i i f f f w.w.f f f f f f f f f f f f f f f f f f f f f f f f f f f f f f f f f f f f f f f f i f f f i f u.x.l.c.c.c.c.u.r.w.u.w.l.H.0X4XG.3X4XqXjXmXmXMXMXMX0XqXdXsXsXpX0X4X0X0X0X0X0XqXpXsXdXpXqX0X0X5X5X0XqX0X5X4X4X5X0XqXH.H.F.F.H.G.3X4X6X4X4X4X3XG.F.F.F.G.3X4X5X0X5X5X4X0XpXsXsXdXqX0X3X3X4X0X0X4XZ.x.r.u.u.l.l.l.c.c.c.u.w.f f i i i w.i < o < < < o 3 i i 3 3 3 f u.r.u.r.w.C.0XgXsXjXpXsXmXDXZXBXZXZXmXbXhXbXhXgXsXsXsXsXsXdXqX0X0X6X6X4X4X5XeX0X0X5X4X4X4X4X3X3X3X5X5X5X5X5X4X4X4X0X0X0X5X4X6X4X3X0X8XwXqX4Xx.r.c.x.c.u.w.f f f f f i < < < 3 < O w.w.f f f i i i 3 3 3 3 3 4 3 3 3 3 3 3 3 3 3 3 3 3 3 3 3 3 3 3 i 3 3 < < < < < 3 3 3 3 3 i i i 3 3 3 3 3 3 3 3 3 3 3 3 3 3 3 3 < < < < < 3 3 i f f f f f f f f f f f f f f f f f f f f f f f f f f f f f f f f f f f f f f f f f f f f f f f f f f f f f f f J &.T.T.+X{.| P ",
"%XE.I.U.8.3.Q x V d d g g g g g i i i f f f w.w.f f f f f f f f f f f f f f f f f f f f f f f f f f f f f f f f f f f f f f f f i f f f i f u.x.l.c.c.c.c.u.r.w.u.w.l.G.0X4X3X4X4XqXhXmXBXmXMXmXqXpXsXsXsXpX0X4X4X4X5X5X0XqXpXsXsXdXqX0X0X0X0X0XqX0X5X4X4X4X8X0XG.G.H.H.G.3X4X4X5X5X5X5X4X3XH.F.F.H.3X6X4X5X5X5X4X0XpXsXsXsXpXqX3X3X4X0X0X4XZ.c.l.l.l.l.l.l.l.l.l.u.w.f i i i i w.i < o < < < o 3 i i 3 3 3 N u.r.u.r.w.C.0XgXsXgXpXsXBXDXZXBXZXZXmXbXhXbXbXjXgXsXsXsXsXdXpXqX0X6X6X4X4X4X4X5X5X4X4X4X4X4X4X4X4X5X5X4X4X4X4X4X4X0X0X0X5X4X4X4X4X8X4X0XqX3Xx.r.c.x.c.u.w.f f f f f i < < < 3 < O w.w.f f f i i i 3 3 3 3 3 3 3 3 3 3 3 3 3 3 3 3 3 3 3 3 3 3 3 3 i i 3 3 3 3 3 3 3 3 3 3 3 3 3 i 3 3 3 3 3 3 3 3 3 3 3 3 3 3 3 3 3 3 3 3 3 3 i f i i i i i i i i i i i i i i i i i i i i i i i i g i i i i i i i i i i i i i i i i i i i i i i i i i i i i i i J &.T.T.+X{...P ",
"!.E.I.U.8.6.Q J u y g i i i i i i i i f f f f f f f f f f f f f f f f f f f f f f f f f f f f f f f f f f f f f f f f f f f f f g f f f i f r.x.l.c.c.c.c.f.r.w.u.w.l.G.qX0X4X0X4XpXbXBXBXBXmXBXdXsXgXgXsXpX0X5X3X3X4X4X0XqXpXsXsXsXpXqX0X0X0X0XqX0X5X4X4X4X4X4X3X3XG.G.3X4X4X5X0X0X0X0X5X4XG.H.F.F.G.4X4X4X4X4X5X0XpXsXgXgXsXdX3X3X4X5X8X3XC.l.c.c.c.c.l.l.l.l.l.u.w.f i i 3 i w.i < o < < < o 3 i i 3 3 3 f u.r.u.i.w.C.0XgXsXgXpXsXBXFXCXBXCXZXmXbXbXMXMXbXhXsXsXsXsXsXpXqXqX6X6X4X4X4X3X3X3X4X4X6X4X4X4X5X5X6X4X6X6X4X4X4X4X0XeX5X5X4X4X4X4X4X3X4X0X3Xc.r.c.x.c.u.w.f f f f f i < < < 3 < O f f f f f i i i i i i i i i i i 3 3 3 3 3 3 3 3 3 3 3 3 3 3 3 3 3 3 3 i i i i i i i 3 3 3 3 3 3 i i i i i i i i i i i i i i i i i 3 3 3 3 i f f i i i i i i i i i i i i i i i i i i i i i i i i i i i i i i i i i i i i i i i i i i i i i i i i i i i i i i i > &.T.T.+X{.| P ",
"!.Y.I.U.8.6.Q I u y g i i i i i g g f f f f f f f f f f f f f f f f f f f f f f f f f f f f f f f f f f f f f f f f f f f f f f f f f f i f r.x.l.c.c.c.c.f.r.w.u.w.l.3XqX0X5X0X5XdXbXBXBXBXBXBXsXgXgXfXsXqX0X5XG.G.3X4X5XqXdXsXsXsXdXqXqX0XqXqX0X0X8X4X4X3X3X3X3XG.G.H.G.3X6X5X5X5X8X5X4X3XH.F.F.H.G.4X4X4X4X4X8X0XlXsXsXgXgXsX4X4X4X5X8X3XC.u.x.x.c.c.c.l.l.l.l.u.w.f i i i i w.i < o < < < o 3 i i 3 3 3 f u.r.u.i.w.C.0XgXsXgXpXsXBXFXDXZXDXCXmXbXhXMXMXMXbXsXsXsXsXsXdXqXqX4X6X4X4X3X3XIXIX4X4X4X4X4X5X8X8X4X4X4X6X4X5X5X5X5X5X5X5X4X4X4X4X3XG.6X0XG.c.r.c.x.c.u.w.f f f f f i < < < 3 < O f f f f f f f f 3 3 3 3 3 3 i i < 3 < < < < < < < 3 < < < < < < < 3 3 i i i i i i i i 3 3 3 3 3 3 3 3 3 3 3 3 3 3 3 3 3 3 3 3 3 3 3 3 3 3 i i f i i i i i i i i i i i i i i i i i i i i i i i i i i i i i i i i i i i i i i i i i i i i i i i i i i i i i i i > &.T.T.+X{...P ",
"E.I.I.U.^.7.Q I U d f f f g g g f f f f f f f f f f f f f f f f f f f f f f f f f f f f f f f f f f f f f f f f f f f f f f f f i f f f i f r.x.l.c.c.c.c.l.r.i.u.w.l.G.qX0X4X0X5XpXbXBXBXBXmXBXsXsXsXsXpXqX0X0X4X4X4X4X0XqXpXsXsXdXpXqX0X0X0XwX0X0X0X5X5X4X4X3XG.H.H.H.H.G.3X4X4X4X5X4X4XG.H.F.H.G.3X4X5XeX5X5X0X0XqXpXsXsXsXsX5X5X5X0X0X4XC.l.x.x.x.c.c.c.c.c.c.l.r.w.f i i i w.i < o < < < o 3 i i 3 3 3 N u.r.u.r.w.C.0XfXsXgXpXsXBXGXFXDXFXDXBXhXjXhXMXMXbXpXpXdXdXdXpXqXqX4X4X4X4X4X4X4X4X5X5X5X5X5X5X5X5X4X4X4X5X8X0X0X0X4X4X4X5X5X5X5X5X4X3X5X0X3Xc.r.c.x.c.u.w.f f f f f i < < < 3 < O f f f f f f f f 3 3 3 3 3 3 3 3 < < < < < < < < < < < < < < < < < < 3 i i 3 3 < 3 3 3 3 3 3 3 3 3 3 3 3 3 3 3 3 3 3 3 3 3 3 3 3 3 3 < < 3 3 i i i i i i i i i i i i i i i i i i i i i i i i i i i i i i i i i i i i i i i i i i i i i i i i i i i i i i i i i x &.T.T.T.,...P ",
"Y.I.o.U.^.7.Q I T T w.w.w.n n n f f f f f i i i f f f f f f f f f f f f f f f f f f f f f f f f f f f f f f f f f f f f f f f f i f f f i f r.x.l.c.c.c.c.l.r.i.u.w.s.H.0X4XG.3X4XqXjXmXmXMXMXMXpXpXqXqXqXqXqXqX0X0X0X0X0XqXpXdXdXpXqX0X0X5X5XeX5XeX0X0XqX0X0X5X3XIXG.G.G.3X4X5X5X0X0X0X4X4XG.H.3X4X5X0X0XwX0X0XqXqXqXqXqXqXpXpXqX0XqXqXqX4XZ.c.l.c.c.x.x.x.C.C.x.x.l.r.w.f f f w.i < o < < < o 3 i i 3 3 3 f u.r.u.r.w.C.0XfXsXgXpXsXBXGXFXFXGXFXBXhXgXgXjXjXjX0XqXqXqXqXqX0X0X4X4X4X4X5X0X0X0X0X0X0X0X5X4X4X4X4X5X0X0XqXqXqXlX4X4X4X5X5X5X0X0X0X0X0XqX4Xx.r.c.x.c.u.w.f f f f f i < < < 3 < O i i i f f f f f i i i i i i i i i i i i i i i i i i i i i i i i 3 i f f f i < < < 3 3 3 q i i i i i i i i i i i i i i i i i i i i 3 3 3 3 i g f f f f f f f f f f f f f f f f f f f f f f f f f f f f f f f f f f f f f f f f f f f f f f f f f f f f f f f f J &.T.T.T.,...P ",
"I.I.o.U.^.7.4.^ E d.s.u.u.u.r.u.n w.f f f i i i f f f f f f f f f f f f f f f f f f f f f f f f f f f f f f f f f f f f f f f f i f f f i f r.x.l.l.c.c.c.s.r.w.l.w.u.F.4XH.Z.F.G.0XgXMXMXbXbXbX0X0X0X0X0X0XqXqXdXpXqXqXqXqXpXdXlXqX0X5X4X4X6X4X6X5XwXqXdXpXqXqX0X5X5X5X5X0XqXqXqXqXpXqXqX0X5X4X4X5X0XqXpXpXpXqXqXqX0X0X0X0X0X0XdXpXpXdXdX0XF.x.u.u.l.x.x.C.Z.Z.Z.C.x.l.r.w.w.w.w.i < o < < < o 3 3 i 3 3 3 N s.r.u.r.w.C.0XfXsXsXpXsXBXHXGXFXHXGXBXjXsXdXsXsXdX4X5X0X0X0X0X0X5X3X4X4XeX0XqXpXdXpXlXqX0X5X4X3X3X0X0X0XqXpXdXsXsX4X4X4X4X5X0X0X0XdXqXpXsX4Xx.r.l.x.c.u.w.f f f f f i < < < 3 < O i i i f f f w.w.f f f f f f f f w.w.w.w.w.w.w.w.w.w.w.w.w.w.w.w.w.r.u.u.r.f 3 < o < < 3 i i f f f f f f w.w.f f w.w.f f f f f f f f f f f w.w.r.w.w.w.w.w.w.w.w.w.w.w.w.w.w.w.w.w.w.w.w.w.w.w.w.w.w.w.w.w.w.w.w.w.w.w.w.w.w.w.w.w.w.w.w.w.w.w.w.w.w.w.w.w.w.w.I &.T.T.T.{...P ",
"I.L.o.U.^.7.4.^ k.h.l.l.l.s.s.s.w.w.f f f i i i f f f f f f f f f f f f f f f f f f f f f f f f f f f f f f f f f f f f f f f f i f f f i f r.x.l.l.c.c.c.s.r.w.l.w.u.F.3XF.C.C.H.0XsXbXbXhXhXhX4X4X4X4X5X0XqXpXsXsXdXpXqXqXpXpXqX0X8X4X4X3X3X3X4X5XqXdXsXsXsXdXqXqXqXqXqXpXdXsXsXsXsXsXdXpXqX0X5X0XqXpXdXdXdXdXpXqX0X5X4X4X4X4XsXsXsXsXsX0XH.C.w.r.u.c.C.Z.F.F.Z.A.C.c.l.u.u.r.w.i < o < < < o 3 3 i 3 3 3 N s.r.u.r.w.C.0XfXsXsXpXsXZXHXGXFXHXGXZXjXpXqXpXpXqX3X4X4X5X0X5X4X4X3X4X5X0XqXdXsXsXdXdXlX0X5X4XIXG.0XqXqXpXdXsXgXgX3X4X4X4X5X0X0X0XgXsXsXsX5Xx.w.l.x.c.u.w.f f f f f i < < < 3 < O i i i f f f w.w.u.u.u.u.u.u.u.u.x.x.x.x.x.x.x.x.x.x.x.x.x.x.x.x.c.x.x.x.c.w.i < X O < 3 i f w.w.u.u.u.u.u.u.u.u.u.u.u.u.u.u.u.u.u.r.i.w.r.u.l.c.w.w.w.w.w.w.w.w.w.w.w.w.w.w.w.w.w.w.w.w.w.w.w.w.w.w.w.w.w.w.w.w.w.w.w.w.w.w.w.w.w.w.w.w.w.w.w.w.w.w.w.w.w.w.w.R &.T.T.T.{...P ",
"!.Y.o.O.@.6.4.! j.h.l.f.s.u.r.r.r.r.w.w.f i i 3 f g f f g g i i g g g g g g g g i i i i f f f f g g g f f f i i g g g g g g g i i i 3 3 i f r.l.r.u.l.l.u.r.w.w.w.u.x.Z.Z.Z.C.x.F.0XjXMXhXjXhXMXG.4X0X5X3X4XpXjXsXsXsXsXdXqXwX0XqXqX0X5X4X4X3XG.qXqXpXdXsXsXdXdXqXqX0X0X0XqXsXsXsXsXsXsXpX0X6XG.4X4X0XqXqXpXpXpXjXsXqX5X4X4X0XqXsXsXgXgXsX0XZ.l.x.x.c.l.c.x.C.Z.3XF.C.u.w.w.w.r.u.f < O O < < o 3 i i 3 3 3 w.u.r.u.r.w.C.wXfXsXsXpXgXCXHXGXFXGXFXMXdXqXdXsXpX0X0X0X4X4X4X4X4X5X5X5X5X0X0XqXdXsXsXsXlX0X8X5X5X5X4XqXsXfXsXdXdXsX0X5X3X3X4X0XpXsXsXpXdXsX5XC.u.c.x.c.u.w.f f f f f i < < < 3 < O i f f f i i f w.w.w.w.r.r.u.u.u.u.u.u.u.l.x.x.C.u.u.u.u.u.u.u.u.u.u.l.c.x.r.3 O o < < 3 i f r.l.c.l.u.w.w.w.i.r.r.w.w.f f f w.w.r.r.r.r.r.r.r.r.r.r.r.r.r.r.r.r.r.r.r.r.r.r.r.r.r.r.r.r.r.r.r.r.r.r.r.r.r.r.r.r.r.r.r.r.r.r.r.r.r.r.r.r.r.r.r.r.r.r.r.r.r.r.r.R -.T.T.+X,.| P ",
"E.I.o.O.#.3.5.~ M.m.K.x.x.z.l.l.u.u.r.w.w.f f i f f f f f f f f f f f f f f f f f f f f f f f f f f f f f f f f f f f f f f f f f f i i f w.u.c.x.x.x.c.l.r.w.w.N r.x.Z.F.F.F.Z.Z.5XjXMXbXjXhXMXG.4X5X4X3X4XqXsXdXsXsXsXpXqX0X0XqX0X0X5X4X4X3XIXwXqXpXdXsXsXdXpXqXqX0X0X0XqXdXsXsXgXgXsXdXqX5X6X5X0XwXlXdXdXdXdXgXdXqX5X4X4X0X0XsXsXsXsXsX0XF.c.c.l.l.l.x.C.Z.F.G.F.C.u.w.w.w.r.u.f < O O < < o 3 3 i 3 < 3 f u.r.u.r.w.C.wXfXsXsXpXgXCXHXGXFXGXGXmXsXpXsXgXsXqX0X0X4X4X4X4X5X0X4X4X4X4X5X0XqXpXsXsXlX0X8X5X5X5X4XqXsXsXsXdXdXsX0X4X3X3X6X0XpXsXsXdXsXgX0XC.l.x.x.c.u.w.f f f f f i < < < 3 < O i f f f i i f w.u.u.u.l.l.c.x.x.x.c.l.l.l.l.c.x.C.C.C.C.C.C.C.C.u.u.u.c.x.r.i O O o o < 3 f w.r.u.r.w.w.w.w.w.w.l.l.u.u.r.u.u.l.u.u.u.u.u.u.u.u.u.u.u.u.u.u.u.u.u.u.u.u.u.u.u.u.u.u.u.u.u.u.u.u.u.u.u.u.u.u.u.u.u.u.u.u.u.u.u.u.u.u.u.u.u.u.u.u.u.u.u.u.u.u.u.! -.T.T.+X{.| P ",
"Y.I.I.O.#.3.5.M.k.h.h.u.r.r.w.w.f f f i i 3 3 < 3 3 3 3 3 3 3 3 3 3 3 3 3 3 3 3 3 3 3 3 3 3 3 3 3 3 3 3 3 3 3 3 3 3 3 3 3 3 3 3 f f f f f w.u.l.x.x.x.c.u.r.w.w.N r.x.Z.F.H.H.F.C.4XgXMXbXjXhXMX3X4X5X5X4X4X0XdXdXdXdXdXpXqX0X5X0X0X0X5X4X4X3X3X0XqXlXpXdXdXdXpXqXqX0X0X0XqXpXdXsXsXsXsXdXqX0X5X0X0XqXpXdXdXdXdXsXpX0X5X4X4X0X0XdXpXdXdXdX0XF.x.u.u.l.c.x.Z.F.H.F.Z.x.l.r.w.r.u.u.f < O O < < o 3 3 3 3 < 3 f u.r.u.r.w.C.wXgXsXsXpXgXCXHXGXFXGXHXBXsXpXsXgXsXqX0X5X5X4X4X5X0X0X4X4X4X4X5X0XqXqXsXsXqX0X8X5X5X5X4XwXsXsXsXdXdXsX5X4X4X3X6X0XqXdXsXdXsXgXqXZ.x.C.x.c.u.w.f f f f f i < < < 3 < O i f f f i i w.u.f f f f w.r.l.c.r.r.w.w.w.w.w.f w.w.w.w.w.w.w.w.l.u.u.c.x.u.i < o o < < 3 g w.r.w.w.i.i.r.r.r.r.w.w.w.w.w.w.w.w.f f f f f f f f f f f f f f f f f f f f f f f f f f f f f f f f f f f f f f f f f f f f f f f f f f f f f f f f f f f f f f f I -.T.T.T.{...P ",
"I.I.I.O.#.3.B.N.M.m.x.x.x.l.l.l.u.u.r.r.w.w.w.w.w.w.w.w.w.w.w.w.w.w.w.w.w.w.w.w.w.w.w.w.w.w.w.w.w.w.w.w.w.w.w.w.w.w.w.w.w.w.w.w.i i i i f f w.w.r.r.w.w.w.w.i.r.w.u.c.C.C.Z.Z.C.x.3XgXMXbXjXhXbX0XqXqXqXwXqXqXpXlXpXpXpXqX0X5X4X0X0X0X5X4X4X4X4X0XwXqXpXdXdXpXqXqXqX0X0X0XqXqXqXpXpXqXqXqX0X0X8X5X0X0XqXqXqXqXqXpXqX0X5X4X5X5X0XlXqXqXqXqX5XF.x.x.x.x.x.C.C.Z.Z.Z.C.x.l.u.u.u.u.u.f < O O < < o < 3 3 3 < 3 f r.r.u.r.w.C.wXgXsXsXpXgXCXHXGXFXGXHXBXsX0XqXdXpXwX0X5X5X4X5X0X0XqX0X0X0X0X0XqXqXpXsXsXqX0X5X5X5X5X4XwXsXsXsXdXdXsX5X4X4X4X4X5X0XqXpXqXpXsX0XC.l.x.x.c.u.w.f f f f f i < < < 3 < O i f f f i f r.c.w.w.w.w.r.c.C.Z.x.x.C.C.C.Z.C.C.C.C.C.C.C.C.C.C.l.u.u.l.c.u.f 3 3 3 3 3 i w.r.s.r.u.l.c.x.x.x.x.r.u.l.c.c.c.c.l.u.u.u.u.u.u.u.u.u.u.u.u.u.u.u.u.u.u.u.u.u.u.u.u.u.u.u.u.u.u.u.u.u.u.u.u.u.u.u.u.u.u.u.u.u.u.u.u.u.u.u.u.u.u.u.u.u.u.u.u.u.u.u.! -.E.=.=.,.$.K ",
"L.I.I.O.| 3.B.<X9X9X0XeX5X4X4X4X5X5X5X4X4X4X4X4X5X4X4X4X5X4X5X4X5X5X5X5X4X4X4X4X4X4X4X4X4X4X4X5X4X4X4X4X4X4X4X4X5X5X5X5X4X4X4X4X< 3 3 3 i i i 3 < < 3 3 i w.u.c.l.l.c.c.l.u.r.r.l.G.sXMXMXjXjXbXgXsXsXsXsXsXsXdXqXqXqXqXqX0X4X4X0X8X5X5X4X4X4X4X0X0XqXlXpXpXqXqX0X0XqXqXqX0X0X0X5X5X4X4X4X4X4X4X3X4X4X5X0X5X5X4XwX0X0X5X5X5X5X5XwX0X0X0X0X5XF.C.Z.Z.Z.Z.C.x.x.x.C.x.x.c.l.l.l.l.u.f < O O < < o < 3 3 < < < f r.r.u.r.w.C.0XgXsXsXpXgXCXHXGXFXGXGXMXqX4X4X0X0X4X0X5X5X5X0X0XqXqXdXpXpXqXpXdXsXsXsXsXqX0X5X5X4X5X6XqXsXsXsXdXdXsX4X6X6X6X4X5X8X0X0X5X0XqX4Xx.r.c.x.c.u.w.f f f f f i < < < 3 < O f f f i i f u.C.F.F.J.F.G.5XqXdX0XqXsXjXbXMXMXMXmXmXmXmXmXmXmXmXc.l.u.l.c.l.w.i f f f N w.u.c.x.l.c.C.Z.Z.F.Z.Z.G.3X4X0X0X0X5X4X0XeX0X8X5XeX5XeX0X8X8X8X5X5X5X5X8X8XeXeXeXeX8X5X8X8XeXeXeXeX8X5X0X8X8X8XeXeXeXeX5X5X5X5X8X8X8X8XeXeXeX8X5XeX5XeXeX8X8X8XeXeX5X,X*.T.=.=.,.<.` ",
"o.I.Y.O.| 3.;X,XiXpXpXqXqXwXwXwXtXpXpXqXqXqXqXqXpXpXpXpXpXpXpXpXpXpXpXpXpXpXpXpXpXpXpXpXpXpXdXdXpXpXpXpXpXpXpXpXdXpXpXpXpXpXpXpX< < < 3 3 3 < < X X X o 3 N l.x.x.c.l.u.w.F f f r.F.sXMXMXhXjXhXbXhXjXjXbXhXsXpX0XqXqXwX0X5X4X3X5X5X5X5X5X5X4X4X0X0XqXqXpXqXqXqX0X0XqXqXqX0X5X4X3XG.G.H.G.3X4X4XG.3X4X4X4X4X3XIX5X5X5XeX8X5X5X5X5X4X6X5X0X4XH.A.F.F.F.F.C.x.l.r.x.x.x.x.c.c.c.c.u.f < O O < < o < < 3 < o < i w.r.u.r.w.C.0XgXsXsXpXgXCXHXGXFXGXGXMX0XG.IX4X4X4X8X5X5X5X0XqXpXdXfXsXsXdXdXsXsXgXsXsXqX0X5X5X4X5X6XqXsXsXsXdXdXsX6X6X6X4X4X4X4X4X4X3X4X0XG.c.w.l.x.c.u.w.f f f f f i < < < 3 < O f f f i i f c.Z.G.H.F.H.4XqXsXhXdXfXbXBXFXGXHXHXFXFXFXFXFXFXFXFXx.l.u.u.c.c.r.f r.r.r.r.u.c.x.C.l.x.Z.F.3X3XG.G.4X5XqXpXdXdXqXqXpXpXpXpXpXpXpXpXpXpXpXpXpXpXpXpXpXpXpXpXpXpXpXpXpXpXpXpXpXpXpXpXpXpXpXpXpXpXpXpXpXpXpXpXpXpXpXpXpXpXpXpXpXpXpXpXpXpXpXpXpXpXpXuX*.I.&.&.,.<.q.",
"+.I.W.O.| 3.:XuX9X9X0XeX5X5X4X4X5X5X5X5X5X0X0X0X0X0X0X0X0X0X0X0X0X0X0X0X0X0X0X0X0X0X0X0X0X0X0X0X0X0X0X0X0X0X0X0X0X0X0X0X0X0X0X0X< < 3 i 3 3 < o O X X O 3 f l.x.x.c.l.r.w.w.w.w.w.F.sXMXMXhXjXjXMXbXjXhXMXbXsXqX0X0X0X0XeX4X3XG.4X4X5X5X5X5X5X5X5X0X0XqXqXqXqXqX0X0XqXqXqX0X4X3X3XG.H.F.H.3X5X0X3X4X4X4X4X6X3X3X4X4X5XeX0XeX5X5X4X4X3X4X4X4XH.Z.F.F.F.F.Z.C.c.u.l.l.c.x.x.x.c.c.u.f < O O < < o < < < < o < i w.r.u.w.w.C.0XgXsXsXpXgXCXHXGXFXGXHXMXwXG.G.4X4X4X8X5X5X0X0XqXdXsXfXsXdXdXdXdXsXsXsXsXqX0X5X5X4X5X6XqXsXsXsXdXdXsX4X6X4X4X4X4X4X3X4X3X4X0X3Xc.r.c.x.c.u.w.f f f f f i < < < 3 < O f f f i i w.x.Z.Z.C.C.C.F.4XdXjX0XpXjXMXBXZXZXZXmXmXmXmXmXmXmXmXx.l.r.u.c.c.u.w.r.r.r.r.u.c.x.x.u.x.Z.H.4X4X3XG.F.G.5XqXqXqX0X5XeX5X5X5X5X8XeXeXeXeX8X8X5X5X5X5X8X5X5XeXeX8X8X5X8X0XeX0X5X5X5X5XeXeX8X8XeX5X5X5X8X8XeXeXeXeXeX0XeX5X5X5X8X8XeXeXeXeX8X8X5X5X5X,X&.=.&.&.,.8.q.",
"+.I.W.O.| 2.:XiXiXyXlXqXwXwX0X0X0X0X0X0X0X0X0XwXqXqXqXqXqXqXqXqXqXqXqXqXqXqXqXqXqXqXqXqXqXqXqXqXqXqXqXqXqXqXqXqXqXqXqXqXqXqXqXqX< 3 i i i i < < < < o < 3 f u.x.c.c.u.u.u.u.l.c.w.J.sXMXMXhXjXjXMXhXjXjXbXhXdX0X0X0X0X0X5X4X3XG.4X4X4X5X5X5X5X5X5X0X0XqXqXqXqXqX0X0XqXqXqX0X4X3X3X3XH.H.G.4X0XqX4X5X5X0X0X5X6X4X4X4X5X0X0X8X5X4X4X3XG.3X4X4XH.Z.C.Z.F.F.F.Z.x.x.u.l.c.x.x.x.x.c.u.f < O O < < o o < < < o < i w.r.u.r.w.C.0XgXsXsXpXgXCXHXGXFXGXJXBXqX3X3X5X0X5X5X5X5X0X0XqXdXsXsXdXpXqXqXpXpXdXsXsXlX0X5X5X5X5X4XqXsXsXsXdXdXsX4X4X4X4X4X4X3XG.5X4X0XqX4Xx.l.x.x.c.u.w.f f f f f i < < < 3 < O f f f i i w.x.F.F.Z.Z.Z.G.0XgXbXqXsXhXmXBXBXBXmXDXDXDXDXDXDXDXDXx.l.r.u.c.x.l.w.r.w.w.w.r.u.c.x.w.l.C.F.3X4X3XG.G.4XqXdXsXsXlXqX0X0X0X0X0X0X0X0X0X0X0X0X0X0X0X0X0X0X0X0X0X0X0X0X0X0X0X0X0X0X0X0X0X0X0X0X0X0X0X0X0X0X0X0X0X0X0X0X0X0X0X0X0X0X0X0X0X0X0X0X0X0X0X2X&.=.o.&.,.XX7.",
"!.I.I.Q.@.2.;XiX9XqXwXwX0X0X0X0X0X0X0X0X0X0X0X0X0X0X0X0X0X0X0X0X0X0X0X0X0X0X0X0X5XeX0XqXqXqXqX0X0X0X0X0X0X0X0X0XqX0X4X5XqXdXpXlX3 3 3 3 3 < < o o < < X 3 l.x.r.c.l.u.w.w.w.r.r.l.G.gXBXBXMXMXBXhXhXhXbXMXjXpX5XpXqXqX0X0X0X0X0X0X0X4X4X4X4X4X5X0X0X0X0XqXqXpXpXqXqXqXqX0X5X4XIXF.F.H.G.3X4X5X5XG.IX4X4X4X4X4X3X5X4X4X4X4X4X0X0X5X5X5X5X4X3XH.F.F.F.F.J.Z.C.c.l.x.x.c.l.l.c.x.x.u.f < O O < < o O o < < o < f r.r.u.r.w.C.wXgXsXhXsXjXDXHXHXGXHXDXMXpX4X3X4X4X4X4X4X4X4X5X0XqXpXsXsXsXsXsXsXsXsXjXsXpX0X4X4X4X5X0XqXpXdXsXsXsXsX3X4X5X5X0X5X4X4X4X3X5X0XG.c.i.c.x.c.u.w.f f f f f i < < < 3 < O i w.w.f i f c.F.Z.F.Z.C.G.dXsXqXpXsXhXmXCXDXFXFXCXZXBXBXBXZXCXDXu.c.C.x.l.r.r.u.w.l.u.i f l.x.l.x.r.l.F.4XG.F.G.H.4XqXpXqX0XqXqXqXqXqXqXqXqXqXqXqXqXqXqXqXqXqXqXqXqXqXqXqXqXqXqXqXqXqXqXqXqXqXqXqXqXqXqXqXqXqXqXqXqXqXqXqXqXqXqXqXqXqXqXqXqXqXqXqXqXqXqXqXqXqXuXR.@XT.&.1.$.q.",
"E.L.I.Q.@.3.:XiX9X9XwX0X0X0X0X0X0X0X0X0X0X0X0X0X0X0X0X0X0X0X0X0X0X0X0X0X0X0X0X0X0X0X0XqXqX0X0X5XqXqXqXqXqXqXqXqXqX0X4X4X0XqXwX0X3 3 3 3 3 < < o o < < X 3 s.x.r.c.l.u.w.w.w.r.r.u.F.sXMXMXhXjXbXhXhXhXbXMXjXpX5XqXqX0X0X0X0XqXqX0X0X5X4X4X4X5X5X5X5X8X0X0X0XqXqXqXqXqXwX0X5X4XIXF.F.H.G.3X4X5X5X3X4X4X5X0X5X5X4X0X5X4X4X4X4XeX0X4X4X4X4X4X3XG.H.H.H.H.F.Z.C.x.x.C.x.c.l.l.l.c.c.u.f < O O < < o O o < < o < f r.r.u.r.w.C.wXgXsXjXsXgXZXHXFXFXGXCXMXpX5X4X5X0X5X0X0X0X0X0X0XqXqXdXdXdXdXdXdXdXdXsXdXqX0X5X5X0X0X0XqXqXpXdXdXpXpX4X5X0X0X0X0X0X5X4X3X5X0XIXc.r.c.x.c.u.w.f f f f f i < < < 3 < O i f w.f i f x.H.Z.F.Z.C.G.pXsXqXsXjXbXNXZXCXCXCXSXCXZXBXBXZXSXDXr.c.x.x.l.u.l.x.w.l.u.f f x.C.x.x.w.l.F.4XG.H.G.H.4XqXpXqXqXqXqXqXqXqXqXqXqXqXqXqXqXqXqXqXqXqXqXqXqXqXqXqXqXqXqXqXqXqXqXqXqXqXqXqXqXqXqXqXqXqXqXqXqXqXqXqXqXqXqXqXqXqXqXqXqXqXqXqXqXqXqXqXqXqXuXR.@XT.&.;.$.q.",
"I.o.o.U.>.6.>XcXiXdXdXdXaXaXaXaXaXsXsXsXsXsXsXsXsXsXsXsXsXsXsXsXsXsXsXsXsXsXsXsXsXsXsXsXsXpXqX0XdXdXdXdXdXdXdXdXdX0X4XG.4X4X4X3X3 3 3 i 3 3 < < < 3 < X 3 l.x.r.c.l.u.w.w.w.r.r.w.Z.qXgXsXpXpXdXhXhXhXbXMXjXpX5X0X0X0X0X0XqXpXdXqX0X0X4X4X4X5X5X4X4X4X4X5X5X5X5X0X0XwX0X0X4X3XIXH.H.G.3X4X4X5X5X4X5X0XwXqXqX0X0X0X0X5X4X4X5X8X0XF.F.H.H.G.G.G.IX3X3X3XG.F.Z.C.C.Z.C.x.c.u.u.u.u.u.f < O O < < o O o < < o < f r.r.u.r.w.C.0XfXsXgXpXsXBXFXDXZXFXZXbXdX0X0XqXqXqXpXpXqXqXqXqXqXqXqXqXqXqXqXqXqXqXpXqXqX0X0XqXqXlXqXqXqXqXwX0X0X0X0XqXqXqXqXqX0X0X4X3X5X0XIXc.w.c.x.c.u.w.f f f f f i < < < 3 < O 3 i f f i w.A.4XG.4X3XH.0XjXbXgXhXbXMXBXBXBXBXBXmXmXMXMXMXMXMXmXi f w.w.w.w.r.l.w.l.u.w.i.C.F.Z.Z.x.C.4XqX0X5X0X8XlXgXjXgXsXsXgXgXgXgXgXgXgXgXgXgXgXgXgXgXgXgXgXgXgXgXgXgXgXgXgXgXgXgXgXgXgXgXgXgXgXgXgXgXgXgXgXgXgXgXgXgXgXgXgXgXgXgXgXgXgXgXgXgXgXgXgXgXgXgXiXR.@XT.&.;.:.q.",
"I.+.o.U.>.0.1XcXcXMXmXMXMXnXnXnXnXMXMXMXMXMXMXMXMXMXMXMXMXMXMXMXMXMXMXMXMXMXMXMXBXBXBXmXMXhXgXsXsXsXsXsXsXsXsXsXsXqX3XF.F.H.F.F.3 3 i i i 3 < < < 3 < O 3 l.x.r.c.l.u.w.w.w.r.r.w.C.5XpXqX5X5X0XhXhXhXbXMXjXpX5X4X4X4X5X0XpXsXsXqXqX0X5X4X4X4X5XIXIX3X3X3X3X3X3X5X0X0X0X8X4X4X3XG.IX3X3X4X4X5X5X5X0XqXqXpXpXpXpXqX0X0X5X5X5X8X0XZ.Z.Z.Z.F.H.3X4X4X5X4X4X3XF.Z.Z.F.Z.C.c.u.r.w.w.u.f < O O < < o O o < < o < f r.r.u.r.w.C.0XfXsXsXqXpXMXCXBXBXZXBXbXsXqXlXdXsXsXsXsXsXsXpXqX0X0X0X0X0X0X0X0X0X0X0X0X0XqXqXpXdXsXpXqXqX0X5X4X4X4XpXdXdXdXdXpXqXqX4X3X5X0XIXc.w.c.x.c.u.w.f f f f f i < < < 3 < O 3 i f i i i.F.0XqXdXpXqXgXBXDXBXmXmXmXmXmXMXMXMXjXgXsXsXdXdXsXsX  O < < < < i w.w.l.l.w.l.F.3XH.4XF.3XdXhXjXsXjXgXbXBXZXBXmXBXBXBXBXBXBXBXBXBXBXBXBXBXBXBXBXBXBXBXBXBXBXBXBXBXBXBXBXBXBXBXBXBXBXBXBXBXBXBXBXBXBXBXBXBXBXBXBXBXBXBXBXBXBXBXBXBXBXBXBXBXBXBXBXBXvXR.E.T.=.,.<.0.",
"I.o.o.*.>.0.1XvXAXZXZXBXBXBXBXBXBXBXBXBXBXBXBXBXBXBXBXBXBXBXBXBXBXBXBXBXBXBXBXBXCXCXCXZXmXbXjXjXgXgXgXgXgXgXgXgXgXqXG.Z.Z.Z.Z.Z.i i i i i 3 3 < o < < X 3 s.x.r.c.l.u.i.w.w.r.r.N K.4X0X4XG.3X4XhXhXhXbXMXjXpX5X4X4X4X5X0XpXsXgXdXpXqX0X5X4X4X5XG.G.G.G.G.G.H.H.4X5X5X0X8X4X4X3X3X4X4X4X4X4X4X5X8X0XqXpXsXsXsXsXlXqX0X0X5X5X5X0XZ.Z.C.Z.Z.H.3X4X5X8X5X5X4XG.F.Z.F.J.C.c.u.w.w.w.u.f < O o < < o O o < < o < f r.r.u.i.w.C.0XfXsXsXqXpXMXZXmXMXBXBXhXsXpXdXsXsXsXsXgXgXfXsXqX0X5X5X5X5X5X5X5X5X5X4X5X0XqXdXsXsXsXdXlX0X5X4X4X4X4XsXsXsXsXsXpXqXqX4X3X5XwX3Xc.i.c.x.c.u.w.f f f f f i < < < 3 < O 3 i f i i r.H.qXsXgXsXdXhXDXGXCXCXZXBXmXMXMXbXbXsXsXdXqXqXqXqXqX.   X X X o 3 f f l.l.w.l.F.4X3X5X3X4XgXMXbXhXMXbXBXDXFXDXCXDXFXDXDXDXDXDXDXDXDXDXDXDXDXDXDXDXDXDXDXDXDXDXDXDXDXDXDXDXDXDXDXDXDXDXDXDXDXDXDXDXDXDXDXDXDXDXDXDXDXDXDXDXDXDXDXDXDXDXDXDXDXDXDXDXLX-.E.T.=.,.8.XX",
"E.o.o.*.@.0.1XLXcXAXmXmXmXnXnXnXMXMXmXmXnXmXMXMXmXmXMXMXMXMXMXMXMXMXmXmXmXmXMXMXBXBXmXMXbXjXsXsXgXgXgXgXgXgXgXgXjXqXG.Z.C.Z.Z.Z.i i i i i i 3 < o < < X 3 f.x.r.c.l.u.i.w.w.r.r.N K.3X5X4XG.3X5XhXjXhXbXMXjXpX5X4X4X4X5X0XpXsXgXsXdXqX0X5X4X4X4X3X3XG.G.H.H.H.F.4X4X4X5X5X4X4X3X4X4X4X4X4X4X4X4X5X0XqXpXsXsXsXsXdXpXqX0X5X5X5X5XF.Z.Z.C.Z.H.4X5X0X0X5X5X4XG.F.Z.F.Z.C.c.u.w.w.w.u.f < O o < < o O o < < o < f r.r.u.i.w.C.0XfXsXsXqXpXMXZXmXMXmXmXhXsXdXsXsXsXdXdXsXgXgXsXqX0X5X5X5X5X5X5X5X5X5X4X5XqXpXsXsXsXsXsXpX0X4X4X4X4X5XsXsXsXsXsXpXqXqX4X3X5XwX3Xc.i.c.x.c.u.w.f f f f f i < < < 3 < O i f f i i r.H.pXqXsXpXqXgXZXFXBXDXCXBXMXMXzXhXbXhXjXgXsXdXdXdXsXX o < o o < f r.f l.l.w.l.F.4XG.3XF.G.sXbXjXjXbXjXMXZXDXZXBXZXCXZXZXZXZXZXZXZXZXZXZXZXZXZXZXZXZXZXZXZXZXZXZXZXZXZXZXZXZXZXZXZXZXZXZXZXZXZXZXZXZXZXZXZXZXZXZXZXZXZXZXZXZXZXZXZXZXZXZXZXZXZXZXZXvX-.E.T.T.{.XXXX",
"%XI.o.*.#.0.1XLXcXMXMXMXnXnXnXnXnXMXMXMXMXMXMXMXMXMXMXMXMXMXMXMXMXMXMXMXMXMXMXMXMXMXMXMXhXjXsXsXgXgXgXgXgXgXgXgXjXqXG.Z.C.Z.F.F.i i f f i i 3 3 o < < X 3 h.x.r.c.l.u.i.w.w.r.r.w.C.3X0X4X3X5XqXhXjXhXbXbXjXpX5X5X5X5X0X0XqXdXsXsXsXlXwX5X4X4X4X4X4X3X3XG.H.H.F.3X3X4X4X5X4X4X3X5X5X5X5X5X4X4X4X4X5X0XpXdXsXsXsXsXdXqX0X0X5X5X5XH.F.Z.Z.Z.H.4X5X5X5X5X4X3XH.F.Z.F.Z.C.c.u.r.r.w.u.f < O o < < o O o < < o < f r.r.u.r.w.C.0XgXsXgXlXdXMXZXmXMXmXMXhXsXdXdXdXpXwXqXpXsXsXsXlX0X4X0X0X0X0XeX0X0X0X4X0XqXdXsXsXsXsXsXpX0X4X4X4X0XqXsXsXsXsXdXpXwX0X4X3X5XwX3Xc.r.c.x.c.u.w.f f f f f i < < < 3 < O f w.f i 3 r.H.pXqXdXpXqXgXBXDXBXFXCXBXMXbXhXbXbXMXhXjXgXsXsXsXsX< < < < o < f u.w.l.l.w.u.Z.G.F.G.Z.H.dXhXjXjXbXjXMXZXCXZXBXZXCXZXZXZXZXZXZXZXZXZXZXZXZXZXZXZXZXZXZXZXZXZXZXZXZXZXZXZXZXZXZXZXZXZXZXZXZXZXZXZXZXZXZXZXZXZXZXZXZXZXZXZXZXZXZXZXZXZXZXZXZXZXZXZXvX*.T.T.T.{.=X=X",
"%XY.I.*.#.0.1XvXAXAXBXBXNXNXNXNXBXBXBXBXBXBXBXBXBXBXBXBXBXBXBXBXBXBXBXBXBXBXBXBXmXmXmXmXMXbXjXjXsXsXsXsXsXsXsXfXjXqXG.Z.Z.F.F.H.i i f f i i 3 3 o < < X 3 l.x.r.c.l.u.i.w.w.r.r.w.C.4X0X5X4X0XpXhXjXhXbXbXjXpX5X0X0X5X0X0XqXpXdXgXsXpXwX8X5X4X4X4X4X4X3XIXG.H.H.G.3X4X4X5X4X4X3X8X5X5X5X5X4X4X4X4X4X0XqXdXsXsXsXsXdXqX0X0X5X5X5X3XG.F.Z.Z.H.4X5X4X5X5X4X3XH.J.Z.Z.C.x.c.u.u.r.r.u.f < O O < < o O o < < o < f r.r.u.r.w.C.0XgXsXjXpXsXMXCXNXMXmXMXhXsXpXdXpXqXeX0XqXdXsXsXpX0X4X0X0X0X0X0X0X0X0X5X0XqXsXsXsXsXsXsXpX0X4X4X5XqXpXsXsXsXsXdXqX0X8X4X3X5XwX3Xc.r.c.x.c.u.w.f f f f f i < < < < < O w.w.w.i 3 w.H.pXdXgXsXpXjXDXFXCXFXCXBXMXzXhXbXMXhXjXsXdXpXqXqXpXo < o X X O e w.w.u.u.w.i.A.F.Z.4XF.3XsXMXMXbXMXbXBXFXFXFXDXDXFXFXFXFXFXFXFXFXFXFXFXFXFXDXDXDXFXFXFXFXFXFXFXFXFXFXFXFXFXFXFXFXFXDXDXFXFXFXFXFXFXFXFXFXFXFXFXDXDXDXDXFXFXFXFXFXFXFXFXFXFXFXDXFXLX*.T.T.T.*X=X;X",
"I.Y.W.O.| 7.>XiXLXZXZXZXBXnXzXzXnXMXMXMXMXmXmXmXmXBXBXBXBXNXMXMXmXMXMXbXhXbXMXMXbXbXbXbXbXbXbXbXhXBXMXsXqXsXjXjX0X5X4XG.F.Z.C.C.f f f f i 3 3 < o 4 < O 3 l.x.r.l.l.u.u.r.r.w.w.l.C.H.4X4X4X4X0XbXhXjXjXsXdXpXqXG.3X4X0XqXqXqXqXpXpXpXqXqX5X4X3XG.G.G.G.G.G.G.G.0X5X4X4X4X6X4X5X5XG.3XqX0XH.F.H.G.3X5X0XqXqXqXqXsXqX4X3X4X4X4X4XZ.Z.Z.Z.Z.F.H.3X4X4X4X3XG.F.Z.C.F.Z.K.c.u.r.i.i.r.f < o < < o O o < < < o < i w.w.r.w.f x.0XsXpXqXdXsXjXbXMXMXMXmXhXsXpXdXsXdXpXsXsXdXsXgXsXqX4X0X0X0X5X5X4X4X4X0X0X0X0X0X0X0X0X0X0X0X0X0X0X0X0XpXpXpXpXpXpXpXpXqXqX5X3XF.Z.C.x.c.u.w.f i i i i f 3 o o < < O X w.i i i 3 f G.MXdXsXgXjXbXMXMXMXCXBXmXMXhXhXjXjXjXsXpXqXpXdXqX0XO o < < o < f r.w.r.w.f x.6XqX5X3XF.4XgXMXbXjXbXDXCXZXZXZXCXDXFXZXZXZXCXCXCXCXCXCXCXCXCXZXZXZXZXZXZXCXZXCXZXZXZXZXZXZXCXCXCXCXCXZXZXZXZXZXZXZXZXDXDXDXDXDXDXDXDXZXCXCXZXZXZXZXZXCXCXCXCXZXCXCXLXR.E.T.=.,.<.0.",
"I.Y.W.O.| 7.>XiXiXdXsXsXpXrXwXeX0X0X0X0X0X0X0X0X0XwXqXqXpXqXqXwX0X0X0X5X5X0X0XqXdXdXdXdXdXdXdXdX5XpXqXH.Z.F.3XH.4X4X3XG.F.F.Z.Z.f f f f i 3 3 < o < < O 3 h.x.r.l.l.u.u.r.r.w.w.r.x.F.G.H.H.3X4XsXsXsXdXpXqXqXqX0X0XqXqXqX0X0X5X5X0XqXpXdXsXdXdXpXpXpXpXpXpXpXpX0X0X0X5X8X0XwXqXgXpXpXsXqXH.C.Z.F.H.3X4X0X0X0X0X5XG.Z.C.Z.Z.Z.A.c.c.c.c.x.C.Z.Z.G.G.G.H.F.Z.C.x.C.x.c.u.w.w.w.w.r.f < o < < o O o < < < o < i w.w.r.w.f x.0XsXpXdXsXjXbXmXBXBXZXBXMXgXsXsXgXsXdX0X5X5X0XqX0XIXF.F.F.F.F.F.F.Z.Z.Z.Z.J.F.Z.Z.Z.Z.J.J.Z.Z.Z.J.J.J.C.K.C.C.K.C.K.K.C.C.x.x.l.u.r.w.c.u.w.f p i i i f 3 o o < < o X w.f f f i w.4XBXMXMXMXMXMXMXbXhXBXmXMXhXjXgXgXgXfXpX0X0X0XqX0X4XO o < < o < f r.w.r.w.f x.4XqX5XqX5XpXMXFXCXBXCXZXBXBXBXBXBXZXCXsXsXsXsXsXsXsXsXgXgXgXjXgXgXgXgXgXgXgXgXgXgXgXgXsXsXsXsXsXsXsXsXjXjXjXjXjXjXjXjXjXjXjXjXjXjXjXjXgXgXgXgXgXgXgXgXgXgXgXjXgXgXgXxXR.E.T.=.,.<.0.",
"I.E.W.O.| 7.>XiXiXdXsXsXpXrXwXeXeX5X5X4X4X3XIXG.4X4X0XqXqXqXqXqX4X4X4X6X4X0X0XqXsXsXsXsXsXsXsXsX0XpXqXF.C.Z.F.Z.G.G.G.H.F.F.F.F.f f f f i 3 3 < o < < X 3 s.x.r.l.l.u.u.r.r.w.w.w.c.Z.F.F.F.F.H.qXqXqXwX0X0X0X0XsXsXsXpXqX0X4X3X3X4X0XqXdXsXsXsXgXgXgXgXgXgXgXgX5X5X4X4X8X0XqXlXhXsXdXsXqXF.C.Z.Z.F.H.3X4X5X5X5X0X3XF.Z.Z.F.F.Z.l.u.u.l.l.x.C.C.F.F.F.F.Z.C.x.l.c.l.r.w.w.w.w.w.r.f < o = < o O o < < < o < i w.w.r.w.f x.0XsXpXqXdXgXhXMXBXZXZXBXbXgXsXsXsXsXpX4X3X3X4X4X4XF.C.F.F.F.F.F.H.H.H.Z.Z.Z.Z.Z.Z.Z.Z.Z.Z.Z.Z.Z.Z.Z.Z.r.r.r.r.r.r.r.r.r.r.u.u.l.l.c.c.c.u.w.f g i i i f 3 o O < < o X w.f f w.f u.0XFXFXDXDXCXBXMXhXjXMXMXhXgXsXsXsXsXpX0X6X4X4X4X4XG.O o < < o < f r.w.r.w.f x.6XqX5XsXqXsXZXHXFXDXFXBXBXmXMXMXmXBXBXsXsXsXsXsXsXsXsXsXsXsXsXsXsXsXsXsXsXsXsXsXsXsXsXsXsXsXsXsXsXsXsXgXgXgXgXgXgXgXgXgXgXgXgXgXgXgXgXsXsXsXsXsXsXsXsXsXsXsXsXsXsXsXiXR.E.T.=.,.8.0.",
"I.E.W.O.| 7.>XiXxXhXhXjXgXsXaXtXpXpXqXqX0X5X4X6X0XqXpXsXgXgXgXgX0X0X0X0XqXpXsXsXgXgXgXgXgXgXgXgXsXhXgX4XF.H.G.F.F.F.F.F.F.F.F.F.f f f f i 3 3 < = < < X 3 l.x.r.l.f.u.r.r.r.w.w.w.c.Z.F.Z.Z.F.F.5X5X0X0X0XqXqXqXgXgXsXsXqX0X4X3X4X5X0XwXqXqXqX0XdXpXdXpXdXdXdXdX3XIXIX3X4X5XwXqXsXqXqXdXqXG.Z.F.Z.Z.H.3X4X4X5X4XqX4XF.F.F.H.H.F.x.c.c.c.x.C.Z.Z.F.F.F.Z.C.x.c.l.f.u.r.w.w.w.r.r.r.f < o = < o O o < < < o < i w.w.r.w.f x.0XsXpX0XqXsXjXbXmXBXBXMXjXdXqXqXpXqXqX0X5X4X0X0X5XG.Z.H.H.H.G.G.3X3X3XF.F.F.F.F.F.F.F.F.F.F.F.F.F.F.F.x.x.x.x.x.x.x.x.u.u.l.l.c.x.x.x.c.u.w.f g i i i f 3 o O < < o X f i f f f l.qXFXFXFXFXDXBXMXhXjXMXbXjXgXsXsXdXdXqX0X4X3X4X6X3XG.O o < < o < f r.w.r.w.f x.4XqX5XqX0XpXmXFXCXBXCXZXBXNXMXMXMXmXBXhXhXhXhXhXhXhXhXgXgXgXgXgXgXgXgXgXgXgXgXjXgXgXgXhXhXhXhXhXhXhXhXhXhXhXhXhXjXjXhXjXgXjXjXjXjXjXgXgXgXgXgXgXgXgXgXgXgXgXjXgXgXgXiXR.@XT.=.,.8.0.",
"I.Y.W.O.| 7.>XiXiXdXdXdXpXqX0XeXqXqX0X5X4X4X3XG.4X0XqXpXdXsXdXdXG.G.G.3X4X5X0XqXlXlXpXpXpXpXqXlXdXjXsX3XA.Z.F.Z.Z.J.F.F.F.F.F.H.f f f f i 3 3 < = < < O 3 l.x.r.l.l.u.r.r.w.w.w.r.x.Z.F.F.Z.F.F.5X0X0X0XqXqXpXdXsXsXsXdXpXqX5X4X5X0X0XqXpXpXpXpXdXdXpXpXpXpXdXdX4X4X4X4X5X0XqXpXsXqXqXsXpX3XF.G.Z.F.H.3X4X5X5X5X4XF.C.C.C.Z.Z.C.c.c.l.c.x.C.C.Z.F.F.F.F.Z.C.x.c.c.l.u.r.r.r.u.l.r.f < o < < o O o < < < o < i w.w.r.w.f x.0XsXpXqXpXsXhXMXBXBXBXmXjXsXpXpXdXpXqX0X0X0X0XqX0X3XF.Z.Z.Z.Z.Z.Z.Z.Z.Z.Z.Z.Z.Z.Z.Z.Z.Z.Z.Z.Z.Z.Z.Z.Z.l.l.l.l.l.l.l.l.u.u.u.u.r.r.r.r.c.u.w.f i i i i f 3 o O < < o X f i i f i r.0XDXZXZXZXZXBXMXbXhXmXMXhXjXsXsXsXsXpX0X4X4X5X5X4X3XO o < = o < f r.w.r.w.f x.4XqX5XqX5XqXMXDXZXBXZXDXCXBXBXAXmXBXBXsXsXsXsXsXsXsXsXsXsXsXsXsXsXsXsXsXsXsXsXsXsXsXsXsXsXsXsXsXsXsXsXfXfXsXsXfXsXfXfXdXdXdXdXsXsXdXdXsXsXsXsXsXsXsXsXsXsXsXsXsXsXsXiXR.E.T.=.,.<.0.",
"I.Y.W.o.| 7.>XiXiXdXdXpXlXwXeX5XwXqX0X0X5X4X4X4X0X0XqXpXdXdXdXpX4X3X3X3X4X5X0X0XdXdXdXdXdXdXdXdXdXjXsX3XZ.J.F.Z.Z.Z.J.F.F.F.F.F.f f f f i 3 3 < o < < O 3 l.x.r.l.l.u.r.r.i.w.w.u.x.Z.F.F.Z.Z.F.0XwXqXqXpXpXdXdXqXqXpXpXqXqX0X5X3X4X0XpXsXjXhXhXgXgXgXgXgXgXgXgX0X0X0X0X0XqXpXdXMXgXsXjXdXG.Z.F.Z.F.H.3X4X5X5X5X5XG.Z.C.Z.F.Z.Z.r.w.r.r.u.c.x.C.F.F.F.F.Z.C.x.l.x.c.l.u.r.r.r.u.r.f < o < < o O o < < < o < i w.w.r.w.f x.0XsXpXsXgXhXMXBXBXZXBXBXbXgXsXsXsXsXdX5X4X4X5X0X5XH.Z.H.H.F.F.F.Z.Z.Z.F.F.F.F.F.J.F.F.F.F.F.F.F.F.F.F.c.c.c.c.c.c.c.c.C.C.x.x.c.c.l.l.c.u.w.f i i i i f 3 o O < < o X f i i f i r.5XCXmXBXBXBXmXMXbXhXMXMXhXjXsXsXsXsXsXqX8X4X0X0X5X4XO o < = o < f r.w.r.w.f x.4XqX5XpX0XdXBXFXDXZXDXFXDXZXBXmXmXmXBXsXsXsXsXsXsXsXsXjXjXjXjXjXjXjXjXjXjXjXjXjXjXjXjXsXsXsXsXsXsXsXsXjXjXjXjXjXjXjXjXgXgXgXgXjXjXgXjXjXjXjXjXjXjXjXjXjXjXjXjXjXjXjXxXR.E.T.=.,.<.0.",
"I.Y.W.o.| 7.>XiXkXkXkXfXsXpXqXwXqXqXqXqXqXqXqXqXqXpXdXsXsXdXdXpXqXqX0X0X0XqXqXpXsXsXsXsXsXsXsXsXdXjXsX4XF.H.G.F.F.F.F.J.Z.Z.Z.Z.f f f f i 3 3 < o < < O 3 l.x.r.l.l.u.u.r.r.w.w.w.c.C.Z.C.C.C.C.qXqXqXqXqXqXqXpXqXqXqXqX0X0X4X3XH.3X4X0XpXsXsXsXpXpXpXpXpXpXpXpX8X5X4X4X4X4X0X0XsXqXqXpX0XF.x.C.C.C.F.H.IX3X3X3X0X3XF.Z.F.F.F.J.u.r.u.u.l.x.x.C.Z.Z.Z.Z.C.c.l.r.x.c.u.w.w.f f f r.f < o < < o O < < < < o < i w.w.r.w.f x.0XsXpXsXsXjXhXbXbXbXbXMXjXpXqXqXlXqX0X5X4X4X4X0X4XH.Z.4X4X3XH.F.Z.Z.C.Z.Z.Z.Z.Z.Z.Z.Z.Z.Z.Z.Z.Z.Z.Z.Z.x.x.c.x.x.x.x.x.C.C.C.x.x.x.x.x.c.l.w.f i i i i f 3 o O < < o X r.w.w.w.f r.0XCXBXBXBXBXBXMXbXhXbXhXgXsXdXpXpXpXdXqX5X4X5X0X4X3XO o < < o < f r.w.r.w.f x.4XqX5XpX0XdXBXGXDXCXDXDXZXBXmXMXMXMXMXjXgXgXgXjXjXjXjXhXhXhXhXhXhXhXhXhXhXhXhXhXhXhXhXjXgXgXgXjXjXjXjXjXjXjXjXjXjXjXjXjXjXjXjXjXjXjXjXhXhXhXhXhXhXhXhXhXhXhXhXhXhXhXcXR.E.T.=.,.8.0.",
"I.Y.W.O.| 7.>XiXiXdXdXpXlXwXeX5X4X4X4X5X5X5X8X5X0X0X0X0X0X0X5X4XqX0X0X5X5X5X0X0XeX0X0X0X0XeXeXeX5XpX0XF.x.C.Z.C.F.F.F.J.Z.Z.Z.Z.f f f f i 3 3 < o < < O 3 l.x.r.l.l.u.u.r.r.w.w.f u.x.C.x.c.x.x.wXqXqXqXwXwXqXqXpXpXqXqX0X4XG.F.H.G.3X3X3X3XG.H.G.G.G.G.G.G.G.G.H.H.F.Z.Z.J.F.F.F.C.Z.3XG.C.x.C.x.x.C.Z.F.H.H.H.F.C.c.u.c.x.c.l.x.x.x.x.C.Z.Z.F.C.C.C.x.x.u.w.w.c.l.r.f i i i i r.f < o < < o O < < < < o < i w.w.r.w.f x.0XsXpX0XqXpXdXdXdXdXpXsXqX4XG.3X4X3XG.0X0X5X0XqX0X3XF.F.Z.Z.C.c.u.w.w.r.r.r.r.r.r.r.r.r.r.r.r.r.r.r.r.f f f f f f f f f f f f f w.w.w.c.l.w.f i i i i f 3 o O < < o X x.u.u.u.w.l.0XDXDXDXDXZXBXMXhXjXjXgXsXpXqX0XwX0XpX0X4X4X4X5X4XG.O o < < o < f r.w.r.w.f x.4XqX5XqX5XqXMXDXZXBXZXZXBXmXMXPXhXhXhXsXsXsXsXsXsXsXsXqXqXqXqXqXqXqXqXqXqXqXqXqXqXqXqXsXsXsXsXsXsXsXsX0XeX0X0X8X8X8X8X0X0X0X0X0X0X0X0XqXqXqXqXqXqXqXqXqXqXqXqXqXqXqXuXR.E.T.=.,.8.0.",
"L.Y.W.*.| 7.>XiXiXdXsXdXtX0X4X4X4X5X0XqXqXqXqXqXsXpX0X4X4X5XqXpX0XqXdXsXsXpX0X4X4X4X4X4X4X4X4X4XqX0X3XF.Z.Z.Z.Z.Z.Z.Z.Z.Z.F.F.F.w.f i i f i 3 o O 3 < X < f u.w.w.r.f.c.c.c.l.l.c.l.u.i.w.w.r.r.qXqXqXqXqXqXqXqXwX0X0X0X5X4XH.F.F.F.F.F.F.F.F.F.F.F.F.F.F.F.F.F.F.F.H.F.Z.Z.C.x.s.s.s.s.s.s.s.s.c.x.C.Z.J.F.J.Z.F.C.x.c.x.x.c.u.Z.F.F.Z.C.x.x.c.x.x.x.c.c.c.l.l.w.f i i 3 3 3 3 3 3 < o o o o < < o o o o < 3 3 < f i < w.0XgXqXgXsXdXqX0X0X0X0X5XG.J.Z.F.H.G.H.0X0X0X0X5X4XG.F.F.Z.Z.H.C.f i w.f f f f f f f f f f f w.f f f f f f f f f f l w.f f f f f f f f f f f w.f f f f 3 3 < o o o o < C.x.C.C.x.C.qXFXFXBXBXDXZXjXsXgXgXsXdXqX0X0X0X0X3X4X4X4X5X0X0X0XO o < < o < f r.u.l.r.N x.5XpXqXqX5XqXMXFXCXBXCXFXBXhXgXgXjXjXjXsXsXsXsXdXqX0X0XqXqXpXpXdXdXsXsXsXsXdXdXpXpXqXqX0X0XqXdXsXsXsXsXqX0X5X4X4X5X0XqX0X0X0X0X0X5X5X5X6X4X0X0X0X0X0X0X0X0X0X0XwXwX0X2XR.@X+XT.{.<.0.",
"L.Y.W.*.| 7.>XiXiXdXsXdXtX0X4X4X4X4X0XqXpXdXdXdXsXpX0X4X6X4X0XqXqXpXsXsXsXpX0X4X5X5X5X5X5X5X5X5X0X5X3XF.Z.Z.J.F.Z.Z.Z.Z.F.F.F.F.w.f i i f i 3 o O 3 < X < f u.w.w.r.u.c.c.c.l.l.c.l.u.i.w.w.r.r.qXqXqXqXqXqXqXqXwX0X0X0X4XG.F.Z.Z.Z.F.F.Z.Z.Z.Z.Z.Z.F.F.Z.Z.Z.Z.F.F.F.F.Z.C.x.x.l.l.l.l.l.l.l.l.l.c.x.C.Z.Z.F.J.F.C.c.l.c.x.l.u.G.3X3XIXH.F.Z.C.x.x.c.c.l.l.u.u.r.w.f i 3 3 3 3 3 3 < o o o o < < o o o o < 3 3 < f i < w.0XjXpXsXsXqX0X0X5X5X5X4XG.Z.Z.Z.H.H.F.qXqXqXqX0X5X4X3XF.Z.Z.F.C.f i w.f f f f f f f f f f f f f f f f f f f f f f f f f f f f f f f f f f f f f f f f 3 3 < o o o o < C.x.C.C.x.C.qXFXFXBXBXFXZXjXsXgXjXsXdXqX0X5X5X5X4X4X6X4X5X8X0X0XO o < < o < g r.u.l.r.f x.4XpXqXqX5XqXMXFXCXBXCXFXBXjXgXgXjXjXjXsXsXsXsXdXpXqX0XqXqXqXpXdXsXsXsXsXsXsXdXpXqXqXqX0XqXpXdXsXsXsXsX0X0X5X4X4X0XqXqXqXqX0X0X0X0X8X5X4X5X0XqXqXqXwX0XqXqXqXqXqXqXqX1XR.@X+XT.,.<.0.",
"L.Y.W.*.| 7.>XiXiXdXsXdXtX0X4X4X4X4X0XqXdXsXsXsXsXpX0X4X4X4X4X5XdXsXgXgXsXpX0X5XeX8X5X8X8XeX8X5X0X5X3XF.F.F.F.H.F.F.F.F.F.F.F.F.w.f i i f i 3 o O 3 < X < N u.w.w.r.f.c.c.c.l.l.c.l.u.i.w.w.r.r.0XwXqXqXqXqXwXwXqXqX0X0X4XH.Z.Z.Z.Z.Z.Z.Z.Z.Z.Z.Z.Z.Z.Z.Z.Z.Z.Z.F.F.F.F.Z.C.C.x.c.c.c.c.c.c.c.c.u.l.x.C.Z.F.F.F.F.C.c.l.c.x.l.u.F.F.F.F.Z.C.C.x.c.c.c.l.l.u.u.u.s.r.F i 3 3 3 3 3 3 < o o o o < < o o o o < 3 3 o i i o w.0XjXdXsXdXqX0X5X4X4X4X4XG.Z.Z.Z.F.F.F.4X6X4X6X3XG.F.F.F.Z.F.H.C.f 3 f i i i i i i i i i i i i i i i i i i i i i i i i i i i i i i i i i i i i i i i i 3 3 < o o o o < C.x.C.C.x.C.pXFXFXBXBXFXZXjXsXfXjXsXpX0X5X4X4X3X4X4X4X4X5X5X0X0XO # < < o < f r.u.l.r.f x.4XpXqXqX5XqXMXFXCXBXZXDXBXjXsXgXjXjXjXsXsXsXsXsXdXqXqX0X0XqXqXdXsXsXsXsXsXsXdXqXqX0X0XqXqXpXsXsXsXsXsX8X5X4X5X5X0XqXlXqXqXqX0X0X0X0X0X5X0X0XqXqXqXqXqXqXqXqXqXqXqXqXuXR.@X+XT.,.<.0.",
"L.Y.W.*.| 7.>XiXiXdXsXdXlX0X4X4X3X4X0XpXsXsXgXgXdXpX0X5X4X3X4X4XsXgXgXfXsXqX0X5X5X5X5X5X5X5X5X5X0X5X3XH.F.F.H.G.F.F.F.F.F.Z.Z.Z.w.f i i f i 3 o O 3 < X < f u.w.w.r.f.c.c.c.l.l.c.l.u.i.w.i.r.r.qXqXqXqXqXqXqXqXqXqXqX0X4XH.F.Z.Z.Z.Z.Z.Z.Z.Z.Z.Z.Z.Z.Z.Z.Z.Z.Z.F.F.F.F.F.Z.Z.C.x.x.x.x.x.x.x.x.l.c.K.Z.F.H.H.H.F.Z.x.c.x.x.c.l.C.Z.Z.Z.C.C.x.x.x.x.c.c.l.l.u.u.l.r.w.i 3 3 < < 3 3 < o o o o < < o o o o < 3 3 O i 3 O w.0XjXdXsXdXqX0X5X4X4X4X0X3XF.Z.F.F.F.F.3X3X3X3X3XH.F.F.G.F.F.G.C.f 3 f f f f f f f f f f f f f f f f f f f f f f f f f f f f f f f f f f f f f f f f f 3 3 < o o o o < C.x.C.C.x.C.pXFXFXBXBXFXZXjXdXfXjXsXpX0X4X4X3XG.4X4X4X4X5X5X5X5XO o < < o < f r.u.l.r.F x.4XpXqXqX5XqXMXFXCXBXZXDXmXjXsXfXjXjXgXsXsXsXsXsXdXqXqX5X0X0XqXpXsXsXsXsXsXdXpXqX0X0X5XqXqXdXsXsXsXsXsX4X4X4X5X0X0XqXqXqXqXqX0X0X0X0X8X5X0XqXqXqXqXqXqXqXqXpXpXlXpXlXuXR.@X+XT.,.<.0.",
"L.Y.W.*.| 7.>XiXiXdXsXdXlX0X4X4X4X5X0XqXdXsXsXsXpXqXqX0X5X4X4X4XsXsXsXsXpXqXwX0X4X4X4X4X4X4X4X4XqX0X4XH.F.F.H.H.F.F.F.Z.Z.Z.C.C.w.f i i f i 3 o O 3 < X < f u.w.w.r.l.c.c.c.l.l.c.l.u.w.w.w.r.r.wXqXqXqXqXwXqXwXqXqX0X0X4XH.F.Z.F.F.F.F.F.F.F.F.F.F.F.F.F.F.F.F.F.F.F.F.F.F.Z.Z.c.c.c.c.c.c.c.c.c.x.C.Z.F.F.H.H.F.Z.x.x.x.x.x.l.F.F.F.H.F.F.Z.Z.c.c.c.l.l.u.u.u.r.w.f i 3 < < < 3 3 < o O o o < < o o o o < 3 3 O i 3 O f 5XgXqXsXsXpXqX0X5X5X5X0X3XF.Z.Z.F.F.Z.0X0XqXqXqX0X5X4XH.F.F.G.C.f i w.f f f f f f f f f f f f f f f f f f f f f f f f f f f f f f f f f f f f f f f f 3 3 < o o o o < C.x.C.C.x.C.pXFXFXBXBXDXZXjXdXfXjXsXpXwX5X4X4X4X5X5X5X5X4X4X4X4XO o < < o < g r.u.l.r.f x.4XpXqXqX0XqXMXFXCXBXZXCXmXjXsXsXgXgXfXpXpXdXdXdXpXqXqX0X0X0XqXqXpXdXsXsXdXpXqXqX0X0X0XqXqXpXdXdXdXpXpX4X5X5X0X0X0XwXwX0X0X0X0X5X5X4X4X5X0X0XqXqXqXqXqXqXqXqXqXqXqXqXuXR.@X+XT.{.<.0.",
"L.Y.W.*.| 7.>XiXiXdXsXdXtXwX4X4X4X5X0XqXqXqXqXqXqXqXqXqXqX0X0X0XpXpXqXqXqXqXqXqX5X5X8X5X5X5X5X5XdXqX5XG.F.F.F.F.Z.Z.Z.C.C.x.x.x.w.f i i f i 3 o O 3 < X < F u.w.w.r.l.c.c.c.l.l.c.l.u.w.w.w.r.r.4X4X4X4X4X4X4X4X4X4X4X3XH.F.Z.C.Z.Z.Z.Z.Z.Z.Z.Z.Z.Z.Z.Z.Z.Z.Z.Z.C.C.C.Z.Z.C.C.x.l.f.l.l.l.l.l.l.l.c.x.C.C.C.C.C.Z.x.l.u.l.l.u.w.l.l.c.x.x.c.l.u.r.r.w.w.w.w.f f f i 3 < < < < < 3 3 < o o o o < < o o o o < 3 3 o i 3 O f 4XdX0XsXdXqX0X5X4X4X4X4XF.C.x.x.C.C.x.F.F.H.G.G.H.F.F.C.C.C.F.x.i 3 f f i i i i i p f i i i i i i i i i i i i i i i f f g i i i i i f i i i i i p i i 3 3 < o o o o < C.x.C.Z.x.C.pXFXFXBXBXDXZXjXdXfXgXsXdXqX0X0X0X0X0X8X5X5X4X4X4X6XO o < = o < f r.u.l.r.N x.4XpXqXqX0XqXMXFXCXBXZXCXMXgXsXsXgXgXsX0XqXqXqXqXqX0X0X0X0X0XqXqXqXqXqXqXqXqXqXqX0X0X0X0X0XqXqXqXqXwX0X5X0X0XwX0X0X5X5X5X5X4X4X4X4X3X3X4X4X0X0X0X0X0X0X0XqX0XqX0X0X0X2XR.@X+XT.,.<.0.",
"L.Y.W.*.| 7.>XiXiXkXsXdXtXwX5X4X4X5X0X0X0X0X5X4X0XqXqXpXdXdXpXpX0X0X0X0X0XwXqXqXqXqXqXqXqXqXqXqXgXdX0X3XF.Z.Z.Z.Z.C.C.x.x.c.l.u.w.f i i f i 3 o O 3 < X < w.u.w.i.r.l.c.c.c.c.l.c.l.u.w.w.w.r.r.F.F.F.F.F.F.F.F.C.C.A.C.C.C.x.c.x.x.x.x.x.x.x.x.x.x.x.x.x.x.x.x.r.u.l.l.c.l.u.u.r.r.r.r.r.r.r.r.w.w.r.u.u.u.r.w.c.w.f i f f f i o < < 3 3 3 < < i i 3 3 3 3 3 < < < o o o o < < 3 3 < o o o o < < o o o o < 3 3 < f i O f 3XqX4XqX0X5X4XG.G.H.H.F.C.u.w.w.r.w.w.f w.w.r.r.w.w.w.r.w.r.x.r.< < i 3 3 3 3 3 3 3 3 3 3 3 3 3 3 3 3 3 3 3 3 3 3 3 3 3 3 3 3 3 3 3 3 3 3 3 3 3 3 3 3 3 3 < o o o o < C.x.C.C.x.C.pXFXFXZXZXDXZXjXsXgXgXsXdXpXqXlXpXpX0X0X0X5X4X4X4X4XO o < < o < f r.u.l.w.f x.4XpXqXqX0XpXMXFXCXBXCXZXMXgXdXsXsXfXsX4X5X0X0X0X0X8X5XqXqXqXqX0X0X0X0X0X0X0X0XqXqXqXqX5X0X0X0X0X0X5X4X0XwXqXqXwX5X4XG.4X3X3X3XG.G.H.H.IX3X4X5X0X5X5X4X0X0X0X0X0X0X0X,XR.@X+XT.,.<.0.",
"L.Y.W.*.| 7.>XiXiXkXsXdXlX0X5X4X5X5XeX0X5X4X4X3X0XqXlXdXsXsXsXsX4X4X4X4X5X0XqXpXsXsXsXsXsXsXsXsXjXsXqX4XF.Z.Z.Z.C.C.x.x.l.u.r.i.w.f i i f f 3 o O 3 < X < f u.w.w.r.l.c.c.c.c.l.c.l.u.w.w.w.r.r.C.C.C.C.K.C.C.K.r.u.l.l.l.l.u.r.l.l.l.l.l.l.l.l.l.l.l.l.l.l.l.l.i f f w.w.w.f f w.w.w.w.w.w.w.w.f f f f f i i 3 w.i 3 < 3 3 < o O O < < < < o o o o o O O X X X O O X X X o < < 3 3 < o o o o < < o o o o < 3 3 3 w.i O i G.qX3X5X4X3XH.F.Z.Z.Z.C.f.f i i i i 3 3 i g f f f i i 3 3 i w.i O X < O O O O O O o O O O o o O O O O o O O O O O O O O O O O O O o O O O o o O O O O 3 3 < o o o o < C.x.C.Z.x.C.pXFXFXZXZXFXZXjXsXgXsXsXdXdXdXdXsXsX0X0X0X5X4X4X4X3XO o < < o < f r.u.l.i.f x.4XpXqXqX0XlXmXFXCXBXZXZXMXgXdXsXsXsXsX3X4X4X8X0X5X4X4XpXpXqXqX0X0X5X5X5X5X0X0XqXqXpXpX4X4X5X0X5X4X4X3XqXqXlXqXqX5XG.F.G.G.G.H.H.F.F.F.G.G.4X4X4X4X4X4X4X5X5X5X4X4X4X,XR.@X+XT.,.8.0.",
"L.Y.W.*.| 7.>XiXyXyXpXpXpXqXwX0XdXqX0X4X4X4X5X5X4X5XqXdXsXsXsXdX4X4X3X4X4X0XpXsXdXpXpXdXpXpXdXdXdXsXqXH.Z.H.H.Z.F.C.l.r.l.c.l.u.f f f f i 3 3 < O 3 < X < f u.w.w.r.l.c.c.c.c.l.c.l.u.w.w.w.r.r.x.x.x.x.K.K.C.C.l.l.l.l.l.l.l.l.l.l.l.l.l.l.l.l.l.l.l.l.l.l.l.l.w.w.w.w.w.w.w.w.w.w.w.w.w.w.w.w.r.w.w.f i i 3 3 3 3 3 3 3 3 3 3 < < < < < < < < < < < < < < < < < < < < < < < < < < < < < < < < < o o o o < 3 3 < 3 < < w.F.5X4X5X4XG.F.F.F.H.G.Z.x.r.f f f i 3 f f f f f f f f f f f f i 3 < < < < < < < < < < o o o o o o o o < < < < < < < < < < < < < < < < < < < < < < < < < < < < < < < < F.C.x.C.C.F.sXGXZXBXZXDXAXsXpXgXsXsXsXsXsXsXsXsXsXqX5X4X5X0X5X4XO o < < o < f r.f w.w.f x.5XpX0X0X4XqXMXCXZXBXZXZXMXsXpXpXdXdXpX0X5X4X4X4X0XqXpXqXqX0X0X0X5X4X4X4X4X5X0X0X0XqXqXpXqX0X4X4X4X5X0X0XqXqXqXqX5X3XH.G.G.G.G.3X3X3X3XF.H.3X4X5X5X5X5X5X5X5X5X5X5X5X,X&.T.T.T.{.8.0.",
"L.Y.W.*.| 7.>XiXuXyXpXpXtXqXwX0XpXqX0X5X4X4X5X0X5X0XqXsXsXsXsXsX4X3XIX3X4X0XqXpXdXdXdXdXdXdXsXsXpXsXqXH.Z.H.H.Z.F.C.l.u.u.c.l.u.f f f f i 3 3 < O 3 < X < f u.w.w.r.l.c.c.c.l.l.c.l.u.w.w.w.r.r.c.c.c.c.c.c.c.c.c.c.c.c.c.c.c.c.c.c.c.c.c.c.c.c.r.r.r.r.r.r.r.r.r.r.r.r.r.r.r.r.r.r.r.r.r.r.r.r.r.r.w.w.f i i i 3 3 3 3 3 3 3 3 < < < < < < < < < < < < < < < < < < < < < < < < < < < < < < < < < o o o o < 3 3 o 3 < < w.G.qX0X4X4XH.Z.A.C.Z.Z.Z.x.w.f f f i 3 N f N f f f w.w.f f f f i 3 < < < < < < < < < < o o o o o o o o < < < < < < < < < < < < < < < < < < < < < < < < < < < < < < < < Z.x.x.K.x.Z.dXFXCXBXZXDXmXsXpXgXsXsXsXsXsXsXsXsXsXqX5X4X5X0X5X4XO o < < o < f r.f w.w.f x.4XqX0XqX5XqXMXFXCXBXCXCXMXgXdXdXsXsXdX5X4X4X3X4X5X0XqXqXqX0X0X0X5X5X4X4X5X5X0X0X0XqXqXqX0X5X4X3X3X4X5X0XqXqXqX0X5X4XG.H.H.H.H.H.H.G.G.F.G.3X4X5X8X5X5X5X5X5X5X5X5X5X,X&.T.T.T.{.8.0.",
"L.Y.W.*.| 7.>XiXiXyXpXpXtXqX0XeXqXqX0X0X5X0X0X0X0XqXpXsXsXsXsXsX4X4X3X3X4X5X0XqXsXsXsXsXsXsXsXsXqXdXwXF.Z.H.H.Z.F.C.l.r.s.c.l.u.f f f f i 3 3 < O 3 < X < f u.w.w.r.l.c.c.c.l.l.c.l.u.w.w.w.r.r.C.C.C.C.C.C.A.C.c.c.c.c.l.l.l.l.c.c.c.l.l.l.l.l.x.x.x.x.x.x.x.x.r.r.r.r.r.r.r.r.r.r.r.r.r.r.r.r.r.r.w.w.f f i i 3 3 3 3 3 3 3 3 < < < < < < < < < < < < < < < < < < < < < < < < < < < < < < < < < o o o o < 3 3 o 3 < 3 r.3XqX0XqXqX5X3XH.F.F.F.Z.c.w.f f f i i f f f f f f f f i i i i i 3 < < < < < < < < < < < o o o o o o o < < < < < < < < < < < < < < < < < < < < < < < < < < < < < < < < Z.x.x.C.C.Z.pXCXCXBXZXDXmXsXpXgXsXsXsXsXsXsXsXsXsXqX5X4X5X0X5X4XO = < < o < f r.f w.w.f x.4XqX0XqX0XpXmXFXCXBXCXDXmXgXdXdXsXsXdX4X4X4X3X4X4X0X0XqXqXwX0X0X0X0X5X8X0X0X0X0XwXqXqX0X0X4X4X3X4X4X4XwXqXqXqX0X5X4X3XH.H.H.H.H.H.H.H.H.G.4X5X5X0X8X5X5X5X5X5X5X5X5X,X&.T.T.T.{.8.0.",
"L.Y.W.*.#.7.>XiXiXdXdXpXlXwXeXeX0X0X0X0X0XwXqXqXqXqXqXqXpXpXpXqX0X5X5X8X8X0X0X0XlXlXlXlXqXqXqXqXqXpX0XF.Z.H.H.Z.F.C.l.r.s.c.l.u.f f f f i 3 3 < O 3 < X < f u.w.w.r.l.c.c.c.l.l.c.l.u.w.w.w.r.r.x.x.x.x.x.x.x.x.r.r.r.r.w.w.w.i.r.r.r.w.w.w.w.i.l.l.l.l.l.l.l.l.f f f f f f f f f f f f f f f f f f f p i i e 3 3 3 3 3 3 3 3 3 < < < < < < < < < < < < < < < < < < < < < < < < < < < < < < < < < o o o o < 3 3 < 3 3 < w.Z.G.F.4X4X3XH.F.F.F.F.C.l.f i f f i i i i i i i i i i 3 3 i i 3 3 < o < < < < < < < < < < < < < < < < < < < 4 < < < < 3 3 < < < < < 3 < < < < 3 3 3 < < < < < 3 3 3 < F.Z.Z.F.Z.F.dXDXCXBXZXDXmXsXpXgXsXsXsXsXsXsXsXsXsXqX5X4X5X0X5X4XO & < < o < f r.w.r.w.f x.6XqX5XqX5XqXMXCXBXmXBXBXbXsXqXqXpXlXqX0X0X5X5XeX0X0X0XqXqX0X0X0X0X0X0X0X0X0X0X0X0XqXwX0X0X0X0X5X5X0X0X0XwX0X0X0X5X4X4X3X3X3X3XIXG.G.G.H.IX4X5X0X0X0X0X0X0X0X0X0X0X0X,X&.T.T.T.{.8.0.",
"L.Y.W.*.#.7.>XiXiXdXdXdXtXwXeX5X5X0X0XqXqXqXqXpX0X0X0X8X8X5X5X0XqXpXpXpXqXqXqXqX8XeXeX8X0X0X0X0X0XqX8XF.Z.H.H.Z.F.C.l.r.l.c.l.u.f f f f i 3 3 < O 3 < X < N u.w.w.r.f.c.c.c.l.l.c.l.u.w.w.w.r.r.3 3 3 3 3 3 3 3 i i i i i i i i i i i i i i i i < < < < < < < < 3 3 3 3 3 3 3 3 3 3 3 3 3 3 3 3 3 3 3 4 < < < < < < < < 4 < < < < < < < < < < < < < < < < < < < < < < < < < < < < < < < < < < < < o o o o < 3 3 3 i 3 o i l.c.w.f w.w.r.u.l.l.l.x.u.f i i f i i < < < < < < < < < < 3 3 3 < < o < < < < < < < < < < < < < < < < 3 3 3 3 3 3 3 3 3 3 3 3 3 3 3 3 3 3 3 3 3 3 3 3 3 3 3 3 3 3 3 3 3XH.H.4X3X4XgXFXZXBXZXDXmXsXpXgXsXsXsXsXsXsXsXsXsXqX5X4X4X0X5X4XO o < < o < f r.w.u.w.f x.4X0X5X0X3X0XjXBXMXhXbXMXgXqX5X5X0XeX5XqXqXpXtXqXqXqXqXwX0XqXqXqXqXqXqXqXqXqXqXqXqX0X0XqXqXqXqXpXpXqXqX0X0X0X0X5X8X8X0X0X0X0X5X4X4X4X4XG.3X4X5X0X0X0X0X0X0X0X0X0X0X0X,X&.T.+XT.{.8.0.",
"L.Y.W.*.| 7.>XiXiXdXdXdXlX0X5X4X4X5X0XqXpXdXdXdXqX0X5X4X3X3X4X4XsXsXsXsXsXpXqX0X4X4X4X4X4X4X4X4X5XqX5XZ.A.H.G.Z.F.C.l.r.l.c.l.u.f f f f i 3 3 < O 4 < X < N u.w.w.r.f.c.c.c.l.l.c.l.u.w.w.w.r.r.< < < < < < < < 3 3 3 3 3 3 3 3 3 3 3 3 3 3 3 3 X X X X O O X X = = o o o o o o = = = = o o o o o o o o o o o o < < < < < < < < < < < < < < < < < < < < < < < < < < < < < < < < < < < < < < < < < o o o o < 3 3 3 i 3 o < f f < < 3 i w.r.u.l.l.x.r.i i i f i i o o o o o o o o o < < < < < o O < < < < < < < < < < < < < < < < 3 3 3 3 3 3 3 3 3 3 3 3 3 3 3 3 3 3 3 3 3 3 3 3 3 3 3 3 3 3 3 3 5X4X4X0X5X5XjXGXZXBXZXDXmXsXpXgXsXsXsXsXsXsXsXsXsXqX5X4X4X0X5X4XO o < < o < f r.w.u.w.N x.4X0X4X5XG.5XjXMXhXgXjXhXsX8X3X3X6X4X3XdXdXsXsXsXdXqXqX0X0XqXqXqXqXqXlXpXqXqXqXqXqX0X0XqXqXdXsXsXsXdXdXqX0X0X5X5X8X0X0XqXqXqX0X0X5X4X4XG.4X4X0X0XwXwX0X0X0X0X0X0X0X0X2X&.T.+XT.{.8.0.",
"L.Y.W.*.| 7.>XiXiXkXsXdXqX0X4X3X).4X0XpXsXsXsXsXpXqX0X4X3X3X3X4XsXsXsXsXsXqX0X5X4X4X4X4X6X6X4X4X4X0X4XZ.C.F.H.Z.F.C.l.r.l.c.l.u.f f f f i i 3 < O 3 < X < N u.w.w.r.s.c.c.c.l.l.c.l.u.i.w.w.r.r.i i i i i i i i 3 3 3 3 3 3 3 3 3 3 3 3 3 3 3 3 3 3 3 3 3 3 3 3 o o o o o o o o o o o o o o o o O o o o o o o o < < < < < < < < < < < < < < < < < < < < < < < < < < < < < < < < < < < < < < < < < o o o o < 3 3 3 i 3 o 3 w.f < f w.u.c.x.x.x.x.c.w.i 3 i f f i o o o o o o o o X O o < < < o O < < < < < < < < < < < < < < < < 3 3 3 3 3 3 3 3 3 3 3 3 3 3 3 3 3 3 3 3 3 3 3 3 3 3 3 3 3 3 3 3 5X4X4X0X5X5XjXFXZXBXZXDXmXsXpXgXsXsXsXsXsXsXsXsXsXqX5X4X4XeX5X4XO o < < o < f r.r.l.r.w.x.3X0X4X0X3X5XjXMXhXgXjXhXsX0X3X4X4X4X4XpXdXsXsXsXpXqX0X0X0XqXqXqXpXpXdXdXpXpXqXqXqX0X0X0XqXpXsXsXsXdXpXqX0X5X4X4XeX0XqXqXqXqX0X5X4X4X4X3X4X5X0XqXqXqX0X0X0XqX0X0XwX0X2X&.T.T.T.{.8.0.",
"L.Y.W.*.| 7.>XiXiXkXsXdXlX0X4X3XG.4X0XpXsXsXsXsXsXpX0X4X4X4X4X4XdXsXsXsXdXqX5X4X4X4X4X5X5X5X4X4X4X0X6XZ.C.H.G.Z.F.C.l.r.l.c.l.u.f f f f i i 3 < O 3 < X < N u.w.w.r.f.c.c.c.l.l.c.l.u.i.w.w.r.r.3 3 3 3 3 3 3 3 3 3 3 3 3 3 3 3 3 3 3 3 3 3 3 3 o < o < < < o o < < < < < < < < < < < < < < < < o o < < < < < < < < < < < < < < < < < < < < < < < < < < < < < < < < < < < < < < < < < < < < < < < o o o o < 3 3 3 i 3 < i r.w.3 f w.r.l.c.l.r.w.l.w.i 3 i f f i < < < < < < < < X X o < < o o O < < < < < < < < 3 3 3 3 3 3 3 3 3 3 3 3 3 3 3 3 3 3 3 3 3 3 3 3 3 3 3 3 3 3 3 3 3 3 3 3 3 3 3 3 4X3X4X0X4X4XsXDXCXBXZXDXmXsXpXgXsXsXsXsXsXsXsXsXsXqX5X4X4X8X5X4XO o < < o < f r.r.l.r.w.c.3X0X4X0X4X0XhXmXbXjXjXbXsX0X4X4X5X5X4XqXpXdXsXdXqX0X5X0X0XqXqXqXpXdXdXdXdXpXqXqXqX0X0X5X0XqXdXsXdXpXqXqX0X5X4X4X0XqXqXqXwX0X8X4X3X3XG.3X4X5X0XqXqXqXqXqXqXqXqXqXqXqX2X&.T.+XT.{.8.0.",
"I.Y.W.U.8.;X>XuXiXkXfXsXpX0X4X).3X4X0XqXdXsXgXgXsXdXqX0X0X5X5X8XsXsXsXsXdXqX0X0X5X4X4X4X6X5X0X0X4XqX0XF.x.Z.F.Z.F.C.l.r.l.c.l.u.f f f f i 3 3 < o < < 3 i w.r.l.r.u.l.c.c.c.l.u.r.r.r.r.r.r.r.r.< 3 3 3 3 < < o 3 3 i i i 3 3 < 3 3 3 3 3 3 3 3 < < < < < < < < < < < < < < < < < < < < < < < < < < < < < < < < < < < < < < < < < < < < < < < < < < < < < < < < O O O O O O O O X X X X X X X X < < < < < < < < 3 i i < 3 w.f < f f w.w.u.l.c.c.c.u.w.f f f w.w.< < < < < < < < < < < < < < < < < < < o o O O O < < < < < < < < i 3 < < 3 i 3 < i 3 3 3 3 3 3 i < < < < 3 3 3 3 < 3 i i 3 < 3 i 4X4X3XG.IX0XjXBXZXBXZXDXmXsXpXgXjXjXfXsXsXsXgXgXpXlXqX0X0X0X0XqXO o < < o < f r.r.u.w.f x.4X0X4X0X3X5XgXMXhXjXhXgXpX5X4X4X4X4XG.gXgXfXsXsXdXpXpX0X0XqXqXqXpXdXdXdXdXpXqXqXqX0X0XpXpXdXsXsXfXgXgX0X0X5X5X5X0X0XqXqXqXqXqXqXqXqXqX3X4X5X0XqXqXqXqXqXqXqXqXqXqXqX2X&.T.T.=.,.:.q.",
"I.Y.W.U.8.=X>XuXiXdXdXdXpXwXeX4X4X5X0XqXqXpXdXdXdXpX0X0X5X4X4X5XdXdXsXdXpXqX0X5X5X4X4X6X4X5X0X0X4XqX0XF.C.Z.F.Z.F.C.l.r.l.c.l.u.f f f f i 3 3 < < < < 3 i f r.u.r.r.l.c.c.c.l.u.r.r.u.u.u.u.u.u.3 3 i i i 3 < < 3 3 i i i 3 3 < < < < < < < < < < < < < < < < < < < < < < < < < < < < < < < < < < < < < < < < < < < < < < < < < < < < < < < < < o o o o o o O O O O O O O O O O o o o o o o = = < < < < < 3 < < < i 3 o 3 w.w.3 f f w.i.u.l.c.c.w.N i 3 3 3 i i X X X X X X X X X X X X X X X X o O O X X X X X o o o o o o o o f i 3 3 i i 3 < f f i i 3 3 3 i < < < < 3 3 3 3 o 3 i i 3 < 3 i 6X6X3XG.G.0XgXmXCXBXZXDXmXsXpXgXgXgXsXdXdXdXsXsXqXqX0X8X5X5X0X0XO o < < o < f r.r.u.w.f x.4X0X4X0X3X5XgXMXhXjXhXjXdX0X5X5X0X5X4XsXsXsXdXpXpXqXqX0X0XqXqXqXpXpXdXdXpXpXqXqXqXqX0XqXqXpXpXdXsXsXsX0X0X5X5X5X0X0X0X0X0X0X0X0X0X0X0X3X4X5X0XwXqXqX0X0X0X0XwXwX0XwX2X&.T.T.=.,.:.q.",
"I.Y.W.U.>.^.>XuX9XqXlXpXtXqXwX0X0X0X0X0X0X0X0X0XqX0X5X4X3X3X3X4XqXqXqXqXqX0X5X4X5X4X4X4X5XeX0XqX5XqX0XF.C.Z.F.Z.F.C.l.r.l.c.l.u.f f f f i 3 3 < < < < 3 i f w.r.w.w.u.l.c.c.l.s.u.u.u.u.u.u.u.u.i f f f f i 3 3 3 i i i i 3 < < < < < < < < < < < < < < < < < < < < < < < < < < < < < < < < < < < < < < < < < < < < < < < < < < i i i i i i i i < 3 3 3 3 3 3 3 3 3 3 3 3 3 3 3 i i i i i i i i i i i i i i i i 3 f i 3 f x.C.u.c.c.x.x.C.C.C.Z.Z.Z.C.x.x.x.C.C.l.l.c.c.c.l.l.l.l.l.l.l.l.l.l.l.l.l.l.u.u.r.r.i.s.l.l.l.l.l.l.l.l.u.i.u.l.l.w.f r.r.w.f g i 3 3 < < < 3 3 3 3 i 3 i w.w.f f f w.pXpXqX0X0XpXhXBXCXBXZXDXmXsXpXgXsXsXpXqXqXqXqXpX0X0X4X4X4X4X4X4XO o < < o < f r.r.s.w.f x.3X0X4X0X3X5XgXMXhXjXhXhXsXqX0XwXqX0X0XpXpXqXqXqXqXqX0X0X0XqXqXqXqXqXpXlXqXqXqXqXqX0X0X0XqXqXqXqXqXpXpX0X0X0X0X0X0X0X0X4X4X4X4X4X4X4X4XIX4X4X0X0X0X0X0X0X0X0X0X0X0X0X2X&.T.T.=.,.:.q.",
"Y.Y.Y.*.>.0.>X2X,X8X0XqXqXtXtXtXqXqX0X5X4X3X3X3X5X4X3XG.H.G.G.IX0X0X0X0X0X4X4X3X5X4X4X4X5X0XqXlX0XpXqXF.C.Z.F.Z.F.C.l.r.f.c.l.u.f f f f i 3 3 < < < < < 3 i w.w.f w.r.s.l.c.l.l.l.l.l.l.s.u.f.f.f w.w.w.w.f i i i i i i i 3 < < < < < < < < < < < < < < < < < < < < < < < < < < < < < < < < < < < < < < < < < < < < < < < < < < f f f f f f f f w.w.w.w.w.w.w.w.r.r.r.r.r.r.r.r.w.w.w.w.w.w.w.w.f f f f f f f f w.u.r.w.x.3X4XH.H.H.G.3X3X4X4X4XqXqX0X0X0X0X0X0XdXdXdXdXdXdXdXdXdXpXpXpXqXqXqXqX5X5X4X4X4X4X4X3X4X4X4X4X4X4X4X4XH.F.F.F.H.F.C.x.x.c.l.r.w.i 3 3 < 3 3 3 3 i i i w.l.C.C.x.x.x.C.bXbXhXjXgXjXBXFXCXBXZXDXmXsXpXgXdXpXqX0X0X0X0X0X5X4X3XG.G.G.G.3XO o < < o < f r.r.f.w.f c.3X0X4X0X3X5XgXMXhXjXhXMXjXpXqXlXdXpXqX0X0X0X0X0X0X0X0X0X0XqXqXqXqXqXqXqXqXqXqXqXqX0X0X0X0X0X0X0X0X0X0X0X0X0X0X0X0X5X4X3X3X3X3X3X3X3X3XG.3X4X8X0X0X0X0X0X0X0X0X0X0X0X,X&.T.T.=.,.:.q.",
"Y.Y.Y.*.@.0.:X,X<X6X5X0XwXrXpXaXsXpX0X4XG.H.F.H.4X3XG.H.F.H.G.G.4X4X5X5X5X6X3X3X4X4X4X5X0XqXpXdXqXsXqXH.C.Z.F.Z.F.C.l.r.l.c.l.u.f f f f i 3 3 < < < < < 3 i f w.f f w.u.l.l.l.l.l.l.l.l.l.l.l.l.w.w.r.r.w.w.f f i f i i i 3 < o < < < < < < < < < < < < < < < < < < < < < < < < < < < < < < < < < < < < < < < < < < < < < < < < w.w.w.w.w.w.w.w.u.u.u.u.u.u.u.u.l.l.l.l.l.l.l.l.r.u.u.u.u.u.u.u.w.w.w.w.w.w.w.w.r.c.u.r.C.5XqX5X5X5X5X5XeX0X0X0X0X0X0X0X0X0X0X0XsXsXsXsXsXsXsXsXsXsXsXdXpXpXlXqX0X0X5X5X4X4X6X4X4X4X4X4X4X4X4X4X4X3X3X4X5X4XF.C.x.x.x.c.r.f 3 < 3 3 3 3 i i i i w.c.Z.F.Z.Z.Z.Z.mXmXmXMXhXMXBXFXCXBXZXDXmXsXpXgXdXpXqX0X5X4X4X5X6X3XG.H.H.H.H.G.O o < < o < f r.r.l.r.N c.3X0X4X0X3X5XgXMXhXjXhXMXjXdXpXdXsXsXdX5X5X5X5X8X5X0X0XqXqX0X0X0X0X0X0X0X0X0X0X0X0XqXqX0X0X5X5X5X5X5X5X0X0XqXqX0X0X4X4XG.G.G.G.G.G.G.G.G.IX4X5X0X0X0X0X0X0X0X0X0X0XeX,X&.T.T.=.,.:.q.",
"Y.Y.I.O.#.7.;X,X,X6X6X5X0XqXpXsXgXsXqX6XG.H.H.H.3XG.H.H.F.H.G.3X4X4X4X5X5X4X4X3X4X4X4X5X0XqXdXsXqXsXpXG.C.Z.F.Z.F.C.l.r.h.c.l.u.f f f f i 3 3 < < < < < 3 3 i f i f w.r.l.l.l.l.c.c.c.c.l.l.l.l.w.w.r.r.w.w.f f f f f i 3 < o O o o o o o o o o < < < < < < < < < < < < < < < < < < < < < < < < < < < < < < < < < < < < < < < < i.r.r.r.w.w.w.w.w.w.w.w.w.w.w.w.w.w.w.w.w.w.w.w.u.u.u.u.u.u.u.u.i.r.r.r.w.w.w.w.w.r.w.f l.3X0X4X4X4X4X4X6X4X6X4X4X5X0XqXqXqXwX0XpXpXpXpXpXpXpXpXpXpXqXqX0X0X5X5X0X0X0X5X5X4X4X4X4X4X4X4X4X4X4X4XH.H.H.3X3XH.C.u.x.x.x.x.u.f i < 3 3 3 i i i i i i w.x.Z.C.x.x.C.jXbXbXhXjXjXMXZXZXBXZXDXmXsXpXgXsXpXqX0X5X4X4X4X6X3XG.H.F.H.H.G.O o < < o < f r.r.l.i.N c.3X0X4X0X3X5XgXMXhXjXhXMXjXdXpXdXsXsXsX4X4X5X5X8X0X0X0XqXqX0X0X0X0X0X0X5X0X0X0X0X0XqXqX0X0X0X5X5X4X4X4X0X0XqXqXqX0X4XG.G.G.G.G.G.G.G.G.H.G.4X5X8X0XeX5X5X5X5X5X5X5X5X,X&.T.T.=.,.:.q.",
"Y.Y.I.O.#.7.;X,X,X6X6X6X5XwXtXaXjXsXqX4XG.H.G.G.3XG.H.H.H.G.3X4X4X4X4X5X5X5X4X6X4X4X4X5X0XqXsXsXpXgXdXG.C.Z.F.Z.F.C.l.r.l.c.l.u.f f f f i 3 3 < < < < < < 3 i i 3 i f w.u.l.l.l.c.c.c.c.c.c.c.c.w.w.w.w.w.w.f g f f f i 3 < o X o o o o o o o o < < < < < < < < < < < < < < < < < < < < < < < < < < < < < < < < < < < < < < < < w.w.w.w.w.w.w.w.w.w.w.w.w.w.w.w.w.w.w.w.w.w.w.w.r.r.r.r.r.r.r.r.w.w.w.w.w.w.w.w.w.w.f i u.H.5X3X4X6X4X4X4X4X4X4X0X0XpXdXsXsXpXlXsXsXsXsXsXsXsXsXsXsXdXpXqX0X0X0XqXqXqXqX0X0X0X0X0X0X0X0X0X0X0X0XF.F.F.G.G.F.x.w.u.l.x.x.l.w.i < 3 3 i i i i f g 3 f x.C.C.x.x.x.fXjXhXjXjXjXMXZXZXBXZXDXmXsXpXgXsXdXqX0X5X4X4X4X4X4X3XG.H.H.G.G.O = < < o < f r.i.u.i.N x.3X0X4X0X3X5XgXMXhXjXhXhXgXpXqXdXsXsXsX4X4X5X5X0X0X0X0XqXqX0X0X0X5X5X5X4X5X5X0X0X0XqXqX0X0X0X0XeX5X4X4X0X0XqXpXqX0X3XH.G.G.G.G.G.G.G.G.F.H.3X4X5X8X5X5X5X5X5X5X5X5X5X,X&.T.T.=.,.:.q.",
"Y.Y.I.O.#.6.;X<X,X8X6X4X5X0XtXaXhXgXqX4XIXG.3X4X3X3XG.H.G.3X4X4X4X4X5X0X0X0X5X4X4X4X4X5X0XpXsXgXdXgXsX3XZ.Z.F.Z.F.C.l.r.l.c.l.u.f f f f i 3 3 < < < < < < 3 i i 3 i f w.u.l.l.l.c.c.c.c.c.c.c.c.w.w.w.w.w.f f i f f f i 3 < O X o o o o o o o o < < < < < < < < < < < < < < < < < < < < < < < < < < < < < < < < < < < < < < < < w.w.w.w.w.w.w.w.l.l.l.l.l.l.l.l.r.r.r.u.r.r.r.u.w.w.w.w.w.w.w.w.w.w.w.w.w.w.w.w.u.l.w.f l.3X0X4X0X0X0X0X0X8X5X5X4X4X0XqXpXlXqX0XsXsXsXsXaXsXsXsXsXsXpXqXqX0XeX5X0X5X5X4X4X6X4X4X3X3X4X4X4X3X3X3XH.H.G.4X4XH.x.w.w.u.c.c.l.w.i < 3 3 i i i i f f 3 w.C.F.Z.C.C.C.jXhXbXbXbXMXBXDXZXBXZXDXmXsXpXgXgXsXpXwX8X4X4X4X5X6X3XG.G.H.G.3XO = < < o < f r.r.u.w.f c.3X0X4X0X3X5XgXMXhXjXhXhXsXqXqXpXsXsXsX4X4X5X0X0X0XqXqXqXqX0X0X0X5X4X4X4X4X5X0X0X0XqXqXqXqX0X0X0X5X5X4X0XqXqXpXqX0X3XF.3X3X3X3X3X3X3X3XF.H.3X4X5X5X5X5X5X5X5X5X5X5X5X,X&.T.T.=.,.:.q.",
"I.Y.I.O.#.7.;X,X,X8X8X5X5X5X4X5XjXsXpX0X4X3XG.H.3X3X3X3X3X3X3X3X0X5X5X5X5X0XqXqX5X0X0XqXqXqXqXwXqXdXqXH.F.G.3XF.Z.x.u.w.r.s.u.r.f f f f i 3 3 < o o o < < 3 f f i < < r.x.l.u.c.r.c.C.Z.K.x.x.x.r.r.r.r.r.r.r.r.i i i i i i i i o o X X X X X O < < < < o o O O < o O o < < X . 3 o < f f < O < < < < < < < 3 3 X O o < < < < < r.u.u.w.f f u.x.r.c.l.f f c.x.l.w.w.w.w.w.w.w.w.f f w.w.r.i.w.w.c.l.l.l.l.z.x.C.f f w.l.C.F.G.4X0X0X0X0X0X0X0X0XqXqXqXqXqXwXwXwXgXgXgXgXgXgXgXgXdXdXdXdXdXdXdXdX0X0X0X0X0X0X0X0X8X5X4X3X3X3X3X4XH.H.H.G.3XF.x.u.x.x.C.Z.x.3 < 3 o < 3 i i i i i 3 w.C.F.F.F.F.F.hXbXMXMXmXMXMXMXmXmXmXMXbXjXgXsXqXqXqXqX0X0X5X5X0X4XF.Z.Z.H.H.H.O o < < o < f r.w.u.r.w.c.G.4XH.G.F.3XsXMXhXjXhXMXjXsXpXsXsXsXdX0X0X0X0X0X0X4X4XqX0X0X0X0X0XqXqXqXqX0X0X0X0X0XqX5X0X0X0X0X0X4X4X5X5X0X0X5X4X4X3XH.H.H.H.G.H.H.H.F.H.3X4X5X5X5X5X0X0X0X0X0X0X0X,X&.E.+X+X,.:. .",
"I.Y.I.O.#.7.;X,X,X8X8X5X5X5X4X5X0X0X4X3XH.F.F.F.H.H.H.H.H.H.H.H.0X5X5X5X5X0XqXqX0XqXqXlXqXqXqX0X0XqX5XZ.C.F.F.C.Z.x.u.w.r.s.u.r.f f f f i 3 3 < o o o < < 3 f f u.f w.Z.4X3XG.4X3X0XgXbXbXbXMXMXFXDXDXDXFXFXFXFXBXBXBXBXBXBXBXBXCXZXBXNXmXmXmXmXMXMXMXMXbXbXbXzXgXsXdXsXgXgXdXqX3XF.H.4X3XC.c.C.x.c.u.w.i i 3 3 3 i f f w.f f f Z.F.F.Z.C.C.F.3XF.3XG.Z.F.4X0X5XdXdXdXdXdXdXdXdXsXsXgXjXjXjXjXjXsXsXsXsXsXfXjXjXBXBXBXZXDXGXHXJXCXCXCXCXCXCXCXCXZXZXZXZXZXZXZXZXBXBXmXmXBXBXBXBXMXMXMXMXMXMXMXMXCXCXCXCXCXCXCXCXCXZXBXmXMXMXmXmX0X5X5X0X0X5XF.C.C.x.C.Z.c.3 o 3 o < 3 i i i i i i u.Z.G.G.H.H.H.MXMXMXmXmXmXMXMXMXMXMXbXjXgXsXpXsXsXsXsXdXdXdXdXqX4XF.Z.Z.F.F.F.O o < < o < f r.w.u.r.w.c.G.4XH.G.F.3XsXMXhXjXhXMXjXsXpXdXsXsXdX0X0X0XqX0X0X5X4X0X0X0X0X0XqXpXdXdXpXqX0X0X0X0X0XqXqXpXdXdXdXpXqX5X5X0X0X5X4X4X3XIXIXG.G.IXG.G.G.F.H.G.4X4X5X5X4X0X0X0X0X0X0X0X,X&.E.+X+X,.:. .",
"I.Y.I.O.#.7.;X,X,X8X8X5X5X4X4X5X3X3XG.H.F.H.H.G.H.H.H.H.H.H.H.H.0X5X5X5X5X0XqXqXdXdXsXdXpXqX0X0X4X5XG.C.c.C.Z.x.Z.x.u.w.r.s.u.r.f f f f i 3 3 < o o o < < 3 f f f 3 f Z.4X5X4X0X0XsXBXFXGXFXFXFXSXSXSXCXCXSXCXCXDXDXDXDXCXDXDXDXCXZXBXMXMXbXbXbXjXjXjXjXgXgXsXsXsXpXqXpXsXsXqX0XpX0X0XqX0XF.C.C.F.Z.x.l.w.f i i f w.r.u.u.u.u.r.Z.Z.Z.C.C.C.F.4XG.4X4XH.3XpXsXdXgXgXgXgXgXgXgXgXhXbXMXmXmXmXMXMXmXmXMXMXMXBXBXZXZXBXBXmXmXBXBXZXGXGXGXGXGXGXGXGXFXFXFXFXFXFXFXFXDXDXDXDXDXDXDXDXDXDXDXDXDXDXDXDXGXGXGXGXGXGXGXGXGXFXDXCXZXCXCXDXqXqXqXlXpX0X3XZ.Z.C.Z.Z.c.3 X < o < 3 i i i i i f c.F.4X4X3X3X3XmXNXBXBXBXBXmXmXhXhXhXjXgXsXpXqXsXsXsXsXsXsXgXgXpXeXH.Z.Z.F.F.Z.O o < < o < f r.w.u.w.f c.G.4XH.G.F.3XsXMXhXjXhXMXjXdXpXdXsXsXpX0X0XqXqXqX0X5X4X5X5X5X0X0XqXdXsXsXdXqX0X0X5X5X5XqXqXdXsXsXsXsXsX5X5X0X0X5X4X4X3X3X3X3X3X3X3X3X3XF.F.G.3X4X4X6X4X0X0X0X0X0X0X0X,X&.E.+X+X,.:. .",
"Y.Y.I.O.#.7.;X<X,X8X8X5X5X5X4X5XeX5X6X3X3X3X3X4X3X3X3X3X3X3X3X3X0X5X5X5X5X0XqXqXgXgXgXsXdXqX0X5X3X4XG.x.l.C.C.c.Z.x.u.w.r.s.u.r.f f f f i 3 3 < o o o < < 3 f f i < f Z.4X4X3X5X5XsXmXDXDXBXMXbXCXCXCXCXCXCXZXZXCXCXCXCXCXCXCXCXZXBXmXbXjXjXjXgXjXjXgXgXsXsXsXsXsXpXqXpXsXsXqX0X4XH.H.4XG.x.r.l.x.c.u.w.N f f f i f w.w.w.w.w.w.x.C.C.x.c.x.Z.G.F.3X3XF.3XdXjXsXqXqXqXqXqXqXqXqXpXpXsXsXgXsXsXsXhXjXjXjXjXhXMXMXZXZXBXBXAXBXBXBXBXBXBXBXBXBXBXBXBXBXBXBXBXBXBXBXCXZXZXZXZXCXCXCXDXDXDXDXDXDXDXDXBXBXBXBXBXBXBXBXBXAXMXMXbXbXMXMX0X0X0XqXqX0XH.A.Z.C.Z.F.c.< X o o < 3 i i i i i f l.F.3X4X3XG.3XBXZXCXCXCXZXBXNXhXhXhXjXgXsXpXqXqXqXqXpXdXdXsXsXsX0XH.Z.Z.Z.Z.Z.O o < < o < f r.w.u.w.f c.G.4XH.G.F.3XsXMXhXjXhXMXjXdXqXpXdXdXpX0XqXqXqXqX0X0X5X4X4X4X5X0XpXsXgXgXsXpX0X5X4X4X4X4X5X0XqXdXdXdXdX5X5X0X0X5X4X4X3XG.G.G.G.G.G.G.G.Z.F.H.3X4X4X4X4X0X0X0X0X0X0X0X,X&.E.+X+X,.:. .",
"Y.Y.I.O.#.7.;X<X,X8X8X5X5X4X4X4XqX0X5X4XG.H.H.H.G.G.G.G.G.G.G.G.0X5X5X5X5X0XqXqXjXjXgXsXdXqX0X4X4X0X3XC.x.Z.Z.x.Z.x.u.w.r.s.u.r.f f f f i 3 3 < o o o < < 3 f f w.i r.H.0X5X4X5X0XgXBXFXFXCXBXMXDXDXDXDXDXDXDXDXCXCXSXSXCXCXCXCXHXFXDXBXmXMXMXMXMXMXMXMXbXbXbXzXsXpXpXdXsXsXqX0X5XG.3X0X4XZ.C.Z.c.l.r.w.f f f f i g f w.w.w.w.f C.Z.Z.C.C.A.H.4XF.4X4XG.4XsXhXjXjXjXjXjXjXjXjXjXjXhXbXMXMXMXMXbXMXMXbXbXbXMXmXBXBXBXBXBXZXCXDXFXCXCXCXCXCXCXCXCXDXDXDXDXDXDXDXDXBXBXBXBXBXBXBXBXCXCXCXCXCXCXCXCXCXCXCXCXCXCXCXCXCXZXBXmXmXmXmXBX0X0X0XqXqX0XH.C.Z.C.Z.F.c.< X o o < 3 i i i i i i u.Z.G.G.H.H.H.CXCXDXDXCXZXBXmXMXMXbXzXjXfXdXpXqXqXqXpXdXsXsXsXsX0XH.Z.Z.Z.Z.Z.O o < = o < f r.w.u.w.f c.G.4XH.G.F.3XsXMXhXjXhXbXjXpXqXpXdXpXqXqXqXqXqXqXqX0X5X4X4X4X5X0XpXsXgXgXsXpXwX5X4X4X4X4X5X0XqXdXdXdXdX5X5X0X0X8X4X4X3XF.F.H.H.H.H.H.H.F.F.G.3X4X4X4X4X0X0X0X0X0X0X0X,X&.E.+XT.,.:. .",
"Y.Y.I.O.#.7.;X<X,X8X8X5X5X4X4X5X0X5X4XH.F.J.Z.Z.F.F.F.F.F.F.F.F.0X5X5X5X5X0XqXqXsXsXsXsXpX0X5X4X5X0X4XC.x.Z.Z.C.Z.x.u.w.r.s.u.r.f f f f i 3 3 < o o o < < 3 f f i 3 w.F.0X4X3X4X5XsXmXFXFXFXFXFXBXBXBXBXBXBXBXBXmXmXmXmXmXmXmXmXBXmXMXhXjXjXjXjXsXsXsXsXdXdXpXpXqX0X5X0XqX0X4XG.0X3X4XqX0XF.Z.F.F.Z.x.l.w.f i i f w.w.u.u.u.u.r.c.x.x.x.x.C.F.4XZ.3X3XF.3XpXjXsXsXsXsXsXsXsXsXsXjXjXbXMXMXMXMXbXMXMXMXMXMXmXBXBXhXhXhXbXMXmXZXCXDXDXDXDXDXDXDXDXFXFXFXFXFXFXFXFXCXCXCXCXZXZXZXZXDXDXDXDXDXDXDXDXDXDXDXDXDXDXDXDXDXCXZXBXBXBXBXBXqXqXqXlXpX0X3XZ.Z.C.Z.Z.c.3 X < o < 3 i i i i i i u.Z.G.G.H.H.H.CXCXDXSXCXBXmXMXMXMXMXbXjXgXdXpXsXsXsXsXsXsXgXgXpXeXH.Z.Z.F.F.Z.O o < = o < f r.w.u.w.f c.G.4XH.G.F.3XsXMXhXjXhXbXgXpXqXqXdXpXqXqXqXpXpXqXqX0X0X5X5X5X0X0XqXdXsXsXdXqX0X0X5X5X5XqXqXdXsXsXsXsXsX5X5X0X0X8X5X4X3XH.H.H.H.H.H.H.H.F.G.3X4X5X5X5X5X0X0X0X0X0X0X0X,X&.E.+X+X,.$. .",
"I.Y.I.O.#.7.;X,X,X8X8X5X5X5X4X4X5X4X4XIXG.G.G.3X3X3XIX3X3X3X3X3X0X5X5X5X5X0XqXqXdXdXdXpXqX0X5X4X4X0X4XC.x.Z.Z.x.Z.x.u.w.r.h.u.r.f f f f i 3 4 < o o o < < i f f < < f F.qX0X5X0X0XsXbXBXBXBXZXCXGXGXGXGXGXGXGXGXFXFXFXFXFXFXFXFXBXBXMXMXbXbXMXMXbXbXzXhXjXjXjXjXbXjXjXjXbXbXjXsX5XG.G.4X3Xx.l.x.Z.Z.x.l.r.w.f f w.w.r.l.l.l.s.u.c.x.x.x.x.C.F.4XH.4X4XH.4XdXjXsXdXdXdXdXdXdXdXdXsXsXgXjXjXjXjXjXhXhXhXjXhXbXMXMXFXFXDXFXFXGXHXJXBXBXBXBXBXBXBXBXBXBXBXBXBXBXBXBXZXZXZXZXZXZXBXBXZXZXZXZXZXZXZXZXBXBXBXBXBXBXBXBXBXmXMXbXbXbXMXMX0X5X5X0X0X5XF.C.C.x.C.Z.c.3 o 3 o < 3 i i i i i f c.F.4X4X3X3X3XCXCXCXCXZXAXMXbXhXhXhXjXgXsXpXqXsXsXsXsXdXdXdXdXqX4XF.Z.Z.F.F.F.O o < < o < f r.w.u.i.N c.G.4XH.G.F.3XsXMXhXjXhXhXgXqXqXqXpXlXqXqXqXpXpXpXqX0X0X0X0X0X0X0XqXpXdXdXpXqX0X0X0X0X0XqXqXpXdXdXpXpXqX5X5X0X0X8X5X4X3X4X4X6X6X6X4X4X4XG.3X4X0X0X0X0X0X0X0X0X0X0X0X0X,X&.@X+X+X,.$. .",
"I.Y.I.O.#.7.;X,X,X8X8X5X5X5X4X5XeXeX5X5X0X0XqXqXqXqXqXqXqXqXqXqX0X5X5X5X5X0XqXqXqXqXqXqXqX0X4X4X4X5X3XC.x.C.Z.x.Z.x.u.w.r.s.u.r.f f f f i 3 < < o o o < < i f f f f x.qXbXbXhXMXjXMXBXBXmXMXMXMXsXsXsXsXsXsXsXsXsXsXsXsXsXsXsXsXdXpXlXqXqXqXpXpXsXsXsXsXdXdXdXpXqXqX0XqXqXqX0X4XqX4X4X5XG.c.w.r.u.r.w.w.w.r.u.l.f f w.r.r.r.r.w.F.G.3XG.G.4XqXsXdXjXjXdXsXmXCXBXZXZXZXZXZXZXZXZXmXBXBXCXCXCXZXZXbXbXhXhXbXMXMXmXbXbXhXjXjXhXbXMXBXBXBXBXmXAXBXBXMXMXMXMXMXMXMXMXMXMXMXMXMXMXMXMXMXMXMXMXMXMXMXMXBXBXBXBXBXBXBXBXmXMXMXbXhXhXbXMXH.H.H.G.3XF.x.u.x.x.C.Z.x.3 < 3 o < 3 i i i i i w.x.G.5X5X4X4X4XCXCXCXZXBXmXMXhXjXjXjXgXsXpXqX0XqXqXqXqX0X0X5X5X0X4XF.Z.Z.H.H.H.O o < < o < f r.w.u.i.N c.G.4XH.G.F.3XsXMXhXjXhXhXsXqX0XqXpXqXqXqXpXpXpXpXqXwX0XqXwX0X0X0X0XqXqXqXqXwX0X0X0XwXqX5X0X0X0X0XeX4X6X5X5X0X0X8X5X4X3X0X0X0X0X0X0X0X0X3X4X5X0XqXqXqXqX0X0X0X0X0X0X0X,X&.@X+XT.,.:. .",
"I.Y.I.O.#.7.;X,XyXqXwX0X0X5X4X4X4X0XpXsXjXgXsXpXsXsXsXsXsXsXsXsX4X4X4X4X5X0X0X0X0X0X8X5X4X4X6X4X0X5XG.Z.C.C.C.C.C.c.w.N w.r.w.w.f f f f i 3 3 < o o o o < 3 f f 3 c.< CXZXDXZXCXBXMXjXgXjXbXbXbXgXsXsXdXpXqX0X0XwXwXwXwXqXqXqXqXqXqXqXqXqXqXqXqXqXqXpXdXsXgXjXjXwXwXwX0XwXwXwXqXqXwXlXdX4Xr.3 3 f f w.u.l.c.c.l.c.l.r.w.w.w.r.r.F.G.G.F.Z.G.dXMXBXBXmXmXBXCXFXKXDXDXFXFXGXFXFXFXSXZXBXmXmXBXZXCXjXhXbXMXbXjXfXsXjXjXjXjXjXjXjXjXMXMXMXMXMXMXMXMXMXMXMXMXMXMXbXbXbXbXbXbXbXbXbXbXhXhXbXMXMXmXmXmXMXMXMXMXMXMXMXMXMXMXMXMXMXMXMXMXF.Z.Z.Z.F.Z.x.u.x.l.x.C.u.3 < i O o < 3 i f f f i c.3X0X5X4X4X0XBXBXBXCXDXZXMXjXsXsXsXsXdXqX0X5X0X0X0X0X0X0X0X0X5X3XF.F.F.F.C.x.O o < < o < f r.w.w.w.r.u.x.C.C.G.F.4XgXmXMXbXMXjXpX5X3X4X4X4X4XqXqXlXpXqXqX0X0X5X5X5X4X4X4X4X4X4X4X4X4X4X5X5X8X0X0X0X5X4X4X3X3X3X4X0X5X4X5XqXdXpXdXdXpXqXqX0X5X4X5X0XqXdXsXsXsXdXqXqX0X4X4X4X<X&.E.+XT.,.:. .",
"Y.Y.I.O.#.7.;X,X9X9X0X0X5X4X4X4X4X0XqXsXgXgXsXdXsXsXsXsXsXsXsXsX3X4X4X4X5X5XeX0X5X5X5X5X4X4X4X4XwX5XIXF.Z.C.C.Z.Z.x.r.w.w.u.r.w.f f f f i 3 3 < o o O o < 3 f f 3 c.< CXZXDXZXCXBXMXjXjXhXMXMXbXgXfXsXdXpXqXqXqXqXqXqXqXqXqXqXqXqXqXqXqXqXqXqXqXqXqXpXdXsXgXgXjXqXwXqXwXwXwXqXqXqX0XqXdX4Xu.3 i i f w.u.l.c.c.c.c.l.r.w.w.w.r.r.H.3X3XH.F.3XsXmXAXmXmXmXBXCXFXHXHXHXJXJXJXJXJXJXHXKXFXDXDXDXFXGXjXjXhXbXhXjXsXsXjXjXjXhXhXhXhXbXbXbXbXbXbXbXbXbXbXbXbXbXbXPXhXhXhXhXhXhXhXhXhXhXjXjXhXhXbXMXMXMXbXbXbXbXbXbXbXbXbXbXbXbXbXbXbXbXF.Z.Z.F.F.F.x.u.x.l.c.C.u.3 o 3 O o < 3 i f f f i c.3X0X5X4X4X0XBXBXBXCXDXCXMXjXgXgXgXsXdXqX0X0X0X0X0X0X5X5X5X5X5X3XF.F.F.F.Z.C.O o < < o < f r.w.w.w.r.l.x.C.Z.H.Z.3XsXMXbXhXMXjXpX4XIX3X4X4X4XfXgXgXgXgXsXdXdXpXpXqXqXqXqXqX0X0XqXqXqXqXlXpXpX0X5X5X4X4X3X3X3X3X4X5X5X6X4XqXdXdXdXdXpXqX0X5X4X4X5XwXlXdXsXsXsXpXqX0X5X4X4X4X<X&.E.+XT.,.:. .",
"Y.Y.I.O.#.7.;X,X9X8X8X5X4X4X4X4X3X5XqXdXsXgXsXsXdXdXdXdXdXdXdXdX3X4X4X4X4X4X5X5X4X6X4X4X4X4X5X5XqX8X3XF.Z.Z.Z.Z.Z.x.u.w.r.u.u.r.f f f f i 3 3 < o o o < < 3 f f 3 c.< CXZXDXZXZXCXmXhXjXbXMXMXbXgXgXsXsXdXpXqXqXqXqXqXqXqXqXwXwX0X0X0X0XqXqXqX0XqXqXpXdXsXsXsXgXqXqXwXqX0XwXwXwX0X0XqXpX4Xu.i f i f w.r.l.c.c.c.c.l.r.w.w.w.r.r.G.4X4XG.F.4XsXNXMXMXMXmXBXDXFXHXDXFXFXGXGXHXHXHXFXFXCXZXBXBXBXZXjXjXhXhXhXjXgXsXjXjXjXhXbXbXMXMXbXbXbXbXbXbXbXbXhXhXhXhXhXhXhXhXhXhXhXhXhXhXhXhXjXjXjXhXhXbXbXbXbXbXbXbXbXbXbXbXbXbXbXbXbXbXbXbXF.F.F.F.H.F.C.l.c.u.c.x.r.< o 3 O o < 3 i f f f i c.3X0X5X4X4X0XZXBXZXDXFXCXMXjXjXjXjXgXsXpXqX0X0X0X8X5X4X4X4X3X5X3XF.F.H.G.F.Z.O = < < o < f r.w.w.w.u.c.C.Z.F.H.Z.G.sXMXbXhXMXjXpX5X3X4X4X4X4XpXpXdXdXdXpXqX0X0X0X0X0X5X5X4X4X4X4X5X8X0X0X0X0X5X5X4X4X4X4X4X4X3X4X5X5X4X4XqXdXsXsXdXpXqX0X6X3X5X0XqXpXsXsXsXsXpXqX0X5X4X4X5X,X&.@X+X+X,.:. .",
"Y.Y.I.O.#.7.;X,X,X8X8X4X4X4X4X4X4X5X0XpXsXsXsXsXsXsXdXdXsXsXsXsX4X4X4X6X4X4X4X4X3X3X4X4X4X4X4X5XwX5X3XF.Z.C.Z.Z.Z.K.u.w.u.l.u.r.f f f f i 3 3 < o o o < < 3 f f 3 c.< CXZXDXZXZXDXBXbXhXbXMXMXbXsXsXsXsXdXpXpXqXwXwXqXqXqXqXwX0X0X0X0X0X0X0X0X0XqXqXpXdXdXsXsXsXqXqXwXwX0XwXwXwX0X5XqXpX4Xf.i f 3 i f w.u.c.c.c.c.l.r.w.w.w.r.r.G.3X3XH.F.3XsXmXMXMXmXBXZXDXFXFXDXDXDXDXDXFXGXGXFXDXCXZXBXBXNXAXhXhXhXhXhXhXjXjXjXjXjXhXbXbXMXMXbXbXbXbXbXbXbXbXhXhXhXhXbXbXbXMXbXbXbXbXbXbXbXbXhXhXhXzXbXbXbXbXbXbXbXbXbXbXbXbXbXbXbXbXbXbXbXbXH.F.F.F.G.F.C.c.c.u.c.x.r.< O 3 O o < 3 i f f f i c.3X0X5X4X4X0XCXCXCXDXFXCXMXgXjXjXjXgXsXdXqX0X0X0X8X5X6X3X3XG.0X3XF.F.H.G.G.F.O & < < o < f r.w.w.r.u.x.C.F.H.H.F.3XsXMXMXhXMXhXsX0X4X5X0X0X5XqXlXpXpXpXqX0X0X0X0X5X5X5X4X4X4X4X6X4X5X5X8XeX0X5X5X5X5X5X5X5X4X4X5X0X0X5X5XqXsXsXsXsXdXqX0X4X4X5X0XqXpXsXsXsXsXqXqX0X5X5X5X5X,X&.E.+X+X,.:. .",
"Y.Y.I.O.| 6.;X<X,X8X5X5X5X5X5X5X5X0X0XqXpXpXdXdXsXsXsXsXsXsXsXsX5X5X5X5X5X5X5X5X3X3X3X4X4X4X4X4X0X4XH.Z.C.C.C.C.Z.x.r.w.r.u.u.r.f f f f i 3 3 < o o o < < 3 f f 3 c.< CXBXDXZXZXDXBXbXjXhXbXbXhXdXdXdXpXpXqXqXqXwX0XqXqXqXqX0X0XwXwXqXqXqXqXqXqXqXqXpXpXpXdXdXdXqXwXwXwXwXwXwXwX0X0XqXdX4Xu.i i < 3 f w.u.l.c.c.c.l.r.w.w.w.r.r.H.IX3XF.Z.IXdXmXMXmXBXZXCXCXDXDXJXHXHXGXGXHXHXJXGXGXGXGXFXFXDXSXhXhXjXhXjXhXhXbXgXgXjXjXjXhXhXbXbXbXbXbXbXbXbXbXhXhXhXbXMXMXMXMXbXbXbXbXbXbXbXbXMXMXMXbXbXbXbXbXbXbXbXbXbXbXbXbXbXbXbXbXbXbXbXbXF.F.F.F.H.F.C.l.l.r.l.x.w.< O 3 O o < 3 i f f f i c.3X0X8X4X4X0XFXDXDXFXFXCXMXgXjXjXjXgXsXpXqX0X0X0X5X5X4X4X4X4X0X4XF.Z.F.H.H.F.O o < < o < f r.w.w.w.u.c.C.Z.F.H.Z.3XsXMXbXhXMXbXsX0X4X5X0X0X0XsXgXgXjXgXsXdXdXpXpXpXqXqXqXwXwX0XqXqXqXqXpXpXpX5X5X5X5X5X5X8X0X4X5X0X0X5X0XqXsXsXsXsXdXpXwX5X4X4X5X0XqXdXdXsXsXqXqX0X5X5X5X0X2X&.E.+X+X,.:. .",
"Y.Y.I.O.| 6.;X<X9X8X9X0X0X0X0XwXqXqXqXqXqXqXqXqXdXdXdXdXdXdXdXdXqXqXwX0X0X0X0X0X4X4X4X4X3XIXG.G.4X3XF.C.x.x.x.x.C.c.w.N w.r.w.w.f f f f i 3 3 < o o o < < i f f 3 c.< CXBXDXZXZXDXBXhXjXjXjXjXgXqXqXqXqXqXqXqXqXwXwXqXqXqXqX0X0XqXqXqXqXqXqXqXqXqXqXpXpXpXpXpXpXqXqX0X0XwXwXqXqXqXqXpXdX4Xr.3 3 < 3 i w.u.l.c.x.c.l.r.w.w.w.r.r.G.4X4XH.F.4XsXBXBXBXZXCXCXZXBXBXFXDXZXmXMXMXBXBXMXMXmXBXBXBXmXMXgXfXsXsXsXgXjXjXgXgXgXgXgXgXgXgXgXgXgXgXjXjXjXjXgXjXjXhXbXMXMXMXjXjXjXjXjXjXjXjXbXbXbXhXhXjXjXjXgXgXgXgXjXjXgXgXjXjXjXjXgXgXgXgXF.Z.Z.Z.F.Z.x.u.l.r.u.x.w.o X < O o < 3 i f f f i c.3X0X8X4X4X0XFXFXFXFXFXCXMXgXsXsXsXsXdXqX0X5X0X0X0X0X0X0X0X0XqX4XZ.C.C.Z.Z.Z.O o < < o < f r.w.w.w.r.u.c.K.C.Z.C.F.pXjXjXsXjXjXdX5X3X4X4X5X4X0X0X0XqX0X0X5X4X4X4X4X3XIXG.G.G.H.G.G.3X3X4X4X4XG.G.3X3X3X4X4X4XH.3X4X4X3X4X0XqXqXqXqXqXwX0X4X4XG.3X5X0XqXlXpXqX0X0X0X5X5X8X0X2X&.E.+XT.,.:. .",
"Y.Y.I.O.#.7.;X<X9X9XwXwXqXqXtXtXaXdXqXqX0X0X5X5XwXwXqXqXqXwXwXwXdXdXpXpXqXqXqXqX0X5X4X3XG.H.F.J.3XH.Z.x.l.l.l.c.K.s.f i f w.f f f f f f i i 3 < o o o < < 3 f f 3 c.< CXBXDXZXZXZXMXjXsXgXgXsXsX5X5X5X0X0X0X0X0XwX0XwXwXqXqXwX0XdXdXdXdXdXdXdXdXlXqXqXqXqXqXqXqXqXwXwXwXwXqXqXqXdXqXdXsX3Xw.< < o < i f r.l.c.x.c.l.u.w.w.w.r.r.4X0X0X4X3X0XjXSXCXCXDXDXCXBXMXMXMXhXsXqX0X0XwXqX5X0XqXdXsXsXdXpXqXqX0X0X0XqXdXsXgXgXsXsXdXpXqXqXqXqXqXqXqXqXqXqXpXdXsXsXgXjXjXhXpXpXpXpXpXpXpXpXjXjXgXgXsXsXsXdXqXqXqXqXqXqXqXqXqXqXqXqXqXqXqXqXZ.C.C.Z.Z.C.c.w.u.w.u.c.w.o X < O o < 3 i f f f i c.3X0X8X4X4X0XGXFXFXGXFXCXMXgXdXdXdXpXqX0X4X4X5X0X0X0XqXpXpXdXpX4XZ.x.x.x.x.x.O o < < o < f r.r.w.w.w.w.r.l.c.c.r.x.4XpXqXwXqXpX0XH.Z.F.F.H.F.C.C.Z.Z.Z.C.x.x.x.c.c.c.l.l.u.u.u.u.s.l.l.c.x.x.C.C.Z.Z.Z.F.F.F.C.Z.F.F.Z.Z.G.4XH.G.3X3X3X3XG.H.F.H.3X5X0X0X0X0X0X0X5X5X5X0X0X2X&.E.+XT.,.:. .",
"Y.Y.I.O.#.7.;X<X9XwXqXqXtXtXpXaXfXsXpX0X5X4X4X4X4X4X4X4X4X4X4X4XsXsXsXdXpXpXqXqX0X0X5X3XG.F.Z.Z.H.F.C.c.u.r.u.u.x.r.f i i f f i f f f f i i 3 < o o o < < 3 f f 3 c.< CXBXDXZXZXZXMXgXsXsXsXsXpX4X4X4X4X4X5X5X5X0X0XwXwXqXqXwXwXsXsXsXsXsXsXsXsXlXlXqXqXqXqXqXqXqXwXwXwXqXqXqXqXsXdXsXsX3Xw.o o o < q f r.l.c.x.c.l.u.w.w.w.r.r.qXlXpX0X5XpXMXGXDXFXFXFXCXBXbXhXmXbXsXqX5X4X5X0X3X4X0XpXsXsXdXpX4X4X3XG.3X4X0XqXgXfXsXdXqXqX0X0X4X4X4X4X4X4X4X4X0X0XqXqXdXsXsXgX8X5X5X5X5X5X5X5XsXsXdXpXpXqXqXqX4X4X4X4X4X4X4X4X4X4X4X4X4X4X4X4XC.C.x.C.A.C.l.w.u.w.u.c.w.o X < O o < 3 i f f f i c.3X0X5X4X4X0XKXGXFXGXGXCXMXgXpXpXpXqXqX5X4X3X5X0X0XqXpXsXsXsXpX4XZ.c.l.c.c.l.O o < < o < f r.r.w.w.w.f w.w.r.w.i r.F.0X4X4X5X0XG.A.x.x.C.C.C.C.C.C.C.C.x.x.c.l.l.l.l.u.u.r.r.r.r.r.u.u.l.l.c.l.l.c.x.x.x.C.C.l.x.K.x.x.x.Z.F.C.C.Z.F.F.F.Z.Z.Z.F.G.4X5X0X0X0X0X0X5X5X5X0X0X2X*.@X+XT.,.:. .",
"!.E.Y.O.#.0.:X2X9X9XwXqXtXaXsXsXdXpXqX0X5X4X4X4X5X5X5X5X5X5X5X5XdXsXsXsXsXdXqXqX0X0X8X4X3XH.Z.Z.F.F.C.x.c.l.u.u.x.l.w.i 3 i f w.w.f i i f i 3 o o o o < < 3 f f 3 c.< CXBXDXZXCXDXmXgXdXdXsXsXdX0X0X0X0X0X0X0X0XqXqX0X0X0XpXsXgXpXdXsXsXsXsXsXdXsXdXqXqXqXqXqXqXdXdXpXwX0X0XqXdXqXqXdXsX4Xw.X X < X o w.x.c.l.x.u.u.r.r.u.u.u.u.0XqXqX0X5XpXmXHXFXFXHXJXGXMXjXMXbXjXdX0X4X4X8X0X3X5XqXsXsXsXpXqX0X8X4X6X4X0XqXpXpXpXdXdXpXqX0X5XdXpXqXqX0X5X4X4X4X5XqXdXsXsXsXdXqXqXqXqXlXpXpXpXdXsXsXsXsXpX0X5X0XeX5X6X4X4X5X5XqX0X0X5X5X5X0X0Xx.C.C.C.C.x.c.l.u.w.w.l.w.3 O < O o < i i f f f i c.3X0X5X4X4X0XGXGXGXHXHXCXbXsXdXdXdXdXqX0X5X4XG.4X0XpXsXsXsXsXqXG.x.u.l.x.c.u.o < < O O < f u.x.c.s.r.w.w.w.w.w.f c.4XqX0X5X0X0X4XH.Z.C.Z.F.F.x.x.x.x.x.x.x.x.l.l.l.l.l.l.l.l.l.l.l.l.l.l.l.l.x.x.x.x.x.C.C.C.C.C.C.C.C.C.C.C.F.F.J.Z.F.F.G.G.H.G.IX4X4X0X0X0X5X5X5X5X5X5X5X,X+.I.T.T.,.<.q.",
"E.E.Y.O.#.0.:X,X,X8X8X0XwXqXtXtXqX0X0X4X3X3X3X3XeXeX0X0X0X0X0X0XqXqXpXpXqXqX0XeX4X4X4X3XH.F.C.C.H.F.Z.C.x.c.c.c.c.u.w.i i i f f w.f i i f i 3 o o o o < < 3 f f 3 c.< CXBXDXZXZXDXmXgXdXdXsXsXdX5X5X5X5X5X5X5X5XqXqX0X0X0XqXsXsXlXpXsXsXsXsXsXsXdXpXqXqX0XqXqXqXqXqXqXqX0XqXdXsXsXdXsXgX4Xf X   < X o w.x.c.l.x.u.u.u.r.u.u.u.u.0XqXqX0X5XpXmXHXFXFXHXJXFXbXjXMXmXbXsXwX4X4X6X4X4X5XqXsXsXsXpXqX0X5X4X4X4X0XqXpXgXgXsXsXpXqX0X5XqXqXqX0X5X4X4X4X5X0XqXsXsXsXsXsX0X0XqXqXqXlXpXpXpXdXsXsXsXpXwX0X0X0X5X4X6X4X5X5X0X5X5X4X4X4X5X5Xx.x.C.C.C.x.c.l.u.w.w.l.w.3 O < O o < i i f f f i c.3X0X5X4X4X0XGXGXGXHXHXCXbXsXdXdXdXdXlXqX0X5X3X4X0XpXsXsXsXsXqX3Xx.u.l.x.c.u.o < < O O < f u.u.u.r.i.w.r.u.u.w.i r.H.0X4X3X4X4XG.Z.C.x.x.C.Z.C.C.C.C.C.C.C.C.s.s.l.f.l.l.l.l.l.l.l.l.l.h.s.s.x.x.x.C.C.C.C.C.A.A.Z.Z.Z.Z.Z.Z.H.F.F.F.F.H.G.3XF.F.F.G.3X4X4X4X4X4X4X4X3X3X4X<Xo.T.T.T.,.<.q.",
"E.E.W.*.#.7.;X,XuXyXlXpXaXsXfXfXsXdXpXqX0X0X0X0X5X5X5X8X5X5X5X5XsXsXsXsXsXsXpXqX0X0X0X0X5X3XH.F.F.F.Z.C.x.c.c.c.l.r.f i i i f f w.f i i f i 3 o o o o < < 3 f f 3 c.< CXZXDXZXZXDXmXgXdXdXsXsXdX5X5X5X5X5X5X5X5XqXqXqX0XqXqXpXdXqXqXdXsXsXsXsXsXdXpXqX0X0X0XqXqX0X0X0XqXqXpXdXdXsXsXsXsX3Xf X   < X o w.x.l.u.c.u.u.r.r.u.u.u.u.0XqXqX0X5XpXmXHXGXFXHXJXFXbXgXbXNXMXgXqX5X4X3X4X4X0XqXsXsXsXpXlX0X5X4X4X5X0X0XqXjXjXgXsXpXqX0XeXqXqX0X0X5X4X4X4X0XqXpXsXsXsXsXsX0X0X0X0XqXqXqXqXpXpXdXdXdXpXqXwXqX0X0X5X4X4X5X5X4X4X4X4X4X4X4X4Xx.x.x.K.x.x.c.u.u.f w.l.w.3 O < O o < 3 i f f f i c.3X0X5X4X4X0XGXGXGXHXHXCXbXsXdXdXdXdXpXqX0X0X4X5X0XpXdXsXsXdXpX3Xx.u.l.x.c.u.o < < O O < f u.w.w.w.i.r.u.u.u.c.r.x.4XqX0X5X0X8X4XG.F.F.F.H.G.C.C.C.C.C.C.C.C.u.u.u.u.u.u.u.u.s.s.s.s.u.u.u.u.x.x.x.C.C.C.C.Z.Z.Z.Z.Z.Z.Z.Z.Z.F.F.F.F.F.H.G.3X4X6X4X5X0X0XqXqX0X0X0X0X0X0X0X2Xo.E.T.T.,.:.q.",
"Y.E.W.*.#.7.;X<X9X9XwXwXqXqXtXtXqXqX0X5X5X5X5X0X3X3X3X3X3X3X3X3XqXqXpXpXqXqX0X0X4X4X4X4X3XG.F.F.Z.C.x.c.l.u.l.l.r.w.f i i i i f w.f i i f i 3 o o o o < < 3 f f 3 c.< CXZXDXZXCXDXmXgXdXdXsXsXdX0X0X0X0X0X0X0X0XpXpXqXqXqXqXqXqX0XqXpXdXsXsXsXsXpXqXqX0X0X0X0XqXqXqXqXpXdXdXqX0X0X0XqXqXF.i X X < X o w.x.u.r.l.u.u.r.u.u.u.u.r.0XqXqX0X5XpXmXHXGXFXHXJXFXhXsXjXbXjXsXpX0XeX5X5X0XqXpXdXsXsXdXpX5X5X4X4X4X5X8X0XdXpXlXqXqXqXqXqXqXqXqXqX0X0X0X0XqXqXqXqXpXpXpXqX5X5X0X0X0XwXqXqXqXqXqXlXpXpXlXqXlXqX0X5X4X4X4X5X4X5X8X0X0X0X0X0Xx.x.x.x.x.c.l.u.u.f w.l.w.3 O < O o < 3 i f f f i c.3X0X5X4X4X0XGXGXGXHXHXCXbXsXdXdXdXsXdXlXqX0X0X0XqXqXpXpXdXdXpX3Xx.u.l.x.c.u.o < < O O < f u.r.u.u.u.r.w.w.f l.w.u.F.4X3XH.3XG.H.F.Z.Z.Z.Z.F.x.x.x.x.x.x.x.x.u.u.u.u.r.r.u.u.u.u.u.u.u.u.u.u.l.c.c.x.x.x.x.x.x.x.x.x.K.K.K.x.Z.Z.C.C.Z.Z.F.F.3X3X3X4X4X4X5X5X4X4X4X4X4X6X4X<X&.T.+XT.,.:.q.",
"Y.E.W.U.#.6.B.;XV.C.C.C.C.A.A.A.Z.C.C.x.x.x.C.C.F.F.F.F.F.F.F.F.C.Z.Z.Z.Z.C.x.x.c.c.c.c.l.u.w.w.c.l.u.w.w.w.w.w.f f f i i i i g w.f i i f i 3 o o o o < < 3 f f 3 c.< CXZXDXZXCXSXmXgXdXdXsXsXdXdXdXdXdXdXdXdXdXdXdXpXpXqXqX0X0X0X0XqXdXsXsXsXsXpXqX0X0X0X0X0X0XsXdXpXsXsXpX4XF.F.Z.H.3XC.q X o < X o w.c.r.w.u.u.u.u.u.r.r.r.r.0XqXqX0X8XpXmXHXGXFXHXJXDXjXsXjXsXsXdXpXpXlXlXpXqXlXpXdXsXsXdXdX4X5X5X5X5X4X4X4X4X4X4X6X5XwXpXsXdXdXdXdXpXpXpXlX0X0X0X8X5X5X5X0X4X4X5X5X8X0X0X0X0X0X0XqXqXpXdXdXdXpXqX0X5X4X4X5X0X0XqXpXdXdXpXlXc.c.x.x.x.l.u.r.u.f w.l.w.3 O < O o < 3 i f f f i c.3X0X5X4X4X0XGXGXGXHXHXCXhXdXdXdXsXsXsXdXqXqXqXqXqXqXqXqXpXpXqXG.x.u.l.x.c.r.o < < O O < f u.x.x.c.l.w.f 3 < < X O f l.w.w.r.w.w.f f f f f f r.r.r.r.r.r.r.r.r.r.r.r.r.r.r.r.r.r.r.r.r.r.r.r.w.w.w.r.r.u.u.s.u.u.s.l.l.s.u.u.x.c.c.c.c.x.K.C.l.l.c.c.c.x.x.x.c.c.c.c.c.c.c.) *.@X+XT.,.$. .",
"I.Y.W.U.@.3.B.N.m.m.x.x.x.x.c.c.x.x.c.c.l.c.x.x.C.C.C.C.C.C.C.C.x.x.x.x.x.c.l.u.r.r.u.u.r.w.f f r.w.w.f f f f f i i g i i i i i w.f i i f i 3 o o o o < < 3 f f 3 c.< CXBXDXZXCXSXmXgXdXdXsXsXdXsXfXsXsXsXsXsXsXdXsXsXdXpX0X5X4X4X0XqXpXsXsXsXsXqXqX0X0X5X5X0X0XjXsXsXsXjXpXG.x.x.c.C.Z.x.3 O < < X o f l.w.f w.u.u.r.r.r.r.r.u.0XqXqX0X5XpXmXHXKXFXGXJXDXgXdXfXpXpXpXdXsXsXsXsXdXdXdXdXdXdXsXsX4X4X5X8X5X4X3XG.F.F.F.H.4X0XsXgXsXsXsXsXsXsXsXsXqX0X5X4X3X3X4X4X4X4X4X4X5X5X8X0X0X5X5X0XqXpXsXsXsXdXqX0X5X4X4X4X0XqXdXsXgXfXsXdXl.c.x.x.c.l.u.r.u.f w.l.w.3 O < O o < 3 i f f f i c.3X0X5X4X4X0XGXGXGXHXHXCXhXdXpXdXsXsXsXsXdXpXdXpXqXqX0XqXqXqXqXG.x.u.l.x.c.u.o < < O O < f u.x.x.x.l.w.i o X <     3 f i 3 f i i i i i i i i w.w.Y w.w.w.w.w.r.r.r.r.i.i.r.r.r.r.r.r.r.r.r.r.f f f f w.w.w.w.w.w.w.w.w.w.w.w.u.r.r.r.r.s.l.c.u.u.u.u.u.u.u.u.r.r.r.r.r.r.r.R R.@X@X+X,.$. .",
"L.Y.W.Q.@.3.9.N.S.S.S.Z.Z.A.A.A.Z.Z.C.C.C.Z.Z.F.C.C.C.C.C.C.C.C.C.A.Z.Z.Z.C.x.x.c.x.x.x.x.x.l.l.r.w.w.f f f f w.i i i i f i i i w.f i i f i 3 o o o o < < 3 f f 3 c.< CXBXDXZXZXSXmXgXdXdXsXsXdXsXsXsXsXsXsXsXsXsXsXsXsXpX0X4X3X4X5X0XqXdXsXsXsXqXqX0X5X5X5X0X0XgXdXdXgXhXsXG.x.x.x.C.Z.l.< X < < X o f s.w.f w.u.r.r.r.u.r.u.u.0XqXqX0X5XpXmXHXKXFXGXHXCXgXpXsXdXdXsXsXsXsXdXdXsXsXsXdXdXdXsXsX4X4X5X0X5X4XG.H.H.H.F.H.4X0XsXjXdXdXdXsXsXsXsXsXpXqX0X4X3XIX3X4X3X3X4X4X6X4X5X5X5X4X4X5X0XpXsXjXsXsXqX0X5X4X4X4X4X0XpXsXgXgXsXpXl.l.c.x.c.l.r.w.l.w.w.l.w.3 O < O o < i i f f f i c.3X0X5X4X4X0XGXGXGXHXHXCXhXsXpXdXsXsXsXsXsXdXsXsXqX0X0X0XqXqXqXG.x.u.l.x.c.u.o < < O O < f u.c.c.x.l.w.i o X i < o f r.f f w.f f w.w.w.w.w.w.N f w.w.w.w.w.w.w.w.w.w.w.w.w.w.w.w.w.w.w.w.w.w.f f f f w.w.w.w.w.w.w.w.w.w.w.w.u.r.r.w.r.u.l.c.K.x.x.x.x.x.x.x.x.x.x.x.x.x.x.5.R.@X@X+X,.$.` ",
"L.Y.W.Q.@.3.9.N.V.C.C.C.b.b.x.x.C.C.x.x.x.C.C.C.C.C.Z.Z.Z.Z.Z.Z.x.x.C.C.x.x.c.f.u.l.l.c.l.l.r.r.u.r.w.w.w.w.w.w.3 3 i i f g i i w.f i i f i 3 o O o o < < 3 f f 3 c.< CXBXDXZXZXSXmXgXdXdXsXsXdXsXsXsXsXsXsXsXsXsXsXsXsXpX0X4XG.4X4X0XqXdXsXsXsXqXqX0X5X5X5X5X0XdXqXqXgXbXjX4Xx.Z.C.Z.F.c.< X o < X O f u.w.f N u.r.r.r.u.u.u.u.0XqXqX0X5XpXmXHXHXFXGXHXCXsXqXsXsXgXgXgXsXdXqXqXgXsXsXdXdXdXsXsX4X4X5X0X5X4XH.F.4X4X3XG.4X0XsXgXpXpXpXpXdXdXdXdXsXpX0X4X4X3X6X4X3X3X3X4X4X4X4X4X4X4X4X4X0XpXsXjXfXsXpX0X5X4X4X4X3X5XqXsXsXsXdXqXl.c.c.c.c.l.r.w.u.w.w.l.w.3 O < O o < i i f f f i c.3X0X5X4X4X0XGXGXGXHXHXCXbXsXpXdXsXsXsXsXsXdXgXsXpX0X0X0XwXqXqXG.x.u.l.x.c.u.o < < O O < f u.r.u.l.l.r.f < O i O X 3 f i 3 f i i f f f f f i w.w.w.w.w.w.w.w.w.w.w.w.w.w.w.w.w.w.w.w.w.w.w.w.f w.w.w.w.r.r.r.r.r.r.u.u.u.u.r.l.u.r.r.u.l.c.x.c.c.c.c.c.l.l.l.s.u.u.u.u.u.u.! R.@X@X+X,...` ",
"E.Y.I.U.>.6.9.M.D.S.J.Z.A.A.C.C.C.C.C.C.C.C.C.C.F.F.Z.C.C.C.C.Z.Z.Z.Z.Z.Z.Z.Z.Z.x.x.x.x.c.u.w.w.u.u.r.w.f f i i f f f f f f f f i f f w.f i 3 < < < o < < 3 i f 3 c.< CXZXDXZXCXFXmXgXpXdXsXsXsXqXqXdXdXsXdXpXpXdXsXsXsXpX0X4XIXG.4X5X0XlXpXdXdXsXqX5X4X5X0X5X4XdXdXdXsXsXqXG.C.C.b.C.Z.c.3 O < < O 3 w.l.w.w.u.w.w.w.w.w.w.w.w.0XqXqX0X5XpXmXHXFXFXHXJXDXgXqXdXpXdXsXsXsXsXsXdXsXsXdXdXdXsXsXgX4X4X5X0X5X4XH.F.Z.Z.Z.F.3X0XdXgXsXsXsXsXsXsXsXsXpXqXqX0X0X0X0XqX0XeX5X6X4X4X4X5X4X4X4X4X0XpXgXjXfXsXpX0X8X5X4X4X0XwXlXdXsXsXsXsXl.l.c.c.c.f.r.w.u.N w.l.w.3 O < O o < 3 i f f f i c.3X0X8X4X4X0XFXDXDXGXHXFXhXqXgXgXsXsXsXgXjXjXgXsXdXqX0X0X0X0X5XH.C.c.c.c.c.l.o < < O O < f u.x.u.u.x.r.3 O < . X < 3 i i i i f f f f f f f f w.w.w.w.w.w.w.w.w.w.w.w.w.w.w.w.w.w.w.w.w.w.w.w.w.w.w.w.w.w.w.w.w.w.r.r.w.w.w.w.w.w.w.w.r.l.x.x.l.l.l.l.l.l.l.l.u.l.c.x.x.x.x.5.*.T.=.=.,.:.L ",
"E.Y.I.U.>.6.9.M.V.A.A.C.C.K.K.x.x.x.x.x.x.x.x.x.Z.Z.C.x.x.x.C.C.x.x.x.x.C.C.x.x.l.l.c.c.u.w.w.f w.w.w.f f i 3 3 i i i i i i i i 3 i i f i 3 < < < < < < < 3 i f 3 c.< CXZXDXZXCXCXMXsXqXqXdXsXsXqXlXdXdXsXdXpXlXpXpXdXdXpXqX5X4X4X5X0XqXpXdXsXsXsXqX5X4X5X0X5X4XpXqXqXpXpX0XH.C.C.C.C.Z.c.3 O < < O 3 i.l.w.w.u.w.w.w.w.w.w.w.w.0XqXqX0X5XpXmXHXGXFXHXJXSXfXqXdXpXpXsXsXsXsXsXsXsXdXpXpXpXdXdXsX4X5X0X0X0X4X3XH.H.H.H.G.4X0XpXsXdXdXdXdXdXdXdXdXqXqX0X5X5X5X0X0X0X0X5X4X4X4X5X0X5X5X4X5X0XqXsXgXsXdXlX0X5X4X4X4X5X0XqXpXdXdXdXdXl.l.c.c.c.f.r.w.u.Y w.l.w.3 O < O o < 3 i f f f i c.3X0X8X4X4X0XFXDXDXGXHXDXjXwXsXsXdXdXdXsXgXgXgXsXdXqX0X0X0X0X5XH.C.c.c.c.c.l.o < < O O < f u.x.u.u.x.u.3 O < X O < 3 i i 3 3 i i i i i i i i F F w.w.w.w.w.w.w.f w.w.w.w.w.w.w.w.w.w.w.w.w.w.w.f w.w.w.w.w.w.w.w.w.w.w.f f f f f f f w.r.l.c.u.u.u.u.u.u.u.u.r.u.l.c.x.x.c.) *.T.=.=.,.:.` ",
"E.Y.I.U.>.6.5.M.M.m.K.x.x.c.l.l.l.c.c.c.c.c.c.c.C.x.c.l.l.l.l.c.u.u.u.u.u.u.u.u.w.r.r.r.w.f i i f f i i 3 3 4 < 3 3 3 3 3 3 3 3 3 3 3 3 3 3 < o < < < < 3 3 i f 3 c.< CXBXDXZXZXZXbXdX0X0XqXqXqXqXpXdXsXsXdXpXqX0XqXqXpXpXqXqX0X0X0XqXdXsXfXgXfXsXqX5X4X5X0X5X4X0X0X0X0X0X4XF.x.C.C.C.F.c.3 O < < O 3 r.l.w.N u.w.w.w.w.w.w.w.w.0XqXqX0X5XpXmXHXGXFXHXJXCXsX0XqXqXqXdXsXsXsXsXsXpXqXqXwX0XqXqXlX0X0XwXqXqX0X5X4X5X5X4X5X0X0XlXpXqXqXqXqXqXqXqXqX0X0X4X4X4X4X6X4X0X5X5X4X4X5X0X0XqX0X0X0X0XqXpXdXsXdXqX0X5X4X4X4X6X5X0XqXqXqXqXqXl.l.c.c.c.f.r.w.u.w.w.l.w.3 O < O o < 3 i f f f i c.3X0X8X4X4X0XFXDXDXGXHXDXjX0XpXqXqXqXqXpXsXsXfXsXpXqX0X0X5X5X5XH.C.c.c.c.c.l.o < < O O < f u.x.u.u.x.s.3 o < < < 3 3 3 3 < < 3 3 3 3 3 3 3 3 i i i i i i i i i i i i i i i i i i i i i i i i i i i i i i i i i i i i i i i i i i i i f f w.r.w.w.w.w.w.w.w.w.w.w.r.u.l.l.s.! *.T.=.=.,.:.` ",
"E.Y.I.U.>.7.5.M.m.c.c.l.s.s.s.u.u.u.u.u.u.u.u.u.c.l.r.w.w.w.w.r.f f f f f f f f f f f f f i 3 < 3 3 3 < < < = o < < < < < < < < < < < < < < < o < < < < 3 i f f 3 c.< CXZXDXZXZXBXjXqX5X4X0X0X0XpXdXdXsXdXpXqXqX5X5X0XqXqXpXpXpXqXpXdXfXjXjXjXjXsXqX5X4X5X0X5X4X4X4X3X4X4XG.Z.x.C.C.C.F.c.3 O < < O 3 r.l.w.w.u.w.w.w.w.w.w.w.w.0XqXqX0X5XpXmXHXGXFXHXJXZXsX0XqX0XqXpXdXsXsXsXsXqXwX0X8X5X5X0X0XqXqXqXqXqXqXqXqXpXlXqXqXqXqXqXqX0X0X0X0X0X0X0X0X5X6X3XG.G.G.IX3X0X5X5X4X5X0X0XqXpXpXqXqXqXwXqXqXdXpXqX0X5X4X4X5X3X4X5X0X0X0X0XeXl.l.c.c.c.f.r.w.u.w.w.l.w.3 O < O o < 3 i f f f i c.3X0X5X4X4X0XGXFXFXGXHXDXjX0X0X0X0X0X0XqXpXdXsXsXlX0X0X5X5X5X5XH.C.c.c.c.c.l.o < < O O < f u.x.r.u.x.l.i < 3 i i 3 3 3 < o O < < < < < < < < 3 3 3 3 3 3 3 3 3 3 3 3 3 3 3 3 3 3 3 3 3 3 3 3 3 3 3 3 3 3 3 3 3 3 3 3 3 3 3 3 3 3 3 3 3 i f w.f f f f f f f f f f w.r.r.r.r.R *.T.=.=.,.:.` ",
"E.Y.I.U.>.6.9.M.j.h.l.s.u.r.r.r.r.r.r.r.r.r.r.r.r.w.w.f f f f f i i i i i i i i i i g i i 3 < o < < < o o O O O o o o o o o o o < o o o o < < < 3 3 < 3 3 i f f 3 c.< CXBXDXZXZXBXjXqX6X4X4X4X4XdXdXsXsXdXpXqX0X4X4X5X0XwXlXdXsXdXsXsXjXjXjXjXjXsXqX5X4X4X0X5X4X4XG.H.G.G.H.C.x.C.x.C.J.c.3 O < < O 3 w.u.w.w.u.w.w.w.w.w.w.w.w.0XqXqX0X5XpXmXHXGXFXHXHXZXdX5X0X0X0XqXdXsXsXsXsXqX0X0X5X4X4X4X5XpXpXqXqXqXpXpXdXsXsXsXdXpXqX0X0X5X5X5X5X5X5X5X5X4X3XG.H.F.H.H.G.0X5X5X5X0X0XqXqXsXsXdXpXqXqX0X0XqXqX0X5X4X4X4X5XIX3X6X5X5X5X4X4Xl.l.c.c.c.l.r.w.u.F w.l.r.3 O < O o < i i f f f i c.3X0X5X4X4X0XHXFXFXGXHXCXjX0X5X4X4X5X0XqXpXdXsXdXqX0X5X5X4X4X5XH.C.c.c.x.c.l.o < < O O < f u.x.r.u.x.c.i 3 i f i i 3 < o O O o o o o o o o o < < < < < < < < < < < < < < < < < < < < < < < < < < < < < < < < < < < < < < < < < < < < < 3 i f i i i i i i i i f f w.w.r.r.w.R -.T.=.=.,.:.` ",
"E.Y.I.U.>.6.9.M.j.h.h.u.u.r.r.r.w.w.w.w.w.i.i.i.w.w.f i i i f f i i i i i i i i i i i i 3 3 < o o O O O O O O O o o o o o o o o < < o O o < 3 3 3 3 3 3 3 i f w.3 c.< CXBXDXZXZXBXhXqX6X4X4X4X4XsXsXsXsXdXqXqX0X4X4X4X4X0XqXdXsXsXsXgXjXjXjXjXjXsXqX5X4X4XeX5X4X3XH.F.F.H.F.Z.x.C.x.C.J.c.3 O < < O 3 w.u.w.w.u.w.w.w.w.w.w.w.w.0XqXqX0X5XpXmXHXGXFXKXHXBXpX4XeX4X0XqXpXsXsXsXsXqXqX0X5X4X4X4X4XpXqXqXqXqXpXdXsXsXsXsXsXpXqX0X4X5X5X5X5X5X5X5X5X4X3XG.H.F.H.H.G.5X5X5X5X0XqXlXpXsXsXsXsXpXqX0X5XqX0XeX4X4X4X5X5X3X4X4X5X5X4X4X4Xl.l.c.c.c.l.r.w.u.l w.l.w.3 O < O o < i i f f f i c.3X0X5X4X4X0XHXFXFXGXHXCXgX5X4X4X4X5X0XqXpXsXsXdXqX0X5X4X4X4X5XH.C.c.c.x.c.l.o < < O O < f u.x.r.u.x.x.f 3 i w.f i < o O O o o o o o o o o o < < < < < < < < < < < < < < < < < < < < < < < < < < < < < < < < < < < < < < < < < o o < < 3 i i i i i i i i i i f f w.r.r.r.r.R -.T.=.=.,.:.` ",
"E.Y.I.U.>.6.9.M.j.h.l.f.u.r.r.r.r.r.r.r.r.r.r.r.w.w.f i i i i f i i i i i i i i i i i i 3 3 < o O O O O o o o o < < < < < < < < < < o o o < 3 i 3 3 3 3 i g f w.3 c.< CXBXDXZXZXZXzXlX5X4X4X4X4XsXsXsXsXdXqX0X0X4X4X4X4X5XwXpXsXdXsXfXjXjXjXgXgXsXqX5X4X4XeX5X4X3XH.F.F.H.H.Z.C.C.x.C.J.c.3 O < < O 3 w.l.w.w.u.w.w.w.w.w.w.w.w.0XqXqX0X5XpXmXHXGXFXGXHXBXqX4X4X4X5X0XqXdXsXsXsXpXqX0X5X4X4X4X4XpXqXqX0XqXpXsXsXsXsXsXsXpXqX5X4X0X0X0X0X0X0X0X0X4X4X3XH.H.H.G.G.5X5X5X0X0XqXpXdXdXsXsXsXdXlX0X0X0X0X5X4X4X4X5X5X4X4X5X8X8X5X4X4Xl.l.c.c.c.l.r.w.u.N w.l.w.< O < O o < 3 i f f f i c.3X0X5X4X4X0XHXGXFXGXHXCXfX4X4X4X4X5X0XqXdXsXsXpXqX0X4X6X4X4X5XH.C.c.c.c.c.l.o < < O O < f u.x.r.u.C.x.f i f w.f 3 < o O o < < < < < o o < < < < < < < < < < < < < < < < < < < < < < < < < < < < < < < < < < < < < < < < < < < < o < < 3 i i f f f f g f f f f w.r.u.s.u.r.R -.T.=.=.,.:.` ",
"Y.Y.I.U.>.7.9.M.m.c.c.l.s.u.r.r.u.u.u.u.u.u.u.u.w.w.f i i i i f f f f f f f f f i i i i i 3 < o O O O o o o o < < < < < < < < < 3 < < o < 3 i f 3 3 3 3 i f f w.3 c.< CXBXDXZXZXCXbXpX5X6X4X4X4XsXsXsXsXdXqX0X0X5X4X4X4X5X0XpXdXdXsXsXgXjXgXsXsXsXqX5X4X4XeX5X4X3XH.F.F.H.H.J.C.C.x.C.J.c.3 O < < O 3 w.l.w.f u.w.w.w.w.w.w.w.w.0XqXqX0X5XpXmXHXHXFXGXHXBXqX3X4X4X4X0XqXdXsXsXsXdXlXwXeX5X4X4X4XqXqX0X0X0XqXsXsXdXdXsXsXpX0X4X3X0X0X0X0X0X0X0X0X4X4X3XG.G.H.G.3X5X5X5X0X0XqXdXsXpXdXsXsXsXpXqX0X0X0X4X4X4X4X5X5X4X5X0X0X0X5X4X4Xl.c.c.c.c.l.r.w.u.f w.l.w.3 O < O o < 3 i f f f i c.3X0X5X4X4X0XJXGXFXGXHXCXsX4X4X4X4X5X0XpXsXgXdXpXqX8X4X4X4X4X5XH.C.c.c.c.c.l.o < < O O < f u.x.r.u.C.x.f i f f i 3 < o o < < < < < < < < < < < < < < < < < < < < < < < < < < < < < < < < < < < < < < < < < < < < < < < < < < < < < < < 3 i f f f f f f f f f w.w.u.s.l.l.u.! -.T.=.=.,.:.` ",
"I.I.I.Q.^.7.Q I k.h.s.r.r.w.n n r.r.r.r.r.r.r.r.f f f f f f f f i i i i i i i i 3 3 3 3 3 3 < < < < < < < < < < < < < < < < < < O O O o < < < 3 3 3 3 i i i f f i w.p jXHXMXGXZXMXgXqX5X5X0X0X5XdXdXsXsXdXpXqXqX5X5X5X5X0XqXsXsXsXsXsXsXsXjXjXhXqXqX0X0X0X0X0XqXH.G.G.H.F.F.Z.C.C.x.C.Z.c.3 O < o < 3 i f w.w.w.f f w.r.u.r.r.w.0XqXqX0X5XpXmXHXGXFXHXHXZXdX0X0X4X5X0X0XqXlXpXdX5X0X0X0X0X0X4X4X0X0X0X0X0X0X0X0XdXdXdXpXqX8X4XIX4X4X4X4X4X3X3X3X4X6X3XG.H.G.G.IX4X5X5X0X0X0XqXqXqXqXqXqXwXwXqXqX4X5X0X0X0X0X0X5X5X4X4X4X6X4X0X0Xl.l.c.c.c.f.r.w.u.w.w.l.w.3 O < O o < 3 i f f f i c.3X0X5X4X4X0XHXFXFXGXHXFXbXpX5X0X0XqXqXdXsXsXsXsXlX0X0X5X5X5X5XH.C.l.c.c.c.l.o < < O O < f u.c.c.c.l.u.w.f i 3 3 3 3 3 3 3 3 3 3 3 3 3 3 3 3 < < < < < < < < < < < < < < < < < < < < < < < < < < o O X X O O < < < < < < < < < < < 3 3 3 3 3 3 q i i 3 3 3 3 r.r.r.r.r.r.r.R *.E.=.=.,.| P ",
"Y.I.I.Q.^.6.Q > : 2 4 < < o o o < < < < < < < < o o o o < < o o 3 3 3 3 3 3 3 3 < < < 3 3 3 3 3 i i i i i i i i i i i i i i i i f f w.w.w.r.r.u.f f w.w.w.r.r.r.f r.f hXHXMXGXZXBXbXdXqXqXqXqXqXqXqXlXpXqXqX0X0X5X5X5X5X0XpXsXsXsXsXpX0X5X4X4X4XqXqXqXqXqXqXqXqXH.G.G.G.F.F.Z.C.C.x.C.Z.c.3 O < o < 3 i f f w.w.f f w.r.u.r.r.w.0XqXqX0X5XpXmXHXGXFXHXHXZXdX0X0X0X0X0X0X0X0X0X0XqXqXpXdXdXdXpXqX0X0X0X0X0X0X0X0XqXqXqX0X5X3XG.F.4X4X4X4X4X6X6X6X4X6X3XG.H.G.G.IX6X4X4X5X8X0X0X0XeX0X8X8X8X8XeX5X4X5X0XqXqXqXqXqX0X0X5X4X6X4X5X8Xl.l.c.c.c.f.r.w.u.w.w.l.w.3 O < O o < 3 i f f f i c.3X0X5X4X4X0XHXFXFXGXHXFXbXpXwXqXqXlXpXdXdXsXsXsXpX0X5X5X4X5X5XH.C.l.c.c.c.l.o < < O O < f u.c.c.c.l.u.w.f i i i i i i i i i i i i i i i i i i i i i i i i i i i i i i i i i i i i i i i i i 3 3 < < o < < < 3 3 3 3 3 3 3 3 o o o < < < < < o o o o o o o o 3 3 3 3 3 3 3 ; *.E.=.=.,.| P ",
"Y.I.I.U.>. .H , % X X X + +     + X X X X X X X X X X X X X X X X X X X X X X X X X X O O o < < 3 3 3 3 3 3 3 3 3 3 3 3 3 3 3 3 w.w.w.w.r.r.u.u.w.w.r.r.u.u.u.l.r.c.i.MXJXMXGXZXDXmXgXdXdXsXsXdX0X0XqXqX0X0X5X4X5X5X5X0X0XqXsXsXsXpX0X4X3XH.F.F.5X0XqXdXsXsXdXpXG.G.G.H.F.F.Z.C.C.x.C.Z.c.3 O < o < 3 i f f f f f f w.r.u.r.r.w.0XqXqX0X5XpXmXHXGXFXHXHXZXdX0XwXqXqX0X0X5X4X4X3XqXqXdXsXsXsXsXsXeX5X5X5X8X5X8X8X4X4X4X4X3XH.J.Z.G.G.3X3X6X4X5X5X4X4X3XG.H.G.G.IX4X4X4X4X4X5X5X5X4X4X4X4X4X4X4X4X4X5X0XqXpXdXdXdXqXwX0X4X4X4X4X4Xl.l.c.c.c.f.r.w.u.f w.l.w.3 O < O o < i i f f f i c.3X0X5X4X4X0XHXFXFXGXHXFXbXpXdXdXdXdXdXdXsXsXsXsXqX0X5X5X4X5X5XH.C.l.c.c.c.l.o < < O O < f u.c.c.c.l.u.w.f i f f f f f f f f i i f i f f i i f f f f f f f f f f f f f f f f f f f f f f f f f i 3 3 3 3 3 3 i i i i i i i i < < < < < < < < O O O O O O O O O O O O O O O , -.E.=.=.,.| P ",
"Y.I.o.*.@./ J , , - < < $ = j j $ < < < < < < < < < < < < < < < o o o o o o o o X X O o < 3 3 3 3 3 < < < < < < < < < < < < < < f f f f w.w.w.w.w.w.w.w.w.w.w.w.l.x.u.MXJXMXGXZXFXBXjXsXsXsXsXsX0XwXqXqXqX0X5X4X5X5X5X5X0XqXsXsXpXqX0X0X5X5X8X0X4X0XpXgXjXgXsXpXG.G.G.H.F.F.Z.C.C.x.C.Z.c.3 O < o < 3 i i f f i f f w.r.u.r.r.w.0XqXqX0X5XpXmXHXGXFXHXHXZXdX0XwX0X0X0X5X4X4X3X3X4X5X0XqXdXdXdXdX5X5X5X5X5X5X5X5X4X4X4X4XG.F.J.Z.H.H.G.3X4X5X0X0X4X4X3XG.H.G.G.IX3X4X4X4X4X4X4X6X4X4X4X4X4X4X4X4X4X5X0XqXdXsXsXsXpXqX0X5X4X4X4X6Xl.l.c.c.c.f.r.w.u.f w.l.w.3 O < O o < i i f f f i c.3X0X5X4X4X0XHXFXFXGXHXFXbXpXsXsXsXsXsXsXdXdXsXsXqX0X5X5X4X5X5XH.C.l.c.x.c.l.o < < O O < f u.c.c.c.l.u.w.f i f f f f f f f f i i i i i i i i f f f f f f f f f f f f f f f f f f f f f f f f f i i 3 3 3 3 3 i i i i i i i i 3 3 3 3 3 3 3 < < < < < < < < < o o o o o o o , -.E.=.=.,.| P ",
"Y.I.&.*.@./ J , - - - < $ $ $ $ $ < < < < < < < o o o o o o o o i i i q i i i i o < < 3 i i f f i i i i i i i i i i i i i i i i u.u.u.u.r.r.r.r.r.r.w.w.w.w.w.w.l.x.u.MXJXMXGXBXCXMXgXpXdXsXsXdXqXqXlXpXqXqX0X0X5X4X5X5X0XqXsXsXdXpXqX0X0X0X0XwX4X0XpXgXjXgXsXpXG.G.G.H.F.F.Z.C.C.C.C.Z.c.3 O < o < 3 3 i i i i f N w.r.r.r.r.w.0XqXqX0X5XpXmXHXGXFXHXJXZXdX0X0X5X4X5X5X5X5X4X4X4X5XwXlXdXdXdXdX4X4X4X4X4X4X4X4X6X4X4X4X4XG.H.F.H.H.G.3X4X5X0X0X4X4X3XG.H.G.G.IX6X4X4X4X4X4X4X3X5X5X5X5X5X5X5X5X4X5X0XqXdXsXsXsXdXpXqX0X4X4X4X4Xl.l.c.c.c.h.r.w.u.f w.l.w.3 O < O o < 3 i f f f i c.3X0X8X4X4X0XHXFXFXGXHXFXbXpXsXsXsXsXsXdXdXdXsXsXlX0X8X5X4X5X5XH.C.c.c.c.c.l.o < < O O < f u.c.c.c.l.u.w.f i f f i i i f f f i i i i i i i i f f i i i g f f f f f g i g g f f f i i i g f f i i 3 3 < < 3 3 3 3 3 3 3 3 3 3 3 3 3 < < < < o < < < < < < < < < < < < < < < , -.E.=.=.,.| P ",
"Y.I.I.U.>. .J , + + + X X X X X X X X X X X X X             X X O O O O O O O O     X X O o o < < < < < < < < < < < < < < < < < r.r.w.w.w.w.w.f c.c.c.l.l.s.u.u.r.c.i.MXJXMXGXZXZXMXsXlXpXdXpXqXqXqXpXpXqXqX0X0X5X4X5X5X0XqXsXsXgXsXqX0X4X3XG.G.5X0XqXdXsXsXpXlXG.G.G.H.F.F.Z.C.C.C.C.F.c.3 O < o < 3 3 i i 3 3 f N w.r.u.r.r.w.0XqXqX0X5XpXmXHXGXFXHXJXZXdX0X0X5X5X5X8X5X0X0X0XqXqXdXsXsXsXsXsX4X4X4X4X4X4X6X4X6X4X5X5X4X4XG.G.G.G.3X3X4X4X5X5X4X4X3XG.H.G.G.IX5X5X5X4X4X4X4X4X8X8X5X5X5X5X5X5X4X5X0XqXpXdXdXdXpXqXqX0X8X5X8X0Xl.l.c.c.c.s.r.w.u.f w.l.w.3 O < O o < 3 i f f f i c.3X0X8X4X4X0XHXFXFXGXHXFXbXpXpXpXdXdXdXdXdXdXsXsXlX0X8X5X4X4X5XH.C.c.c.x.c.l.o < < O O < f u.c.c.c.l.u.w.f i i i i i i i i i 3 3 i i i i 3 3 f f f f f f f f f f f f f f f f f f f f f f f f f i 3 3 3 3 3 3 3 3 3 3 3 3 3 3 < < < o O X X X O O O O O O O O o o o o o o o , -.T.=.=.,.| P ",
"Y.I.I.U.^.6.H > % % = < < 4 4 4 < < < < < < < < < 4 < < < < < < < < < < < < < < < < 3 3 3 3 3 3 i i i i i i i i i i i i i i i i u.u.r.i.w.w.f f c.c.l.l.u.r.r.r.f r.f hXHXMXGXZXZXMXsXpXpXdXdXpX0X0XqXqX0X0X5X4X5X5X5X5X0XqXsXsXdXpXqX5X4X3X3X3XqXqXqXqXqXqXqXqXG.G.G.H.F.F.Z.C.C.C.C.F.c.3 O < < < 3 3 3 3 3 3 f f w.r.u.r.r.w.0XqXqX0X5XpXmXHXGXFXHXHXZXdX0X0XqXqXqX0X0X5X5X4XqXqXpXdXdXdXpXqX6X6X4X4X6X4X6X6X3X4X4X4X4X4X3XG.4X4X4X4X4X6X6X4X4X6X3XG.H.G.G.IX0X0X0X8X5X4X4X4X4X4X4X4X4X4X4X4X4X5X0XqXqXqXqXqXqXqX0X0X0X0XwXqXl.l.c.c.c.l.r.w.l.w.w.l.r.3 O < O o < 3 i f f f i c.3X0X8X4X4X0XHXFXFXGXHXFXbXpX0XqXqXqXpXdXdXsXsXsXlX0X8X5X4X5X5XH.C.c.c.x.c.c.o < < O O < f u.c.c.c.l.u.w.f i f f f f f f f f i i i i i i i i w.w.w.w.w.w.w.w.w.w.w.w.w.w.w.w.w.w.w.w.w.w.w.w.w.f f i i i i i i i i i i i i i i i 3 3 < < o O o o o o o o o o < < < < < < < , -.T.=.=.,.| P ",
"I.I.I.Q.^.7.Q I T Y w.r.u.u.s.s.r.r.r.r.r.r.r.r.c.c.c.c.c.c.c.c.A.Z.Z.Z.Z.Z.Z.Z.F.F.F.F.F.F.F.F.Z.Z.Z.Z.Z.Z.Z.Z.Z.Z.Z.Z.Z.Z.Z.Z.F.F.Z.Z.Z.C.C.C.w.w.w.w.f f g i i w.g jXHXMXGXZXDXMXgXdXdXsXsXdX5X5X0X0X5X4X4X3X5X5X5X5X0XqXsXsX0X0X0X0X0XqXpXdXqXqX0X0X0X0X0XqXG.G.G.G.H.F.Z.C.C.C.C.F.c.3 O < < < 3 3 3 3 3 < f f w.r.u.r.r.w.0XqXqX0X5XpXmXHXGXFXHXHXZXdX0X0XgXsXdXqX0X5X4X3X5X0X0X0X0X0X4X4X4X4X4X4X4X4X4X4XG.3X4X4X4X3XG.H.4X4X4X4X4X4X3X3X4X6X3XG.H.G.G.IXqXqX0X0X0X5X4X4X3X3X3X3X3X3X3X3X4X5X0X0X0X0X0X5XqX0X0X0X0XwXqXlXl.c.c.c.c.l.r.w.u.w.w.l.r.3 O < O o < 3 i f f f i c.3X0X8X4X4X0XHXFXFXGXHXFXbXpX5X0X0XqXqXdXsXsXsXsXlX0X8X5X4X5X5XH.C.c.c.x.c.c.o < < O O < f u.c.c.c.l.u.w.f i w.w.w.w.w.w.w.w.w.w.w.w.f w.f f u.r.u.u.u.u.u.u.u.r.u.u.u.u.u.u.u.r.u.u.u.u.u.u.r.w.w.f f f f f f f f f f f f f u.u.r.w.f f i i 3 3 3 3 3 3 3 3 i i e i i i i > -.T.=.=.,.| P ",
"E.E.W.U.@. .Q ^ T T i.r.s.x.K.A.C.C.Z.Z.Z.Z.F.F.Z.Z.Z.F.Z.Z.A.C.5X5X4X4X4X5X0XqXqXqXqXpXqXqX0X0X0X0X0X0X0X0X0X0X0X0X0X0X0X0X0X0X4X4X6X5X5XG.C.r.u.w.u.c.w.o X < X i . CXCXZXBXFXSXmXgXdXdXsXsXdX4X3XF.F.F.G.4X0X0X0X0X0X0X0X4X4X4X5X0XqXdXsXsXsXsXpX0X4X4X5XqXpX3XG.G.3X4X3XZ.x.Z.x.x.Z.x.f 3 i f f 3 < < o o o o q w.r.r.w.r.u.0XqXqX5X4XqXbXDXFXDXFXHXCXjXdXgXgXsXdXqX0X0X0X0X5X5X5X5X5X5X5X5X6X4X5X5X4X4XG.G.H.H.H.H.G.4X5X0X0X4X4XG.H.H.H.H.G.IX3X4X5X4X4X4XsXsXdXdXdXqX4XH.H.H.H.H.G.4X5XeX5X5X5X0X0X0XwXwX4X0XpXsXsXdXqX0Xl.l.c.c.c.f.r.w.u.s.u.r.f 3 o X O o < 3 i f f f i c.3X0X5X4X4X0XKXFXFXGXHXSXjX0X5X5X5X5X0XqXdXsXdXdXdXdXsXsXsXsXsX4Xx.i.u.c.l.u.o < < O O < f u.c.l.u.w.w.w.r.r.w.w.f f f f f w.w.w.w.w.w.w.w.w.c.l.s.u.l.l.x.x.c.c.c.l.l.u.u.u.u.f.l.c.x.x.x.x.c.c.c.c.c.c.c.c.u.u.u.u.f.f.s.s.l.l.l.l.u.w.w.f f f f f f f f f f f f f f f f J R.E.T.=.,.$.K ",
"E.E.W.U.@.2.Q ^ E d.u.s.l.x.C.Z.l.c.c.x.x.x.x.x.x.x.C.C.C.x.x.x.3X3XG.G.3X4X4X5X4X4X5X5X4X4X3XG.3X3X3X3X3X3X3X3X3X3X3X3X3X3X3X3X4X4X5X0X0X3XC.l.r.w.r.l.w.o X < X i . CXCXZXBXFXSXmXgXdXdXsXsXdX4X3XH.F.H.4X0XqX0X0XqXqXqX0X5X4X4X5XqXpXdXsXsXsXsXpX0X4X4X4X0XqX3XG.H.IX4XG.Z.x.Z.x.x.Z.x.f 3 i f f 3 < < o o o o q w.r.r.w.r.u.0XqXqX0X4XqXbXFXFXFXGXHXCXgXpXsXgXsXpXqX0X0X5X5X5X5X5X5X5X5X5X5X5X5X0X0X5X4X4X3XH.H.F.H.G.3X4X5X5X4X3XG.H.H.G.G.G.3X6X5X5X5X5X4XsXsXdXsXsXpX5XG.H.H.H.H.G.4X5XeX5X5X5X5XeXeX0X0X4X0XlXsXsXsXpXqXl.l.c.c.c.f.r.w.u.u.u.r.f 3 o X O o < 3 i f f f i c.3X0X5X4X4X0XHXFXFXKXHXDXjX0X0X0X0X0XqXqXdXsXdXdXdXdXsXsXsXsXsX4Xx.i.u.c.l.u.o < < O O < f u.l.l.l.s.l.l.l.l.x.x.c.l.l.l.l.l.x.x.x.x.x.x.x.x.i.w.w.w.w.w.r.r.c.c.c.c.l.l.l.l.f.l.l.c.c.x.x.x.c.c.c.c.c.c.c.c.l.l.l.l.l.l.l.l.c.c.c.l.u.w.f f i i i i i i i i f f f f f f f J R.E.T.=.,.$.K ",
"Y.Y.W.U.@.2.Q R k.h.s.l.x.K.A.J.C.C.C.C.C.C.C.C.Z.Z.F.F.F.F.Z.Z.0X0X0X0X0XqXqXpX0X0XqXqX0X0X5X4X5X5X5X5X5X5X5X5X5X5X5X5X5X5X5X5X5X5X0X0X0X6XZ.l.w.f w.l.w.o X 3 X i . CXCXZXBXFXSXmXgXdXdXsXsXdX4X3XG.G.3X5XqXpXqXqXqXqXqX0X0X5X5X0XqXpXsXsXsXsXsXpX0X4X4X4X4X5XG.H.F.H.3XH.Z.x.Z.x.x.Z.x.f 3 i f f 3 < < o o o o q w.r.r.w.r.u.qXqXpX0X5XqXMXFXHXFXGXHXCXgXqXsXsXdXlX0X5X5X4X4X5X5X5X5X5X5X5X5X0X0X0X0X0X5X4X4XF.F.F.F.H.3X4X5X4X4X3XG.G.IX3X4X3X4X4X8X0X0X8X5XsXsXdXsXsXpX0X3XH.H.H.H.G.4X5X0X5X5X5X5X4X4X4X4X5X0XpXsXgXgXsXdXl.l.c.c.c.f.r.w.r.r.r.w.f 3 o X O o < 3 i f f f i c.3X0X5X4X4X0XHXGXFXHXJXFXhXwXwX0X0X0XqXpXsXsXsXsXsXdXdXdXpXpXsX4Xx.r.u.c.l.r.o < < O O < f u.u.l.c.x.x.c.c.l.f f f i i i i 3 i i i i i i i i c.c.c.c.c.c.c.c.l.l.l.l.c.c.c.c.l.l.c.c.c.x.x.x.l.l.l.l.c.c.c.c.c.c.c.c.c.c.c.c.x.x.c.l.u.w.f i i i i i i i i i i i i i i i i x R.E.T.=.,.$.K ",
"Y.Y.I.U.@.2.Q ! E d.d.l.c.b.A.Z.Z.Z.Z.Z.Z.C.C.C.Z.Z.F.H.H.H.F.F.qXqX0X0X0XqXpXdXqXqXqXqXqX0X0X5X0X0X0X0X0X0X0X0X0X0X0X0X0X0X0X0X4X4X5X0X0X4XA.l.w.f w.l.w.o O 3 X i . CXCXZXBXFXSXmXgXdXdXsXsXdXG.G.H.G.3X5X0XqXqXqXlXqXqXqX0X8X4X0XqXpXsXsXsXsXdXpX0X5X4X3X4X4XG.F.F.H.G.H.A.c.Z.x.x.Z.x.f 3 i f f 3 < < o o o o q w.r.r.w.r.u.qXpXpX0X0XpXMXGXHXFXHXHXCXsXqXsXsXdXqX0X5X4X4X4X5X5X5X5X5X5X5X5X5X5X0X0X0X4X4X3XF.F.F.F.H.3X4X5X4X4X3X3X3X3X4X4X3X6X5X0X0X0X0X5XsXdXdXsXsXdX0X3XH.H.H.H.G.4X5X0X5X5X5X4X4X4X4X4X8X0XlXsXsXgXgXsXl.l.c.c.c.f.r.w.w.w.w.w.f 3 o X O o < 3 i f f f i c.3X0X5X4X4X0XHXGXGXHXJXFXhXqXqXqXqXqXqXpXsXsXsXsXdXdXpXpXlXlXsX4Xx.r.u.c.l.r.o < < O O < f u.u.l.c.x.x.l.r.w.x.x.x.x.c.l.u.u.l.l.l.l.l.l.l.l.x.x.x.x.x.c.l.l.r.u.u.u.l.l.c.c.c.c.c.c.c.x.c.x.l.l.l.l.l.l.l.l.x.x.x.x.x.x.x.x.x.x.x.l.u.w.i i i i i i i i i i i i i i i i i x R.E.T.=.,.$.K ",
"I.I.I.U.@.3.4.! E y.u.u.l.x.C.A.x.x.x.x.c.c.c.c.c.x.C.C.Z.Z.C.C.3X3XG.G.3X4X4X5X4X4X5X5X4X4X3XG.3X3X3X3X3X3X3X3X3X3X3X3X3X3X3X3X4X4X4X0X0X3XC.u.r.w.r.c.w.< O 3 X i . CXCXBXmXDXSXmXgXdXdXsXsXdXH.H.H.G.3X4X8X0XqXqXqXqXqX0X0X5X4X5X0XqXdXdXsXsXpXqXqX0X5X4X4X4XG.H.H.G.3XH.Z.x.Z.x.x.Z.x.f 3 i f f 3 < < o o o o q w.r.r.w.r.u.0XqXpX0X5XqXMXFXGXFXGXHXCXgXpXsXsXsXqX0X0X5X5X5X5X5X5X5X5X5X5X5X4X5X5X5X5X4X3XG.H.H.H.H.IX4X5X0X0X5X4X3X3X3X4X4X3X4X4X5X0X0X5X5XpXqXqXpXsXpX0X3XH.H.H.H.G.3X4X0X5X5X5X5X5X5X4X4X0XwXqXpXsXsXsXsXl.l.c.c.c.l.r.w.f w.w.w.f 3 o X O o < 3 i f f f i c.3X0X8X4X4X0XHXGXFXHXJXFXjX0XqXqXqX0XqXqXpXdXpXpXpXpXpXpXpXpXsX4Xx.w.u.c.l.r.o < < O O < f u.l.c.c.c.l.u.w.w.f f w.w.w.w.f f w.w.w.w.w.w.w.w.w.w.r.u.r.w.f i u.u.u.u.u.l.l.l.x.c.c.c.c.c.c.c.f.f.u.s.l.l.l.l.c.c.c.c.c.c.c.c.x.x.c.l.u.w.f i i i i i i i i i f f f f f f f I R.E.T.=.,.$.K ",
"L.I.I.U.>.3.5.~ k.h.s.l.x.K.A.J.Z.Z.F.F.F.F.H.H.F.H.3X4X5X5X5X4XqXqXqXqXqXpXdXsXpXdXsXsXdXpXqXqXqXqXqXqXqXqXqXqXqXqXqXqXqXqXqXqX5X5X5X0X0X4XZ.l.x.l.c.C.r.< o 3 X i . CXCXZXmXDXSXmXgXdXdXsXsXdX4X4X4X4X4X4X5X5X0X0X0XwX0X0X4X4XG.3X5X0XqXqXpXpXqXqXqXqXqX0X0X0X3XIXG.3X4X3XZ.x.Z.x.x.Z.x.f 3 i f f 3 < < o o o o q w.r.r.w.r.u.0XqXqX5X4XqXbXFXFXDXFXHXCXjXdXjXgXsXdXqX0X0X0X0X5X5X5X5X5X5X5X5X5X0X0X0X0X5X4X4X4X3X3X3X4X5X0XqXqX0X5X4X3X3X3X3XG.G.3X4X4X4X4X4X0X0X0XqXpXqX5XG.H.H.H.H.G.3X4X0X5X5X5X0X0X0XqXqXqXqXqXqXqXqXpXpXl.l.c.c.c.l.r.w.f f f f i 3 o X O o < 3 i f f f i c.3X0X8X4X4X0XKXFXFXGXHXCXjX0XqXqX0X0X0X0XqXqXqXqXqXqXpXdXdXdXsX4Xx.i.u.c.l.r.o < < O O < f u.l.l.u.u.u.c.x.C.i f r.l.c.c.l.u.l.l.l.l.l.l.l.l.C.Z.Z.F.Z.C.x.l.C.x.x.x.x.c.c.c.x.x.x.c.c.c.l.l.u.u.u.u.u.u.u.u.l.l.f.f.h.s.l.h.l.l.l.l.u.w.w.f f f f f f f f f w.w.w.w.w.w.w.^ R.E.T.=.,.$.K ",
"L.L.I.*.>.6.5.) M.m.K.K.A.J.H.G.eX0XqXqXdXsXfXgXgXjXhXMXMXmXmXmXBXBXmXmXBXBXZXCXBXBXBXBXBXmXMXMXMXMXMXMXMXMXMXMXMXMXMXMXMXMXMXMXqXqXqXpXdX0XH.C.Z.C.C.Z.l.3 o 3 X i . CXCXZXAXDXDXmXgXdXdXsXsXdXqXqXqXqXqX0X0X8X5X5X5X0X5X4X3XIXF.H.3X5X0X0XqX0XwXqXqXpXdXdXpXpX5X4X4X4X5X4XF.C.Z.x.x.Z.x.f 3 i f f 3 < < o o o o 3 w.r.r.w.r.u.4X0X0X4X3X0XjXCXCXZXDXHXDXjXsXhXjXjXsXdXqXqXqXqX5X5X5X5X5X5X5X5XqXpXpXpXpXqX0X0X5X4X4X5X0XwXqXpXdXqX0X5X3XG.H.H.F.F.G.3X4X3X3XG.5X4X4X0XqX0X4XF.H.H.H.H.G.3X4X0X4X5X0X0XqXpXdXsXqXqX0X0X0X0X0X0Xl.l.c.c.c.l.r.w.i g f f i 3 o X O o < 3 i f f f i c.3X0X8X4X4X0XFXSXCXFXFXBXsX4X0X0X5X4X4X5X0X0X5XeX0XqXpXdXsXsXsX4Xx.i.u.c.l.r.o < < O O < f u.u.r.w.r.x.F.4XqXsXgXMXBXCXCXZXBXZXZXZXZXZXZXZXZXpXdXsXgXsXlX0X4X3XG.H.F.Z.C.C.C.x.x.x.c.c.l.l.l.u.u.u.u.r.u.r.r.r.r.r.r.r.r.r.r.w.r.u.l.l.u.r.w.w.w.w.w.w.w.w.w.u.u.u.u.u.u.u.! R.E.T.=.,.$.K ",
"o.o.I.*.>.6.5.) V.A.Z.Z.F.G.3X4X5X0XqXpXsXgXjXhXMXMXBXZXCXDXSXDXDXCXCXZXCXDXFXFXBXBXZXCXZXBXmXMXmXmXmXmXBXNXNXmXBXBXmXmXmXmXmXmXsXsXsXgXgXpX4XZ.F.Z.Z.F.c.3 o 3 X i . CXCXZXBXFXSXmXgXdXdXsXsXdXsXsXsXsXdXpXqX0X4X4X4X4X4X4XG.H.Z.F.G.4X5X0X0X0X0XqXpXdXsXsXsXsX8X5X4X5X0X5XH.Z.Z.x.x.Z.x.f 3 i f f 3 < < o o o o 3 w.r.r.w.r.u.4X5X5X3XG.5XjXZXBXBXDXHXDXhXjXMXbXjXgXsXpXqXqXqX5X5X5X5X5X5X5X5XsXsXgXgXsXsXdXpX0X0X0X0X0XqXdXsXsXdXqX5X3XH.F.F.Z.F.H.G.IXG.G.H.4X3X3X4X0X5XIXF.H.H.H.H.G.4X5X0X4X5X0XqXpXsXgXjXpXqX0X5X4X4X4X4Xl.c.c.c.c.l.r.w.i i f f i 3 o X O o < 3 i f f f i c.3X0X5X4X4X0XDXCXZXDXFXBXsX4X0X8X4X4X4X4X4X5X4X4XeXqXpXsXgXjXsX4Xx.i.u.c.l.r.o < < O O < f u.r.w.w.r.C.4XgXMXpXsXbXBXDXFXDXCXDXDXDXDXDXDXDXDXgXjXbXbXhXgXpXwXqX0X5X4XG.F.J.Z.x.x.x.x.c.l.l.u.r.r.r.r.r.r.r.r.w.w.w.w.w.w.w.w.w.w.r.u.l.l.u.u.w.w.w.w.w.w.w.w.l.l.l.l.l.l.l.~ R.E.T.=.,.$.K ",
"Y.I.I.O.@.7.9.N.M.A.C.c.A.3X4XF.3X5XqXdXjXhXbXbXjXbXBXCXDXDXZXBXZXZXZXZXZXZXZXZXBXBXZXZXBXBXmXMXmXmXmXmXmXmXmXmXBXBXBXmXmXmXMXMXjXdXqXpXsXdX5XF.Z.Z.F.3XC.3 X O O i . CXCXBXmXDXZXMXjXsXsXsXsXdXpXdXsXsXsXpXqX0X4X5X5X5X4X3XG.H.F.H.3X4X5X5X5X5X4XwXsXsXsXdXdXsX0X5X5X5X0X4XF.C.Z.x.x.Z.C.w.g w.i i 3 < < < < < o 3 w.r.r.w.r.u.5X0X0X4X3X0XhXSXDXDXCXCXBXMXbXjXMXbXjXsXqXqX0X0XqXqX0X5X5X5X5X0XsXdXpXdXsXsXlX0X3X3X4X4X0XqXdXsXsXpXwX5X3XG.H.H.H.G.G.G.H.H.H.H.5X5X0X0X5X4X4X3X4X4X3XIX3X4X4X5X5X0XqXdXsXdXqXqXqX0X0X4X4X3X4X4Xx.c.l.c.x.c.w.i w.w.w.f i 3 < O o < 3 i f w.w.w.i c.3X0X5X4X4X0XBXBXZXDXDXMXpX4X8X8X0X0X0X0X0X0XG.4X0XpXsXsXsXsXgX0XZ.u.r.l.c.x.O o < < o < f r.i u.u.f C.dXhXdXsX0XqXBXHXDXBXCXSXSXSXSXSXSXDXSXjXsXsXgXhXhXsX0X5X8X0X0X4XF.C.l.C.x.x.c.l.r.w.w.u.u.u.u.u.u.u.u.u.u.u.u.u.u.u.u.x.w.w.l.l.f f r.u.u.l.c.r.f w.l.w.r.u.c.c.c.l.~ R.@X@X+X,.$. .",
"Y.I.I.O.@.7.9.N.M.Z.C.c.Z.4X5XH.3X4X0XpXsXjXjXhXjXbXBXCXDXCXZXBXCXCXCXCXCXCXCXCXZXZXCXCXZXBXBXmXBXBXBXBXBXBXBXBXMXMXMXMXMXbXbXbXjXdXqXpXsXdX4XZ.F.Z.H.3XC.i O < X i . CXCXBXmXDXCXMXjXsXsXsXsXdXpXdXsXsXsXpXqX0X4X4X4X4X3XG.F.F.F.G.3X4X5X5X5X5X4XwXsXsXsXdXdXsX0X8X5X5X0X4XF.C.Z.x.x.Z.C.w.f w.f i 3 < < < < < o 3 w.r.r.w.r.u.4X0X0X4X3X0XjXCXCXCXCXZXBXMXbXhXMXbXjXsXlXqXwX0XqXqX0X5X5X5X5X0XfXsXdXsXgXsXpX0X4X4X5X8X0XpXsXsXsXpX0X4X3XG.H.H.H.G.G.G.H.H.H.H.4X4X5X5X4X4X3XG.3XIXG.G.G.3X4X4X3X4X0XpXsXsXdXdXpXqX0X5X4X4X4X4Xx.c.l.c.x.c.w.i w.w.w.f i 3 < o o < 3 i f w.w.w.i c.3X0X5X4X4X0XBXBXZXDXDXMXdX4X4X4X5X5X5X5X5X5X3X4X0XpXsXsXsXsXsX5XA.u.r.l.c.x.O o < < o < f r.i l.u.i c.qXgX0XsXqXpXBXHXFXDXFXBXBXBXBXBXBXBXBXhXgXsXsXjXsXqX4X0X0XwX0X4XH.Z.x.F.F.F.Z.C.C.x.x.w.w.w.w.w.w.w.w.w.w.w.w.w.w.w.w.u.f w.c.c.w.w.l.f w.r.r.w.f w.l.w.r.u.c.c.c.c.~ R.@X@X+X,.$. .",
"Y.I.I.O.@.7.9.N.V.Z.C.c.Z.5X0X3X3X4X0XpXsXjXjXjXhXMXBXZXCXCXBXBXCXCXCXCXCXCXCXCXBXZXCXCXZXBXmXMXBXBXNXNXNXNXNXNXCXZXZXZXBXBXBXBXgXdXqXdXsXpX4XZ.F.Z.F.3XC.i < 3 X i . CXCXZXBXFXCXMXgXdXdXsXdXpXlXpXdXdXdXpXqX0X4X4X4X4X3XH.F.Z.F.H.3X4X5X5X5X5X4XqXsXsXsXdXdXsX0X0X5X0X0X4XH.C.Z.x.C.F.C.r.f w.f i i 3 < < < < o 3 w.r.r.w.r.u.4X5X5X4XG.5XjXZXZXZXCXZXBXMXbXjXMXzXjXsXpXqXqXqXqXqX0X5X5X5X5X0XgXsXdXsXgXgXdXqX8X5X8X0XwXpXsXsXpXqX0X4X3XH.H.H.H.H.G.G.H.H.G.H.4X4X4X5X4X4XG.G.G.H.H.H.H.G.4X4X3X4X0XqXdXsXsXsXdXqXqX0X5X5X5X5Xx.c.l.z.x.c.w.i f f f f i 3 < o o < 3 i f f f f i c.3X0X5X4X4X0XBXBXZXDXSXmXsX5X4X4X4X4X4X4X4X4X4X5X0XqXpXdXdXdXdX4XC.s.u.l.c.c.O o < < o < f r.f l.u.i l.0XsX0XgXpXsXmXFXDXDXFXDXDXDXDXDXDXDXDXhXjXsXsXsXdX0X4XIX3X4X4XH.Z.x.c.c.c.l.u.r.w.w.w.c.c.c.c.c.c.c.c.c.c.c.c.c.c.c.c.f 3 i w.i.i i w.f w.r.w.f f w.l.w.r.l.c.c.c.l.~ R.@X@X+X,.$. .",
"Y.I.I.O.@.7.9.N.V.S.C.c.Z.0XtXeXeX0XpXsXjXhXbXbXMXMXBXBXZXZXBXBXBXBXBXBXBXBXBXBXMXmXNXBXmXMXbXhXMXMXbXbXbXbXbXbXBXBXBXmXmXMXMXMXsXdXqXdXsXpXG.C.C.x.Z.F.x.3 o 3 X i . DXDXSXZXGXDXmXgXpXqXpXpXpXqXqXpXpXpXqXqXqX0X0X8X5X4XG.F.F.F.G.3X4X5X5X5X5X4XqXsXsXsXdXdXsXqX0X0X0X0X5XH.Z.F.C.C.F.Z.r.f w.w.f i 3 < < < < o 3 w.r.r.w.r.u.3X4X4X3XH.4XgXBXBXBXBXBXBXMXbXhXMXhXjXsXdXpXlXpXqXqX0X5X5X5X5X0XdXlXqXpXdXdXqX5X4X4X4X5X0X0XqXdXqXqX0X4XG.H.H.H.H.H.H.H.H.H.G.G.0X0X0X0X0X5X4X4X3XG.G.G.3X4X5X0X5X5X0XqXqXqXpXpXqXqX0X4X4X4X4X4Xx.c.l.c.x.c.w.i f f f f i 3 < < < < 3 i f f f f i c.3X0X5X4X4X0XBXBXZXSXSXmXgXqX0X0X0X0X0X5X5X5X5X0X0XqXqXqXqXpXqX4XC.s.u.l.c.l.O o < < o < f r.f l.r.i c.pXhXsXhXjXjXbXMXMXMXmXBXBXBXBXBXBXBXBXjXjXgXgXgXsXdXpX0X0XqX0X0X4XG.F.Z.Z.Z.Z.C.C.C.C.i i i i i i i i i i i i i i i i C.x.x.Z.Z.u.w.l.l.C.x.w.i f w.w.w.r.l.c.c.c.l.~ R.@X@X+X,.$. .",
"Y.I.I.O.@.7.9.N.V.S.C.c.J.qXsXtXpXsXgXhXMXMXmXmXMXmXBXBXBXBXBXBXMXMXMXMXMXMXMXMXjXhXhXhXhXjXgXsXgXgXgXgXgXgXgXgXpXpXqXqXqXqXqX0XsXpXqXsXsXqXH.c.l.r.l.x.r.< X < X i . DXFXDXCXHXFXmXsXqXqXqXqXqXqXqXqXqXqXqXqXlXpXpXqXqX0X4X3XH.F.G.3X4X5X5X5X5X4XqXsXsXsXdXdXsXqX0X0X0XqX0XG.Z.F.C.C.F.Z.u.f w.w.w.i 3 < < < < o q w.r.r.w.r.u.G.4X4XH.F.4XsXBXBXBXBXBXmXMXbXhXMXhXjXsXsXdXdXdXqXqX0X5X5X5X5X0XwX0X5X0XqX0X4XIX3XIXG.G.3X4X5X0XqX0X5X3XG.H.H.H.H.H.H.H.H.H.H.G.pXpXpXdXpXqXqX0X4X4X4X5X0XwXqXpXpXpXqX0X0X8X5X5X8X5X4XG.H.F.H.H.x.c.l.x.x.c.w.i f f f f i i 3 < < 3 i i f f f f i c.3X0X5X4X4X0XZXBXZXCXCXBXjXpXdXdXpXqXqXqXqXwX0X0X0X0X0X0XqXqX0XG.C.l.l.c.c.l.O o < = o < f r.i l.r.f C.jXCXmXmXmXbXsXpXpXdXdXqXqXqXqXqXqXqXqXgXjXjXjXjXhXbXMXBXZXZXBXBXmXMXMXZXZXBXBXBXBXBXmXHXHXHXHXHXHXHXHXHXHXHXHXHXHXHXHXBXhXhXMXhXqX4X5XH.5XG.u.i f w.i w.r.l.c.c.c.c.~ R.@X@X+X,.$. .",
"Y.I.I.O.@.7.9.N.V.S.C.z.J.tXjXfXfXjXhXMXmXBXBXBXBXBXBXBXBXBXBXBXhXhXjXjXjXjXjXjXsXfXgXgXsXsXdXpXdXdXdXdXdXdXdXdXqXqX0X0X0X0X5X5XsXpXpXsXsXqXF.u.w.f w.s.f O X < X i . DXFXFXDXHXFXNXsX0X0XwXqXqXqXqX0X0X0XqXlXpXsXsXdXpXqX0X4X3XF.G.3X4X5X5X5X5X4XqXsXsXsXdXdXsXqXwX0X0XqX0XIXZ.F.C.A.F.Z.u.w.r.r.w.f i 3 < < < o q w.r.r.w.r.u.H.3X3XF.Z.3XsXmXmXmXmXNXmXMXbXhXbXhXjXgXsXsXsXsXqXqX0X5X5X5X8X0X5X4X3X4X5X5X3XF.G.H.H.H.H.G.4X4X0X5X6X3XH.H.H.G.H.H.H.H.H.H.H.G.sXsXsXsXsXsXpXqX8X5X8X0XqXpXsXsXsXsXqX0X4X4X3X3X4X3XG.F.F.J.J.F.x.c.l.x.x.c.w.i i i f f i i 3 3 3 3 i i f f i i i c.3X0X5X4X4X0XZXZXBXCXCXBXhXsXgXsXsXsXpXpXqXqXqXqX0X0X5X0X0X0X4XF.x.l.l.c.l.u.O o < = o < f r.g u.r.f Z.MXHXFXZXDXmXpX4X4X5X4X4X4X4X4X4X4X4X4XsXjXhXhXhXMXBXDXGXGXFXFXFXFXFXFXHXHXKXGXGXGXGXGXmXmXmXmXmXmXmXmXmXmXmXmXmXmXmXmXJXGXFXHXCXgXqXqX0XsX0Xl.i F w.3 w.r.l.c.c.c.c.~ R.@X@X+X,.$. .",
"Y.I.I.O.@.7.9.N.V.S.C.z.F.aXzXjXgXjXhXMXmXBXBXBXBXBXBXmXAXBXBXBXhXhXhXhXhXhXhXhXsXsXgXgXsXsXpXpXdXdXdXdXdXdXdXdXsXsXsXdXdXpXpXqXsXpXpXsXsXqXZ.i.w.f w.u.f o X 3 X i . FXFXFXFXJXGXBXsX0X5X0XqXqXqX0X0X5X0XqXpXdXsXsXdXpX0X5X3XH.F.G.3X4X5X5X5X5X4XwXsXsXsXdXdXsXqXqX0XqXqX0X3XF.H.Z.Z.H.F.l.w.r.u.r.f i 3 < < < o q w.r.r.w.r.u.F.G.G.F.Z.G.dXMXMXMXMXmXMXMXbXhXbXhXjXgXsXsXsXsXqXqX0X5X5X5X5X0X5X4X3X4X8X5X3XF.3XG.G.G.G.IX4X4X8X5X4XG.H.H.G.G.G.G.H.H.H.H.H.H.sXsXsXsXsXdXpXqX4X4X5X8X0XpXsXsXsXdXqX5X4X4X6X4X4X4XIXH.F.F.F.F.x.c.l.x.x.c.w.i i i f f f i 3 3 3 3 i f f f i i i c.3X0X5X4X4X0XCXZXBXZXCXBXbXgXgXsXsXdXpXqXqX0XpXqX0X5X4X4X5X0X4XF.x.l.l.c.l.u.O o < < o < f r.f l.r.f C.hXGXDXCXGXBXqXH.3X0X4X0X0X0X0X0X0X0X0XsXjXhXhXjXjXNXDXZXZXBXBXZXZXCXDXBXBXBXBXBXBXBXBXDXDXDXDXDXDXDXDXDXDXDXDXDXDXDXDXFXZXZXFXBXdX4X5X5XsX0Xr.4 w.w.< i.r.l.c.x.c.c.~ R.@X@X+X,.$. .",
"Y.I.I.O.@.7.9.N.V.S.C.z.F.aXzXzXsXgXjXbXMXmXMXMXZXBXBXmXmXAXBXBXbXbXbXbXbXbXzXbXfXgXgXjXgXsXsXpXsXsXsXsXsXsXsXsXpXpXqXqXqXqX0X0XdXpXpXsXgXqXZ.w.w.f w.u.f < o i X i . FXFXGXFXJXKXBXsX5X4X0XqXqXqX0X5X5X0XqXpXsXdXdXpXqX0X4XG.F.F.G.3X4X5X5X5X5X4XwXsXsXsXdXdXsXpXqX0XqXqX0X3XF.H.Z.Z.H.F.l.w.u.l.r.f i 3 < < o o q w.r.r.w.r.u.F.H.G.F.Z.G.dXMXMXMXMXmXMXMXbXhXbXhXjXgXsXsXgXgXqXqX0X5X5X5X5X0X0X5X4X5X0X0X4XH.4X4X3X3X3X4X4X5X5X4X3XG.H.H.G.G.G.G.G.G.H.H.H.H.dXdXsXsXdXpXqXqX3X3X4X4X0XqXdXsXpXqX0X4X4X4X0X0X0X5X4XG.H.H.H.H.x.c.l.x.x.c.w.i i i i f f i 3 3 3 i i f f i i i i c.3X0X5X4X4X0XCXZXBXZXCXBXMXgXsXsXdXpXqX0X0X0XdXqX0X4X4X4X5X5X3XZ.x.l.c.c.l.u.O o < < o < f r.w.c.r.i x.gXCXBXZXKXZXqXH.4XqX0X4X4X4X4X4X4X4X4XgXhXbXjXsXsXbXBXCXCXZXCXCXDXFXFXFXFXFXFXFXFXFXFXBXBXBXBXBXBXBXBXBXBXBXBXBXBXBXBXSXBXZXFXZXsX0X0X3XpX4Xf < w.r.< w.r.l.c.c.c.c.~ R.@X@X+X,.$. .",
"Y.I.I.O.@.7.9.N.M.D.A.i.C.aXzXaXsXgXjXMXBXBXZXZXBXBXBXmXmXMXMXMXbXbXMXbXhXjXgXsXgXgXjXjXjXsXsXdXdXdXdXsXsXsXsXsXdXpXpXqXqXwX0X0XgXgXgXjXsX0XZ.f.w.f r.x.w.< X < X i + GXGXFXCXHXHXmXpX5X0XqXqX0X0X0XqXqXqXpXdXdXdXsXsXdXqX5XG.F.F.H.G.3X4X5X0X0X0XqXpXdXsXsXsXsXqXqXqXqXpX0XG.Z.H.Z.Z.H.F.l.w.u.w.u.f o X < 3 O < i w.r.w.w.w.r.4XH.H.G.F.H.dXCXMXmXmXmXMXbXhXjXdXhXbXsXlXsXsXdXpXqX0X5X4X4X4X4X5X5X0X0X5X4X4X3XH.F.F.H.G.3X4X5X0X5X4XG.F.F.F.F.G.G.3X4X3XG.H.F.dXsXsXdXpXqX0X5X0X0X0X0X0XqXdXsXjXsXqX0X4X4X4X5X4X3XF.F.G.G.F.Z.x.c.l.c.x.c.w.i i i f f i i 3 3 3 3 i i f f i i i c.3X0X8X4X4X0XZXZXCXFXFXZXhXdXsXsXsXdXqX0X4X4X0X0X4X4X4X4X4X5X4XF.x.u.s.l.l.u.O o < < o < f r.u.u.w.r.f HXbXFXBXSXmXlX4X5X0X4X5X5X5X5X5X5X5X5XbXhXjXgXjXbXBXCXZXZXCXSXCXZXBXBXZXZXCXCXCXCXCXCXZXZXCXSXCXZXBXBXZXZXCXCXCXCXCXZXBXZXCXZXMXsX0X3X0XqX4Xc.i f f i q f l.c.l.u.u.) R.@X@X+X,.$. .",
"Y.I.I.O.@.7.9.N.M.D.A.u.A.fXnXgXgXjXbXMXmXBXBXBXmXmXMXMXMXbXbXbXhXhXhXhXjXgXsXdXdXsXsXsXsXsXsXsXdXdXdXdXsXsXsXsXdXpXpXpXqXqXqX0XdXdXsXsXdX0XZ.l.u.r.l.x.r.< X < X i + FXGXFXCXHXHXmXpX5X0XqXqX0X0XqXqXqXpXpXdXdXpXdXdXdXqX0X4XG.G.3X4X4X5X0X0XqX0XqXqXpXdXdXpXpXqXqXqXqXpXwXIXZ.H.Z.Z.H.F.l.w.u.w.u.f o X < 3 O < i w.r.w.w.w.w.G.F.J.F.F.F.pXZXMXMXMXMXMXMXMXbXjXMXmXgXpXsXsXpXsXpXqX0X5X5X5X5X5X5X0X0X0X4X4X3XG.G.G.G.3X4X0X0XqX0X5X3XG.H.H.H.3X4X4X4X4X4X3XG.lXpXpXqXqX0X5X6X5X5X5X5X0X0XqXpXsXdXqX0X5X5X0X0X5X3XF.F.H.G.F.Z.x.c.l.c.x.c.w.i i i f f i i 3 3 3 3 i i f f i i i c.3X0X8X4X4X0XZXZXCXFXFXBXjXpXdXdXdXpXqX0X0X5X0X0X5X4X4X4X5X5X4XF.x.u.s.l.l.u.O o < < o < f r.u.u.w.r.f HXhXFXBXSXmXlX4X5X0X4X5X5X5X5X5X5X5X5XhXjXfXsXgXhXmXBXZXZXCXDXCXZXBXBXBXBXBXBXBXBXBXBXZXZXCXDXSXCXBXBXBXBXBXBXBXBXBXBXAXBXZXBXMXgXqX4X5XwX3Xl.i f f i q f l.c.l.u.u.) R.@X@X+X,.$. .",
"Y.I.I.O.@.7.9.N.M.D.Z.l.F.hXCXbXbXMXMXMXMXMXMXMXbXbXbXhXjXjXjXjXgXjXjXjXgXsXpXqX0XqXqXpXpXdXsXsXdXdXdXdXdXdXdXdXdXpXpXpXqXqXqXqX0X0XqXpXpX0XF.x.C.x.C.Z.l.< X < X i   FXGXFXCXHXHXmXpX5X0XqXqX0XqXqXqXqXpXpXdXdXqXqXlXlXqXqX0X5X5X5X0X0XqXqXqXpXqXqXqXqXqX0X0X0XqXqXqXpXdXqX3XZ.H.Z.Z.H.F.l.w.u.w.u.w.< O < 3 O < i w.r.w.f w.w.F.C.C.Z.C.Z.qXBXhXbXbXMXmXNXBXBXMXCXZXjXpXsXsXpXsXsXpXqXqX0XwXqX5X0X0X0X0X5X4X4X4X4X4X4X4X0XqXqXpXqX0X5X4X3X3X3X4X5X0X0X0X0X5X5X0X0X0X0X0X4X3XG.4X3X3X3X4X5X0XqXpXqXqX0X0XqXqXlX0X4XH.F.H.H.F.Z.x.c.l.c.x.c.w.i i i f f i i 3 3 3 3 i i f f i i i c.3X0X8X4X4X0XCXZXCXFXDXBXjXqXqXqXqXqXqXqXqXqXqX0X0X4X4X4X5X5X4XF.x.u.s.l.l.u.O = < < o < f r.u.u.w.r.f HXhXFXBXSXmXlX4X5X0X4X5X5X5X5X5X5X5X5XgXsXsXdXsXjXPXMXMXMXMXMXMXMXhXjXjXjXjXjXjXjXjXjXbXMXMXmXmXMXMXbXjXjXjXjXjXjXjXjXgXjXhXhXjXpX0X4X4X0X3Xl.i f f i i f l.c.l.u.u.) R.@X@X+X,.$. .",
"Y.I.I.O.@.7.9.N.m.S.Z.c.G.nXFXBXVXBXmXMXbXhXjXjXjXjXjXgXgXsXsXsXsXsXsXsXdXpXqX0X4X4X5X0XqXpXsXsXdXdXdXdXdXpXpXpXpXpXpXpXpXpXpXlX4X4X4X0XqX5XH.C.F.Z.Z.F.x.3 O < X i + FXGXFXCXHXHXmXpX5X0XqXqX0XpXpXpXpXpXpXpXdX0X0XqXqXqXpXlXlXqXqXqXlXpXdXdXsXpXqXqX0X5X4X4X4XpXqXqXpXdXqX4XF.H.Z.Z.H.F.l.w.u.w.u.w.< O < 3 O o 3 w.w.w.f f w.C.x.x.K.x.C.0XMXjXjXhXMXmXBXSXFXCXGXFXhXpXsXsXqXjXgXsXdXpXpXpXdX0X0X0X0X0X5X4X4X0X5X5X5X0XqXpXdXsXdXqX0X5X4X4X4X0X0XqXqXpXlXqXqX4X4X4X4X4X3XG.H.H.H.H.H.G.4X5X0X0X0X0XwXqXpXdXsXqX4XH.F.F.H.F.Z.x.c.l.c.x.c.w.i i i f f i i 3 3 3 3 i i f f i i i c.3X0X5X4X4X0XCXZXCXDXSXmXgXqX0X0X0X0XqXqXpXdXqXqX0X5X4X4X4X5X4XF.x.u.s.l.l.u.O & < < o < f r.u.u.w.r.f HXhXFXBXSXmXlX4X5X0X4X5X5X5X5X5X5X5X5XsXdXdXpXdXsXgXjXdXsXsXsXdXlXqX0X0X0X0X0X0X0X0X0XqXpXdXsXsXsXsXdX0X0X0X0X0X0X0X0X4X8X0X0X0X4XG.F.4XeXG.u.i f f i q f l.c.l.u.u.) R.@X@X+X,.$. .",
"Y.I.I.O.@.7.9.N.m.S.Z.z.G.nXGXVXFXCXBXMXjXjXjXjXfXsXsXsXsXdXdXdXdXdXsXdXpXqX0X0X4X4X4X4X0XqXsXfXsXdXdXpXpXqXqXqXpXpXdXdXdXdXdXdX3X3X3X5X0X5XG.Z.H.F.F.H.x.3 O < X i + FXGXFXCXHXHXmXpX5X0XqXqX0XdXdXdXdXpXpXpXpX0X0X0XqXqXdXsXsXpXpXdXdXsXsXsXsXdXlX0X5X4X4X4X4XpXqXlXdXdXqX4XF.H.Z.Z.H.F.l.w.u.w.u.f < O < 3 O o 3 f w.f f f w.x.u.u.x.c.x.5XMXjXjXjXbXmXZXFXHXFXJXFXhXpXdXdXqXjXgXsXdXdXsXsXsX0X0XqXqX0X0X5X4X0X0X0X0XqXlXdXsXgXsXpXqX0X5X5X5X0XqXpXdXdXdXdXdXH.G.3X3X3XG.F.F.F.F.F.F.H.3X4X5X4X5X0XqXdXsXsXsXqX5XH.Z.F.F.F.Z.x.c.l.x.x.c.w.i i i f f i i 3 3 3 3 i i f f i i i c.3X0X5X4X4X0XCXCXCXCXCXMXsX0X4X4X4X5X0XqXdXsXdXpXqX0X5X4X4X5X4XF.x.u.u.l.l.u.O o < < o < f r.u.u.w.i.f HXhXFXBXSXmXlX4X4X0X4X5X5X5X5X5X5X5X5XdXpXpXpXdXdXsXsXqXqXqXqX0X5X4X3X3X3X3XIX3X3X3X3XeX0XqXqXpXpXqXqXIXIX3X3X3X3X3X3XH.G.3X4X4XG.F.F.IX4XH.u.i f f i i f l.c.l.u.s.) R.@X@X+X,.$.` ",
"Y.I.I.O.@.7.9.N.m.S.Z.z.G.nXFXBXGXDXBXbXjXgXgXgXsXsXsXsXdXdXpXpXdXdXsXdXpXqX0X0X4X4X4X4X5XqXsXgXsXsXdXpXqXqX0X0XpXpXdXdXsXsXsXsX4X3X3X4X0X8X3XF.H.F.F.H.x.3 o 4 X i + GXGXFXCXHXHXmXpX5X0XqXqX0XsXsXsXdXdXpXpXpXqXqX0XqXqXdXsXgXsXsXsXsXsXsXsXsXsXpX0X4X4X4X4X5XdXpXpXsXsXlX4XF.F.Z.Z.H.F.l.w.u.w.u.N < O < 3 O o 3 f w.f f f f l.r.r.c.l.x.5XMXhXjXjXbXmXCXGXJXGXJXFXjXqXpXdXqXgXgXsXdXsXsXsXgX0XqXqXqXqX0X5X4X0X0X0X0XqXpXdXsXgXsXpXqX0X0X8X8X0XqXpXdXsXsXsXsXF.F.H.G.G.H.F.F.F.F.F.F.H.3X4X5X4X5XqXpXsXsXsXsXdX0XH.Z.Z.F.F.Z.x.c.l.x.x.c.w.i i i f f i i 3 3 3 3 i i f f i i i c.3X0X5X4X4X0XCXZXZXCXZXMXdX8X4X4X4X4X5XqXdXgXsXdXqX0X5X4X4X4X4XF.x.u.u.l.l.u.O o < < o < f r.u.s.w.r.f HXhXFXBXSXmXlX4X4X0X4X5X5X5X5X5X5X5X5XpXpXdXdXdXdXdXdXdXdXdXpXqX0X5X4X4X4X4X4X4X4X4X4X0XqXpXdXsXsXsXsX4X4X4X4X4X4X4X4X6X4X5X5X4X4X3X3XH.4XF.r.i f f f i f l.c.l.u.s.) R.@X@X+X,.$.` ",
"Y.I.I.O.@.7.9.N.m.S.Z.l.F.zXSXnXKXFXBXhXgXgXgXjXsXsXsXsXdXdXdXpXdXsXsXsXpXqX0X0X0X8X4X4X5XqXdXgXsXsXdXpXqX0X0X0XpXpXpXdXsXsXsXgX0X4X4X5X0X0X3XF.F.Z.F.F.x.i o 3 X i + GXGXFXCXHXHXmXpX5X0XqXqX0XfXsXsXsXdXpXpXpXpXqXqXqXqXdXsXjXsXsXsXsXsXsXsXdXsXpX0X4X4X4X0XqXdXpXdXsXsXpX4XF.F.Z.Z.H.F.l.w.u.w.u.f < O < 3 O O 3 f w.f i f f l.w.r.c.c.x.5XMXbXbXhXhXMXCXGXJXFXHXDXfX0XqXdXpXsXsXsXdXdXsXsXgXqXqXqXqXqX0XeX5X0X0X0X0X0XqXdXsXsXsXpXqX0X5X5X5X0X0XqXdXsXsXsXsXF.F.H.G.G.G.H.F.H.H.F.F.G.3X4X5X4X0XqXdXsXsXsXsXsX0XH.Z.Z.Z.Z.Z.x.c.l.x.x.c.w.i i i f f i i 3 3 3 3 i i f f i i i c.3X0X5X4X4X0XCXCXCXCXZXbXpX4X5X4X4X3X4X0XdXsXsXsXlXwX5X4X4X4X4XF.x.u.u.l.l.u.O o < < o < f r.u.h.w.r.f HXhXFXBXSXmXqX4X4X0X4X5X5X5X5X5X5X5X5XdXdXsXsXsXsXdXpXsXsXsXdXqX0X4X4X5X5X5X5X5X5X5X5X0XqXpXsXsXgXgXsX5X5X5X5X5X5X5X5X5X5X5X5X4X4X4X3XF.3XF.w.3 i f f i f l.c.l.u.s.) R.@X@X+X,.$. .",
"Y.I.I.O.@.7.9.N.M.S.Z.l.J.hXCXMXKXFXAXhXgXgXjXjXsXsXsXsXdXdXdXdXsXsXsXsXdXqXwX0XqX0X5X4X5XwXdXgXsXsXdXlXqX0X0X5XpXpXdXdXsXsXgXgX0X0X4X5X0X0X4XH.Z.C.Z.F.x.i = 3 X i + GXGXFXCXHXHXmXpX5X0XqXqX0XgXgXsXsXdXdXpXpXdXpXqXqXqXdXsXjXsXsXsXsXdXdXdXdXsXpX0X4X4X5XqXpXdXdXdXsXsXpX4XH.H.Z.Z.H.F.l.w.r.w.u.f < X < 3 O O 3 f f f i i f l.w.r.c.c.x.8XMXMXbXhXhXMXCXGXJXFXHXZXsX0XqXdXpXsXsXdXpXdXdXsXfXqXqXqXqXqX0X0X5X0X0X5XeX0XqXpXdXsXdXqX0X5X5X5X5XeX0XqXdXsXsXsXsXF.F.G.G.3XG.G.H.H.H.H.H.G.4X5X8X5X0XqXsXsXsXsXsXsX0XH.Z.C.Z.Z.Z.x.c.l.x.x.c.w.i i i f f i i 3 3 3 3 i i f f i i i c.3X0X5X4X4X0XCXCXZXCXZXbXpX4X0X5X4X3X4X0XpXsXgXsXpXwX8X5X4X4X4XF.x.u.u.l.l.u.O o < < o < f r.u.s.w.r.f HXbXFXBXSXmXqX4X4X0X4X5X5X5X5X5X5X5X5XdXsXsXsXsXsXdXpXpXpXqXqX0X4XG.H.4X4X4X4X4X4X4X4X4X0X0XqXdXdXdXdX4X4X4X4X4X4X4X4X4X4X4X3XG.H.H.F.F.3XF.w.3 i f f i f l.c.l.u.s.) R.@X@X+X,.$. .",
"Y.I.I.O.@.7.9.N.j.S.Z.c.G.nXFXVXBXDXBXgXsXjXhXsXjXsXpXqXpXpXqX0XpXdXsXsXsXdXpXqXeX0XqXlXpXdXpXpX0XqXqXpXpXpXqXqXdXpXqXqXwXqXqXpX0XeX5X0X0X4XZ.x.F.F.F.G.C.i < 3 X i + GXGXFXCXHXHXmXpX5X0XqXqX0XqXqXqXqXpXpXdXdXqXqXqXqXqXqXpXdXsXdXpXqXqXlXpXdX0XwXqXqXqX0X0XeXqXqXqXpXpXqX3XZ.C.C.C.C.x.x.l.u.r.x.s.3 X < < o o < < 3 3 3 3 3 r.l.c.u.i.x.4XsXhXbXjXsXzXFXHXFXFXHXDXjXqXdXsXdXsXsXsXsXsXsXsXsX0XqXqXqXqX0X0X5X4X4X5X0X0X0XqXqXsXdXqX0X0X0X0X0X0XqXqXpXdXdXpXpXH.H.H.H.H.H.H.H.F.3XG.Z.F.5XwX5X0X0X0X0X0XqXpXdXqX4XF.Z.Z.Z.Z.C.c.s.u.l.c.l.F q 3 3 3 3 3 3 3 3 < 3 i f w.w.w.w.r.C.G.0X0X5X5X0XBXmXmXBXBXMXgXpX0X0XqXqXqXpXpXdXdXpXqX0X0X8X0X0X5XH.C.c.c.c.c.l.O o < < o < f r.u.u.w.r.f HXhXFXBXDXBXsX5X0X0X5X0X0X0X0X0X0X0X0XdXdXdXdXdXdXdXdXdXpXqX0X0X0X0X0X5X5X5X5XeXeX5X5XqXlXdXsXsXsXdXpX6X5XeX0X0X0X0X5X0X4X4XqX0XH.Z.H.C.F.Z.w.3 g f i f N w.r.u.r.r.R R.@X@X+X,.$. .",
"Y.I.I.O.@.7.9.N.j.S.Z.c.G.nXFXVXBXDXBXgXsXjXhXsXjXsXlXqXpXpXqX0X0X0X0X0X0X0X0X0XsXsXsXdXqX0X4X4X0X0XqXpXdXpXpXlXqXqX0X0X0X0X0X0XlXqXqXqXqX0XH.C.F.Z.F.H.C.i < 3 X i + GXGXFXCXHXHXmXpX5X0XqXqX0X4X4X4X5X5X0X0X0XqXqXqXqXqXqXpXdXdXdXqXqX0X0XwXqX0XwXqXlXpXqXqXqX4X4X4X5X0X4XJ.x.C.C.C.C.x.x.l.u.r.x.s.3 X < < o o < 3 3 3 3 3 3 r.l.c.u.i.x.4XsXgXjXsXpXjXDXKXDXFXHXDXjXqXdXsXdXsXsXsXsXsXsXsXsXqXqXpXpXqXqX0X0X4X4X4X5X8X0X0X0X0X0X4X4X3XG.3X3X3X4X5X0X0X0X0X5XH.H.G.G.G.G.G.G.F.4X3XF.H.wXdXqXsXsXpX0X5X4X4X4X0X3XF.Z.Z.F.Z.Z.l.u.u.l.c.l.f 3 3 3 3 3 3 3 3 3 < 3 i f w.w.w.w.r.C.IX0X0X5X5X0XBXmXmXBXBXMXgXpXqXqXqXlXpXdXdXsXsXdXqX0X0X5X5X5X5XH.C.c.c.c.c.l.O o < < o < f r.u.u.w.r.f HXhXFXBXFXZXsX0XqXqX0XdXdXdXdXdXdXdXdX0X0X0X0X0X0X0X0X4X4X4X5X0XpXsXsXdXdXdXdXdXdXdXdX0X0X0X0X0X0X0X0XqXpXdXdXdXpXqXqX0X3X4XqX0XF.Z.F.C.F.Z.w.3 f f i f f w.r.u.r.r.R R.@X@X+X,.$. .",
"Y.I.I.O.@.7.9.N.j.S.Z.c.G.nXFXVXBXSXBXgXsXjXhXsXjXsXqXqXqXpXqX0X5X4X4X3X4XeXqXlXgXgXsXdXqX0X4XG.4X5X0XqXdXsXsXdXqX0XeX4X4X4X4X5XsXsXdXsXsXqX4XF.F.Z.F.H.x.i o 3 X i + GXGXFXCXHXHXmXpX5X0XqXqX0X3X4X4X4X4X4X5X5XqXqXqXqXqXqXdXsXdXpXqX0X5X4X4X4X0X0XqXpXdXdXdXdX4X3X3X4X4X3XZ.c.C.C.C.C.x.x.l.u.r.x.s.3 X < < o o < < 3 3 3 3 3 r.l.c.u.i.x.4XsXdXsXdXqXgXCXFXCXFXHXDXjXqXdXsXdXsXsXsXsXsXsXsXsXpXpXdXdXdXqXqX0X3X4X4X4X4X5X5X5X0X4X4XG.H.H.H.H.H.G.4X4X5X4X4X4XG.G.G.G.G.G.G.G.F.4X4XH.3XpXgXsXjXsXdXqX5X4X3X3X5XG.Z.Z.Z.F.F.Z.l.u.r.l.c.u.f 3 3 3 3 3 3 3 3 3 < 3 i f w.w.w.w.r.C.IX0X0X5X5X0XBXmXmXBXBXMXjXpXpXpXpXdXdXsXsXsXgXsXpX0X5X4X4X4X5XH.C.c.c.c.c.l.O o < < o < f r.u.s.w.r.f HXhXFXZXFXCXjXqXpXdXqXsXsXsXsXsXsXsXsX4X4X4X4X4X4X4X4X3X3X4X5XqXdXsXjXsXsXsXsXsXsXsXsXlXqX0X4X3X4X4X5XsXsXsXsXsXdXqXqX5XG.3X0X5XZ.C.Z.C.F.Z.w.3 f w.f f w.w.r.u.r.r.R R.@X@X+X,.$. .",
"Y.I.I.O.@.7.9.N.j.S.Z.c.G.nXFXVXBXSXBXgXsXjXjXsXjXsXqXwXqXqXqX0XwX0X4X4X4XqXsXgXpXpXdXdXpXqX0X0X4X4X0XqXdXsXsXsXqXqX0X5X4X4X4X4XfXsXsXsXsXpX4XF.F.Z.F.F.x.3 o < X i   GXGXFXCXHXHXmXpX5X0XqXqX0X5X5X5XeX0X0X0X0XqXqXwXwXqXqXdXsXsXdXqX0X5X4X4X4X0X0XqXdXsXsXsXsX5X5X5X0X0X4XF.C.C.C.C.C.x.x.l.u.r.x.s.3 X < < o o < < 3 3 3 3 3 r.l.c.u.w.x.4XsXdXsXdXqXgXCXGXDXFXHXDXjXqXdXsXdXsXsXsXsXsXsXsXsXdXdXsXsXsXpXqXqX3X3X4X4X4X4X4X4X0X0X4X4XIXG.3X3X3X4X5X0X0X0X8X5XIXIXIXIXIXIXIXIXF.3X3XF.3XdXjXsXdXpXqX0X0X0X0X0X4XH.Z.C.Z.F.F.F.s.r.r.u.l.u.f 3 3 3 3 3 3 3 3 3 < 3 i f w.w.w.w.r.C.3X0X0X8X5X0XBXmXmXBXBXMXjXpXsXsXsXsXsXsXsXsXgXsXpX0X5X4X4X4X5XH.C.c.c.c.c.l.O o < < o < f r.u.s.w.r.f HXhXFXCXGXDXjXpXsXsXdXpXpXpXpXpXpXpXpX5X5X4X4X4X4X4X4X0X0X0X0X0XqXpXdXsXsXsXsXsXsXsXsXgXsXqX4X4X4X0XqXdXdXdXdXqX0X5X4X5XG.3X0X4XZ.x.C.C.F.Z.w.3 f f f f w.w.r.u.r.r.R R.@X@X+X,.$. .",
"Y.I.I.O.@.7.9.N.j.S.Z.c.G.nXFXVXBXDXBXgXsXjXjXsXgXdXwX0XqXqX0X5XqX0X4X4X4XqXsXjXpXpXdXpXpXqX0X0X4X4X0XqXdXsXsXsXdXpXqX0X5X4X5X5XsXdXdXsXsXqX4XF.F.Z.Z.F.x.3 O < X i   FXGXFXCXHXHXmXpX5X0XqXqX0X5X5X5X0X0X0X0X0XqXqXqXqXqXqXdXsXgXsXdXqX0X5X5X4X0X0XqXdXsXsXsXsX5X5X5X0X0X4XF.C.C.C.C.C.x.x.l.u.r.x.l.3 X < 3 < o < < 3 3 3 3 3 r.l.c.u.i.x.4XsXdXsXdXpXjXFXHXFXFXHXDXjXqXdXsXdXsXsXsXsXsXsXsXsXdXdXsXsXdXpXqXqX6X4X4X4X4X4X3X3X0X0X4X3XG.G.G.G.3X3X4X5XeX0X5X4XIXIX3X3X3X3X3X3XZ.G.G.F.G.qXgXsXdXpXqX0X0X0X0X0X4XH.Z.C.Z.F.H.F.u.r.w.r.l.r.f 3 3 3 3 3 3 3 3 3 < 3 i f w.w.w.w.r.C.3X0X0X5X5X0XBXmXmXBXBXMXjXpXsXsXsXsXsXsXsXdXsXsXpX0X5X4X4X4X5XH.C.c.c.x.c.l.O o < < o < f r.u.u.w.i.f HXhXFXCXGXDXjXdXsXgXsXpXpXpXpXpXpXpXpX4X4X4X4X4X4X4X4X0X0X0X0X0XqXpXdXsXsXsXsXsXsXsXsXgXsXqX4X4X4X0XqXdXdXdXdXqX0X5X4X0X3X3X0X4XC.x.C.C.F.C.w.3 i w.g f f w.r.u.r.r.R R.@X@X+X,.$. .",
"Y.I.I.O.@.7.9.N.j.S.Z.c.H.nXFXVXBXSXBXgXsXjXjXsXgXdX0X0XqXqX0X5X5X4X4X3X4X0XqXpXgXgXsXdXqX0X4XIX4X5X0XqXdXdXsXdXsXdXqX0X5X4X4X4XdXpXpXdXdXqX3XZ.Z.C.Z.F.c.3 O < X i + FXGXFXCXHXHXmXpX5X0XqXqX0X3X4X4X4X4X4X5X5XqXqXqXqXqXqXdXdXsXsXpXqX0X0X0X0X0X0XqXpXdXdXdXdX4X3X4X4X5X3XZ.c.C.C.C.C.x.x.l.u.r.x.l.3 X < 3 < o < < 3 3 3 3 3 r.l.c.u.r.x.4XsXdXsXdXpXjXFXJXGXFXHXDXjXqXdXsXdXsXsXsXsXsXsXsXsXpXpXdXdXdXqXqX0X5X5X5X4X4X4X4X3X4X4XG.F.F.F.F.F.F.H.G.3X4X4X3X3X3X3X3X3X3X3X3X3XJ.G.G.F.H.qXsXpXjXsXpXwX5X4X3X3X5XG.Z.Z.Z.F.F.Z.r.w.w.r.u.r.i < 3 3 3 3 3 3 3 3 < 3 i f w.w.w.w.r.C.3X0X0X5X5X0XBXmXmXBXBXMXjXpXsXsXsXdXdXpXpXpXdXpXqX0X0X0X0X0X5XH.C.c.c.x.c.l.O o < < o < f r.u.s.w.r.f HXhXFXBXFXCXjXdXsXjXsXsXsXsXsXsXsXsXsX4X3X4X4X4X4X4X4X3X3X4X5XqXpXsXjXsXfXfXfXsXsXsXsXlXqX0X4X3X4X4X5XsXsXsXsXsXdXqXqXwX4X4X0X4XZ.x.C.C.F.C.w.3 i w.f f f w.r.u.r.r.R R.@X@X+X,.$. .",
"Y.I.I.O.@.7.9.N.j.S.Z.c.H.nXFXVXBXDXBXgXsXjXjXsXsXpX0X0X0XqX0X4X0X0X0X0X0X0X0X0XsXsXsXdXqX0X5X4X0X0XqXpXpXpXpXpXdXqX0X5X4X3X3X3XdXpXpXdXdXqX3XZ.Z.C.Z.F.c.3 X < X i   FXGXFXCXHXHXmXpX5X0XqXqX0X4X4X4X5X8X0X0X0XqXqXqXqXqXqXpXdXpXqX0X0X5X5X5X0X0X0XqXlXpXqXqXqX5X4X4X8X0X4XF.x.C.C.C.C.C.x.l.u.r.x.l.3 X < < o o < < 3 3 3 3 3 u.l.c.u.r.x.4XsXqXpXqXqXjXDXHXFXFXHXDXjXqXdXsXdXsXsXsXsXsXsXsXsXqXqXlXlXqXqX0XeX0X0X0X8X5X4X4X4X5X4X3XH.F.F.F.H.H.G.3X4X4X4X4X3X3X3X4X4X4X4X4X4XG.5X4XH.3XqXsXpXsXsXpX0X5X4X4X4X0X3XF.Z.Z.F.Z.Z.r.w.w.i.u.w.i < 3 3 3 3 3 3 3 3 < 3 i f w.w.w.w.r.C.3X0X0X5X5X0XBXmXmXBXBXMXjXpXsXdXdXpXqXqXqXqXqXqX0X0X0X0XqXqX5XH.C.c.c.c.c.l.O = < < o < f r.u.l.w.r.f HXhXFXBXDXZXjXpXsXgXsXdXdXdXdXdXdXdXdX0X0X0X0X0X0X0X0X4X4X4X5X0XlXsXsXdXdXdXdXdXdXpXdX0X0X0X0X0X0X0X0XqXpXdXdXdXpXqXqXpX5X5XqX5XZ.x.C.C.F.C.w.3 f f i f f w.r.u.r.r.R R.@X@X+X,.$. .",
"Y.I.I.O.@.7.9.N.j.S.Z.l.H.nXFXVXBXDXBXgXsXjXjXsXsXpX0X0X0X0X0X4XpXdXsXsXsXdXlXqXeX0XqXlXdXdXpXpX0XqXqXpXpXpXqXqXqXqX8X4XG.H.H.H.sXdXdXsXsXqX4XF.Z.C.Z.Z.c.4 X < X i + GXGXFXCXHXHXmXpX5X0XqXqX0XqXqXqXqXpXpXdXdXqXqXqXqXqXqXpXdX0X5X4X4X4X4X4X5X0X0XqXqXqXwX0X5XqXqXqXpXpXqX3XZ.C.C.C.C.x.x.l.u.r.x.l.3 X < < o o < < 3 3 3 3 3 u.l.c.u.i.x.4XsX0XqX0X8XsXZXGXDXFXHXDXjXqXdXsXdXsXsXsXsXsXsXsXsX0XqXqXqXqX0X0X5XqXqX0X0X0X5X5X4XqXwX0X4X4X4X4X6X4X5X0X0XqXqX0X0X4X4X4X4X4X4X4X4X4XqX0X3X4XdXgXdX0X0X0X0X0XqXpXdXqX4XF.Z.Z.Z.Z.C.r.w.w.w.u.w.i < 3 3 3 3 3 3 3 3 < 3 i f w.w.w.w.r.C.3X0X0X5X5X0XBXmXmXBXBXMXjXpXdXdXpXqXqXwX0X0X0X0X0X0X0XqXqXpX5XH.C.c.c.c.c.l.O = < < o < f r.u.s.w.r.f HXbXFXmXCXBXgXqXsXgXsX0X0X0X0X0X0X0X0XdXdXdXdXdXdXdXdXdXpXqX0X0X0X0X0X5X5X5XeX5X8X5X5XqXpXdXsXsXsXdXpX4X4X0X0X0X0X0X5XdX0X0XqX0XF.C.C.C.F.C.w.3 f f i f f w.r.u.r.r.R R.@X@X+X,.$. .",
"Y.I.I.O.@.7.9.N.j.S.Z.c.G.nXFXVXMXZXBXsXqXpXsXlXsXdXqXqXqXqXqXqXsXsXsXsXdXqX0X0X5X4X5X8X0XlXsXsXpXpXdXsXsXsXfXgXqX5XH.F.H.G.G.F.jXsXpXdXsXqXF.l.c.u.l.x.r.< O 3   f   BXBXDXZXZXFXmXjXsXdXsXdXpXgXsXsXsXdXpXpXpXsXsXsXsXdXqX0X0XqX0X5X3X3X3X4X5X5X0X0XqXqXqXqXqXpXlXpXsXsXqXG.C.C.C.C.C.x.x.l.u.r.x.l.3 O < 3 = < < 3 i i i i 3 l.c.c.u.u.x.Z.3X5X0X5X4XsXCXHXKXHXFXCXmXMXbXMXMXMXjXsXdXsXsXsXpXpXqX5X4X4X0XpXsXqXpXsXsXsXqX4X3X5X5X5X5X5X5X5X5X5X0X0XqXqXqXqXqX0X5X3X3X4X0XpXsXqXqXqXqXqX0X5X4X4X5X0XqXqXqXqXqXpX5XF.C.x.x.x.c.w.f f w.w.f 3 o < o o o o < 3 3 3 3 f w.w.r.u.r.r.C.IX0X0X5X5X0XMXMXMXBXZXBXjXsXpXsXgXjXsXpX0X4X4X5X0XqXqXdXsXsXqX3XC.l.u.l.l.u.O o < < o < f r.i u.w.i C.jXDXBXCXBXbXgXdXlXqXlXdXlXwX0X4X4X4X4XpXpXpXdXsXsXgXgXpXsXgXjXsXpX0X4X0X0X8X5X4X4X4X4X0X0XqXdXsXsXsXsX4X4X4X4X0XqXpXdXpXqXdXsX0XZ.x.Z.C.Z.x.f 3 f f < f N w.r.u.r.r.R R.@X@X+X,.$. .",
"Y.I.I.O.@.7.9.N.j.S.Z.c.G.nXFXVXMXCXBXsXqXpXsXpXdXpXqX0X0X0XqXqXsXsXsXsXdXpXqX0X5X4X5X5X0XlXsXsXpXpXdXdXsXsXsXfXdX0X3XF.H.IXIXG.jXsXdXsXsXqXF.c.c.u.l.x.r.< O 3   f   BXBXDXZXZXCXMXgXpXdXdXdXpXsXsXsXdXdXpXpXqXsXsXsXsXdXpXqX0XqXqX5X4X3X3X4X4X4X5X0XqXqXqXqX0XdXpXdXsXsXqX3XZ.C.C.C.C.x.x.l.u.r.x.l.3 O < 3 < < < 3 i i i i 3 c.x.x.l.l.x.F.4X4X5X4X4XpXZXHXFXHXGXCXmXbXhXbXbXMXjXsXdXsXsXsXpXqX0X5X4X5X0XdXsXpXsXsXsXsXqX5X3X5X5X5X5X5X5X5X5X5X0X0XqXqXqXqXwX0X5X4X3X4X0XpXsXdXdXdXpXqX0X4X4X4X4X0XqXpXdXdXdXpX5XF.C.x.C.x.c.w.w.f w.r.w.i < < o o o o < 3 3 3 3 f w.w.r.u.r.r.C.IX0X0X5X5X0XMXMXMXBXBXmXjXsXdXsXgXgXsXqX0X4X4X5X0XqXpXpXpXpXpX4XC.f.u.l.c.c.O o < < o < f r.i u.r.i C.jXDXBXCXBXbXgXdXpXlXpXpXqX0X5X4X4X4X4XpXpXdXdXsXsXsXgXdXsXgXgXsXqX0X4X4X4X4X4X4X4X6X4X0XqXpXdXsXsXsXsX4X4X4X4X5X0XqXpXdXqXdXsX0XZ.x.Z.C.Z.x.f 3 f f 3 f N w.r.u.r.r.R R.@X@X+X,.$. .",
"Y.I.I.O.@.7.9.N.j.S.Z.c.G.nXFXVXnXCXBXsXqXpXsXpXpXqXqX0X0X0X0X0XsXsXsXsXsXpXqXqX5X4X5X5X0XlXsXsXpXpXdXdXsXsXsXsXjXpX4XF.H.IX3X3XjXsXdXsXgXpXH.x.c.u.l.x.r.< O 3   f   BXBXDXZXZXZXMXsXpXpXdXdXpXsXsXsXdXdXpXpXpXsXsXsXsXsXpXqXwXpXqX0X5X4X4X4X4X4X4X0X0X0X0X0X0XsXdXsXgXgXpX4XZ.C.C.C.C.x.x.l.u.r.x.l.3 X < < o < < 3 3 i i 3 3 x.x.x.c.l.x.F.4X4X5X4X3XlXBXGXFXJXGXCXmXbXjXjXjXMXjXsXsXsXfXsXpX0X5X4X4X5XqXdXsXsXsXgXsXdXqX5X4X5X5X5X5X5X5X5X5X4X5X0XqXqXqXqX0X0X5X6X4X4X0XqXdXsXsXsXdXqX0X4X4X4X5X0XlXdXsXsXsXqX4XF.C.x.C.x.x.r.w.w.w.u.w.i < < o o o o < 3 3 3 3 f w.w.r.r.r.r.C.IX0X0X5X5X0XmXMXMXBXBXmXjXdXsXsXfXsXdXqX5X4X4X5XqXpXdXdXqXqXsX0XZ.u.r.l.x.x.O o < < o < f r.f l.r.i C.jXSXBXZXBXbXgXdXpXpXpXqXqX0X4X6X4X6X4XdXdXdXsXsXsXsXsXsXsXgXsXdXqX5X4X3X3X4X4X4X6X6X4XqXqXpXsXsXsXsXsX4X4X4X4X4X0XqXqXdXpXdXsX0XZ.x.C.C.Z.x.f 3 f f 3 f N w.r.u.r.r.R R.@X@X+X,.$. .",
"Y.I.I.O.@.7.9.N.j.S.Z.c.G.nXFXVXmXCXBXgXqXdXsXdXpXqX0X0X0X0X0X0XsXsXsXsXsXdXqXqX5X4X5X5X0XlXsXsXpXpXdXdXdXdXdXdXjXpX3XF.F.H.IX3XgXsXpXsXgXpXG.x.l.u.l.x.r.< O 3   f   BXBXDXZXZXBXbXsXqXpXdXdXpXsXsXsXsXsXsXsXsXsXsXsXsXsXpXqXwXqXqX0X0X5X4X4X4X4X4X5X0X0X0X0XeXsXsXsXgXgXpX4XZ.C.C.C.C.x.x.l.u.r.x.l.3 X < 4 o o < 3 3 3 3 3 3 x.x.x.x.c.K.F.4X4X5X4X3XpXBXKXFXJXGXCXMXhXjXjXjXMXjXsXdXsXsXsXpX4X4X4X4X5XqXpXsXsXsXsXsXdXqX5X4X5X5X5X5X5X5X5X5X4X5X0X0XqXqX0X0X0X5X5X4X5X0XqXqXgXfXsXsXpX0X4X4X4X5X0XlXsXsXgXgXqX4XZ.C.C.C.C.x.r.w.w.r.u.w.i < < o o o o < 3 3 3 3 f w.i.r.u.r.r.C.3X0X0X8X5X0XmXmXmXBXBXmXjXpXsXsXsXsXpX0X5X4X3X5XqXdXsXsXdXpXgX0XZ.u.r.l.x.K.O o < < o < f r.f l.r.f C.jXCXmXBXmXhXgXdXpXdXdXqX0X0X4X4X4X4X5XdXsXsXsXsXsXsXsXsXsXsXsXpX0X5X4XG.3X3X3X4X6X4X4XqXqXdXsXsXsXsXsX5X4X4X4X4X0X0XqXsXpXsXgX0XZ.c.C.x.C.x.f 3 f f 3 f N w.r.u.r.r.R R.@X@X+X,.$. .",
"Y.I.I.O.@.7.9.N.j.S.Z.l.G.nXFXVXNXDXZXjXqXsXgXsXpXqXqX0X0X0X0X0XpXpXdXdXdXpXqXqX5X5X5X0X0XqXsXsXpXpXpXpXpXpXpXpXsXqXG.F.F.H.G.G.sXpXqXdXsXqXH.x.l.u.l.x.r.< O 3   f   BXBXDXZXCXBXbXsXpXpXsXsXsXsXsXsXsXsXsXsXsXsXsXsXsXdXqX0X0X0X0X0X0X0X0X5X5X4X4X0X0XwX0X0X0XdXdXsXgXgXpX4XZ.C.C.C.C.x.x.l.u.r.x.l.3 X < < o o < < 3 3 3 3 < x.x.x.c.l.x.F.4X5X0X4X4XdXZXHXGXHXFXZXMXhXjXjXjXMXjXsXsXsXsXsXpX6X6X4X4X0X0XqXpXdXdXpXpXqXwX0X5X5X5X5X5X5X5X5X5X4X4X5X0X0X0X0X0X0X0X5X5X5X0X0XqXsXsXsXdXqX0X5X4X4X5X0XqXdXsXsXsX0X4XZ.C.C.C.C.C.r.w.w.w.r.w.i < < o o o o < 3 3 3 3 f w.r.u.u.u.r.C.3X0X0X5X5X8XBXmXmXBXBXMXgXqXdXdXpXpXqX0X0X5X4X5XqXdXsXsXsXsXdX4XC.u.u.c.x.C.O o < = o < f r.w.c.u.f C.gXZXMXBXMXhXfXdXdXdXsXqXwX0X5X5X8X0X0XsXsXsXsXsXsXsXdXpXpXpXpXqX0X0X5X4X4X4X4X6X6X6X4XqXqXpXdXdXdXpXpX0X0X8X5X5X0XwXqXsXdXsXgX0XC.c.x.x.C.c.i 3 f w.i f N w.r.u.r.r.R R.@X@X+X,.$. .",
"Y.I.I.O.@.7.9.N.j.S.Z.c.G.nXFXVXBXFXZXjXpXsXgXsXsXdXqXqX0XqXqXqX0XqXqXqXqXqX0X0X5X5X5X0X0XqXsXsXdXpXpXpXqXqXqXqXpX0X3XG.3X4X4X3XqX0X0XqXdXqXF.c.c.u.l.x.w.< O 3   f   BXBXDXZXCXBXMXsXdXsXgXgXgXqXqXqXqXpXpXdXdXpXpXpXpXqX0X5X4X4X5X0XqXqXqXwX0X5X0XwXqXqXqXqXqXpXpXpXsXsXqXG.C.C.C.C.C.x.x.l.u.r.x.h.3 X < < o O o < 3 3 3 < < l.c.c.u.u.c.Z.3X4X5X4X3XlXBXGXFXFXCXBXbXjXjXhXhXMXjXsXsXsXsXsXpX4X4X5X5XeX0X0X0X0X0X0X0X0X0X0X0X5X5X5X5X5X5X5X5X4X4X5X0X0X0X0X5X0X0X0X0X0X0X0X0XqXqXqXqXqX0X5X4X4X5X0XqXqXqXqXqX0X3XZ.x.C.C.C.C.w.f f w.w.f 3 o < o o o o < 3 3 3 3 f w.i.u.u.u.r.C.3X0X0X5X5X8XBXBXBXBXBXMXgXqXqXqXqXqXqXqXqXqX0X0X0X0X0X0XqXqX4XF.x.u.l.x.x.x.O o < = o < f r.w.x.u.f x.gXBXMXAXMXjXsXsXdXsXsXpXqXqX0XwXqXqXlXsXsXsXsXsXdXdXpXqXqXqXqXqXqXqXqX0X0XeX5X5X4X4X4X0X0XqXqXqXqXqX0XlXqXqXwX0XqXqXpXgXsXsXgX0XC.l.x.c.C.c.i q w.w.i f N w.r.u.r.r.R R.@X@X+X,.$. .",
"Y.I.I.O.@.7.9.N.j.S.Z.c.G.nXFXVXBXFXCXjXpXsXjXsXfXsXdXpXqXpXpXdX4X5X0X0X0X0X0X5X5X5X5X5X0XqXsXsXdXpXpXlXqXqXqX0XqX0X0X0XqXpXqX5X0X4X4X0XqX0XZ.u.c.u.l.x.i.< O 3   f   BXBXDXZXCXZXMXjXsXgXjXhXjX3X4X4X4X4X5XeX0X0XqXqX0X0X5X4XIXG.4X0XqXpXdXpXpX0XqXqXpXdXdXpXlXqXqXqXpXpX0XF.C.C.C.C.C.x.x.l.u.r.x.s.3 X < < o O O < < 3 3 < < r.u.u.r.w.l.C.H.H.G.F.F.0XMXCXZXCXBXMXzXjXhXbXMXMXjXsXsXsXsXsXpX5X0X0X0X5X4X4X4X3X3X3X4X4X0X0XqX5X5X5X5X5X5X5X5X3X4X4X0X0X0X8X5X0X0X0X0X0X0X5X5X4X5X0X0X0X0X5X4X4X5X0X0X0X0X5X4X0XG.Z.x.C.Z.Z.C.f i i f f i < X < o o o o < 3 3 3 3 f w.w.u.u.u.r.C.3X0X0X5X5X8XBXBXBXBXBXMXsXqX5X5XeX0XqXqXdXsXpXqX4XH.Z.Z.Z.F.Z.C.l.l.x.x.x.c.O o < < o < f r.w.x.l.f x.gXBXMXmXMXjXsXsXsXsXfXdXdXpXpXpXpXsXsXfXsXsXsXsXdXpXpX5X5X0X0XqXqXdXsXdXpXqX0X8X4X4X3X5X0X0X0X0X0X5X4XsXsXpXlXpXpXdXsXgXsXsXgX0XC.l.x.c.x.l.i i w.w.i f f w.r.r.r.r.R R.@X@X+X,.$. .",
"Y.I.I.O.@.7.9.N.j.S.Z.c.G.nXFXVXBXFXCXjXdXsXjXsXgXgXsXdXdXdXdXsX3X4X4X5X0X5X4X4X5X5X5X5X0XqXsXsXdXpXpXqXqXqX0X0XqXqXqXsXjXjXdXqX5X4X3X5X0X5XZ.r.c.u.l.x.r.< O 3   f   BXBXDXZXZXCXmXjXfXjXhXbXbXZ.F.F.F.H.G.G.G.0X0X0X0X5X4XG.H.F.G.5XqXdXsXsXsXqXqXpXsXsXsXdXdX0X0X0XqXqX5XF.x.C.C.C.C.x.x.l.u.r.x.l.3 X < < o O O < < 3 < < < i.r.r.w.w.u.C.F.Z.J.Z.C.4XjXBXMXBXAXMXhXhXhXMXmXMXjXsXsXsXsXsXpX0X0X0X0X5X4XIXG.F.F.H.G.4X5X0XqX5X5X5X5X5X5X5X5X3X4X4X8X0X0X5X5X0X0X0X0X0X0X5X4X3X4X4X5X0X0X5X5X5X5X0X0X5X4X4X3X0XG.Z.x.C.Z.Z.Z.i i 3 i f i < X < o o o o < 3 3 3 3 f w.w.u.u.u.r.C.3X0X0XeX5X8XZXBXBXBXBXMXsX0X4X4X4X5X0XpXsXgXgXpX3XC.u.w.w.r.x.l.u.l.x.C.x.l.O o < < o < f r.w.x.l.f x.sXBXbXmXbXjXsXsXsXsXgXsXsXdXdXdXsXfXgXgXfXsXsXdXdXpXpX6X4X4X5X0XpXsXgXsXsXdXqX0X5X4X3X4X4X5X0X8X4X4X3XgXfXsXdXdXdXsXsXjXsXsXgX0XC.u.x.c.x.l.i i w.w.f f f w.r.r.r.r.R R.@X@X+X,.$. .",
"Y.I.I.O.@.7.9.N.j.S.Z.c.G.nXFXVXBXDXBXgXsXjXjXsXsXpXqXqXdXsXpXqX4X4X4X4X4X4X4X4X0X0X4X6X4X0XqXpXgXsXpX0X0X0XwXqX0XqXpXsXsXsXdXpX0X0X5X8X0X6XF.C.c.u.l.x.r.< O 3 X f   mXmXCXZXCXDXZXmXbXjXjXhXhXG.G.H.H.G.3X4X4XqXpXpXqX0X4XH.F.H.3X0XqXdXdXdXpXdXdXdXpXpXpXdXdX0X0X0XqXqX0XH.C.C.C.C.C.x.x.l.u.r.x.l.3 O < < o < < < < < < < < w.r.r.w.w.u.C.H.Z.F.Z.A.4XjXBXmXMXbXhXhXhXhXbXbXjXsXdXdXsXsXpXqX4X4X5X0X5X4XG.F.5X4X4X3X4X5X0XqXdXqX0X4X4X4X5X5XG.3X4X4X5X4X4X3XqXqXqXqXqX0X0X5XG.3X4X4X8X0XqXqXqX0X8X4X4X4X4X4X5XG.Z.x.C.C.x.x.f f f f i 3 3 < 3 3 < < < 3 3 3 < 3 i w.r.u.u.u.s.C.G.4X4X4X4X4XZXBXBXBXmXhXpX5XqX0X0X5X0XqXdXsXpXsX0XC.u.x.C.x.l.l.l.l.l.l.l.l.o < < < < 3 w.l.f c.u.f x.sXmXjXbXbXhXjXgXsXsXdXqXqXdXdXsXdXdXpXdXdXdXdXqX0X5X4X0X0X4X4X4X0XqXpXpXqX0X4X4X4X0X0X4X6X5X8X0X5X5X4XpXdXdXsXdXpXqXqXdXpXsXfX0XK.r.l.x.c.u.w.f f f f w.w.w.w.w.r.r.! R.@X@X+X,.$. .",
"Y.I.I.O.@.7.9.N.j.S.Z.l.G.nXFXVXBXDXBXgXsXjXjXsXjXsXpXdXsXsXsXpX4X4X4X4X4X4X4X6X4X6X4X6X5XqXdXsXsXsXqX0X0X0XqXqXqXpXdXgXgXsXsXdX0X4X4X4X5X3XZ.x.c.u.l.x.r.< O 3 O w.X BXBXDXCXDXBXBXMXhXjXjXjXjX3XG.G.H.G.3X4X4XqXqXqXqX0X4XH.F.F.G.4XqXdXsXsXsXsXsXsXsXsXsXsXsX0X0X0XwXqX0XH.C.C.C.C.C.x.x.l.u.r.x.l.3 O < < o < < < < < < < < w.r.r.w.w.u.C.F.J.H.F.Z.4XhXZXBXBXmXMXbXhXjXjXjXhXgXdXdXsXsXpXqX4X4X5X0X5X4XG.H.G.H.H.H.3X5X0XqXpXqX0X5X4X4X5X0X3X4X4X4X4X4X6X4XqXqXqXqXqX0X0X5XG.3X4X4X5X0X0XqXlXqX0X5X4X4X4X5X0X3XZ.C.C.A.C.x.f f f f i 3 3 < 3 < < < < 3 3 i < 3 i w.r.u.u.u.u.C.G.4X4X4X4X6XZXBXBXBXBXbXsX0XIXG.G.G.4X0XqXdXpXsX0XC.w.r.l.r.c.c.c.c.c.c.c.c.O o < = o < f r.f c.u.f x.sXMXjXbXhXjXjXgXsXsXdXdXdXsXsXsXsXsXsXdXdXdXdXlXqX0X5X4X4X4X4X5XqXdXsXsXdXqX5X4X4X4X4X4X4X5X8X0X5X5X5XsXsXsXsXsXsXdXdXdXpXsXfX0Xx.r.l.x.c.u.w.f f f f f w.w.w.w.r.r.R R.@X@X+X,.$. .",
"Y.I.I.O.@.7.9.N.j.S.Z.l.G.nXFXVXBXDXBXgXsXjXjXsXhXgXdXdXsXsXsXpX4X4X4X4X4X4X4X4X4X3X4X5X0XqXsXsXdXpXqXqX0XqXqXqXpXdXsXgXgXgXsXsX5X4X4X4X5XIXC.l.c.u.l.x.r.< O 3 o r.X ZXBXDXCXDXmXMXbXjXjXjXjXjX3X3XG.G.IX4X4X5X0X0X0X0X4X3XH.F.F.H.4X0XpXsXgXgXsXsXsXsXsXsXsXsX0X0XeX0XqX5XF.C.C.C.C.C.x.x.l.u.r.x.l.3 O < < o < < < < < < < < w.w.r.w.w.u.K.J.F.F.F.Z.5XbXZXBXBXBXmXMXhXjXjXjXbXjXsXdXsXsXdXqX4X4X5X5X5X4X3XG.F.F.F.H.3X5XqXqXqXqX0X0X5X0X0X0X4X4X4X4X4X6X4X6XqXqXqXqXqXqX0X0X3X3X4X4X5X0X0X0XpXqX0X8X4X4X4X4X0X3XZ.C.Z.Z.Z.C.f f f f i 3 3 < < < < < < 3 3 i 3 i f w.w.r.r.r.u.C.H.4X4X3X3X6XZXBXBXBXBXbXsX0X4X4X4X5X0XpXsXgXgXhXsXF.c.x.x.c.c.c.c.c.c.c.c.c.O o < o O < i w.f c.u.i x.dXMXgXhXjXjXgXgXsXsXsXsXsXsXsXsXsXsXsXdXdXdXdXpXqX0X0X4X4X4X4X0XqXsXsXsXsXqX0X4X4X3X3X5X8X5X5X5X5X5X5XsXsXsXsXsXsXsXsXdXpXsXsX0Xb.r.l.x.c.u.w.f f f f f f w.w.w.w.r.R R.@X@X+X,.$. .",
"Y.I.I.O.@.7.9.N.j.S.Z.l.G.nXFXVXBXDXBXgXsXjXjXsXhXsXqXqXqXpXpXqXeX0X0X0X5X5X5X0X5X5X0X0X0XqXpXpXqXqXqXqXqXqXpXpXpXpXdXdXdXdXdXpX0X0X0X0X0X4XZ.l.c.u.l.x.r.< O 3 O w.X BXmXZXBXBXMXMXMXMXbXbXMXMX4X3X3XG.3X4X5X8XqXqX0X0X0X5X4X4X4X4X5X0XqXpXdXdXdXdXdXdXpXdXpXpX0X5X5X0X0X5XF.C.C.C.C.C.x.x.l.u.r.x.l.3 O < < o < < < < < < < < f w.r.r.w.r.x.A.C.Z.A.C.3XjXmXMXMXMXMXMXMXMXbXhXMXhXsXdXdXsXdXlX4X4X5X5X5X4X4X6X3X3X4X4X4X0X0XwX0X0X0X0X0XwXqXqX0X5X5X4X4X6X4X4XqXqXpXpXlXqX0X0X4X4X4X4X5X0X0X0XqX0X5X4X3XG.G.G.4XF.C.x.C.C.C.x.f f f f i 3 3 < < < < < < 3 i i 3 i f w.w.r.r.w.r.x.H.4X3X3X3X4XMXMXbXMXMXjXqX4X5X5X5X0X0X0XqXqXqXsXqXZ.c.x.x.l.u.u.u.u.u.u.u.u.< 3 3 < < 3 f r.f l.u.i c.pXbXsXjXjXjXgXsXsXsXsXsXsXdXpXlXlXpXpXdXdXdXsXdXlXqX0X5X5X0X0X0XqXpXpXpXlXqX0X0XeX5X5X0X0X0X5X5X5X5X8XpXpXlXlXpXdXsXsXdXpXsXfX0Xb.r.l.x.c.u.w.f f f f f f f f w.w.w.R R.@X@X+X,.$. .",
"Y.I.I.O.@.7.9.N.j.S.Z.l.G.nXFXVXBXDXBXgXsXjXhXsXjXdX0X4X5X0X0X5XlXlXqXlXqXqXqXqXpXpXqXqXqX0X5X5X0X0XqXqXpXpXdXdXqXqX0X0X0X0X0X0XpXpXpXdXdX0XF.x.c.u.l.x.r.< O 3 X f . MXbXMXbXMXmXmXBXBXBXBXBXBX4X4X3X3X3X6X5X0XpXpXqXqXqXqXqXqXpXqXqXwX0X0X0X0X0X0X0X0X0X0X0X0X5X4X5X0X0X4XF.x.C.C.C.C.x.x.l.u.r.x.l.3 X < < o < < < < < < < < f w.u.r.w.w.l.x.x.x.x.l.F.dXzXjXgXjXbXMXBXBXBXBXBXbXsXdXdXsXdXpX5X5X4X4X5X5X8X0XlXlXqXqXqX0X5X5X5X0X0XqXqXqXqXpXqX0X5X4X4X4X4X5XqXpXdXdXpXqXwX0X4X6X4X5X5X5X8X0X8X4X3XH.F.Z.Z.Z.F.C.c.u.c.x.x.c.f f f f i 3 3 < < o o < < 3 i f i i f w.w.w.w.w.r.x.F.3X3XG.G.3XgXgXgXjXjXsX0XG.G.H.F.F.Z.C.x.x.l.C.x.f 3 i f i f f f f f f f f i f f i 3 i w.c.f c.r.i l.qXhXsXgXgXgXfXsXsXsXsXdXpXqX0X5XeX0X0XdXdXsXsXdXdXqXqXpXpXqXqXqX0X5X5X5X5X0XqXqXqXpXpXpXqX0X5X4X5X8X0X0X0X0X5X0XqXpXdXdXpXsXfX0XK.r.l.x.c.u.w.f f f f f f f f f w.w.R R.@X@X+X,.$. .",
"Y.I.I.O.@.7.9.N.j.S.Z.c.G.nXFXVXBXDXBXgXsXjXhXsXjXpX4XG.3X4X4X4XsXsXsXsXsXsXsXsXsXsXsXdXqX0X4X3X4X5X0XpXdXsXsXdXqX0X0X4X4X4X5X0XsXsXsXgXgXqXF.x.c.u.l.x.r.< O 3   i . hXjXbXjXhXmXBXZXCXDXDXDXCX4X4X3X3X4X4X0X0XdXdXpXqXpXdXsXsXgXsXpX0X5X4X4X4X5X5X5X5X5X5X5X5X5X4X4X5X0X6XF.x.C.C.C.C.x.x.l.u.r.x.s.3 X < < o < < < < < < < < f w.u.u.w.w.u.c.u.c.u.r.Z.qXjXsXdXsXhXmXZXCXCXCXCXMXgXpXdXsXdXdX0X5X4X4X5XeX0XqXfXgXsXsXpX0X4X4X4X5X0XqXpXdXdXdXpXqX0X4X3X4X5X5XpXdXdXdXpXlXqX0X4X4X4X5X5X5X5X5X4X3XH.Z.C.C.x.x.Z.x.u.r.u.c.c.l.f f f f i 3 3 < o o o < < 3 i f i f f w.w.w.w.w.w.x.F.IXG.H.G.3XdXpXpXdXsXqX4XF.3X3XG.F.Z.x.r.w.f l.l.i < i f i i i i i i i i i f w.w.f i f r.x.w.c.r.i l.qXjXpXsXsXsXsXsXsXsXsXpXqX0X6X3X4X4X5XpXdXsXsXsXdXpXpXsXsXsXpXqX0X4X3X3X4X0XqXdXsXsXsXsXpX0X5X4X4X0X0X5X4X4X3X4X0XqXpXdXpXsXfX0Xx.r.l.x.c.u.w.f f f f i i f f f f w.I R.@X@X+X,.$. .",
"Y.I.I.O.@.7.9.N.j.S.Z.c.G.nXFXVXBXDXBXgXsXjXhXsXhXdX5XIX3X4X4X4XdXdXdXdXsXsXsXsXdXdXsXdXpX0X4X4X3X4X0XpXsXsXsXsXpXqX0X4X4X4X5X0XdXsXsXjXgX0XF.l.l.u.l.x.r.< O 3 X f . bXjXbXjXhXbXMXBXCXDXDXDXCX4X6X4X4X4X5X0X0XpXqXqXqXqXdXsXjXgXsXlX0X5X4X4X5X0X0X0X0X0X0X0X0X4X4X4X5X0X4XZ.x.C.C.C.C.x.x.l.u.r.x.l.3 X < < o < < < < < < < < f w.u.u.w.w.w.u.u.c.u.r.Z.qXjXgXsXjXMXBXCXCXZXBXDXmXgXpXpXsXsXdX0X5X4X4X4X0XqXpXdXsXsXsXpXwX5X4X3X4X0XpXsXsXsXsXsXpX0X6X3X4X4X0XpXdXsXsXdXpXqXwX5X5X5X5X5X5X4X4X5X4XH.Z.C.C.x.x.Z.x.u.r.l.x.x.c.f f f f i 3 3 < O O o < 3 i f f i f f w.w.w.w.f w.x.F.G.G.H.H.G.pXqXqXdXsXqX4XF.5X5X4X4XH.Z.x.l.u.C.C.r.f w.w.f i i i i i i i i f w.w.f i i w.c.w.c.r.i u.qXjXqXdXsXsXsXsXsXsXsXsXpX0X4X3X4X5X0XpXdXsXsXsXsXsXdXdXdXsXdXpX0X4X4X4X4X0XpXsXsXsXdXgXdXqX5X4X4X0XwX0X5X4X3X4X0XpXsXdXpXsXgX0XK.r.l.x.c.u.w.f f f f i i i f f f f I R.@X@X+X,.$. .",
"Y.I.I.O.@.7.9.N.j.S.Z.c.G.nXFXVXBXDXBXgXsXjXhXsXMXsX0X4X4X5X0XeXpXpXpXpXdXdXdXdXqXqXdXdXdXqX0X5XG.4X0XpXsXsXsXsXsXpXqX0X5X5X0XwXpXpXsXgXsX0XZ.r.l.r.l.x.r.< O 3 O f . MXhXMXhXbXjXbXmXZXCXDXCXZX4X4X4X4X4X5X0X0XqXqX0X0X0XpXsXgXsXpXqX0X5X5X0X0XqXqXqXqXwXqX0X0X4X4X4X5X8X3XZ.x.C.C.C.C.x.x.l.u.r.x.h.3 X < < o < < < < < < < < i w.u.u.w.w.w.r.l.x.l.u.Z.pXjXjXgXhXMXZXCXZXBXmXFXNXgXpXpXdXsXdX0X8X4X4X4X0XqXpX0XqXqXpXpXqX5X4XG.4X0XpXsXsXsXsXsXpX0X4X3X4X5X0XdXdXsXsXdXpXqXqX8X5X5X5X5X4X4X4X0X4X3XF.Z.C.C.x.F.C.l.u.c.x.C.x.f f f f i 3 3 < O O O o 3 i f w.i f w.w.w.w.w.f w.c.J.G.G.H.H.G.pXpXpXsXsXpX5XH.F.F.F.F.Z.x.l.r.u.C.C.w.i i i < f f f f f f f f f f f i 3 3 f u.w.c.r.i u.0XgXqXdXdXdXsXsXsXsXsXgXsXqX5X4X4X0X0XpXdXsXsXsXsXsXdXqXqXdXdXdXqX0X5X5X0XqXdXsXdXqXqXjXsXqX5X4X4X0XqXwX0X4X4X4XqXsXgXdXpXsXfX0XK.r.l.x.c.u.w.f f f f i i i f f f f I R.@X@X+X,.$. .",
"Y.I.I.O.@.7.9.N.j.S.Z.c.G.nXFXVXBXDXBXgXsXjXjXsXpXqX0X5X4X4X4X4XqXqXpXdXsXdXdXpXsXsXsXsXpX0X4X3XH.4X0XpXsXgXsXsXdXqX0X4XG.G.3X3XsXsXsXsXsX0XH.C.c.u.l.x.r.< O 3 < w.. bXjXMXhXbXjXMXZXCXZXBXBXCX5X5X5X4XG.3X0XqX5X5X0X0XqXdXgXjXdXdXpXqX0X0X5X4XqXqXqXqXqXqXqXqX4X4X4X5X5X3XZ.x.Z.Z.Z.C.x.c.u.w.r.x.s.3 O < 3 & < < < < < < < < f f f f w.r.l.c.u.x.c.c.F.dXjXgXjXsXgXBXFXDXZXDXZXMXjXsXsXsXsXpX0X8X4X6X4X0XqXpXsXsXsXdXpXqX5X4X4X5X0X0XqXpXdXdXqX0X5X4X6X4X4X5XpXdXdXpXqX0X5X4X4X4X5X0X0X0X8X5X5X4XG.F.C.C.x.x.x.x.x.x.x.x.x.x.f f f f i 3 3 < o o o < < 3 f f i i f w.w.r.r.w.u.C.H.4X3XG.G.3XqXpXdXsXdXqX4XG.3X3XIXH.F.C.x.c.u.r.w.w.f f i i 3 i f f f f f f f f i f f w.u.s.w.r.w.f K.0XsXsXsXsXdXpXpXpXdXdXqXqX0X0X5X5X0X0XqXqXqXqXqXqXpXpXsXsXsXpXqXwX0X0X0X0XqXqXpXsXsXsXlXqX0X5X4X4X4X4XIX3X4X4X0X0XqXqXsXsXsXpX5XF.c.w.c.s.r.f f i i i f f f f f f f J R.@X@X+X,.$. .",
"Y.I.I.O.@.7.9.N.j.S.Z.c.G.nXFXVXBXDXBXgXsXjXjXsXsXpXqX0X5X5X5X5XqXlXpXdXsXdXpXpXpXdXdXdXpXqX5X4X4X4X0XpXsXsXsXdXpXqX0X4X4X4X4X5XpXpXpXdXdX0XF.x.c.u.l.x.r.< O 3 = w.. bXjXMXhXbXjXMXZXCXZXBXBXCX4X5X5X4XG.3X0XqX0X0X0XqXqXpXsXsXpXpXqXqX0X0X5X4X0X0XwXwX0X0X0X0X5X4X5X0X0X4XF.x.Z.Z.Z.C.x.c.u.r.r.x.f.3 O < 3 < < < < < < < < < f f f f w.r.l.c.l.x.c.l.Z.qXgXdXgXpXsXAXFXZXBXZXBXMXgXsXsXsXsXdX0X5X4X4X4X0XqXpXsXsXsXsXpXqX0X4X5X5X0XqXqXpXdXdXqX0X0X4X4X4X5X5XsXgXgXsXsXpXqX0X4X4X5X5X0X5X4X4X4X3XH.F.Z.C.C.C.l.l.l.l.l.l.l.l.f f f f i 3 3 < o o o < < 3 f f i i f w.w.r.r.w.r.x.F.G.H.F.H.G.pXsXsXgXsXpX0X4XG.G.G.H.F.Z.C.x.u.r.w.w.f i i i i i f f w.N f f f f f f f w.w.r.w.r.w.w.C.0XsXsXsXdXpXqXqXqXpXpXqX0X0X5X4X4X5X0XsXsXsXsXsXsXsXsXsXdXpXqXqX0X0X5X5X0X0XqXqXpXdXsXpXqX0X5X4X4X4X4X3X3X6X5X0X0XqXqXdXdXdXqX5XF.C.l.c.u.r.f i i i i f f f f f f f J R.@X@X+X,.$. .",
"Y.I.I.O.@.7.9.N.j.S.Z.c.G.nXFXVXBXDXBXgXsXjXjXsXsXsXpXqXqX0XwXqXqXpXdXdXsXdXpXqX0XqXqXpXlXqXqX0X0X0XqXpXdXpXpXqXpXqXqX0X0X0XqXqXqX0XqXqXqX4XZ.c.l.u.l.x.r.< O 3 o w.. zXjXbXhXbXjXMXZXCXZXBXBXCX4X4X4X3XG.3X0XpXqXqXqXqXqXqXqXqXlXqXqXwX0X5X5X4X0X0X0X0X0X0X0X0X0X0X0XqXqX0XH.Z.Z.Z.Z.C.C.x.u.r.r.x.f.3 X < < o < < < < < < < < f f f f w.r.u.c.l.x.l.r.C.0XpX0XdX0XpXMXZXmXMXBXBXbXsXsXsXsXsXdX0X5X4X4X5X0X0XqXqXqXqX0X0X4XG.H.G.G.3X4X4X5X5X0X4X3XG.F.F.F.H.H.3X3X3X3XG.F.Z.Z.Z.Z.F.F.F.F.Z.Z.Z.C.K.x.c.x.x.x.w.w.w.w.w.w.w.w.f f f f i 3 3 < o o o < < 3 f f i i f w.w.r.r.w.w.c.Z.F.Z.Z.Z.F.Z.F.H.H.F.Z.C.x.x.C.C.C.C.x.c.l.w.w.w.f f g i i i i f w.w.w.N f w.w.w.w.f f f f i f i 3 u.3XqX0X0X5X4X3X3X3X4X4X3XG.F.F.F.F.F.F.3X3X3X3X3X3X3X3X5X4X4X3XG.H.H.F.F.H.H.G.3X4X4X5X4X4XG.H.F.F.F.F.J.F.F.H.G.3X4X4X4X4X4X4XH.Z.x.l.c.u.w.f i i i i f f f f f f f J R.@X@X+X,.$. .",
"Y.I.I.O.@.7.9.N.j.S.Z.c.G.nXFXVXBXDXBXgXsXjXjXsXjXgXsXdXpXpXpXdXpXdXdXsXdXpXqXqX5X5X0XwXqXpXpXpXpXpXpXpXqXqXqX0XqXqXqXqXpXdXsXsX5X5X5X0X0X4XC.l.l.u.l.x.r.< O 3 o f . hXjXbXjXhXjXMXZXCXZXBXBXCX3X4X4XIXH.3X0XpXdXdXdXpXqXqX0X0XqXqXwX0X0X5X5X5X0X0X0X0X0X0X0X0XqXqXqXpXdXqX3XJ.Z.Z.Z.Z.C.x.l.u.r.x.l.3 X < 4 o < < < < < < < < f f f f f w.u.l.c.x.l.w.x.4X0X4XqX5X0XjXmXMXhXMXmXhXsXdXsXsXsXdX5X5X4X4X5X5X8X0XG.G.G.H.F.Z.C.x.x.x.C.C.Z.Z.Z.Z.C.C.x.c.c.c.x.x.r.r.u.u.r.w.f f r.u.u.u.u.r.w.w.w.f f g f f w.w.f f f f f f f f f f f f i 3 3 < o o o < < 3 f f i i f w.w.r.r.w.f u.x.C.x.x.C.A.i f f f f i 3 3 i f f w.w.w.f f w.w.f f f f i i i i f w.w.w.w.N r.r.r.w.w.f i i O o O X 3 C.H.F.Z.Z.C.x.x.x.x.x.x.c.l.u.r.r.u.u.l.l.l.l.l.l.l.l.C.C.x.x.x.c.c.c.c.c.c.x.x.x.C.C.C.C.x.c.l.l.c.x.l.l.c.x.x.x.C.C.x.x.x.x.x.l.w.w.c.u.w.f i i i i f f f f f f f J R.@X@X+X,.$. .",
"Y.I.I.O.@.7.9.N.j.S.Z.c.G.nXFXVXBXDXBXgXsXjXhXsXjXgXsXdXdXsXsXsXdXdXsXsXdXpXqX0X4X4X5X0XqXqXdXsXsXdXpXqXqX0X0X0XqXqXpXdXsXsXsXsX4X4X6X5X0X3XC.u.l.u.l.x.r.< O 3 O f . hXgXhXjXhXjXMXZXCXZXBXBXCXH.IX3XG.H.3X0XpXsXsXsXdXpX0X5X4X0X0X0X0X0X5X5X5X0X0X0X0X0X0X0X0XdXpXpXsXsXqX4XF.F.F.Z.Z.C.x.c.u.r.x.l.3 X < < o < < < < < < < < f i i i f w.r.u.c.x.l.w.x.3X5X3X0X4X5XgXMXhXjXhXMXjXdXpXdXsXsXdX4X5X5X5X5X4X4X6XF.F.F.Z.Z.C.c.l.c.c.x.x.x.x.x.x.x.c.s.r.r.r.u.u.r.r.u.u.u.i.w.w.f N w.w.f f i 3 i 3 3 3 3 i i f i i i i i i i i f f f f i 3 3 < o o o < < 3 f f i i f w.w.r.w.w.f r.c.x.l.l.x.C.i i f f f i i 3 3 3 i i i i i i f f f f f i i i i f f w.w.w.w.w.r.r.r.r.w.f 3 3 X O X . < c.Z.C.C.x.x.l.u.r.r.r.u.i.w.f f f f w.c.c.c.c.c.c.c.c.l.l.u.u.r.r.r.r.r.r.r.u.u.u.l.l.c.c.u.r.r.r.u.u.r.r.u.u.u.l.l.l.r.r.r.u.r.i.w.w.c.l.i.f i i i i f f f f f f f J R.@X@X+X,.$.` ",
"Y.I.I.O.@.7.9.N.j.S.Z.c.G.nXFXVXBXDXBXgXsXjXhXsXgXgXsXdXsXsXsXgXsXsXsXsXdXqXqX0X4X4X4X4X0XqXdXsXfXsXpXqX0X0X0X0XqXqXdXsXsXsXsXsX3X3X4X5X0X3XC.l.c.u.l.x.w.< O 3 O f . jXgXhXgXjXjXMXZXCXZXBXBXCXF.G.G.H.H.G.0XpXdXsXsXsXdX0X4X3X5X5X8X5X5X5X5X5X5X5X5X5X5X5X5X5XdXpXpXsXsXpX4XF.F.F.F.Z.C.x.c.l.r.x.h.3 X < < o < < < < < < < < i i i i f w.w.u.c.x.l.w.x.4X0X4X0X3X4XfXMXjXjXhXbXgXpXqXdXsXsXsX4X4X5X8X5X4X3XG.IXG.G.H.F.Z.C.x.C.C.C.C.C.C.C.C.C.K.x.c.l.l.c.c.w.w.r.u.u.r.w.w.u.u.u.u.r.w.f i f f i i i f f w.i i i i i i i i f f f f i 3 3 < o o o < < 3 f f i i f w.w.i.w.w.w.u.c.l.u.r.c.x.i i i i i i i i i i f f w.f f f i i i i i i i i f f w.w.r.r.w.w.w.w.r.u.w.f 3 3 < < o X i C.F.Z.F.Z.C.x.c.l.l.l.c.l.u.r.w.i.r.u.c.c.c.c.c.c.c.c.x.x.x.c.x.x.c.c.c.c.x.x.x.x.x.x.x.x.c.c.l.c.x.x.x.x.x.x.x.x.x.x.l.l.l.l.l.l.l.l.c.l.w.f i i i i f f f f f f f J R.@X@X+X,.$.` ",
"Y.I.I.O.@.7.9.N.j.S.Z.c.G.nXFXVXBXDXBXgXsXjXhXsXsXsXsXdXdXsXsXgXsXsXsXsXdXqX0X0X4X4X4X4X5XwXpXsXgXsXlXqX0X0XqXqXqXqXdXsXsXsXdXpX3X3X4X0X0X4XZ.c.c.u.l.x.i.< O 3 X f . jXfXjXgXjXjXMXZXCXZXBXBXCXF.H.G.H.F.IX0XpXpXdXsXsXdXqX4X3X4X4X5X5X5X5X5X5X5X5X5X5X5X5X5X5XpXpXpXdXsXqX4XF.F.F.F.Z.Z.C.x.l.r.x.h.3 X < < o < < < < < < < < i i i i f f w.r.c.x.l.r.C.4XqX5X0X3X4XgXMXjXjXhXhXsXpXqXdXsXsXsX4X4X5X0X5X4XG.H.4X4X3X3XH.J.Z.C.Z.Z.Z.C.C.C.C.C.C.C.x.c.c.c.x.x.i f f w.w.f f f c.c.c.c.u.r.w.f w.w.f f f f f w.i i i i i i i i f f f f i 3 3 < o o o < < 3 f f 3 i f w.w.i.w.w.r.l.c.l.r.r.l.x.i 3 3 3 3 3 i i f f w.w.w.f f i i i i i i i i i f f w.r.r.r.w.w.f w.r.u.r.f i 3 3 3 < O i C.H.F.H.F.Z.C.x.x.c.c.x.x.c.u.u.u.l.l.u.u.u.u.u.u.u.u.x.x.x.x.x.x.C.C.K.K.x.x.x.x.x.x.x.x.x.c.c.x.x.C.x.x.x.x.x.x.x.x.c.c.l.l.l.c.c.x.c.u.w.f i i i i f f f f f f f J R.@X@X+X,.$. .",
"Y.I.I.O.@.7.9.N.j.S.Z.c.G.nXFXVXBXDXBXgXsXjXhXsXsXsXdXpXdXdXsXfXsXsXsXsXdXqX0X0X5X4X4X4X4X0XpXdXsXsXqX0X0X0XqXqXqXqXdXsXsXdXqXqX3X3X4X0X0X4XZ.x.c.u.l.x.r.< O 3 X f . jXsXjXgXjXjXMXZXCXZXBXBXCXJ.F.H.H.F.IX0XdXqXpXsXsXsXqX5X3X4X4X4X5X5X5X5X5X5X5X5X5X5X5X5X5XlXqXqXdXdXqX4XF.F.F.F.F.Z.C.x.l.r.x.s.3 X < < o < < < < < < < < i i i i i f w.r.l.x.c.u.C.0XlX0X0X3X5XgXMXhXjXhXhXsXqXqXdXsXsXsX4X4X5X0X5X4XH.F.H.H.H.F.F.C.x.x.C.C.x.x.x.x.x.x.x.x.l.u.r.u.u.f.N w.i.r.u.r.w.w.u.l.l.u.r.w.f i f f i i 3 3 i i i i i i i i i i f f f f i 3 3 < O o o < < 3 f f 3 i f w.w.w.w.w.u.l.c.l.r.r.l.x.f f f i i f w.w.i i f f i i 3 3 i i i i i i i i f f w.r.u.u.r.w.g f r.u.u.w.i 3 < < O X 3 x.J.C.F.F.C.x.c.l.u.u.c.l.u.r.w.w.r.r.c.c.x.c.c.c.x.x.c.c.c.c.x.x.x.x.x.x.x.x.c.c.c.c.l.l.u.u.u.l.c.x.c.l.l.l.l.u.u.u.l.u.r.w.w.r.u.l.c.u.w.f i i i i f f f f f f f J R.@X@X+X,.$. .",
"Y.I.I.O.@.7.9.N.j.S.Z.l.G.nXFXVXBXDXBXgXsXjXjXsXmXjXsXpXpXdXpXqXqXqXqXqXqXqXqXqXeX0XqXlXdXdXpXpXpXpXdXdXlXqX0XeXsXpXqXqXpXdXqX0XqX0X4X0XqX5XZ.r.c.u.l.x.r.< O 3 < X i 4XgXpXqXjXlXjXBXDXSXBXBXBXF.H.3X4X5X5X5X5XjXgXsXlX0X0X5X5XeXeX5XeX5X5X0X0XqXqX0X5X5X5X5X0XsXpXpXpXpXqX4XF.F.Z.Z.Z.C.x.l.u.r.x.l.3 O < < o < < < < < < < < i i i i 3 i w.c.f w.u.x.Z.H.4X4X0X3X5XgXMXbXhXMXsXsXsXsXsXsXsXsX4X5X5X5X4X4X3XG.H.H.H.G.H.F.J.Z.F.Z.C.C.x.C.C.C.C.C.x.c.c.c.x.x.w.w.w.w.w.w.w.w.w.w.w.w.w.w.w.w.i i i i i i i i i i i i i i i i 3 3 3 3 3 3 i i < < < < < 3 i f 3 i f w.w.w.w.w.w.r.s.c.c.c.l.l.f f f f f f f f f f f f f w.w.w.f f f f f f i i r.r.r.r.r.r.r.r.w.w.w.w.w.w.w.w.< < < 3 f u.C.F.c.c.c.c.c.c.c.c.w.w.w.w.w.w.w.w.r.r.r.r.r.r.r.r.r.r.r.r.r.r.r.r.r.r.r.r.r.r.r.r.r.r.r.r.r.r.r.r.r.r.r.r.r.r.r.r.r.r.r.r.r.r.r.r.r.r.r.r.r.r.r.r.3 3 i i f f i > R.@X@X+X,.$. .",
"Y.I.I.O.@.7.9.N.j.S.Z.c.G.nXFXVXBXDXBXgXsXjXjXsXhXsXqX0X0XqX0X0XpXpXpXpXlXlXlXlXsXsXsXdXqX0X4X4X4X4X0XqXdXsXsXsXqX0X4X3X4X5X6X3XsXpXqXdXsXqXH.x.c.u.l.x.r.< O 3 o   3 3XsXqX0XsXqXjXBXDXCXZXBXBX4X4X5X0X0X0XeX5XG.G.3X4X5X0XlXdXpXpXpXpXpXpXpXpXqXqX0X5X5X5X5X0X0X5X5X0X0X5XH.Z.F.F.Z.Z.C.x.l.u.r.x.l.3 O < < o < < < < < < < < i i i i 3 i w.c.x.x.x.c.c.c.c.c.x.u.x.3XqX0X5XqX5X5X5X5X5X5X5X5XC.C.Z.Z.C.C.x.x.l.c.c.c.c.s.r.w.r.w.f f i f f f i i 3 < < < < 3 3 3 3 3 3 3 3 3 3 3 3 3 3 3 < < < < < < < < < < < < < < < < < < o o o o o o o o < < < < < 3 i f i i f w.w.w.w.w.w.r.s.c.c.c.l.l.w.w.w.w.w.w.w.w.f f w.w.w.w.r.r.l.l.l.l.l.l.l.l.u.u.u.u.u.u.u.u.c.c.c.c.c.c.c.c.s.r.w.f i i f f 3 < 3 < < < < 4 3 3 3 3 3 3 3 3 3 3 3 3 3 3 3 3 3 3 3 3 3 3 3 3 3 3 3 3 3 3 3 3 3 3 3 3 3 3 3 3 3 3 3 3 3 3 3 3 3 3 3 3 3 3 3 3 3 3 3 3 3 3 3 3 3 3 i i f f i > R.@X@X+X,.$. .",
"Y.I.I.O.@.7.9.N.j.S.Z.c.G.nXFXVXBXDXBXgXsXjXjXsXgXpX5X4X4X5X4X3XdXdXdXdXdXdXdXdXgXgXsXdXqX0X4XG.G.4X0XqXdXsXgXgXpX0XH.F.F.H.H.F.gXdXpXsXgXpXG.x.c.u.l.x.r.< O 3 O . 3 H.pX0X5XdXqXgXmXCXCXZXBXBX0XwXqXqXqX0X0X5XC.Z.J.G.4XqXsXgXsXsXsXsXsXsXsXsXqXqX0X5X5X5X8X0X4X3X3X4X5X4XH.Z.F.F.Z.Z.C.x.l.u.r.x.l.3 O < < o < < < < < < < < i i i i 3 i w.c.C.x.c.u.w.f f i r.f r.F.5X4X4X5X4X4X4X4X4X4X4X4XC.C.C.C.C.C.x.c.l.l.c.c.l.u.r.w.w.f f i i i i i 3 3 < < o o < < O O O O O O O O O O O O O O O O o o o o o o o O o o o o o o o o O O O O O O O O < < < < < 3 i f i i f w.w.r.w.w.i.r.l.c.c.c.c.l.r.r.r.r.r.r.r.r.w.w.w.r.u.u.u.l.x.x.x.x.x.x.x.x.c.c.c.c.l.l.c.c.x.x.x.x.x.x.x.x.C.x.c.r.f 3 o X +           X + o o o o o o o o O O O O O O O O O O O O O O O O O O O O O O O O O O O O O O O O O O O O O O O O O O O O O O O O O O O O O O O O 3 3 i i f f i x R.@X@X+X,.$. .",
"Y.I.I.O.@.7.9.N.j.S.Z.c.G.nXFXVXBXDXBXgXsXjXjXsXsXqX4X3X4X4X4X3XsXsXsXsXsXsXsXsXpXpXdXpXpXqX0X0X0X0XqXpXpXdXpXpXgXqX3XF.F.H.G.G.sXqXqXpXdXqXF.c.c.u.l.x.r.< O 3 o . 3 G.pX0X4XpXqXgXmXCXDXZXZXZXqXqXqXqX0X8X4X3X3X3X4X4X0XqXdXsXpXpXpXpXpXpXpXpXqXqX0X5X5X5X5X0X4X4X4X0XqX0X4XH.F.F.Z.Z.C.x.l.u.r.x.l.3 O < < o < < < < < < < < i i i i 3 i w.c.r.r.r.r.w.w.w.w.u.f r.F.0X5X4X0X4X4X4X4X4X4X4X4XZ.Z.Z.Z.Z.C.C.x.x.x.x.x.x.c.f.u.r.w.f f f f f f f i i 3 3 3 3 3 < < < < < < < < < < < < < < < < < < < < < < < < < < < < < < < < < < < < < < < < < o < < < 3 i f i i f w.w.r.w.w.i.r.l.c.c.c.c.l.i.i.r.r.r.r.i.i.r.u.u.l.l.c.c.c.c.l.l.l.l.c.l.l.c.c.x.c.c.c.x.x.l.l.l.l.l.l.l.l.u.f.l.l.w.i < O o o o o o o o o < < < < < < < < o o o o o o o o o o o o o o o o o o o o o o o o o o o o o o o o o o o o o o o o o o o o o o o o o o o o o o o o 3 3 i i f f i x R.@X@X+X,.$. .",
"Y.I.I.O.@.7.9.N.j.S.Z.c.G.nXFXVXBXDXBXgXsXjXhXsXjXpX0X4X4X5X4X4XsXsXsXsXsXsXsXsXpXpXdXdXpXqX0X0XeX0XqXlXdXdXpXpXgXqX3XF.F.H.G.G.sXqXqXpXsXqXF.c.c.u.l.x.r.< O 3 < X i 3XdX0X5XdX0XsXmXCXDXCXCXCXqXqXqX0X0X4XIXH.5X5X4X4X5X0XqXqXdXdXdXdXdXdXdXdXqXqX0X5X5X5X5X0X5X4X4X0XqX0X4XH.Z.Z.Z.Z.C.x.l.u.r.x.l.3 X < < o < < < < < < < < i i i i 3 i w.c.w.w.r.u.u.l.c.c.r.f w.F.4X4X3X4X3X3X3X3X3X3X3X3Xx.x.C.C.C.x.c.l.u.u.l.l.u.r.w.w.f f i i 3 3 i i 3 < o O O O O o 3 3 3 3 3 3 3 3 3 3 3 3 3 3 3 3 < < < < < < < < < < < < < < < < < < < < < < < < < o o < < 3 i i i i f w.w.r.r.w.w.r.s.c.c.c.l.l.w.w.w.w.w.w.w.w.u.u.l.l.c.c.x.x.u.u.u.u.u.u.u.u.c.x.x.x.c.c.c.x.l.l.l.l.l.l.l.l.w.r.l.c.u.f 3 o < < < < < < < < < < < < < < < < < < < < < < < < < < < < < < < < < < < < < < < < < < < < < < < < < < < < < < < < < < < < < < < < < < < < < < < < 3 3 i i f f i x R.@X@X+X,.$. .",
"Y.I.I.O.@.7.9.N.j.S.Z.c.G.nXFXVXBXDXBXgXsXjXhXsXjXsX0X5XeX0X0X4XdXdXdXdXdXdXdXdXgXgXsXdXqX0X4XG.G.4X0XqXdXsXgXgXpX0XH.F.F.H.H.H.gXdXpXsXgXpXG.x.c.u.l.x.r.< O 3 3 X i 4XsX0X4XpX0XsXMXCXDXCXCXDX0XqXqX0X0X4X3XH.F.F.H.G.4X0XqXdXfXfXgXgXgXgXgXgXqXqX0X5X5X5X5X0X4X3X3X4X5X4XH.Z.Z.Z.Z.Z.C.x.l.u.r.x.s.3 X < < o < < < < < < < < i i i i 3 i w.c.x.x.c.l.l.u.r.r.x.u.c.G.0X5X6X5X0X0X0X0X0X0X0X0XC.C.Z.Z.Z.C.x.x.l.c.x.x.c.l.u.r.u.r.w.f f f f w.3 < < o O O o o < < < < < < < < < < < < < < < < X X X X X X X X X X X X X X X X O O O O O O O O < o o < < 3 i f i i f w.w.r.r.w.w.r.s.c.c.c.l.l.w.w.w.w.w.w.w.w.u.u.u.l.l.c.c.c.c.c.c.c.c.c.c.c.l.c.c.c.l.l.c.c.x.x.x.x.x.x.x.x.l.c.c.c.w.i o X X X X X X X X X O O O O O O O O o o o o o o o o o o o o o o o o o o o o o o o o o o o o o o o o o o o o o o o o o o o o o o o o o o o o o o o o 3 3 i i f f i x R.@X@X+X,.$. .",
"Y.I.I.O.@.7.9.N.j.S.Z.c.G.nXFXVXBXDXBXgXsXjXjXsXjXdX0X5X5X0X5X6XpXpXpXpXlXlXlXlXsXsXsXdXqX0X4X4X4X4X0XqXdXsXsXsXqX0X4X3X4X5X4X3XsXpXqXdXsXqXH.x.l.u.l.x.r.< O 3 < X i G.pX4X3XqX0XsXMXCXDXDXDXDXqXqXqXqXqX0X5X4XF.H.H.3X8XqXsXgXsXsXsXsXsXsXsXsXqXqX0X5X5X5X5X0X0X5X5X0X0X5XH.Z.Z.Z.Z.Z.C.x.l.u.r.x.l.3 X < < o < < < < < < < < i i i i 3 i w.c.x.x.c.l.u.r.w.w.C.l.x.G.5X3XH.3X4X4X4X4X4X4X4X4XC.C.C.Z.C.C.x.c.l.l.c.c.c.l.r.w.l.u.r.w.w.w.w.w.f i i 3 3 3 3 3 o o o o < < < < < < = = o = < & O O O O O O O O O O O O O O O O o o o o o o o o < < o < < 3 i f i i f w.w.r.r.w.w.r.s.c.c.c.l.l.r.r.r.r.r.r.r.r.r.r.r.u.u.l.l.l.x.x.x.x.x.x.x.x.u.u.u.u.u.u.u.u.c.c.c.c.c.c.c.c.x.x.c.u.w.i < X o < o o o o o o < < < < < < < < < < < < < < < < < < < < < < < < < < < < < < < < < < < < < < < < < < < < < < < < < < < < < < < < < < < < < < < < 3 3 i i f f i x R.@X@X+X,.$. .",
"Y.I.I.O.@.7.9.N.j.S.Z.c.G.nXFXVXBXDXBXgXsXjXjXsXgXpX8X4X4X5X4X4XqXqXqXqXqXqXqXqX8X0XqXpXpXpXpXpXpXpXpXpXlXqX0X8XsXlXqXqXdXdXlX0XqX0X5X0XqX5XZ.i.l.r.l.x.r.< O 3 o . 3 F.0X3XH.5X5XsXMXCXDXDXDXFXqXpXpXdXpXqXwX0X0X0X0XwXqXdXsXgXqXqXqXqXqXqXqXqXqXqX0X5X5X5X5X0XsXpXpXpXpXqX4XF.Z.Z.Z.Z.C.x.l.u.r.x.h.3 X < < o < < < < < < < < i i i i 3 i w.c.r.r.r.r.u.u.u.u.w.3 i c.C.c.u.l.w.w.w.w.i.w.w.w.f w.w.w.w.f i i 3 3 i i 3 3 < < i 3 3 < < < < < i 3 3 < < < < 3 3 3 3 3 3 3 3 3 3 3 3 3 3 3 3 3 3 3 3 3 3 3 3 3 3 3 3 3 3 3 3 3 3 3 3 i 3 3 3 3 < < < < < 3 i f i i f w.w.r.i.w.w.r.s.c.c.c.l.l.l.l.l.l.l.l.l.l.w.w.w.r.r.u.u.u.l.l.l.h.l.l.s.f.r.r.r.r.r.r.r.r.w.w.w.w.w.w.w.w.r.r.r.w.w.f i 3 f f f f f f f f i i i i i i i i i i i i i i i i i i i i i i i i i i i i i i i i i i i i i i i i i i i i i i i i i i i i i i i i i i i i i i i i 3 3 i i f f i x R.@X@X+X,.$. .",
"Y.I.I.O.@.7.9.N.j.S.Z.c.G.nXFXVXBXDXBXgXsXjXhXsXjXdX0X4X4X5X6X3XqX0X5X4X4X5X0XqX0X8XeX0X0XqXpXdXpXqX0X5X4X4X4X4X0XqXdXgXgXsXpXqX3X3X4X0X0X4XZ.x.c.u.l.x.r.< O 3 3 < i C.3XG.H.3XH.qXMXZXZXBXDXGX0XqXpXdXdXpXqX0XqXqXqXqXqXqXqXqXdXpXqX0X0X8XeX0X0X0X0X5X4X6X4X4XsXsXdXdXdX0XH.C.C.C.C.C.x.x.l.u.r.x.l.3 X < < o < < < < < < < < 3 3 i 3 3 3 w.l.w.w.w.w.w.w.w.w.w.w.f i i i i f f f i i 3 3 i i 3 3 3 3 3 3 3 3 i i i 3 3 3 3 3 o o o o o o o o O o < < 3 < < < 3 3 3 3 3 3 3 3 3 3 3 3 3 3 3 3 3 3 3 3 3 3 3 3 3 3 3 3 3 3 3 3 3 3 < 3 3 3 3 3 3 3 3 3 3 i i i w.w.w.w.w.r.r.u.i.r.l.c.c.c.c.l.w.u.c.x.x.c.u.i.w.w.w.w.w.w.w.w.w.w.w.w.w.w.w.w.w.w.w.w.w.w.w.w.w.w.w.w.w.w.w.w.w.w.w.w.w.w.w.w.w.w.w.w.w.w.w.w.w.w.w.w.w.w.w.w.w.w.w.w.w.w.w.w.w.w.w.w.w.w.w.w.w.w.w.w.w.w.w.w.w.w.w.w.w.w.w.w.w.w.w.w.w.w.w.w.w.w.w.w.w.w.w.w.i i i f f i i 3 w.w.f f g i i > R.@X@X+X,.$. .",
"Y.I.I.O.@.7.9.N.j.S.Z.l.G.nXFXVXBXDXBXgXsXjXhXsXgXpX5X4X4X4X4X3X0X0X4X4X4X5X0XqX0X0X0X0X0XqXdXsXdXpXqX0X4X4X4X4X5X0XpXsXgXsXdXqX3X3X4X0X0X4XZ.c.l.u.l.x.r.< O 3 < O 3 x.G.H.H.3XG.lXMXCXZXBXCXFXqXlXdXsXdXpXqX0XqXqXqXqXqXqXpXpXsXdXqX0X5X5X5X5X0X0X5X5X4X4X4X3XsXsXsXsXdX0XG.C.C.C.C.C.x.x.l.u.r.x.l.3 X < < o < < < < < < < < 3 3 i 3 3 3 w.l.w.w.w.w.w.w.w.w.w.w.f i i i i f f f i 3 3 3 3 i 3 3 3 3 3 3 3 3 i i 3 3 3 3 < < < < < < < < < < o < < 3 3 3 3 3 3 3 3 3 3 3 3 3 3 3 3 3 3 3 3 3 3 3 3 3 3 3 3 3 3 3 3 3 3 3 3 3 3 3 3 3 3 3 3 3 < < 3 3 3 i i i w.w.w.w.w.r.r.u.i.r.l.c.c.c.l.l.u.l.c.x.x.l.r.w.r.r.r.r.r.r.r.r.r.r.r.r.r.r.r.r.r.r.r.r.r.r.r.r.r.r.r.r.r.r.r.r.r.r.r.r.r.r.r.r.r.r.r.r.r.r.r.r.r.r.r.r.r.r.r.r.q q q q 3 3 3 3 3 q 3 3 3 3 i 3 9 i 3 3 q q 3 6 3 3 q 3 9 i 3 3 q q 3 3 3 3 9 3 q i 3 3 q q 3 6 i f f f f f f i f f f f i i i > R.@X@X+X,.$. .",
"Y.I.I.O.@.7.9.N.j.S.Z.l.G.nXFXVXBXDXBXgXsXjXhXsXsXqX5X3X4X4X4X3X4X4X4X4X6X5X0XqX0X0X0X0XqXpXsXsXsXdXqX0X5X6X4X4X4X0XqXsXsXsXsXdX3X3X4X5X0X3XC.l.l.u.l.x.r.< O 3 O X < x.H.H.H.3XG.pXmXDXCXBXZXDXdXsXsXsXdXpXqX0X0X0XqXqXlXpXdXdXsXdXqX0X5X4X6X4X5X5X4X4X4X4X4X3XsXsXdXsXsXqX3XZ.C.C.C.C.x.x.l.u.r.x.l.3 X < < o < < < < < < < < 3 i i 3 3 3 f u.w.w.w.w.w.w.w.w.w.w.f f i i f f f i 3 3 3 3 3 3 3 3 3 3 3 3 3 3 3 3 3 3 < < < < < < < < < < < < < < 3 3 i i 3 3 i i i i i i i i i i i i i i i i i i i i i i i i i i i i i i i i i i i i i i i i < < < 3 3 3 3 i f w.w.w.w.r.r.u.i.r.l.c.c.c.l.l.c.x.x.x.c.l.r.w.u.u.u.u.r.r.r.r.u.u.u.u.u.u.u.u.r.r.r.r.u.u.u.u.u.u.u.u.r.r.r.r.u.u.u.u.u.u.u.u.r.r.r.r.u.u.u.u.u.u.u.u.r.r.r.r.f f f f f f f f f f f f f f f f f f f f f f f f f f f f f f f f f f f f f f f f f f f f f f f f f f f f f f f f f f f g i i i > R.@X@X+X,.$. .",
"Y.I.I.O.@.7.9.N.j.S.Z.l.G.nXFXVXBXDXBXgXsXjXjXsXsXqX4X3X6X4X4X3X3X3X3X4X4X8X0X0XqXqX0XqXqXdXsXsXgXsXpX0X5X4X4X4X4X5XqXpXsXsXsXsX4X4X4X5X0X3XC.u.l.u.l.x.r.< O 3 O X 3 x.G.G.G.4XG.pXmXDXCXBXBXCXsXsXsXsXdXlXqXqX0X0XqXqXqXdXdXsXsXdXqX0X4X4X3X3X4X4X4X4X4X4X6X6XsXdXdXsXsXqX3XZ.C.C.C.C.x.x.l.u.r.x.l.3 X < < o < < < < < < < < 3 i i 3 3 3 f u.w.w.w.w.w.w.w.w.r.w.N f f f f f i i 3 3 < < 3 3 < < < < < < < < 3 3 3 < < < < < < < < < < < < < o < < 3 3 3 3 3 3 3 3 i 3 3 3 3 3 3 3 3 3 3 3 3 3 3 3 3 3 3 3 3 3 3 3 i 3 3 3 3 3 3 3 3 3 3 3 3 < < < 3 3 3 3 i f w.w.w.w.r.r.u.i.r.l.c.c.c.l.l.x.x.x.x.c.l.u.r.r.r.r.r.r.r.r.r.r.r.r.r.r.r.r.r.r.r.r.r.r.r.r.r.r.r.r.r.r.r.r.r.r.r.r.r.r.r.r.r.r.r.r.r.r.r.r.r.r.r.r.r.r.r.r.r.N N N N f f f f N N N N f f f f f f f f N N N N f f f f f f f f N N N N f f f f f f f f N N N N f f f i f f f f f f g g i i i x R.@X@X+X,.$. .",
"Y.I.I.O.@.7.9.N.j.S.Z.l.G.nXFXVXBXDXBXgXsXjXjXsXsXqX5X4X5X0X0X5X3X4X4X5X5X0X0X0X0X0X0X0XqXpXsXsXsXsXpXqX0X5X5X5X5X0X0XqXpXdXdXdX5X5X5X0X0X4XC.l.c.u.l.x.r.< O 3 < O 3 C.3XG.G.4XF.qXmXFXDXZXBXCXsXsXdXpXlXqXqXqX0X0XqXqXqXpXpXdXdXpXqX5X4X4X3X3X5X5X5X5X5X5X5X5XpXpXlXdXdXqX3XZ.C.C.C.C.x.x.l.u.r.x.l.3 X < 3 < < < < < < < < < 3 i i 3 < 3 f u.w.w.w.w.w.w.w.w.r.w.w.f f f f w.f i 3 3 3 3 3 3 3 3 3 3 3 3 3 3 3 3 3 3 < < < < < < < < < < o o o o < 3 3 3 3 < 3 3 3 3 3 3 3 3 3 3 3 3 3 3 3 3 3 3 3 3 3 3 3 3 3 3 3 3 3 3 3 3 3 3 3 3 3 3 3 3 3 3 3 3 i i i i f w.w.w.w.w.r.u.w.r.f.c.c.c.l.l.C.x.x.x.c.l.l.l.r.r.r.r.r.r.r.r.r.r.r.r.r.r.r.r.r.r.r.r.r.r.r.r.r.r.r.r.r.r.r.r.r.r.r.r.r.r.r.r.r.r.r.r.r.r.r.r.r.r.r.r.r.r.r.r.q q q q 3 3 3 i q q q q q 3 3 3 3 3 i i e q 3 3 q q q q 3 3 3 i q q q q 3 3 3 3 3 3 i i e q 3 3 w.f f i 3 i i f f f f f f f f I R.@X@X+X,.$. .",
"Y.I.I.O.@.7.9.N.j.S.Z.c.G.nXFXVXBXSXBXgXsXjXjXsXgXpX0X5X0XqXqXwX5X0X0XqX0X0X5X5X0X5X8X0X0XqXpXdXsXdXqXqX0X0X0X0X0X0X0XqXqXqXqXqXqX0XqXqXqX4XZ.c.c.u.l.x.r.< O 3 < O 3 x.H.F.F.H.Z.0XMXFXFXCXCXDXpXqXqX0XwXqXpXpXqXqXqXqXqXqXqXqXqXqX0X4X6X4X4X4X0X0X0X0X0XwXqXqXwX0X0XqXqX0XH.C.C.C.C.C.x.x.l.u.r.x.l.3 X < 3 < < < < < < < < < 3 i i 3 3 3 f u.w.w.w.w.w.w.w.w.u.r.w.f f f w.w.f f i i 3 3 i i 3 3 3 3 3 3 3 3 i i i i 3 3 3 3 < < < < < < < < < < 3 3 i i 3 3 i i i i i i i i i i i i i i i i i i i i i i i i i i i i i i i i i i i i i i i i i i i i f f f f w.w.w.w.w.w.r.r.w.r.f.c.c.c.l.l.x.x.c.c.c.x.x.C.x.x.x.x.c.c.x.c.c.c.c.c.x.x.x.x.x.x.x.x.c.c.x.x.x.x.x.x.c.c.x.c.c.c.c.c.x.x.x.x.x.x.x.x.x.x.x.x.x.x.x.x.c.c.x.c.r.r.r.r.r.r.r.r.r.r.r.r.r.r.r.r.r.r.r.r.r.r.r.r.r.r.r.r.r.r.r.r.r.r.r.r.r.r.r.r.r.r.r.r.r.r.r.r.c.u.w.i 3 3 i i f f w.w.w.w.r.R R.@X@X+X,.$. .",
"Y.I.I.O.@.7.9.N.j.S.Z.c.G.nXFXVXBXDXBXgXsXjXjXsXjXsXqX0XqXdXdXpXqXqXpXdXqX0X5X4X4X4X6X4X5X0XqXqXpXqXqXqXqXqXqXpXpXqXqX0X0X0X0X0XpXpXpXdXdX0XF.x.c.u.l.x.r.< O 3 < X < l.Z.C.x.C.x.5XMXFXGXFXDXFX0X0X5X4X0XwXpXsXsXdXpXpXqX0X0X0X0X5X4X4X4X4X5X0XwXqXqXqXpXpXdXdX5X4X4X0X0X4XF.C.C.C.C.C.x.x.l.u.r.x.h.3 X < < o < < < < < < < < 3 3 i 3 3 3 f u.w.w.w.w.w.w.w.w.u.r.w.w.f f w.w.w.w.f f i i f f i i i i i i i i f f f i i i i i i i i i i i i i q i f f f f f f f f f f f N f f f f f f w.w.f f w.w.f f f f f f f f f f f f f N w.w.f f f f f f f f f w.w.w.w.w.w.w.w.w.w.i.r.r.w.r.f.c.c.c.l.l.x.c.l.l.c.x.Z.Z.F.F.F.F.J.J.J.J.J.J.J.F.F.F.F.F.F.F.J.J.J.J.F.J.F.F.F.F.J.J.J.J.J.J.J.F.F.F.F.F.F.J.J.J.J.J.F.F.F.F.F.F.J.J.J.J.H.H.H.H.H.H.H.H.H.H.H.H.H.H.H.H.H.H.H.H.H.H.H.H.H.H.H.H.H.H.H.H.H.H.H.H.H.H.H.H.H.H.H.H.H.H.H.H.F.Z.c.w.f i f f w.w.r.r.u.h.c.) R.@X@X+X,.$. .",
"Y.I.I.O.@.7.9.N.j.S.Z.c.G.nXFXVXBXDXBXgXsXjXjXsXhXsXpXqXdXsXsXsXdXsXsXsXpXqX5X4X4X3X3X4X4X5X0XqXqXqXqXqXqXqXdXdXdXpXqX0X0X5X5X0XsXsXsXsXsX0XH.C.c.u.l.x.r.< O 3 O   O w.x.l.w.u.c.4XMXFXGXFXFXGX4X4X3X4X4X0XpXsXsXsXdXpXqX0X5X5X4X4X4X4X4X5X0X0XqXqXpXpXdXsXsXsX4X3X4X4X5X4XZ.x.C.C.C.C.x.x.l.u.r.x.l.3 X < < o < < < < < < < < 3 i i 3 3 3 f u.w.w.w.w.w.w.w.w.l.u.w.w.w.w.w.w.r.w.w.f f f f w.f f f f f f f f w.f f f f i i i w.w.w.w.w.w.w.w.f w.w.r.u.u.r.w.u.u.u.u.u.u.u.u.u.u.u.u.u.u.u.u.u.u.u.u.u.u.u.u.u.u.u.u.u.u.u.u.u.u.u.u.u.u.u.u.w.w.w.w.r.r.r.u.w.w.w.w.w.w.r.r.w.r.f.c.c.c.l.l.c.l.u.l.c.C.Z.F.3X3X3X3X3X3X3X3X3X3X3X3X3X3X3X3X3X3X3X3X3X3X3X3X3X3X3X3X3X3X3X3X3X3X3X3X3X3X3X3X3X3X3X3X3X3X3X3X3X3X3X3X3X3X3X3XG.G.G.G.G.G.G.G.G.G.G.G.G.G.G.G.G.G.G.G.G.G.G.G.G.G.G.G.G.G.G.G.G.G.G.G.G.G.G.G.G.G.G.G.G.G.G.G.4XG.C.l.w.f f w.r.r.u.l.l.c.x.M.R.@X@X+X,.$. .",
"Y.I.I.O.@.7.9.N.j.S.Z.c.G.nXFXVXBXDXBXgXsXjXhXsXsXdXqXqXdXsXpXqXdXsXsXsXdXqX5X4X5X5X6X4X4X0XqXdX0XqXqXpXpXpXqXqXdXpXqXqXqXqXqXqXjXjXjXjXjXqXF.x.c.u.l.x.w.< O 3 < X o w.x.c.l.x.w.0XCXHXGXHXHXFX4X3XG.G.4X0XqXdXpXpXpXqXqX0X4X4X4X4X4X5X5X5X5X8X0XqXqXdXsXsXsXsX5X4X5X0X0X4XF.C.x.x.C.C.C.x.x.c.l.C.c.3 X o < X < < < < < < < < 3 3 3 3 3 3 i f w.r.r.r.r.w.f f w.w.w.w.w.w.w.w.w.f f i i i i i i i i i i i i i i i i i i i i i i i i i i i g i f f w.w.r.r.w.w.r.r.r.r.r.r.r.r.r.r.r.r.r.r.r.r.r.r.r.r.r.r.r.r.r.r.r.r.r.r.r.r.w.w.w.w.w.w.w.w.w.w.w.w.w.w.w.w.w.w.w.w.w.w.w.w.u.u.s.u.u.u.u.u.u.l.l.u.u.x.Z.3XH.H.H.H.H.H.H.H.H.H.H.H.F.F.F.F.H.H.H.H.H.H.H.H.H.H.H.H.H.H.H.H.H.H.H.H.H.H.H.H.H.H.H.H.H.H.H.H.H.H.H.H.H.H.H.H.H.H.H.H.H.H.H.H.H.H.H.H.H.H.H.H.H.H.H.H.H.H.H.H.H.H.H.H.H.H.H.H.H.H.H.H.H.H.H.H.IXG.G.H.F.F.F.F.F.3XF.w.3 i f i i w.l.x.l.u.u.) R.@X@X+X,.$. .",
"Y.I.I.O.@.7.9.N.j.S.Z.c.G.nXFXVXBXDXBXgXsXjXhXsXjXsXpXdXsXsXsXpXsXsXsXsXsXqX0X5X0X5X4X4X5X0XqXpX0XwXqXpXpXpXqXqXdXpXqXqX0XqXqXqXpXpXpXsXpX4XZ.u.c.u.l.x.r.< O 3 < X o w.x.c.l.x.w.0XCXHXGXHXHXFX4X4X3X3X4X0XqXpXdXdXdXdXpXwX0X5X4X4X4X5X5X5X5X5XqXqXdXsXsXgXgXsX4X4X4X5XeX4XZ.x.x.x.C.C.C.x.x.c.l.b.c.3 X o < O < < < < < < < < 3 3 3 3 3 3 i f w.r.r.r.r.w.w.f c.c.c.l.l.l.l.l.u.r.w.f f f f w.f f f f f f f f f f f f f f f f w.w.w.w.w.w.w.w.w.w.u.l.l.l.l.u.l.l.l.l.l.l.l.l.l.l.l.l.l.l.l.l.l.l.l.l.l.l.l.l.l.l.l.l.l.l.l.l.u.u.u.u.u.u.u.u.u.u.u.u.u.u.u.u.l.l.l.u.u.u.u.u.x.x.x.x.x.x.x.x.x.x.x.x.x.C.H.5X3X3X3X3X3X3X3X3X4X4X4X3X3X3X3X3X3X3X3X3X3X3X3X3X3X3X3X3X3X3X3X3X3X3X3X3X3X3X3X3X3X3X3X3X3X3X3X3X3X3X3X3X3X3X3X3X3X3X3X3X3X3X3X3X3X3X3X3X3X3X3X3X3X3X3X3X3X3X3X3X3X3X3X3X3X3X3X3X3X3X3X3X3X3X3X3X4X4X4X4X4X4X4X4XF.3XF.w.3 i f i i w.l.x.l.u.l.) R.@X@X+X,.$. .",
"Y.I.I.O.@.7.9.N.j.S.Z.c.G.nXFXVXBXDXBXgXsXjXhXsXhXgXdXdXsXsXsXpXsXsXsXsXsXpXqX0X0X0X0X5X0X0XqXqX0X0XqXpXpXpXpXqXdXpXqX0X0X0XqXqXsXsXsXgXsXqXH.C.c.u.l.x.r.< O 3 < X o w.x.l.u.c.w.0XCXHXGXHXHXFX5X4X4X4X5X0XqXqXdXdXdXdXpXqX0X0X4X4X4X4X4X4X4X4XqXqXdXsXgXgXgXsX4X4X4X5X0X4XZ.x.C.C.C.C.C.x.c.c.h.K.c.3 O < < o < < < < < < < < 3 3 3 3 3 3 i f w.w.w.w.w.w.w.w.w.w.w.w.w.w.w.w.f f i i 3 3 i i 3 3 3 3 3 3 3 3 3 3 3 3 3 3 3 3 i i i i i i i i i i f w.w.w.w.f w.w.w.w.w.w.w.w.w.w.w.w.w.w.w.w.w.w.w.w.w.w.w.w.w.w.w.w.w.w.w.w.f f f f f f f f w.w.w.w.w.w.w.w.w.w.w.w.w.w.w.w.u.u.u.u.u.u.u.u.u.l.c.l.u.c.Z.H.F.F.F.F.F.F.F.F.F.F.F.F.F.F.F.F.F.F.F.F.F.F.F.F.F.F.F.F.F.F.F.F.F.F.F.F.F.F.F.F.F.F.F.F.F.F.F.F.F.F.F.F.F.F.F.F.F.F.F.F.F.F.F.F.F.F.F.F.F.F.F.F.F.F.F.F.F.F.F.F.F.F.F.F.F.F.F.F.F.F.F.F.F.F.F.F.F.F.H.G.G.G.G.H.F.3XF.w.3 i f i i f l.x.l.u.u.) R.@X@X+X,.$. .",
"Y.I.I.O.@.7.9.N.j.S.Z.c.G.nXFXVXBXDXBXgXsXjXjXsXhXsXqXqXqXpXpXqXqXlXpXlXqXqXqXqXqXqX0X0X0X0X0X0X5X0XqXpXdXdXpXpXpXlXqX0X0X0X0XqXdXpXpXdXdX0XH.C.l.u.l.x.r.< O 3 < X o w.x.u.r.l.w.0XCXHXGXHXHXFX0X0X0X0X0X0XqXqXqXqXqXqXqX0X0X5X5X4X4X4X4X4X4X3X5X0XqXpXdXdXdXdX0X0X0X0XqX8XH.C.C.C.Z.A.C.x.c.l.u.K.c.i O < 3 < < < < < < < < < 3 3 3 3 3 3 i f w.w.w.w.w.r.u.l.w.w.w.r.r.u.u.u.u.r.w.f f f f w.f f f f f f f f f f f f f f f f w.w.w.w.w.w.w.w.f w.r.u.s.u.u.r.r.r.r.r.r.r.r.r.r.r.r.r.r.r.r.r.r.r.r.r.r.r.r.r.r.r.r.r.r.r.r.r.r.r.r.r.r.r.r.r.u.u.u.u.u.u.u.u.u.u.f.l.l.l.c.c.x.x.x.x.x.x.x.x.x.C.Z.C.C.C.F.4XG.G.G.G.G.G.G.G.G.G.3X3X3X4X4X4X3X3X3X3X3X3X3X3X3X3X3X3X3X3X3X3X3X3X3X3X3X3X3X3X3X3X3X3X3X3X3X3XG.G.G.G.G.G.G.G.3X3X3X3X3X3X3X3X3X3X3X3X3X3X3X3X3X3X3X3X3X3X3X3X3X3X3X3X3X3X3X3X3X3X3X3X3X3X3X3X3X4X6X4X4XG.F.Z.F.3XF.w.3 i f i 3 f l.c.l.u.u.) R.@X@X+X,.$. .",
"Y.I.I.O.@.7.9.N.j.S.Z.c.G.nXFXVXBXDXBXgXsXjXjXsXjXdX0X4X5X0X0X5X8X5X5X5X0X0X0X0XpXlXlXqXqX0X0X5X5X0XqXpXdXdXdXdXpXqX0X0X0X0X0X0XH.F.F.F.H.Z.x.w.c.u.l.x.r.< O 3 < X o w.c.r.w.r.w.0XCXHXGXHXHXFXqXqXqXqXqXqX0X0X4X5X5X0X5X4X4X3X5X5X4X4X3X3XG.G.3X4X5X0X0XqX0X0XpXpXpXdXsXqX4XF.Z.Z.Z.Z.C.x.c.l.u.x.x.i < 3 3 3 < < < < < < < < 3 3 3 3 3 3 i f f f f f w.r.c.x.Z.Z.Z.Z.F.F.F.F.3XG.H.F.F.F.F.F.F.F.F.F.F.F.F.F.F.F.F.F.F.F.F.F.H.H.H.H.H.H.H.H.F.F.G.3X3X3XG.G.H.H.H.H.H.H.H.H.H.H.H.G.H.H.H.H.H.H.H.G.G.H.G.H.H.H.G.G.G.H.H.H.G.G.G.G.G.G.G.G.3X3X3X3X3X3X3X3X3X4X4X4X5X5X0X0X5X5X5X8X5X8X5X5X0XqXdXpXqXqXsXjXgXgXgXgXgXgXgXgXgXgXjXjXjXhXhXbXjXjXjXjXjXjXjXjXjXjXjXjXjXjXjXjXjXjXjXjXjXjXjXjXjXjXjXjXjXjXjXjXgXgXgXgXgXgXgXgXjXjXjXjXjXjXjXjXjXjXjXjXjXjXjXjXjXjXjXjXjXjXjXjXjXjXjXjXjXjXjXjXjXjXjXjXjXjXjXjXhXhXhXjXsX0X3XH.F.3XF.w.3 i f i 3 f l.x.l.u.u.) R.@X@X+X,.$.` ",
"Y.I.I.O.@.7.9.N.j.S.Z.c.H.nXFXVXBXDXBXgXsXjXjXsXjXpX4XG.3X4X4X4X4X3X3X3X4X5X0XqXdXdXdXpXqX0X5X4X4X5X0XqXdXsXsXsXqXqX0X0X5X5X0X0XJ.Z.Z.Z.J.Z.x.r.c.u.l.x.r.< O 3 < X o f l.w.f w.w.0XCXHXGXHXHXFXpXpXdXdXpXqX0X0X3X3X4X4X6X4X3XG.5X5X4X4X3XG.H.H.F.H.3X4X5X5X5X5XsXsXsXgXgXsX0XG.F.F.F.Z.Z.x.c.l.u.x.c.i < 3 i 3 < < < < < < < < 3 3 3 3 3 3 i f f f i i f u.x.C.Z.Z.Z.F.F.H.G.G.0X5X4X3X3X3X3X4X3X3X3X3XG.G.3XG.3X3X3X3XG.G.3XG.4X4X4X4X4X4X4X4XG.3X6X5X5X5X4X4X4X3X4X4X4X4X4X4X3X3X3X3X4X4X4X4X3X4X4X4X4X3X3X3X3X3X4X4X4X4X3X3X4X4X4X4X4X4X4X4X0X0X0X0X0X0X0X0XeX0X0XqXqXpXpXdXqXqXqXqXqXqXqXqXdXsXjXjXfXsXjXhXhXhXhXhXhXhXhXhXhXhXbXMXMXmXmXNXMXMXMXMXMXMXMXMXMXMXMXMXMXMXMXMXMXMXMXMXMXMXMXMXMXMXMXMXMXMXMXMXhXhXhXhXhXhXhXhXMXMXMXMXMXMXMXMXMXMXMXMXMXMXMXMXMXMXMXMXMXMXMXMXMXMXMXMXMXMXMXMXMXMXMXMXMXMXMXMXmXmXmXbXsX0XH.Z.F.3XF.w.3 i f i 3 f l.x.l.u.u.) R.@X@X+X,.$.` ",
"Y.I.I.O.@.7.9.N.j.S.Z.c.H.nXFXVXBXDXBXgXsXjXhXsXhXdX5XG.3X4X4X4X4X3X3X3X4X0XqXpXsXsXsXsXpX0X4X3X4X5X0XqXdXsXsXsXqXqX0X5X5X5X0X0XH.F.J.F.H.F.Z.x.c.u.l.x.r.< O 3 < X o f u.w.f w.r.0XCXHXGXHXHXGXsXsXsXsXdXqX0X5X3X3X4X4X4X4X4X3X5X5X4X3XG.H.F.F.F.G.3X4X5X5X5X5XsXsXsXsXgXdX0XG.F.F.F.F.Z.x.c.l.u.x.c.i < i f i < < < < < < < < 3 3 3 3 3 3 i f f i i i f u.C.Z.x.x.x.C.Z.Z.F.F.3XG.H.F.F.F.F.F.F.F.F.F.F.F.F.F.F.F.F.F.F.F.F.F.F.F.F.F.F.F.F.F.Z.F.H.G.G.G.H.H.F.F.F.F.F.F.F.F.F.F.F.F.F.F.F.F.F.F.F.F.F.F.F.F.F.F.F.F.F.F.F.F.H.H.H.H.H.H.H.H.3X3X3X3X3X3X3X3X3X3X4X5X0X0XqXqX5X5X0X0XeXeX5X5XqXpXsXsXdXpXdXsXsXsXsXsXsXsXsXsXsXsXgXjXjXhXbXMXjXjXjXjXjXjXjXjXjXjXjXjXjXjXjXjXjXjXjXjXjXjXjXjXjXjXjXjXjXjXjXjXsXsXsXsXsXsXsXsXjXjXjXjXjXjXjXjXjXjXjXjXjXjXjXjXjXjXjXjXjXjXjXjXjXjXjXjXjXjXjXjXjXjXjXjXjXjXjXjXjXjXhXjXpX4XZ.x.F.3XF.w.3 i f i i f l.c.l.u.u.) R.@X@X+X,.$. .",
"Y.I.I.O.@.7.9.N.j.S.Z.l.H.nXFXVXBXDXBXgXsXjXhXsXbXsX0X4X4X5X0X0X4X4X4X4X4X0XpXsXsXsXsXsXpX0X4XG.4X4X0XqXdXsXsXsXqXqX0X5X5X5X5X0XZ.C.x.C.Z.Z.x.u.c.u.l.x.r.< O 3 < X O f u.w.f N r.0XCXHXGXHXHXFXsXsXgXgXsXqX0X4X4X4X5X0X0X5X5X4X5X5X4X3XG.H.F.F.H.3X4X5X0X0X0X0XdXdXdXsXsXpX4XH.F.F.F.F.Z.C.c.u.u.x.x.i < i f i < < < < < < < < 3 3 3 3 3 3 i f i i i i f s.C.Z.Z.Z.Z.F.H.G.3X4X5X4X3XG.G.G.IX3XG.G.G.G.G.G.G.H.G.G.G.G.G.G.G.H.3X3X3X3X3X3X3X3XH.H.3X4X4X4X4X3XG.G.G.G.G.G.G.G.G.G.G.G.G.G.G.G.G.G.G.G.G.G.G.G.G.G.G.G.G.G.G.G.3X3X3X3X3X3X3X3X5X5X5X5X5X5X5X5X5X5X0X0XqXpXdXsXqXqXqXqXqXqXqXqXpXfXjXjXgXsXgXjXjXjXjXjXjXjXjXjXjXjXjXbXMXMXmXBXbXbXbXbXbXbXbXbXbXbXbXbXbXbXbXbXbXbXbXbXbXbXbXbXbXbXbXbXbXbXbXbXjXjXjXjXjXjXjXjXbXbXbXbXbXbXbXbXbXbXbXbXbXbXbXbXbXbXbXbXbXbXbXbXbXbXbXbXbXbXbXbXbXbXbXbXbXbXbXbXhXbXMXMXjXqX3XF.F.3XF.w.3 i f i i f l.c.l.u.u.) R.@X@X+X,.$. .",
"Y.I.I.O.@.7.9.N.j.S.A.f.F.zXSXnXBXBXMXhXjXjXgXjXpXqX0X5X4X4X4X4X4X4X3X3X3X4X0XqXsXsXgXsXpX0X3XH.3X4X0XpXsXsXsXdXpXqX0X5X4X4X4X4XZ.Z.Z.F.H.F.x.u.c.c.c.s.w.i < O < 3 i f w.w.w.w.f 5XZXKXGXGXGXDXsXdXdXsXfXsXwX4X5X5X4X4X4X4X0X0X0X8X4XG.H.F.F.F.5X5X5X5X5X5X5X5XsXdXdXsXsXpX5XH.Z.F.F.F.Z.C.x.x.l.x.r.3 < i i < 3 3 < o o o o < 3 3 3 3 3 3 i f f f i < f x.Z.x.F.x.C.G.4XH.Z.F.H.H.H.H.H.H.H.H.H.H.H.H.H.H.H.H.H.H.H.H.H.H.H.H.F.H.F.F.H.H.H.H.H.H.H.H.H.H.H.H.H.H.H.H.H.H.H.H.H.H.H.H.H.H.H.H.H.H.H.H.H.H.H.H.H.H.H.H.H.H.H.H.G.G.G.G.G.G.G.G.4X4X5X5X4X4X4X4XIX3X4X0XwXqXwX0X0X0XqXqXqXqXpXpXdXdXpXpXdXdXsXgXgXgXgXgXgXgXgXgXhXhXhXhXbXzXhXhXhXhXhXhXbXbXhXhXjXjXjXjXjXjXjXjXhXbXbXbXzXzXhXhXhXzXzXhXhXhXhXhXgXgXgXgXgXgXgXgXhXhXhXzXbXzXhXhXhXhXhXhXbXbXbXbXhXhXhXhXzXzXhXzXzXhXhXjXjXjXjXjXMXhXjXhXMXMXbXjXMXbXMXmXjX4XF.3XF.G.F.w.i f w.f i w.l.c.l.u.u.) R.@X@X+X,.$. .",
"Y.I.I.O.@.7.9.N.j.S.A.l.F.zXSXnXBXBXMXhXjXgXgXjXdXpXqX0X5X5X5X5X0X5X4X4X4X0XqXqXdXsXsXsXpX0X4X3X4X5XqXpXdXdXpXpXqXqX0X0X0X0X0X0XC.C.C.Z.F.Z.c.w.r.r.r.w.f i < o < 3 i f w.w.w.w.f 5XZXKXGXGXGXDXsXdXdXsXfXsXwX4X5X5X4X4X4X5X0X0XqX0X5X3XG.H.H.H.5X5X5X5X5X5X5X5XpXlXpXdXsXqX4XF.Z.Z.F.Z.Z.C.x.c.l.x.r.3 < i i < 3 3 < o o o o < 3 3 3 < 3 3 i i f f i < f C.Z.x.Z.c.x.G.5XG.F.H.G.G.G.G.G.G.H.H.G.G.G.G.G.G.G.G.G.G.G.G.G.G.G.G.H.H.H.H.G.G.G.G.G.G.H.G.G.G.G.G.G.G.G.G.G.G.H.G.G.G.G.G.G.G.G.G.G.G.G.G.G.G.G.G.G.G.G.G.G.G.G.G.G.G.G.G.G.G.G.G.4X4X4X4X4X4X4X4XG.3X4X0X0XwX0X0X0XwXqXqXqXlXpXpXdXdXpXpXpXsXsXgXgXgXgXgXgXgXgXgXhXhXhXhXhXhXhXhXhXhXhXhXhXhXhXhXbXbXMXMXMXMXMXbXhXhXhXhXhXhXhXhXhXhXhXhXhXhXhXhXgXgXgXgXgXgXgXgXhXhXhXhXhXhXhXhXbXMXMXMXMXMXMXMXMXMXMXMXMXMXMXMXMXMXbXbXhXhXjXjXmXbXhXhXMXMXhXgXbXjXbXMXsX3XF.G.Z.H.Z.w.3 i f f 3 f l.c.l.u.u.~ R.@X@X+X,.$. .",
"Y.I.I.O.@.7.9.N.j.S.A.l.F.zXSXnXBXBXMXhXjXgXgXjXsXsXpXqXqXwXqXqXqX0X0X0X0XqXpXpXqXpXpXdXpXqX0X0X0XqXqXpXlXqXqX0XqXqXqXqXqXqXpXpXx.x.x.C.Z.C.r.f f f f f i 3 < < < 3 i f w.w.w.w.f 5XZXKXGXGXGXDXsXdXdXsXfXsXwX6X5X4X4X4X4X0X0XqXpXqX0X5X4X3X3X3X5X5X5X5X5X5X5X5XqX0XwXqXqX0XG.Z.Z.Z.Z.Z.Z.C.x.c.l.x.r.3 < i i < 3 3 < o o o o < 3 3 < < 3 3 i i i f i < f C.F.C.F.C.Z.5XpXqX0XqX0X0X0X0X0X0X0X0X0X0X0X0X0X0X0X0X0X0X0X0X0X0X0X0X0X0X0X0X0X0X0X0X0X0X0X0X0X0X0X0X0X0X0X0X0X0X0X0X0X0X0X0X0X0X0X0X0X0X0X0X0X0X0X0X0X0X0X0X0X0X0X0X0X0X0X0X0X0X0X0XqXqXqXqXqXqXqXqX0X0XqXdXsXsXsXsXsXsXsXgXgXjXjXjXjXjXjXjXjXjXbXbXMXMXMXMXMXMXMXMXNXNXNXNXNXAXAXAXNXNXNXNXNXAXmXAXBXBXBXBXBXBXBXBXmXAXmXmXmXmXmXmXBXBXBXBXBXBXmXAXMXMXMXMXMXMXMXMXNXNXNXNXAXAXAXAXBXBXBXBXBXBXBXBXmXmXmXmXmXmXmXmXmXmXMXMXMXMXMXbXBXMXbXbXMXbXgXdXgXsXjXhXdXH.Z.F.C.F.C.f < 3 i i 3 f u.c.l.u.u.~ R.@X@X+X,.$. .",
"Y.I.I.O.@.7.9.N.j.S.A.l.F.zXSXnXBXBXMXhXjXjXgXjXjXgXsXpXpXpXpXdXpXpXlXqXpXpXpXdX0XqXqXqXpXpXpXpXpXpXpXqXqX0X8X5X0X0XqXpXsXsXsXsXc.l.c.x.x.l.f 3 3 3 3 3 3 3 3 < < 3 i f w.w.w.w.f 5XZXKXGXGXGXDXsXdXdXsXsXsXwX6X5X4X4X4X5X0XqXqXsXdXqX0X5X5X4X4X5X5X5X5X5X5X5X5X0X5X8X0X0X5XF.C.Z.Z.Z.Z.C.C.x.c.l.x.r.3 < i i < 3 3 < o o o o < < < < < < 3 i i i f i 3 f C.F.Z.4XF.3XsXMXhXjXMXhXhXhXhXhXhXhXhXhXhXhXhXhXhXhXhXhXhXhXhXhXhXhXhXhXhXhXhXhXhXhXhXhXhXhXhXhXhXhXhXhXhXhXhXhXhXhXhXhXhXhXhXhXhXhXhXhXhXhXhXhXhXhXhXhXhXhXhXhXhXhXhXjXjXjXjXjXjXjXjXhXhXhXhXhXhXhXhXgXjXhXMXMXmXMXMXmXmXBXBXBXBXZXZXZXZXBXBXBXCXDXFXFXFXFXFXFXFXFXFXGXGXGXGXGXGXGXGXGXGXGXGXGXGXGXGXFXFXFXFXFXFXFXFXGXGXGXGXGXGXGXGXGXGXGXGXGXGXGXGXFXFXFXFXFXFXFXFXGXGXGXGXGXGXGXGXCXCXCXCXZXZXZXZXBXBXBXBXZXZXZXZXBXBXBXBXBXmXmXMXBXBXMXMXMXhXsXqXdXqXsXgXqXF.C.Z.x.Z.x.i o 3 i 3 3 f u.l.u.r.r.! R.@X@X+X,.$. .",
"Y.I.I.O.@.7.9.N.j.S.A.f.F.zXSXnXBXBXMXhXjXjXjXjXjXgXsXsXdXdXsXsXdXdXsXsXsXdXdXpX0X0X0XqXqXpXsXsXsXdXqXqX0X5X4X6X5X0XqXsXsXgXgXsXl.u.u.c.c.r.i o < < < < < < 3 3 < 3 i f w.w.w.w.f 5XZXKXGXGXGXSXsXdXdXsXfXsXwX6X5X4X4X5X0XqXpXdXgXsXpXqX0X5X5X5X5X5X5X5X5X5X5X5X5X4X4X0X0X4XJ.x.Z.Z.Z.Z.C.x.c.l.l.x.r.3 < i i < 3 3 < o o o o < < < < < < 3 3 i i f i 3 w.Z.H.Z.4XG.4XjXBXmXmXBXmXmXmXMXMXMXMXMXmXmXMXmXMXMXMXMXmXmXMXmXMXMXMXMXmXmXmXmXmXmXMXMXMXMXMXMXMXmXmXmXmXmXMXMXmXmXMXMXMXMXmXmXmXmXmXmXmXmXMXmXMXMXMXMXmXmXMXmXmXMXMXMXMXMXMXMXMXMXMXMXMXMXMXMXMXMXMXMXhXMXMXBXBXBXBXBXCXCXSXDXDXFXFXFXFXFXDXDXDXFXGXHXHXHXHXHXHXHXHXHXJXJXJXJXHXHXHXHXJXJXJXJXHXHXHXHXHXHXHXHXKXKXKXKXJXHXHXHXHXHXHXHXHXHXHXHXJXJXJXJXHXHXHXHXHXHXHXHXJXJXJXJXHXHXHXJXFXFXFXFXDXCXCXCXZXZXCXCXCXCXCXCXZXZXZXBXBXBXBXBXZXBXmXmXMXhXdX0XqX0XqXsX0XZ.x.Z.x.Z.x.i o < 3 3 3 f r.l.u.w.r.! R.@X@X+X,.$. .",
"Y.I.I.O.@.7.9.N.j.S.A.f.F.zXSXnXBXBXMXhXjXjXjXjXgXgXsXsXsXsXsXgXdXsXsXsXsXdXpXqX0X0X0X0XqXpXsXgXsXdXqX0X4X4X4X6X5X0XpXsXfXfXsXdXl.u.u.l.l.w.3 O < < o o < < 3 i < 3 i f w.w.w.w.f 5XZXKXGXGXGXSXsXdXdXsXfXsXwX4X4X4X4X5X0XqXdXsXgXsXpXqX0X0X5X5X5X5X5X5X5X5X5X5X4X4X4X8X0X4XJ.x.C.C.C.C.C.x.c.u.l.x.r.3 < i i < 3 3 < o o o o < < < o o < < 3 3 i f i 3 w.Z.G.F.3XF.3XsXMXMXMXmXzXzXhXhXhXhXhXhXhXhXhXhXhXhXhXhXhXhXhXhXhXhXhXhXzXzXhXhXhXhXhXhXhXhXhXhXhXhXbXzXhXhXhXhXhXhXhXhXhXhXbXbXhXhXhXhXhXhXhXhXhXhXhXhXhXhXhXhXhXhXhXhXhXhXhXhXhXhXhXhXhXhXhXhXhXhXPXPXjXjXbXMXmXmXmXMXBXBXZXZXZXCXCXSXCXZXBXBXZXCXDXFXFXFXFXFXFXFXFXFXGXGXGXGXFXFXFXFXGXGXGXGXFXFXFXFXHXHXHXHXHXHXHXHXGXGXFXFXFXFXFXFXFXFXFXFXGXGXFXFXFXFXFXFXFXFXFXFXGXGXGXGXFXFXFXFXHXGXFXFXDXSXCXCXCXCXCXCXCXCXCXCXCXZXZXBXBXBXBXBXBXmXmXBXmXbXdX0X0X0XqXdX0XZ.x.Z.x.Z.x.i o 4 i 3 < i r.u.r.w.w.R R.@X@X+X,.$. .",
"Y.I.I.O.@.7.9.N.j.S.A.f.F.zXSXnXBXBXMXhXjXjXjXjXsXsXsXdXdXsXsXgXpXdXsXsXsXdXqX0XqXqX0X0XqXpXsXgXsXpXqX5X4X4X4X4X4X0XpXsXsXsXpXqXc.l.l.l.l.w.3 X 3 < < o o < 3 i < 3 i f w.w.w.w.f 5XZXKXFXGXGXSXsXdXdXsXfXsXqX4X4X4X4X5X0XqXsXsXsXsXpXqX0X5X5X5X5X5X5X5X5X5X5X5X5X4X4X0X0X4XF.x.C.C.C.C.C.x.l.u.s.x.r.3 < i i < 3 3 < o o o < < < < o o o < 3 3 i f i 3 w.F.3XF.G.F.G.sXMXbXhXMXjXjXjXjXjXjXjXjXjXjXjXjXjXjXjXjXjXjXjXjXjXjXjXjXjXjXjXjXjXjXjXjXjXjXjXjXjXjXjXjXjXjXjXjXjXjXjXjXjXjXjXjXjXjXjXjXjXjXjXjXjXjXjXjXjXjXjXjXjXjXjXjXhXhXhXhXhXhXhXhXhXhXhXhXhXhXhXhXgXjXhXMXMXMXMXMXBXBXBXZXZXCXCXCXZXZXBXBXBXZXDXFXFXFXFXFXFXFXFXFXFXFXFXFXFXFXFXFXFXFXFXFXFXFXFXFXGXGXGXGXGXGXGXGXFXFXFXFXFXFXFXFXFXFXFXFXFXFXFXFXFXFXFXFXFXFXFXFXFXFXFXFXFXFXFXFXHXHXGXFXDXCXZXZXZXZXZXZXZXZXZXZXZXZXBXBXBXBXmXmXMXMXMXBXBXMXsX0X0X5XqXdX0XZ.x.Z.C.Z.C.i < 3 i 3 < i w.u.w.w.w.R R.@X@X+X,.$. .",
"Y.I.I.O.@.7.9.N.j.S.A.f.F.zXSXnXBXBXMXhXjXjXjXjXsXdXdXpXdXdXsXfXpXdXsXsXsXpXqX0XqXqX0X0X0XqXsXsXsXpX0X4X4X4X4X5X4X0XpXsXsXdXqX0Xc.l.l.c.l.w.3 X 3 3 < o < < 3 i < 3 i f w.w.w.w.f 5XZXKXFXGXGXSXsXdXdXsXfXsXqX4X4X4X5X8X0XpXsXgXsXdXqX0X5X5X4X4X5X5X5X5X5X5X5X5X0X5X5X0X0X4XF.C.C.C.C.C.x.x.l.u.s.x.r.3 < i i < 3 3 < o o o < < < o o o o < 3 3 i f i 3 w.F.4XH.5XG.4XjXmXMXMXBXbXbXbXbXbXbXbXbXbXbXbXbXbXbXbXbXbXbXbXbXbXbXbXbXbXbXbXbXbXbXbXbXbXbXbXbXbXbXbXbXbXbXbXbXbXbXbXbXbXbXbXbXzXbXzXbXbXbXbXbXbXbXbXbXbXbXbXbXbXbXbXbXMXMXMXMXMXMXMXMXMXMXMXMXMXMXMXMXhXbXMXmXBXBXBXBXCXCXDXDXFXFXFXFXDXDXCXCXDXFXGXGXKXGXKXKXKXKXKXKXHXHXHXHXKXKXGXKXHXHXHXHXKXKXHXKXFXFXFXFXFXFXFXFXHXHXHXKXKXKXHXHXKXKXKXKXHXHXHXHXKXKXKXKXKXKXHXHXKXHXHXHXKXKXKXKXHXGXGXFXDXCXZXBXZXZXZXZXZXZXZXZXBXBXBXBXBXmXmXmXMXMXMXBXBXMXsX0X0X5XqXdX0XZ.C.Z.C.F.C.f < 3 i i < i w.r.w.w.w.R R.@X@X+X,.$. .",
"Y.I.I.O.@.7.9.N.M.S.Z.l.F.PXCXnXBXBXMXhXjXjXgXjXjXsXpXqXpXdXqX0XsXsXsXsXsXsXpXqXqX0X0X0X0X0XqXqX0X0X0X0X0X0X0X0XqXqXqXqXqXqXpXdXl.l.l.x.x.l.f < < o o o o < 3 3 3 3 f w.i.u.u.r.w.5XBXFXFXFXGXFXsXsXdXpXqXpXdXdXG.4X0XqXpXdXpXqXdXdXpXpXqX0X4X3X0X0X5X4X4X6X4X4X0X0X0XqXqX5XF.x.C.C.C.C.x.x.l.u.c.u.w.f i i i i i 3 < < O O O o < < < < < < < < 3 3 < < f F.4X3XG.F.3XsXMXhXjXhXbXMXmXBXBXBXmXmXbXbXbXbXbXbXbXbXMXMXMXMXMXMXMXMXMXMXMXMXMXMXMXMXMXMXMXMXMXMXMXMXmXmXAXBXmXMXbXbXhXhXhXhXbXMXAXBXMXMXMXMXMXMXMXMXmXMXMXbXhXhXbXbXMXMXMXMXMXMXMXMXMXMXMXMXMXMXMXMXAXAXAXNXBXBXAXAXCXCXCXCXCXCXCXCXCXCXDXDXDXZXBXBXFXFXFXFXFXFXFXFXHXHXHXHXHXGXGXFXHXGXFXDXDXDXDXFXGXGXGXGXGXGXGXGXFXFXFXFXFXFXFXFXFXFXFXFXFXFXFXFXGXFXDXCXCXCXCXDXFXFXFXFXFXFXFXFXFXFXGXGXFXFXSXCXNXBXZXCXDXSXCXZXZXZXZXZXZXZXZXZXMXMXMXMXMXhXdX0X0X4X4XqX5XF.C.Z.l.x.r.3 < i i < < i w.r.w.w.w.R R.@X@X+X,.$. .",
"Y.I.I.O.@.7.9.N.M.S.Z.l.F.PXCXnXBXBXMXhXjXjXgXjXjXsXqXqXqXpXqX0XsXsXsXsXsXdXpXqX0X0X0X0X0XqXpXdXdXdXdXdXdXdXdXdXqXqX0X0X0X0X0XwXc.l.l.x.x.l.f < < o o o o < 3 3 3 3 f w.i.u.u.r.w.5XBXFXFXFXGXFX0X0X0X5X5X0X0XqXdXsXsXdXqX5XG.F.5X0X0XqXqXqX0X0X0X0X5X4X4X4X4X4XdXdXdXsXsXqX3XZ.C.C.C.C.x.x.l.u.c.u.w.f g i i i i 3 < < O O O o < < < < < < < < 3 3 < o f F.4X3XG.F.3XsXMXhXjXhXbXMXmXBXBXBXmXmXFXFXFXFXFXFXFXFXDXDXDXDXDXDXDXDXDXDXDXDXDXDXDXDXDXDXDXDXDXDXDXDXDXDXFXFXDXCXZXBXBXBXBXBXZXCXFXFXDXDXDXDXDXDXDXDXDXDXZXBXBXBXBXZXSXDXDXDXDXDXDXDXDXDXDXDXDXDXDXDXFXFXFXFXFXFXFXFXFXFXFXFXFXFXFXFXFXFXGXGXGXFXDXCXZXZXZXZXBXBXBXBXBXBXBXBXmXmXMXMXMXMXbXhXjXhXhXzXjXjXjXjXjXjXjXjXbXbXbXbXbXbXbXbXbXbXbXbXbXbXbXbXjXgXsXsXdXdXsXsXbXbXbXbXbXbXbXbXhXbXMXMXbXhXjXgXsXfXjXjXhXjXjXjXhXhXhXhXhXhXhXhXhXhXjXhXhXgXqX4X4XH.G.5X3XC.c.x.l.x.r.3 < i i < < i w.u.w.w.w.R R.@X@X+X,.$. .",
"Y.I.I.O.@.7.9.N.M.S.Z.l.F.PXCXnXBXBXMXhXjXjXgXjXgXpX0X0XqXqX0X5XdXsXsXsXsXdXpXqX5X5X5X0X0XqXdXsXsXsXsXsXsXsXsXsXqXqX0X4X4X4X4X4Xl.l.l.x.x.l.f < < o o o o < 3 3 3 3 f w.i.u.u.u.w.8XBXFXFXFXGXFX4X6X4X4X4X0XwXqXjXjXjXsXqX3XZ.C.F.H.4X5XqXqXqXpX0X0X5X4X4X6X4X5XsXsXsXjXgXdX4XF.C.C.C.C.x.x.l.u.c.s.w.f g i i i i 3 < = O O O o < < < < < < < < 3 3 < o f Z.4XG.G.F.3XsXMXhXjXhXbXMXMXBXBXBXmXmXJXJXJXJXJXJXJXJXGXGXGXGXGXGXGXGXGXGXGXGXGXGXGXGXGXGXGXGXGXGXGXGXFXGXGXKXGXFXDXSXCXCXCXCXDXFXHXHXGXGXGXGXGXGXGXGXGXFXFXDXCXSXDXDXGXGXGXGXGXGXGXGXGXGXGXGXGXGXGXGXKXKXKXKXHXHXGXGXGXGXGXGXGXGXGXGXGXGXHXHXHXGXFXDXCXCXCXCXCXCXCXCXZXZXBXBXBXBXmXmXMXMXbXhXjXjXhXhXgXgXgXgXfXfXfXfXhXhXhXhXhXhXhXhXhXhXhXhXhXhXhXhXsXsXdXpXqXqXpXpXhXhXhXhXhXhXhXhXjXhXhXhXhXjXgXsXsXsXjXjXhXhXjXjXMXMXMXMXMXMXbXbXgXsXsXgXgXdX5XF.G.Z.F.G.F.c.r.l.l.x.r.3 < i i < < i w.u.w.w.w.R R.@X@X+X,.$. .",
"Y.I.I.O.@.7.9.N.M.S.Z.l.F.PXCXnXBXBXMXhXjXjXgXjXsXpX0X0X0X0X0X4XdXdXsXsXaXpXqXqX4X4X4X5X0XpXsXgXpXpXpXpXpXpXpXpXpXqX0X5X4X4X4X4Xl.l.l.c.x.l.f < < o o o o < 3 3 3 3 f w.i.u.u.u.w.8XZXFXFXFXGXFX5X5X5X0X0XqXdXsXdXdXsXdXqX5XG.F.Z.F.G.4X0XqXqXqX0X0X5X4X4X6X4X5XpXpXdXsXsXqXG.Z.C.C.C.C.x.x.l.u.c.u.w.f i i i i i 3 < o O O O o < < < < < < < < < 3 < o f Z.3XG.G.F.3XsXMXhXjXhXbXMXmXBXBXBXmXmXGXGXFXFXFXFXFXFXFXFXFXFXFXFXFXFXFXFXFXFXFXFXFXFXFXFXFXFXFXFXFXFXFXFXFXFXFXFXCXZXZXBXBXZXCXDXFXGXFXFXFXFXFXFXFXFXFXFXSXZXZXZXCXCXFXFXFXFXFXFXFXFXFXFXFXFXFXFXFXFXFXFXFXFXGXGXFXFXFXFXFXFXFXFXFXFXFXFXGXGXGXFXDXCXCXCXCXCXCXCXCXCXDXDXDXSXCXCXZXZXBXmXMXbXbXbXMXMXbXbXbXbXbXbXbXbXMXMXMXMXMXMXMXMXMXMXMXMXMXMXMXMXhXhXjXgXsXfXgXgXMXMXMXMXMXMXMXMXbXbXMXMXbXhXjXgXjXjXhXbXMXMXbXzXMXMXMXMXMXMXMXMXsXsXsXsXsXpX4XF.H.Z.Z.G.F.l.w.u.l.x.r.3 < i i < < i w.u.w.w.w.R R.@X@X+X,.$. .",
"Y.I.I.O.@.7.9.N.M.S.Z.l.F.hXCXnXBXBXMXhXjXjXgXjXsXpX0X0X0X0X0X4XpXdXdXdXdXpXqXqX4X4X4X5X0XpXsXgXdXpXpXpXpXpXpXpXdXpXqX0X5X4X4X4Xl.l.l.x.x.s.f < < o o o o < 3 3 3 3 f w.w.r.u.u.w.eXBXFXFXFXGXFX5X5X5X0X0XqXdXsXqXlXpXdXqX0X4X3XH.G.4X5X0X0X0X0X0X0X5X4X4X6X4X5XpXpXdXsXsXqXG.Z.C.C.C.C.x.c.l.u.c.u.w.f i i i i i 3 < o o O O o < < < < < < < < < 3 < O i Z.3XH.G.F.3XsXMXhXjXhXbXMXMXNXBXBXmXmXFXFXFXFXFXFXFXGXGXGXGXGXGXGXGXGXGXGXGXGXGXGXGXGXGXGXGXGXGXGXGXGXFXFXFXFXFXFXCXZXZXBXBXZXCXDXFXGXGXGXGXGXGXGXGXGXFXFXDXZXZXZXZXCXGXGXGXGXGXGXGXGXGXGXGXGXGXGXGXGXGXFXFXFXFXFXFXFXGXGXGXGXGXGXGXGXGXHXHXHXHXGXFXDXBXBXBXBXBXBXBXBXZXZXBXBXBXBXmXmXMXbXhXjXjXjXjXjXjXjXjXjXjXjXjXjXjXjXhXjXhXjXjXhXjXjXhXjXhXjXjXhXgXfXsXdXpXdXdXdXjXjXjXjXjXjXjXjXjXjXjXhXjXjXsXsXsXfXjXjXhXjXjXjXjXjXjXjXjXjXjXjXgXgXfXgXjXdX5XH.3XF.F.3XF.x.r.c.l.x.r.3 < i i < < i w.u.w.w.w.R R.@X@X+X,.$. .",
"Y.I.I.O.@.7.9.N.M.S.Z.l.F.hXCXnXBXBXMXhXjXjXgXjXgXdX0X0XqXqX0X5XpXpXdXdXpXqXqX0X5X5X5X0X0XqXdXsXsXsXsXsXsXsXsXsXpXlXwX0X5X5X0X0Xl.l.l.x.x.l.f < < o o o o < 3 3 3 3 f w.w.r.u.r.w.0XBXFXFXFXGXFX4X4X4X4X4X0XqXqXsXsXsXdXqX4XH.F.3X4X5X0X0X0X0X0X0X0X5X4X4X6X4X5XsXsXsXjXjXdX4XF.C.C.C.C.x.x.l.u.c.u.w.f i i i i i 3 < o O O O o < < < < < < < < < 3 o X i C.G.F.G.F.3XsXMXhXjXhXbXMXMXNXBXBXmXmXJXJXJXJXJXJXJXJXHXHXHXHXHXHXHXHXHXHXHXHXHXHXHXHXHXHXHXHXHXHXHXHXFXGXGXHXGXFXDXDXCXCXCXCXDXFXHXHXHXHXHXHXHXHXHXHXKXGXFXDXCXCXDXDXHXHXHXHXHXHXHXHXHXHXHXHXHXHXHXHXKXKXKXKXHXHXKXKXHXHXHXHXHXHXHXHXHXHXJXJXHXHXGXFXFXFXFXFXFXFXFXFXCXZXZXZXBXBXBXBXmXMXbXhXhXhXhXbXgXgXgXgXgXgXgXgXbXbXbXbXbXbXbXbXbXbXbXbXbXbXbXbXgXsXsXpXpXpXpXdXbXbXbXbXbXbXbXbXMXMXMXMXMXbXhXjXjXjXhXbXMXMXbXzXhXhXhXhXhXhXhXhXjXjXgXjXjXsX0XG.4XF.H.4XG.x.l.x.l.x.r.3 < i i < < i w.r.w.w.w.R R.@X@X+X,.$. .",
"Y.I.I.O.@.7.9.N.M.S.Z.l.F.hXCXnXBXBXMXhXjXjXjXjXjXsXqXqXqXpXqX0XqXpXpXdXpXqXwX0X0X0X0X0X0XqXpXdXdXdXdXdXdXdXdXdX0X0X5X4X4X5X5X0Xl.l.l.x.x.u.f < < o o o o < 3 3 3 3 i w.w.r.u.r.w.eXBXFXFXGXGXFX0X0X0X5X8X0X0XqXgXgXsXsXqX4XF.Z.3X4X5X0XqXqXqXqX0X0X5X4X4X4X4X4XdXdXsXsXsXqX3XZ.C.C.C.C.K.x.l.u.c.s.w.f g i i i i 3 < & O O O o < < < < < < < < o < o X i C.G.F.G.F.3XsXMXhXjXhXbXMXMXNXBXBXAXmXFXFXFXFXFXFXFXFXFXFXFXFXFXFXFXFXFXFXFXFXFXFXFXFXFXFXFXFXFXFXFXFXDXDXFXFXDXCXZXBXBXBXBXBXZXCXFXFXFXFXFXFXFXFXFXFXFXDXZXBXBXBXBXZXFXFXFXFXFXFXFXFXFXFXFXFXFXFXFXFXFXFXFXFXFXFXFXFXDXDXDXDXDXDXDXDXDXFXFXFXFXDXZXBXDXDXDXDXDXDXDXDXBXBXBXBXmXmXMXMXmXMXbXhXjXhXhXbXjXjXjXjXjXjXjXjXhXbXbXbXbXzXzXbXhXbXbXbXbXhXbXbXjXgXsXdXdXdXsXsXzXhXbXbXbXbXbXbXMXMXmXmXmXMXbXhXjXjXhXbXMXMXbXzXbXbXMXMXMXMXMXMXjXgXgXjXjXsX0XG.3XF.F.4XH.x.u.c.l.x.r.3 < i i < < i w.r.w.w.w.R R.@X@X+X,.$. .",
"Y.I.I.O.@.7.9.N.M.S.Z.l.F.hXCXnXBXBXMXhXjXjXjXjXjXsXpXqXpXdXqX0XqXpXpXpXpXqXwX0XqXwX0X0X0XwXqXlX0X0X0X0X0X0X0X0X6X4X3X3X3X4X4X5Xl.l.l.x.x.u.f < < o o o o < 3 3 3 3 f w.w.r.r.r.w.8XBXFXFXGXGXFXsXsXdXpXqXpXdXdXpXdXdXdXqX0X3XH.G.4X5XqXpXdXsXsX0X0X5X4X4X4X4X4X0X0X0XqXqX5XF.x.C.C.C.C.K.x.l.u.c.s.w.f g i i i i 3 < = o O O o < < < < < < < < o < o X i C.G.F.G.F.3XsXMXhXjXhXbXMXMXNXBXBXmXmXbXbXbXbXbXbXbXbXBXBXBXBXBXBXBXBXBXBXBXBXBXBXBXBXBXBXBXBXBXBXBXBXmXmXmXBXmXMXMXbXhXhXhXhXbXMXAXBXBXBXBXBXBXBXBXBXmXmXMXbXhXhXbXbXBXBXBXBXBXBXBXBXBXBXBXBXBXBXBXBXBXBXAXNXBXBXBXNXbXbXMXMXMXMXMXMXMXMXMXMXMXbXhXjXsXsXsXsXsXsXsXsXsXsXsXdXdXpXpXpXdXpXqXqX0X0XqXqXpXpXpXpXpXpXpXpXqXqXqXqXqXqXqXqXqXqXqXqXqXqXqXqXpXqXwX0X0X0X0X0XqXqXqXqXqXqXqXqXsXsXsXsXsXdXpXqX0X0XqXlXpXpXqXqXdXdXsXsXsXsXsXsXgXfXsXgXgXdX5XH.G.Z.F.3XF.c.r.l.l.x.r.3 < i i < < i w.r.w.w.w.R R.@X@X+X,.$. .",
"L.I.I.*.>.0.9.N.m.m.x.l.F.aXzXjXMXMXhXjXgXgXgXjXjXgXgXgXsXsXsXsXpXqX5X4X4X0XpXsXsXsXsXsXdXqX0X5X0X0X0X0X0X0X0X0X0X0X0X0X0X0X0X0Xl.l.l.c.x.l.f < < < < < < 3 i f i i f w.w.r.i.w.w.0XBXDXCXDXFXCXsXsXsXsXsXsXsXsXpXsXgXjXsXpX0X4X4X0XpXsXjXgXsXpXsXpX0X4X4X5XqXpX0X5X5X5X0X4XF.C.x.x.x.x.x.l.r.w.x.c.u.w.f f f f f i < < < 3 < O < < < < < < < < o < o O f F.4X3X4XH.4XjXmXbXjXbXhXbXMXMXmXMXMXMXMXhXjXgXgXjXhXMXMXMXMXMXMXMXMXMXMXMXMXMXMXMXMXMXMXMXMXMXMXMXMXMXbXbXMXMXbXhXjXjXsXdXsXsXgXhXMXMXMXMXbXbXhXhXjXjXbXjXsXpXlXdXgXjXMXMXMXMXMXMXMXMXbXbXPXbXbXbXbXbXMXMXbXhXjXgXsXsXsXsXsXsXsXsXsXsXpXdXdXsXdXpXqXqX0X0X0X0X0X0X0X0XqX0X0X5X5X5X0X0X8X5X5X5X4X4X4X4X0XqXdXsXsXpX0X4XqX0X0X0XqXpXsXsXdXpXqX8X4X4X4X4X5X5X5X5X5X5X5X5XpXqX5X4X4X0XpXsXpXsXgXjXsXpX0X4X4X5X0XqXqXqXqXqXdXlXqX0X4X4X4X4XsXsXsXsXsXqX3XZ.Z.Z.Z.Z.C.x.l.u.l.x.r.3 < i i < 3 3 i i f f i x o.E.+XT.,...L ",
"I.I.I.*.>.7.9.N.M.C.K.c.F.aXzXjXnXMXhXjXjXjXjXjXfXsXsXsXdXdXdXpXqX0X4X4X4X0XpXsXsXsXsXdXqX0X5X6X5X5X5X5X5X5X5X5X5X5X5X5X5X5X5X5Xl.l.l.x.x.l.f < < < < < < 3 i f i i f w.w.r.i.w.w.5XBXDXZXSXDXCXpXpXpXpXpXpXpXpXdXsXgXgXsXqX0X4X4X0XqXsXgXgXsXdXsXpX0X4X4X4X0XqX0X5X5X5X0X4XF.C.x.K.C.K.x.l.u.r.x.c.u.w.f f f f f i < < < 3 < O < < < < < < < < o < o O f Z.4X3X4XH.4XgXmXbXjXbXhXbXMXmXmXmXMXMXhXjXjXgXgXjXbXMXbXbXbXbXbXbXbXbXbXbXbXbXbXbXbXbXbXbXbXbXbXbXbXbXhXhXbXbXbXjXjXgXpXpXpXdXsXjXhXMXhXhXhXhXhXhXhXjXMXjXsXpXpXpXsXgXbXbXbXbXbXbXbXbXhXhXhXhXhXhXhXhXMXbXhXjXjXgXsXsXgXgXgXgXgXgXgXgXpXdXdXsXdXpXqXqX0X0X0X0X0X0X0X0XqX0X0X5X4X5X0X0X5X5X5X5X4X4X4X4XqXpXsXsXsXpX0X4X0X0X0X0XqXpXsXsXsXpXqX0X4X4X4X4X5X5X5X5X5X5X5X5XqX0X4X4X4X0XpXsXdXsXgXgXsXqX0X4X4X4X0XqXpXpXpXpXpXqX0X5X4X4X4X4XgXsXsXsXsXpX4XF.Z.Z.Z.Z.C.x.l.u.l.x.r.3 < i i < 3 3 i i f f i x o.E.+XT.,...L ",
"I.I.I.U.>.7.9.N.V.S.C.x.H.aXzXjXMXbXhXjXjXjXhXbXsXsXsXdXdXpXpXlX5X4X4X4X4X0XpXsXdXdXdXpXqX0X4X4X4X4X4X4X4X4X4X4X6X4X4X4X4X4X4X4Xl.l.l.x.x.l.f < < < < < < 3 i f i i f w.w.r.w.w.w.5XBXCXZXCXDXCXpXpXpXpXqXqXqXqXsXsXgXsXdXqX5X3X3X5XqXdXsXgXsXsXsXpX0X4X4X4X4X5X0X5X4X5X0X4XF.C.C.C.C.C.x.c.u.r.x.c.u.w.f f f f f i < < < 3 < O < < < < < < < < o < o X i Z.4XG.3XF.4XgXMXbXjXbXhXbXMXmXmXmXmXMXjXgXgXgXjXhXbXMXbXbXbXbXbXbXbXbXbXbXbXbXbXbXbXbXbXbXbXbXbXbXbXbXhXhXzXbXhXjXjXgXpXpXpXpXsXgXhXbXjXhXhXhXhXhXbXbXMXhXgXdXpXpXdXsXhXhXhXhXhXhXhXhXhXhXhXhXhXhXhXhXbXbXhXjXjXgXsXsXjXjXjXjXjXjXjXjXpXdXsXsXdXpXqXqX0X0X0X0X0X0X0X0XqX0X0X5X4X4X5X5X4X4X4X5X5X5X5X5XdXsXgXgXsXpX0X5X4X4X4X5X0XpXsXsXsXdXqX0X5X4X4X4X5X5X5X5X5X5X5X5X5X4X4X4X4X0XpXsXsXsXgXsXdXqX5X3X3X6X0XqXpXdXdXsXqXqX0X4X4X4X4X4XsXsXsXsXgXpX4XF.F.J.Z.Z.C.x.l.u.l.x.r.3 < i i < 3 3 i i f f i x o.E.+X+X,...L ",
"Y.Y.I.U.>.7.9.M.S.S.A.x.H.aXzXjXbXbXhXjXjXhXhXbXsXsXsXsXdXdXpXpX4X4X3X4X5X0XpXdXsXsXsXdXqX0X5X4X5X5X5X5X4X5X4X4X4X4X4X4X5X5X5X5Xl.l.l.x.x.l.f < < o < < < 3 i f i i f w.w.r.r.w.w.4XmXCXBXCXCXZXpXpXpXpXpXpXpXpXsXsXsXsXpX0X5X4X4X5X0XpXsXsXsXsXdXlX0X4X4X4X4X4X0X5X5X5X0X4XF.C.C.C.C.C.x.c.l.u.x.c.u.w.f f f f f i < < < 3 < O < < < < < < < < o < o X i C.G.F.H.F.3XsXMXbXhXbXbXMXMXNXBXBXmXmXsXsXfXgXjXjXhXbXbXbXbXbXbXbXbXbXbXbXbXbXbXbXbXbXbXbXbXbXbXbXbXbXhXzXbXbXbXhXjXgXpXpXpXdXsXjXhXMXhXhXhXbXbXMXMXMXbXjXgXdXpXqXlXpXbXbXbXbXbXbXbXbXbXbXbXbXbXbXbXbXbXbXzXhXjXjXjXjXjXjXjXjXjXjXjXjXdXdXsXsXdXpXqXqX0X0X0X0X0X0X0X0XqX0X0X4X4X4X4X4X4X4X4X4X5X5X8X0XsXgXgXfXsXqX0X5X4X4X4X5X0XpXsXfXsXdXqX0X5X5X4X4X5X5X5X5X5X5X5X5X4X4X4X4X5X0XlXdXsXsXsXsXpX0X5X4X3X6X0XqXdXsXsXsXqX0X0X5X4X4X4X5XsXsXsXsXgXdX5XH.F.Z.Z.Z.C.x.l.u.l.x.r.3 < i i < 3 3 i i f f i x o.E.+XT.,...L ",
"E.Y.Y.U.>.6.5.M.V.S.C.x.H.aXzXjXbXhXjXjXjXjXjXjXgXgXsXsXsXsXdXdX6X4X4X5X0XqXqXpXsXsXsXsXpXqX0X4X5X5X5X5X5X5X5X5X5X5X5X5X5X5X5X5Xl.l.l.x.x.u.f < < o o < < 3 i i i i f w.w.i.w.w.f 4XMXZXBXZXCXBXdXdXdXdXdXdXdXdXdXdXpXpXqX0X0X5X5X0X0XqXpXpXdXdXpXqXqX0X5X4X4X6X0X5X5X5X0X4XF.C.C.C.C.C.C.x.l.u.x.c.u.w.f f f f f i < < < 3 < O < < < < < < < < o < o X i C.H.F.F.Z.G.sXMXbXhXbXbXMXmXBXBXBXBXmXsXsXgXjXjXjXjXjXbXbXbXbXbXbXbXbXbXbXbXbXbXbXbXbXbXbXbXbXbXbXbXbXhXhXbXbXhXjXjXgXdXdXdXsXgXjXbXMXbXbXbXbXbXbXbXMXjXjXsXdXpXlXqXqXbXbXbXbXbXbXbXbXbXbXbXbXbXbXbXbXbXbXhXhXhXjXjXjXjXjXjXjXjXjXjXjXpXdXdXsXdXpXqXqXqXqXqXqXqXqXqXqXqX0X0X4X3X3X3X3X4X4X4X4X5X8X0X0XsXsXsXsXpXqX0X0X4X4X5X0X0XpXsXsXsXsXlX0X0X5X5X5X5X5X5X5X5X5X5X5X4X4X4X5X0XqXqXpXdXdXpXpXqX0X0X5X4X5X0XpXdXsXsXsXqXqX0X5X5X8X0X0XpXpXpXsXsXpX5XH.F.F.Z.Z.C.x.l.u.l.x.r.3 < i i < 3 3 i i f f i x o.T.+XT.,...L ",
"!.E.W.U.>.6.5.M.m.m.c.l.F.aXzXjXbXhXjXsXsXsXsXsXsXsXsXdXdXpXpXpX0X0X0XwXqXqXqXqXdXdXdXpXqX0X4X4X4X4X4X4X4X4X4X4X4X4X4X4X4X4X4X4Xl.l.l.c.x.l.f < < o o < < 3 i p i i f w.w.r.w.w.f 4XMXBXBXBXZXBXlXlXqXqXpXpXpXpXqXqXqXqXqXqXqXqXqXqXqXqXqXqXqXqXqXqXqXqXwX0X0X0X0X5X5X5X0X4XF.C.C.Z.Z.C.C.x.c.l.x.c.u.w.f f f f f i < < < 3 < O < < < < < < < < < < O X 3 x.F.Z.J.C.H.sXMXbXhXMXMXMXmXBXBXBXBXBXsXgXjXjXjXgXsXsXjXjXjXjXgXgXgXgXgXgXjXjXjXjXjXjXgXgXgXgXjXjXgXgXsXgXgXjXgXsXdXdXqXpXpXdXsXgXhXbXhXhXjXjXjXgXgXfXsXsXdXdXdXpXpXpXhXhXhXhXhXhXhXhXjXjXjXjXjXjXjXjXgXgXgXgXgXgXgXgXsXsXsXsXsXsXsXsXpXdXdXsXdXpXqXqXqXqXqXqXqXqXqXqXqXqX8X4X3XG.G.G.3X3X4X4X5X0X0X0XpXpXqXqXqXqXqXqXqXqX0X0XqXpXdXsXgXsXpXqX0X0X5X5X5X5X5X5X5X5X5X5X0X0X0XqXqXqXqXqXqXqXqXqXqXqXqXqX0X0XqXdXdXsXdXdXpXqXqX0XwXqXqXlXqX0XqXqXdXqX4XF.Z.F.Z.Z.C.x.l.u.l.x.r.3 < i i < 3 3 i i f f i > o.E.+XT.,...L ",
"!.!.W.U.>.3.5.5.E h.u.r.Z.aXzXhXbXhXgXdXlXqXwXwXqXqXqXqX0X0X0X0XpXpXpXpXpXqXqX0XqXwX0X0X5X4XG.F.H.H.H.H.H.H.H.H.H.H.H.H.H.G.H.H.c.l.l.x.x.l.f < < < o < < 3 i f 3 i f w.w.r.i.w.f 4XMXBXBXBXZXBX0X0X0X0X0X0X0X0X5X5X0X0XwXqXdXsXsXdXqXqX0X0X5X5X0XqXqXpXpXpXpXpX0X5X5X5X0X4XF.C.Z.Z.Z.Z.C.x.c.l.x.c.u.w.f f f f f i < < < 3 < O < < < < < < < < < < O X 3 x.F.Z.Z.C.F.dXMXbXhXMXMXMXBXBXZXBXBXBXgXjXjXjXjXsXpXqXqXqXqXqXqXqXqXqXqXqXqXqXqXqXqXqXqXqXqXqXqXqXqXqX0XqXqXqXqX0X0X5X0X0X0X0XqXdXsXgXgXsXsXdXqXwX0X0XqXqXpXdXsXsXdXdXsXsXsXsXsXgXsXgXpXpXpXpXpXpXpXpXqXqXqXqXqXqXqXqXdXdXdXdXdXdXdXdXpXdXdXsXdXpXqXqXqXqXqXqXqXqXqXqXqXqX8X4XG.H.H.H.IX3X4X4X5X0XwXqX0X0X0X0X0X0XqXqXsXdXpXpXpXdXsXsXgXsXpXqX0X0X0X0X5X5X5X5X5X5X5X5XpXpXdXdXpXqXqX0X5X5X0X0XwXqXdXsXqXlXdXdXdXdXpXqXsXdXpXpXlXpXdXsX5X4X5X0XqX0XG.Z.Z.Z.Z.Z.C.x.l.u.l.x.r.3 < i i < 3 3 i i f f i x o.T.+X+X,...L ",
"%X!.W.U.>.3.5.) U T w.w.Z.pXzXPXbXhXfXpXqXeX5X5X0X5X5X4X4X4X4X4XsXsXsXsXdXpXqX0X4X4X4X4X3XF.Z.Z.Z.Z.Z.Z.Z.Z.Z.Z.Z.Z.Z.Z.Z.Z.Z.Z.c.l.l.x.x.l.f < < < < < < 3 i f 3 i f w.w.r.i.w.f 4XMXBXmXBXZXBX4X4X4X4X4X4X4X4X4X4X4X5X0XpXsXgXgXsXpX0X5X4X4X4X0XqXpXdXsXsXsXsX0X5X5X5X0X4XF.C.Z.Z.Z.Z.C.x.c.l.x.c.u.w.f f f f f i < < < 3 < O < < < < < < < < < < O X 3 x.Z.C.Z.C.F.dXbXbXhXMXMXmXBXBXZXZXBXBXjXjXhXhXjXsXqX0X4X4X4X4X4X4X4X4X4X4X4X4X4X4X4X4X4X4X4X4X4X4X4X4X3X4X4X4X4X3XG.H.3X4X4X4X5XqXpXdXdXpXqX0X4X3XG.H.0X0XqXdXsXsXsXsXpXpXpXpXpXpXpXpX8X5X5X5X5X5X5X5X6X4X4X4X4X5X5X5XpXpXpXpXpXpXpXpXpXdXdXsXdXpXqXqXqXqXqXqXqXqXqXqXqXqX5X4XG.H.H.H.G.3X4X4X5X0XwXqX4X4X4X4X5X0XqXpXjXgXsXdXdXdXdXsXgXsXdXqX0X0X0X0X5X5X5X5X5X5X5X5XsXsXsXsXdXpXqX0X4X4X4X5X0XpXsXgXdXdXsXsXdXpXqXqXsXsXdXdXdXsXfXgX4X4X4X0X0X5XH.C.Z.Z.Z.Z.C.x.l.u.l.x.r.3 < i i < 3 3 i i f f i x o.T.+X+X,...L ",
"I.I.I.U.>.3.[ ! V h.u.g x.fXNXhXnXhXsX0X4X4X4X4X4X4X5X5X5X4X4X4XsXdXdXsXsXsXqX4X5XG.3X0X0XF.Z.F.Z.Z.Z.Z.Z.Z.Z.Z.Z.Z.Z.Z.Z.Z.Z.Z.x.u.r.l.c.u.i X O O O o < i f w.3 i f w.w.w.w.w.i IXMXBXmXmXmXMX4X5X0X0X0X0X0X5X5X5X5X0X0XqXdXsXpXqX0X4X4X4XeX0X3X5XqXdXsXsXsXdX5X4X4X5X0X5XH.Z.Z.Z.Z.Z.C.x.l.u.x.c.u.w.f f f f f i < < < 3 < O < < < < < < < < X < o O i x.Z.x.C.x.F.sXMXbXjXbXhXmXCXDXCXZXCXDXgXgXgXjXjXsXwX3X5X5X5X5X5X4X4X4X4X4X4X5X5X5X5X5XqX0X0X5X5X5X0X0X4X5X8X0X0X5X4X4X0X5X4X4X4X0XqXpXgXsXqX5X4X3X3X4X0XqXqXdXsXsXsXsXsXdXdXdXpXpXqXqXqXqX0X0X0X5X4X4X4X5X0XqXqXpXqXqXqXqXpXdXsXdXdXpXsXsXsXsXsXsXsXsXdXdXsXsXdXpXqXqXdXqX0X3XH.F.F.H.H.3X5XqXqXqXqX0X0X5X4X6X4X0XqXpXsXsXsXsXsXsXdXdXdXdXpXqXqXqX0X0X5X5X5X5X5X5X5X5XsXsXgXgXsXqX0X4X0X0X4X4X4X0XqXpXdXsXsXsXsXsXdXpXqXqXdXdXsXdXdXpX0X5X5X0XqX0X3XF.Z.Z.Z.Z.C.x.l.u.l.x.r.3 < i i < 3 3 i i f f i x R.T.T.=.,.$.K ",
"I.I.I.U.>.3.[ ! V h.u.g x.sXNXhXMXhXsXqX4X4X4X5X4X4X4X6X6X4X4X4XsXdXdXsXsXsXqX4X5XG.3X0X8XF.C.Z.F.F.F.F.F.F.F.F.F.F.F.F.F.F.F.F.x.l.u.l.x.u.i < O O o < < i f w.i i f w.w.w.w.w.f 4XMXZXBXBXBXMX4X4X5XeX0X8X4X4X5X5X5X0X0XqXdXsXsXpXqX5X4X4X4X4X5X0XqXsXsXsXsXsX5X4X4X5X0X5XH.Z.Z.Z.Z.Z.C.x.l.u.x.c.u.w.f f f f f i < < < 3 < O < < < < < < < < O < o O i x.Z.x.C.x.F.sXMXbXjXbXhXmXCXDXSXZXCXDXgXgXgXjXjXsXwX4X5X5X5X5X5X5X4X4X4X4X4X5X5X5X5X5X0X5X5X4X4X4X5X5X5X5X8X0X5X5X4X4X4X4X4X4X5XqXpXsXsXdXqX5X4X3X4X4X0XqXqXdXsXsXsXsXsXsXsXsXdXdXpXpXqXwX0X0X0X5X5X4X3X4X5X0XqXqXqX0XqXqXpXdXsXdXdXpXsXsXsXsXsXsXsXsXpXdXdXsXdXpXqX0XpXqXeX3XH.H.H.H.G.4X5X0XqXqXqX0X0X5X4X4X4X0XqXpXfXfXsXsXsXsXsXsXdXpXpXqXqXqX0X0X5X5X5X5X5X5X5X5XsXsXsXsXdXqX0X5X4X4X4X4X5XqXdXsXdXsXsXsXsXsXdXpXdXdXsXsXsXsXsXdX5X4X4X5X0X5XG.Z.Z.Z.Z.Z.C.x.l.u.l.x.r.3 < i i < 3 3 i i f f i x R.E.T.=.,.$.K ",
"I.I.I.U.>.3.[ ! V h.d.g x.sXnXjXbXjXsXqX0X5X5X0X4X4X4X4X4X4X4X4XsXdXdXsXsXsXqX4X5X3X3X0X5XZ.C.Z.F.F.F.F.F.F.F.F.F.F.F.F.F.F.F.F.l.u.u.l.c.u.f 3 o o o < 3 i f f i i f w.w.r.w.w.w.4XmXZXBXBXBXmX4X6X5X5X5X5X4X4XeX5X5X5X0XqXpXdXfXsXqX0X4X4X4X4X0XqXpXsXsXsXsXsX5X4X4X5X0X5XH.Z.Z.Z.Z.Z.C.x.l.u.x.c.u.w.f f f f f i < < < 3 < O < < < < < < < < O < o O i x.C.c.C.x.F.dXMXbXhXbXhXmXCXFXSXZXCXDXjXgXgXjXjXfXqX4X4X4X4X5X5X5X5X5X5X5X5X5X5X5X5X5X4X4X4X4X4X4X4X4X5X5X5X8X5X5X5X5X3X3X4X4X0XqXsXfXdXpXqX5X4X4X4X4X0XqXqXdXsXsXsXsXsXsXsXsXdXdXpXpX0X0X0X0X0X5X5X5XG.3X4X5X0X0X0X0XqXqXpXdXsXdXdXpXfXsXgXgXsXsXsXsXqXpXpXdXpXqXqX0XqXwX5X4X3XG.G.G.3X4X5X0XqXqXqX0X0X5X4X4X5X0X0XqXsXsXsXsXsXsXsXsXpXqXqXqXqXqX0X0X5X5X5X5X5X5X5X5XpXdXdXdXpXqX0X0X4X4X4X4X0XqXsXsXpXpXdXsXsXsXdXpXsXsXsXsXsXsXsXsX5X4X4X4X5X4XF.C.Z.Z.Z.Z.C.x.l.u.s.x.r.3 < i i < 3 3 i i f f i x R.E.T.=.,.$.K ",
"I.I.I.U.>.3.[ ! U h.s.f x.sXnXjXhXjXsXqX0X0X0X0XeXeX8X8X0X0XeXeXsXdXdXsXsXsXqX4X5X3X3X0X4XZ.x.C.Z.Z.Z.Z.Z.Z.Z.Z.Z.Z.Z.Z.Z.Z.Z.Z.w.w.w.w.w.f i 3 < < < < 3 i f f i i f w.w.r.w.w.w.4XMXmXMXMXmXMX8X0X0X0X0X0X5X4X0X8X5X5XeX0XqXqXpXpXqX0X0XeX5X5XqXqXqXqXpXpXpXqX5X4X4X5X0X5XH.Z.J.Z.Z.Z.C.x.l.u.x.c.u.w.f f f f f i < < < 3 < O < < < < < < < < O < o X 3 c.C.l.x.c.Z.dXMXbXhXbXhXmXCXFXSXZXCXDXjXgXjXjXhXgXqX4X6X6X4X4X5X5X8X0X0X8X5X5X5X4X4X4X4X5X0X0X0X0X0X0XeX5X5X5X5X0X0X0X5X5XeX0X0XqXlXpXqXqX0X0X5X5X4X4X0XqXqXdXsXsXsXsXdXdXpXpXqXqXqXqX0X0X0X0X0X0X0X0X3X4X5X0XqXqXqXqXqXqXpXdXsXaXdXpXdXdXdXdXdXdXdXdXqXqXqXpXqXqX0XeX0X0X5X4X4X4X4X3X4X5X5X0X0X0X0X0X5X5X4X5X4X5X8X0XqXqXqXpXpXpXdXdXqXqXqXqXqXqX0X0X0X0X0X0X0X0X0X0XqXqXqXqXqXqX0X0X5X5X0X0X0XqXpXpXqXqXpXdXsXsXdXpXsXsXdXpXlXlXpXpXqX0X5X0X0X5XG.Z.F.Z.Z.Z.C.x.l.u.s.x.r.3 < i i < 3 3 i i f f i > R.E.=.=.,.$.K ",
"I.I.I.U.>.3.[ ! T c.s.f x.aXnXgXgXgXsXdXqXqXqXqXqXqXqXlXqXqXqXqXsXdXdXsXsXsXwX4X0X3X3X0X4XC.x.C.x.x.x.x.x.x.x.x.x.x.x.x.x.x.x.x.3 3 i i 3 3 < 3 3 3 3 3 3 i f f i i f w.w.r.r.w.f G.jXhXgXjXhXjXpXpXdXdXpXqX0X0X0XeX5X4X5X0X0XqX5X5X0XqXqXqXpXpX0X0X0X8X5X5X5X0X5X4X4X5X0X5XH.Z.F.Z.Z.Z.C.x.l.u.x.c.u.w.f f f f f i < < < 3 < O < < < < < < < < O < o X 3 l.x.u.c.u.Z.pXbXbXhXMXhXmXCXFXSXZXCXDXjXjXjXhXhXjXqX4X4X4X4X4X5X0X0X0X0X0X0X5X4X4X4X4X0X0XqXpXdXdXpXqX0XeX5X5X5X0XqXpXpXpXqXqXqX0X5X5X0X0X0X0X0X0X5X5X0XwXqXdXsXsXsXsX0X0X0X0X5X5X5X4X0X0X0X0X0X0X0X0X5X0XwXqXdXdXpXpXqXqXpXdXsXdXdXpX0X0X0X0X0X0X0X0X0XwXqXqXqX0X5X4X5X5X5X5X5X5X4X4X0X5X5X5X0X0X0X0X4X5X5X5X5X4X4X4X4X4X5X5X0X0X0X0X0X0X0X0X0X0XqXqX0X0X0X0X0X0X0X0X0X0X0X0X0X0XqXqXpXpXqXqXqX0X5X5X0XqXpXdXdXdXdXdXdXpXqX0X5XeX0X0XdXpXqXpXdXqX4XF.F.Z.Z.Z.C.x.l.u.s.x.r.3 < i i < 3 3 i i f f i x R.E.T.=.,.$.K ",
"I.I.I.U.>.3.[ ! T x.l.f x.aXbXfXsXsXsXsXdXpXlXqXsXsXsXsXsXsXsXsXsXdXdXsXsXsXwX4X0X3X3X5X4XC.l.x.l.l.l.l.l.l.l.l.l.l.l.l.l.l.l.l.X o < < O O < 3 i 3 3 3 3 i f f i i f w.w.r.r.w.f G.gXgXsXsXjXgXsXsXsXsXsXpXqX0X0X5X5X4X4X5X0X0X3X4X0XqXdXsXsXsXwX0X5X4X3X3X4X4X5X4X4X5X0X5XH.Z.F.F.Z.Z.C.x.l.u.x.c.u.w.f f f f f i < < < 3 < O < < < < < < < < O < o X 3 u.c.w.s.r.C.qXbXbXhXMXhXmXCXFXCXZXCXDXhXjXjXhXbXjXpX5X3X3X4X4X5X0X0X0X0X0X0X5X4X4X3X3X0XqXdXsXgXsXsXdX0X0X5X4X5X0XpXsXsXsXsXdXqX0X4X3X4X5X0X0XqX0X0X0X0XqXqXdXsXsXsXsX5X4X4X4X4X3X3X3X5X5X5X0X0X0X0X0X0X0XqXdXsXsXsXdXqXqXpXdXsXdXdXpX5X5X5X5X5X5X5X5X0X0X0X0X0X5X4X4X4X4X5X0X0X0X0X5X0X0X5X5X5XeX0XqX4X4X5X8X5X4X3XG.H.H.G.3X4X4X4X5X5X0X0X0X0X0XqXqX0X0X0X0X0X0X0X0X5X4X4X4X5X0XqXqXsXsXsXpXqX0X4X3X0X0XqXpXdXdXdXdXpXqX0X6X3X4X4X5XgXsXdXsXsXpX5XH.F.F.Z.Z.C.x.l.u.l.x.r.3 < i i < 3 3 i i f f i x R.E.T.=.,.$.K ",
"I.Y.I.U.>.3.[ ! E m.l.f x.aXzXfXaXsXsXsXsXdXdXpXsXsXdXsXsXsXsXsXsXdXdXsXsXsXwX6X0X3X3X5X3Xx.u.c.l.l.l.l.l.l.l.l.l.l.l.l.l.l.l.l.  O < o X X < i i i 3 3 3 i f f i i f w.w.r.r.w.w.3XjXjXdXsXjXjXsXsXsXsXdXqX0X0X0X0X5X4X4X4X5X0X3X4X0XpXsXsXdXdXpXqX0X4X3X3X3X4X5X4X4X5X0X5XH.Z.Z.Z.Z.Z.C.x.l.u.x.c.u.w.f f f f f i < < < 3 < O < < < < < < < < o < o X < r.l.w.u.w.C.qXPXPXhXMXhXmXCXFXCXZXCXDXhXhXjXbXbXjXpX5XIX3X4X4X5X0X0XqXwXwX0X5X4X4X3XG.4X0XpXsXgXgXsXpX0X0X4X4X5XqXdXfXdXdXsXsXpX0X4X4X3X4X0XqXqXqX0X0X0XwXqXdXsXsXsXsX5X4X4X4X4X4X3X3X4X5X5X0X0X0XqXqX5X0XqXpXdXdXdXdXqXqXpXdXsXdXdXpX5X5X5X5X5X5X5X5X5X0X0X0X0X5X4X3X3X4X8X0XqXqX0X0XqX0X5X4X4X5X0XwX4X4X5X0X5X4XG.H.F.H.H.G.4X4X5X5X4X5X5X0X0X0XqXqX0X0XwX0X0X0XwXwX4X4X3X3X6X0XqXpXdXdXsXdXpX0X4X4X5X0XqXpXdXdXdXdXsXpX0X4X3X4X5X0XgXsXdXdXsXqX4XF.Z.Z.Z.Z.C.x.l.u.l.x.r.3 < i i < 3 3 i i f f i x R.E.T.=.,.$.K ",
"I.Y.I.U.>.3.[ ! E m.l.f x.pXzXsXpXdXsXsXsXsXsXdXdXpXpXpXdXdXdXdXsXdXdXsXsXsXqX4X0X3XIX5XIXx.u.c.c.c.c.c.c.c.c.c.c.c.c.c.c.c.c.c.  o < < X O 3 f i i i 3 3 i f f i i f w.w.r.i.w.r.4XjXjXsXgXhXjXdXdXdXdXpXqXeX4X0X0X5X4X4X4X5X5X5X0XqXdXsXdXqXqXsXpX0X4X4X4X4X4X5X4X4X5X0X5XH.Z.Z.J.Z.Z.C.x.l.u.x.c.u.w.f f f f f i < < < 3 < O < < < < < < < < o < o X < r.l.w.r.w.C.qXPXPXhXMXhXmXCXFXCXZXCXDXhXhXhXbXMXjXpX8XG.3X4X4X5X0XqXqXqXwX0X5X4X3X3XG.3X5XqXsXsXsXdXqXqX0X4X6X5XqXsXgXqXqXdXsXdXqX0X5XG.4X5XqXqXqX0X0X0XqXqXdXsXsXsXsX0X0X5X5X4X4X4X4X4X4X5X0X0X0XqXqX6X5X0XqXqXlXqXqXqXqXpXdXsXdXdXdX0X0X0X0X0X0X0X0X5X5X0X0X5X4X4X3XG.4X8XqXqXqXqX0XqXqX5X4X6X5X0XwX4X4X5X0X5X4XH.F.H.H.G.3X4X5X0X0X4X4X5X0X0X0XqXqXqXqXqXqXwXwXqXqX4X3XG.G.4X0XqXdXqXqXdXdXdXqX0X5X4X5X0XqXdXdXdXdXgXsXqX5X4X4X0X0XsXdXpXpXpX0X3XZ.Z.Z.Z.Z.C.x.l.u.l.x.r.3 < i i < 3 3 i i f f i x R.E.T.=.,.$.K ",
"I.I.I.U.>.3.[ ! E h.y.w.A.tXzXhXsXsXsXsXsXsXsXsXsXsXsXsXsXsXsXsXfXfXgXsXsXpXqX0X5X5X0X4XG.C.l.w.c.c.c.c.c.c.c.c.l.l.l.l.l.l.l.l.< o o o o < 3 3 3 3 3 3 3 3 i f i i f w.w.r.w.w.s.F.pXjXjXgXjXhXpXdXsXsXsXpXqX0X3X4X6X4X4X4X3XG.0X0X0XqXpXdXsXsXqXqX0X4X4X3X3X3X4X4X5X5X4X4X3XG.Z.F.F.F.Z.C.x.x.x.c.u.w.f f f f f i < < < 3 < O < < < < < < < < o o < < 3 i w.w.l.f C.jXZXbXjXmXjXMXZXCXZXBXBXCXjXjXjXhXhXgXqX4X4X4X4X4X4X4X5X5X0X0X4X4X4X4X4X5X0X0XlXdXsXsXsXsX3X3X3X3X4X0XqXqXdXdXdXdXpXqX0X5X4X5X0XqXlXpXpXlXdXdXdXdXdXdXpXpX3X4X4X5X0X5X4X4X5X5X5X0X0X0X0X0XqXqXqXpXdXsXsXsXdXsXsXsXsXsXdXpX0X0X5X5X5X0X0XqXqXqXqXqXqXwX0X0X0X0X0X0X0X0X0X0X0X5X4X4X4X4X4X5X5X5X5X5X5X5X5X5XF.F.F.F.G.4X8X0X0X0X0X0X0XqXqXpXpXqXqX0X0X0X0XqXqX0X0X0X0XqXqXpXdXdXdXdXpXqX0X8X4X5X0XpXdXsXsXsXqXqX0X5X5X5X5X0XpXqXqXdXdXqX4XF.Z.Z.Z.Z.C.x.l.u.u.C.c.i o < 3 < 3 3 i i f f i x R.E.T.=.,.$.K ",
"I.I.I.U.>.3.[ ! E h.i.w.K.wXfXfXsXsXsXsXsXsXsXsXsXsXsXsXsXsXsXsXsXsXsXsXdXqX0X0XG.3X4X3XF.C.l.w.c.c.c.c.c.c.c.c.l.l.l.l.l.l.l.l.< o o o o < 3 3 3 3 3 3 3 3 i i q i f w.w.r.w.w.u.F.qXgXsXsXsXjXpXdXsXsXsXpXqX0X4X5X5XeX5X4X4X3X5X5X0X0XqXpXdXdXqXqX0X4X4X3X3X4X3X4X4X4X4X3XH.F.Z.Z.F.Z.Z.C.x.c.x.c.u.w.f f f f f i < < < 3 < O < < < < < < < < o o < < 3 i f w.r.f x.sXBXhXgXMXjXMXZXCXZXBXBXCXhXjXhXbXbXjXpX5XeXeXeXeXeXeX0X0X0X0X5X4X4X4X5X5X5X0XqXpXdXdXdXdX4X3X3X3X4X0XwXqXlXpXpXpXqX0X5X4X4X4X8X0XqXqXqXqXlXlXlXlXlXlXqXqX4X5X0X0X0X0X0X5X5X5X5X0X0X0X0X0XqXqXqXqXpXpXdXdXdXsXsXsXsXsXdXpX0X0X5X5X5X0X0X0X0X0X0X0X0X0X0X0X0X0X0X0X0X0X0X0X0X0X0X5X5X5X8X0X5X5X5X5X5X5X5X5XH.H.H.G.3X5X0XqXqXqX0X0X0X0XqXqXqXqX0X5X5X5X0X0X0X0X5X5X5X0XqXqXqXpXpXpXqX0X5X4X4X4X0XqXpXdXdXdXqXqX0X5X5X5X5X0XpXqXqXdXdXqX4XF.Z.Z.Z.Z.C.x.l.u.u.K.c.i o < 3 < 3 3 i i f f i x R.E.T.=.,.$.K ",
"I.I.I.U.>.3.[ ! E h.i.f x.4XrXwXqXqXqXqXqXqXqXqXqXqXqXqXqXqXqXqX4X5X5X5X4X3XH.F.Z.Z.F.F.Z.x.l.r.c.c.c.c.c.c.c.c.l.l.l.l.l.l.l.l.< o o o o < 3 3 3 3 3 3 3 3 i i q i f w.w.r.w.w.w.Z.0XsXdXqXpXsXlXpXdXdXdXlXqX0X0X0XqXqX0X0X5X4X4X4X5X0X0XqXqXqXqX0X0X4X4X3X4X4XH.H.G.G.G.F.F.Z.Z.Z.Z.Z.Z.C.x.c.x.c.u.w.f f f f f i < < < 3 < O < < < < < < < < o < < < 3 i f w.f 3 l.dXMXjXsXbXjXMXZXCXZXBXBXCXMXbXMXMXmXbXsX0XqXqXqXqXqXqXqXqXqX0X8X4X4X4X5X5X4X4X0XqXqXqXqXqX4X4X4X4X4XeX0XqX0XwXqXwX0X5X3XIXG.3X4X8X0X0X0X0XwXwX0X0X0X0X0X0X0XqXqXqXqXqX0X0X5X5X5X0X0X0X0X0X0X0X0XqXqXqXqXqXpXdXsXsXsXsXdXpX0X0X0X0X0X0X0X0X4X4X4X4X4X4X4X4X8X8X8X5X5X5X5X5XqXqXqXqXqXqXqXqX5X5X5X5X5X5X5X5X3X3X3X4X5X0XqXpXdXpXqX0X0X0X0X0X0X0X4X4X4X4X4X4X4X6X4X4X4X4X0X0X0X0XwX0X0X5X4X3XG.3X4X0XqXqXqXqXqXqX0X5X5X5X5X0XqXqXqXpXdXqX3XZ.Z.Z.Z.Z.C.x.l.u.u.x.c.3 O < 3 < 3 3 i i f f i x R.E.T.=.,.$.K ",
"I.I.I.U.>.3.[ ! E h.i.f l.G.4X).G.G.G.G.G.G.G.G.G.G.G.G.G.G.G.G.x.b.C.C.x.x.c.l.x.x.C.C.x.x.l.u.c.c.c.c.c.c.c.c.l.l.l.l.l.l.l.l.< o o o o < 3 3 3 3 3 3 3 3 i i 3 i f w.w.r.w.w.f C.5XpXqX0XqXpXqXqXpXpXpXqXqXqXpXpXpXpXqXqX0X5X4X4X4X4X5X0X0X0XqX0X5X6X4X4X6X4XF.F.F.F.F.J.Z.C.Z.Z.Z.Z.C.C.x.c.x.c.u.w.f f f f f i < < < 3 < O < < < < < < < < < = < < < 3 i f i < r.qXbXsXdXhXjXMXZXCXZXBXBXCXmXmXmXBXBXMXgXqXpXpXpXpXpXpXpXpXqXqX0X5X4X4X4X5X3X4X4X0X0X0X0X0X4X4X4X4X4X5X0XwX5X8X0X5X4X3XG.H.F.H.3X4X5X5X5X5X5X5X5X5X5X5X5X5XpXpXdXdXdXpXqXqX5X5X5X0X0X0X0X0X0X0X0X0X0X0X0X0XqXqXdXsXsXsXdXdX0X0X0X0X0X0X5X4XG.G.G.3X3X4X4X4X5X5X5X5X5X5X5X5XqXqXpXdXdXdXdXpX5X5X5X5X5X5X5X5X4X4X4X5X0XqXdXsXsXsXpX0X5X4X4X4X5X4X3XG.G.G.IX3X3XG.G.G.G.3X4X5X5X5XeX5X4X3XG.H.H.G.4X5X0XqXqXqXqXqX0X5X5X5X5X0XqXqXqXpXpX0X3XZ.J.Z.Z.Z.C.x.l.u.r.x.l.3 O < 3 < 3 3 i i f f i x R.E.T.=.,.$.K ",
"I.I.I.U.>.3.[ ! E h.i.f u.F.).J.F.F.F.F.F.F.F.F.F.F.F.F.F.F.F.F.r.u.u.l.u.r.w.w.u.l.l.c.c.l.l.f.c.c.c.c.c.c.c.c.l.l.l.l.l.l.l.l.< o o o o < 3 3 3 3 3 3 3 3 i f i i f w.w.r.i.w.f C.4XqX0X5X0XqXqXqXqXqXqXqXqXlXsXsXsXsXpXqX0X5X4X4X6X4X4X5X5X5X0X0X5X4X4X6X4X5XZ.Z.F.F.Z.Z.C.C.Z.Z.Z.Z.C.x.c.l.x.c.u.w.f f f f f i < < < 3 < O < < < < < < < < < < o < < 3 i i 3 O w.0XhXsXdXjXjXMXZXCXZXBXBXCXBXBXBXBXZXmXjXdXdXdXdXdXdXdXdXdXdXpXqX0X5X4X4X5X3X3X4X5X5X5X4X4X5X4X4X4X4X5X0X0X4X4X4X4X4XG.H.F.F.H.3X4X4X5X4X4X4X4X4X4X4X4X4X4XsXsXsXsXsXdXqXqX5X5X5X0X0X0X0X0X0X0X0X0X5X5X5X5X0XqXlXdXdXdXdXdX0X0XqXqX0X0X4X4XF.F.H.H.G.3X3X4X4X4X5X5X4X4X4X4XqXqXdXsXgXsXsXsX5X5X5X5X5X5X5X5X5X5X5X0XqXpXsXgXgXsXpX0X5X4X6X4X4X3XG.H.F.H.H.G.G.H.H.F.H.G.3X6X4X4X4X4X4XG.F.F.F.H.3X5X0X0X0X0XqXqX0X5X5X5X5X0XqX0XqXqXpX0XG.Z.F.F.Z.Z.C.x.l.u.r.x.u.3 X o < o 3 3 i i f f i x R.E.T.=.,.$.K ",
"I.I.I.U.>.3.[ ! E h.i.f s.F.G.Z.G.IXIXIXIXG.G.G.IXIXIXIXIXIXIXIXl.l.c.x.x.c.l.u.u.u.u.u.u.l.l.l.c.c.c.c.c.c.c.c.l.l.l.l.l.l.l.l.< o o o o < 3 3 3 3 3 3 3 3 i f i i f w.w.r.i.w.w.C.5XqX0X5X5X0XqXqX0X0X0XqXpXdXsXsXsXsXpXqX0X5X4X5X5X5X5X5X5X5X0X5X4X6X4X4X5X8XZ.Z.F.F.Z.Z.C.C.C.C.C.C.C.x.c.u.x.c.u.w.f f f f f i < < < 3 < O < < < < < < < < < < o o < < 3 i < X f 0XhXsXdXhXjXMXZXCXZXBXBXCXBXBXBXBXZXmXjXdXdXdXdXdXdXdXdXdXsXdXqX0X5X4X4X4X3X4X4X5X5X4X6X3XeX5X4X4X4X4X5X0X4X4X4X4X4XG.F.F.F.H.3X4X5X5X5X5X4X4X4X4X4X4X4X4XsXsXsXsXsXpXqXqX5X5X5X0X0X0X0X0X0X0X0X0X0X5X5X5X0X0XqXpXdXdXdXdX0X0XqXqXqX0X4XG.F.F.F.H.G.3X4X4X4X6X6X4X4X4X4X4X0XqXdXsXjXgXsXaX5X5X5X5X5X5X5X5X5X5X0X0XqXpXsXgXgXsXpX0X5X4X4X4X6X3XG.H.F.F.H.G.H.H.F.F.H.G.3X4X4X4X4X4X4XG.F.F.F.H.4X5X0XwXwX0XqXqX0X5X5X5X5X0XqX0X0XqXqX0XG.Z.J.F.Z.Z.C.x.l.u.w.c.u.3 X o < o 3 3 i i f f i x R.E.T.=.,.$.K ",
"I.I.I.U.@.2.[ ! T d.u.w.z.H.).Z.3X3X3X3X3X3X3X3X3X3X3X3X3X3X3X3Xl.c.x.x.x.x.x.c.c.l.u.u.u.u.l.l.c.c.c.c.c.c.c.c.l.l.l.l.l.l.l.l.< o o o o < 3 3 3 3 3 3 3 3 i f i i f w.w.r.r.w.w.C.0XpXqX5X5X0XqX0X0X5X0XqXpXdXsXsXsXdXlX0X5X4X0X0XeX8X5X5X5X5X8X5X4X4X4X4X5X0XZ.Z.F.F.F.Z.C.C.C.C.C.C.C.x.l.u.x.c.u.w.f f f f f i < < < 3 < O < < < < < < < < < < o o o < 3 3 < X w.0XbXgXsXbXjXMXZXCXZXBXBXCXBXAXmXBXZXmXjXpXdXdXdXdXdXdXdXdXsXsXlXwX5X4X4X4X6X4X5X8X5X4X6X3X0X8X4X4X6X4X5X8X5X5X5X5X6X3XH.F.H.G.4X5X0X0X0X0X4X4X4X4X4X4X4X4XsXsXsXsXdXpXqX0X5X5X5X0X0X0X0X0XqXqXqXqX0X0X5X5X5X0XqXlXdXdXdXdX0X0XqXpXqX0X3XH.F.F.H.G.3X4X4X4X4X4X6X6X6X6X4X4X5X0XpXsXjXgXsXdX5X5X5X5X5X5X5X5X5X5X5X0XqXpXsXsXsXdXqX0XeX5X5X5X4X4X3XH.H.H.G.G.G.G.H.H.G.3X4X4X5X5X5X4X4XIXH.F.H.IX4X0XwXqXqXqXqXqX0X5X5X5X5X0X0X0X0XqXqX0XH.C.Z.J.Z.Z.C.x.l.u.w.c.r.< X o < O 3 3 i i f f i x R.E.T.=.,.$.K ",
"I.I.I.U.@.3.[ ! T d.u.w.x.(.).J.H.H.H.H.H.H.H.H.H.H.H.H.H.H.H.H.r.u.l.c.c.c.l.u.x.c.l.u.u.u.l.l.c.c.c.c.c.c.c.c.l.l.l.l.l.l.l.l.< o o o o < 3 3 3 3 3 3 3 3 i f i i f w.w.r.r.w.r.Z.0XpXqX5X5X0XqX0X5X5X0XqXpXsXsXsXsXdXqX0X4X4X0X0X0X0X0X0X0X5X5X5X4X4X6X4X8X0XF.F.F.F.F.Z.Z.C.C.C.C.C.x.x.l.u.x.c.u.w.f f f f f i < < < 3 < O < < < < < < < < < < o o o < < 3 < O w.qXMXgXsXMXjXMXZXCXZXBXBXCXmXmXmXBXBXMXjXpXpXpXpXpXpXpXpXpXgXsXpXwX8X5X4X4X4X5X0X0XeX5X4X4X0XeX5X4X4X4X5X5X5X5X5X5X4X3XH.F.G.3X4X8X0X0X0X0X5X5X5X5X5X5X5X5XsXsXsXsXdXqX0X0X5X5X5X0X0X0X0X0XpXqXqXqX0X0X0X0X4X5X0XqXdXdXdXdX0XqXqXpXqX0X3XF.F.F.H.G.3X4X5X5X4X4X4X4X4X4X4X4X4X0XpXsXjXgXsXpX5X5X5X5X5X5X5X5X4X4X5X5X0XqXdXsXdXpXqX0X0X5X8X0X5X6X3XG.H.H.G.3X3XG.G.H.G.3X6X5X5X5X0X5X4X3XH.F.G.3X5X0XqXqXqXqXqXqX0X5X5X5XeX0X0X0X0XqXqX0XH.C.Z.Z.Z.Z.C.x.l.u.w.l.r.< X O < O 3 3 i i f f i x R.E.T.=.,.$.K ",
"I.I.I.U.>.3.[ ! V B i.l.K.Z.F.H.4X4X3XG.H.G.3X3XH.H.H.H.H.H.G.H.f r.l.l.r.r.l.x.l.u.s.s.l.l.l.l.f.s.f.f.l.l.l.l.l.l.l.f.l.l.l.l.< < < < < 3 3 i 3 3 3 3 i f f w.w.w.w.w.w.w.w.w.l.Z.4X0XwX0XqXqX0X0X0X0X0X0X0X0XpXpXpXpXpXpXpXpX6X6X4X4X4X4X4X4X4X4X4X4X6X6X4X4XF.F.F.F.F.Z.Z.C.x.x.x.x.x.x.x.x.c.u.w.f i i i i f i < < < 3 < O < < < < < < < < < o o o o < 3 3 g < r.qXMXjXgXMXsXbXZXFXFXDXFXFXmXMXmXBXBXmXjXdXlXqXlXqXlXlXlXqXwXqXqXqXqX0X0X5X5X4X4X4X4X4X0X0X4X5XeX0X0X0X0X5X0X0X5X4X3XG.H.H.F.H.3X5X0X0X0X0XqXwX0X5X5X5X5X0XpXpXpXpXpXpXpXpXH.H.H.G.4X5X0XqXqXwXqXqXqXqXqXqX0X0XqXqXpXpXdXdXpXqX0X0X0X0X4XF.4X4X3X3X3X4X4X5X0X0X5X4X4X4X4X4XqXqXqXqXqXqXqXqX0X0X0X0X0X5X4X4X5X5X5X5X5X5X5X5XsXdXqX0X0X0X0X0XF.H.G.3X4X4X3X3X5X5X5X5X5X5X5X5X5X4X4X3XG.G.3X3X0X0X0X0X0XqXpXdX0X5X4X3X3X3X3X4X5X0X0X0X0X5X4X3XZ.Z.Z.Z.C.x.l.u.r.x.l.3 X < < o o 3 g f i i f I R.E.T.=.,.$.K ",
"I.I.I.U.>.3.[ ! k.h.u.r.w.n n b f f i 3 3 3 3 i 3 3 3 3 3 3 3 3 < 3 3 3 3 3 f r.x.x.x.x.x.x.x.x.x.x.x.x.x.x.x.x.x.x.x.x.x.x.x.x.< < < < < 3 3 i 3 3 3 3 i f w.w.w.w.w.w.w.w.w.w.i r.C.F.F.F.H.G.Z.Z.Z.Z.Z.Z.Z.Z.C.C.C.C.C.C.C.C.C.C.C.C.C.C.C.C.C.C.C.C.C.C.C.C.C.Z.Z.Z.Z.C.x.x.c.c.c.c.c.c.c.c.c.u.w.f p i i i f i < < < 3 < O < < < < < < < < < o o o o < 3 3 i o w.0XhXsXdXhXsXhXZXFXFXDXDXFXBXmXmXBXBXMXgXqX5X5X5X5X5X5X5X5X0XwXqXqXqXqXqX0X0X0X5X4X4X4X5X8XqXpXdXdXdXpXqXqX0X5X5X4X4X3XG.G.4X4X0XqXpXdXdXdXqXqX0X5X5X5X5X0X4X4X3X3X3X3X3X3XH.H.H.G.4X5X0XqXqX0XqXqXqXqXqXqX0X0X0XqXqXqXqXqXgXsXpXdXsXdX0X4X4X4X4X4X4XeX0XqXdXpXqXwX0X0XqXqX0X0X0X0X0X0X0X0XpXdXdXdXdXpXqX0X5X5X5X5X5X5X5X5XwX0X4X4X3XIX3X3XG.3X4X5X5X5X5X4X5X5X5X5X5X5X5X5XqX0X0X0X0X0XqXqXsXsXpX0X5X4X4X4X5X4X3XG.G.G.3X3X3X3X4X4X4XG.H.F.Z.Z.Z.Z.C.x.l.u.r.x.s.3 X < < o o 3 i f i i f I R.E.T.=.,.$.K ",
"I.Y.I.U.>.3.[ ! M.c.s.w.g 9 4 < 9 3 < O X X X X X X X X X X X X X X X X X o i w.c.c.c.c.c.c.c.c.c.c.c.c.c.c.c.c.c.c.c.c.c.c.c.c.< < < < < 3 3 i 3 3 3 3 i f w.w.w.w.w.w.w.w.w.w.f l.Z.H.G.H.G.3XC.C.C.C.C.C.C.C.c.c.c.x.c.c.c.c.C.C.C.C.C.C.C.C.C.C.C.C.C.C.C.C.x.x.C.C.C.x.c.l.u.u.u.u.u.u.u.u.c.u.w.f g i i i f i < < < 3 < O < < < < < < < < < o o o o < 3 3 3 O f 5XjXpXqXjXsXhXBXDXFXDXDXFXBXBXBXBXBXMXsX0X4X4X4X4X4X4X4X4X0X0XqXpXdXsXdXdXqXqX0X4X4X4X4X4XsXsXsXsXsXdXqXqX4X4X4X4X4X4X6X4X5X0XqXpXsXsXsXsXqXqX0X5X5X5X5X0XJ.F.F.F.F.F.F.F.H.H.H.G.4X5X0XqXqXqXqXqXqXqXqXwX0X0X0X0X0X0X5X5XgXsXdXsXsXsXqX0X5X5X4X5X0XqXdXsXsXdXpXqXqXqXqXpX5X5X5X5X5X5X5X5XsXsXsXsXsXdXpXqX5X5X5X5X5X5X5X5XeX4X3XG.H.H.H.H.4X4X5X0X0X0X0X0X5X5X5X5X5X5X5X5X0X0X0X0XwXlXdXsXjXsXdXqX5X4X3X3X4X4XG.H.F.H.H.G.F.F.H.H.F.F.Z.Z.Z.Z.Z.Z.C.x.l.u.r.x.l.3 X < < o o 3 i f i i f I R.E.T.=.,.$.K ",
"I.Y.I.U.>.3.[ ! k.d.u.i.w.n n f r.w.f i 3 < < < < < < < < < < < X O X X X < w.x.u.u.u.u.u.u.u.u.u.u.u.u.u.u.u.u.u.u.u.u.u.u.u.u.< < < < < 3 3 i i i i i i f w.r.w.w.w.w.w.w.w.w.u.C.H.4X4X4X6X4XZ.Z.Z.Z.Z.Z.Z.Z.Z.Z.Z.Z.Z.Z.Z.Z.Z.Z.Z.Z.Z.Z.Z.Z.Z.Z.Z.Z.Z.Z.Z.Z.x.x.C.C.x.x.c.l.u.u.u.u.u.u.u.u.c.u.w.f g i i i f i < < < 3 < O < < < < < < < < < o o o o < 3 3 3 o f 5XjXpXqXjXsXhXBXDXDXCXSXDXZXBXBXBXmXhXpX5X0X0X0X0X0X0X0X0X5X0XqXdXsXgXgXgXpXqX0X5X4X4X4X6XdXdXdXdXqX0X5X5X6X4X4X4X5X5X5X5X3X6X0XqXpXpXdXpXqXqX0X5X5X5X5X0XF.F.F.F.F.F.F.F.H.H.H.G.4X5X0XqX0XqXqXqXqXqXqX0X0X0X0X5X4X4X4X3XdXlXqXqXdXpX0X4X4X4X4X5X0XqXdXsXpXqXqX0X0X0X0X0X0X8X5X5X8X8X8X8XqXpXpXpXpXqX0X0X5X5X5X5X5X5X5X5XwX0X4X4X3XIXIX3X4X4X5X0X0X0X0X5X5X5X5X5X5X5X5X5X4X4X4X4X0XqXpXsXdXpXqX0X0X0X0X0X4X3XH.F.F.F.H.H.F.F.F.F.F.Z.Z.C.F.Z.Z.Z.C.x.l.u.r.x.l.3 X < < o o 3 i f i i f I R.E.T.=.,.$.K ",
"I.I.I.U.>.3.[ ! T Y w.w.w.w.w.w.n f i < o O O O O O O O O O O O o o o X X 3 w.x.l.c.c.c.c.l.l.c.l.l.c.c.c.c.l.l.l.l.c.c.c.c.l.l.< < < < < 3 3 i i i i i f f w.r.w.w.w.w.w.w.w.w.i.x.F.G.G.H.H.G.x.x.x.x.x.x.x.x.C.C.C.C.C.C.C.C.x.x.x.x.x.x.x.x.x.x.x.x.x.x.x.x.x.C.C.C.C.x.x.c.c.c.c.c.l.l.c.c.c.u.w.f i i i i f i < < < 3 < O < < < < < < < < < o o o o < 3 3 i < w.0XjXdXqXjXdXjXBXCXSXCXCXDXBXBXmXmXmXhXpX5X0X0X0X0X0X0X0X0X4X0XqXdXsXgXjXjXdXpXqX0X4X4X4X4XdXdXdXdXqX0X5X4X4X4X5X5X5X5X0X0X3X6X0XqXpXpXpXpXqXqX0X5X5X5X5X0XH.H.G.G.G.G.G.G.H.H.G.IX4X5X0XqX0X0XqXqXqXqX0X0X0X0X8X4X4X4X3X3XpXqXqXqXdXdXqX5XIXIX3X4X5XqXpXdXpXqXqX0X0X0X0X0X0X0X0X0X0X0X0X0XqXpXpXpXpXqX0X0X5X5X5X5X5X5X5X5X0X0X4X3XG.G.G.G.G.3X4X5X5X5X5X4X5X5X5X5X5X5X5X5X3X3X4X4X0XqXdXsXdXpXqX0X0X0X0X0X3XIXH.F.F.F.F.H.H.H.G.G.H.F.F.Z.F.Z.Z.Z.C.x.l.u.r.x.l.3 O < 3 < o 3 i f i i f I R.E.T.=.,.$.K ",
"I.I.I.U.>.3.[ ! E T N f i 9 3 3 g i 3 < o o o o O O X X X X X X O O o O X < f u.x.x.x.x.x.x.x.x.x.x.x.x.x.x.x.x.x.x.x.x.x.x.x.x.< < < < < 3 3 i g i i i f w.r.u.w.w.w.w.w.w.w.w.s.C.H.4X3XG.G.3XA.A.A.A.C.C.C.C.Z.Z.Z.Z.Z.Z.Z.Z.C.C.C.C.C.C.C.C.C.C.C.C.C.C.C.C.x.C.C.C.C.x.c.l.c.c.c.c.c.c.c.c.c.u.w.f i i i i f i < < < 4 < O < < < < < < < < < o o o o < 3 3 f < r.0XjXdXqXjXdXjXBXCXCXZXZXCXBXmXMXmXMXhXdX5X4X4X4X4X4X4X4X4X4X5X0XpXsXsXsXsXpXqXqX0X5X5X5X0XsXsXsXsXsXdXqXqX0X0X0X0X5X5X5X5X5X0XqXpXsXsXsXsXqXqX0X5X5X5X5X0XF.F.H.H.H.H.H.H.H.H.G.IX4X5X0XqX0XwXqXqXqXqX0X0X5X5X5X5X5X4X4X4XsXpXpXdXgXgXdXqX3X3X4X4X5X0XqXpXsXdXpXqXqXqXqXpX0X0X0X0X0X0X0X0XsXsXsXsXsXdXpXqX5X5X5X5X5X5X5X5X4X4XG.F.F.F.F.F.G.3X6X5X5X5X4X4X5X5X5X5X5X5X5X5X5X5X5X0XqXdXsXgXjXsXpXwX5X6X3X3X4X3XG.H.F.H.H.G.G.G.3X3X3XH.F.F.F.F.Z.Z.C.x.l.u.r.x.l.3 X < 3 < o 3 i f i i f I R.E.T.=.,.$.K ",
"I.I.I.U.>.3.[ ! k.d.i.F g 9 3 4 r.w.f f i i f f 3 3 3 3 3 3 3 3 O < < < < < i w.l.l.l.l.l.l.l.l.l.l.l.l.l.l.l.l.l.l.l.l.l.l.l.l.3 < < < < 3 3 i f i i f f w.r.u.w.w.w.w.w.w.w.w.u.x.F.3XG.F.F.H.Z.Z.Z.Z.Z.Z.Z.Z.C.C.C.C.C.C.C.C.C.C.C.C.C.C.C.C.C.C.C.C.C.C.C.C.c.c.x.x.x.l.u.r.u.u.u.u.u.u.u.u.c.l.w.f i i i i f i < < < 3 < O < < < < < < < < < o o o o < 3 3 i < w.5XgXqX0XsXpXjXmXCXCXZXZXCXMXMXMXMXMXhXdX0X5X5X5X5X5X5X5X5X4X5X0XqXpXdXdXdXqXqX0X0X0X0X0XqXqXpXdXdXdXpXqXqXqXqX0X0X5X5X4X4X4X4X0XqXpXdXdXdXqXqX0X5X5X5X5X0XH.H.H.G.G.G.G.G.H.H.H.IX4X5X0XqX0X0X0XqXqXqXwX0X5X5X5X5X0X0X0X0XpXqXqXpXsXsXpX0X0X0X8X8X0XwXqXpXdXpXqXqX0X0XqXqX5X5X5X5X5X5X5X5XpXdXdXdXdXpXqX0X5X5X5X5X5X5X5X5X5X4X3XH.F.F.F.F.4X4X5X0X0X0X0X0X5X5X5X5X5X5X5X5X5X4X4X5X0XqXdXsXsXsXpX0X8X5X4X4X5X4X4XG.G.G.3X3XH.G.G.G.G.H.F.F.Z.Z.Z.Z.C.x.l.u.r.x.u.3 X < 4 o o 3 i f i i f I R.E.T.=.,.$.K ",
"I.I.I.U.>.3.[ ! k.h.s.u.u.r.r.r.r.w.w.f f f w.w.i i i i i i i i < i f f i i f w.f f f f i i g f f f f f i i g g g f f f g i g g 3 < < < < 3 3 i f f i f f w.r.u.w.w.w.w.w.w.w.w.< f u.x.c.u.u.s.r.r.r.r.r.r.r.r.r.r.r.u.u.u.r.r.f f f f f f f f f f f f f f f f r.u.f.l.u.r.w.f w.w.w.w.w.w.w.w.c.l.w.f i i i i f i < < < 3 < O < < < < < < < < < o o o o < 3 3 3 O f 4XsX0X4XpXpXjXmXZXZXBXBXZXbXhXbXMXMXbXsXqXlXlXqXqXlXlXlXlX4X4X0XqXqXqXqXqXqX0X0X0X0X0XqXpX4X4X0X0X0X0X0X5XpXqXqX0X5X4X4X4XF.H.3X5X0X0X0X0XqXqX0X5X5X5X5X0X4X4X4X4X4X4X4X4XH.H.H.G.4X5X0XqX0X0XwXqXqXqX0X0X4X4X5X0X0XwXqXqX5X4X4X0XqXqX0X4XlXqXqXwXqXqXpXdX0X0X4X4X4X4X4X4X4X4X4X4X4X4X4X4X0X0X0X0X0X5X4X4X5X5X5X5X5X5X5X5XqXqX0X5X4X4X4X4X5X0XwXqXqXqXqXqX5X5X5X5X5X5X5X5XG.G.G.G.3X4X0X0X0X0X0X0X0XqXpXdX0X5X4X3X3X3X4X4XF.F.H.H.H.F.Z.Z.Z.Z.Z.Z.C.x.l.u.r.x.l.3 X < < o o 3 g f i i f I R.E.T.=.,.$.K ",
"I.I.I.U.>.3.[ ! k.h.h.s.s.s.s.s.u.s.s.f.s.s.s.h.c.l.u.i.w.w.r.r.i i f f f i 3 3 o o o o o o o o 3 3 3 3 3 3 3 3 < < o O X X O O 3 3 3 3 3 3 i f f f i i f w.r.u.l.u.w.f f i f f f f f f f f f f f f f f f f f f f f f f f f f f f f f f f f f f f f f f f f f f f f f f f f f f f f f f f f f f f f f f f f f f 3 3 < o o o o < < < < < < < < < < o o o o < 3 3 3 < w.F.0X5X4X8X5XdXMXBXZXmXMXMXsXsXsXsXsXsXsXsXgXgXgXfXsXpXwX0X0X0X0X0X0X0X0X0XeX0XqXdXsXsXsXsX4X6X6X4X5X0XqXpXsXsXpXqX5X3XF.F.5X5X5X5X5X5X5X5X8X8X5X5X5X4X4X4XpXqXqXqXdXqX5XG.IXIXG.G.3X4X0X0X0X0X5X6X4X4X4X4X4X4X0X0X0X0X0X0X3X3XH.F.Z.F.5XpXsXsXsXdXqX0X5X4X5X5X5X5X5X5X5X5X4X4X3XG.G.G.G.3X4X4X4X5X5X5X8X8XIX3X3X4X4X4X4X5X4X4X4X6X4X3X3XIX8X0XqXdXsXsXsXsX4X4X5X5X4X4XG.G.G.G.H.H.G.3X4X4X0X0X0X0XqXqXqXqX0X5X4XG.H.F.F.F.F.F.H.G.3XG.G.H.Z.J.Z.Z.C.x.l.u.r.x.l.3 X < < o o 3 g f i i f I -.T.=.=.,.:.` ",
"I.I.I.U.>.3.[ ! k.h.l.l.l.s.s.s.l.l.l.l.l.l.l.l.c.l.u.i.w.w.r.r.i i i f i i 3 3 < o o o o < = < 3 3 3 3 3 3 3 3 < < o O X O O o 3 3 3 3 3 3 i f f f i i f w.r.u.l.u.w.f f i f f f f f f f f f f f f f f f f f f f f f f f f f f f f f f f f f f f f f f f f f f f f f f f f f f f f f f f f f f f f f f f f f f 3 3 < o o o o < < < < < < < < < < o o o o < 3 3 3 < w.F.0X5X4X5X6XpXbXBXBXmXMXMXbXbXbXbXPXhXzXbXjXgXgXsXdXqX0X5X5X5X5X5X5X5X5X5X5X0XqXpXdXsXsXdX4X4X4X4X5X0XqXpXpXdXdXpXqX4XG.F.4X4X6X4X4X5X5X5X5X5X5X4X4X4X4X4XqXqX0XqXpXqX4XH.G.H.G.G.4X5X0XqXqX0X8X4X4X4X4X5X4X5X0XqXqXqX0X0XG.G.H.F.Z.H.0XdXsXsXsXdXpXqX8X4X5X5X5X5X5X5X5X5X4X4XIXH.H.H.G.G.6X4X4X4X4X4X5X5X4X4X4X4X4X4X4X4X4X4X4X6X4X4X4X4X0XwXpXdXsXsXsXsX5X5X0X0X5X4X4X3XIXG.G.G.G.3X4X5X0X0X0X0XqXqXqXqX0X5X4XG.H.H.H.H.F.F.H.G.G.G.H.F.J.Z.Z.Z.C.x.l.u.r.x.l.3 X < < o o 3 i f i i f I -.T.=.=.,.:.` ",
"I.I.I.U.>.3.[ ! j.c.c.z.x.z.l.l.c.c.c.c.c.c.c.c.c.l.u.i.w.w.r.r.i i i i i 3 3 < < < o o o o < < o < < < 3 3 3 i 3 < < O O O o o 3 3 3 3 3 3 i f f f i f f w.r.u.l.u.w.f f i f f f f f f f f f f f f f f f f f f f f f f f f f f f f f f f f f f f f f f f f f f f f f f f f f f f f f f f f f f f f f f f f f f 3 3 < o o o o < < < < < < < < < < o o o o < 3 3 3 < w.F.0X0X4X5X4XqXhXBXBXmXmXNXgXgXgXgXgXgXgXgXjXjXjXsXpXwX5X4X4X4X4X4X4X4X4X4X5X0XqXpXdXdXdXpX4X4X4X4X5X0XqXpXqXpXsXsXpX0X3XF.G.G.3X4X6X4X5X5X6X6X4X4X4X4X4X4XqX0X0XqXqXwX4XF.F.H.H.G.4X5XwXqXqXqX0X5X5X5X5X0X5X0X0XqXqXqXqXqXF.H.H.F.F.G.0XsXsXsXsXsXpXqX0X5X5X5X5X5X5X5X5X5X4X3XG.F.F.F.H.H.4X4X4X4X4X4X4X4X5X5X4X4X6X4X4X4X4X4X4X4X4X4X5X5XqXqXpXsXsXsXsXsX0X0X0X0X0X5X4X4X3XIXG.G.IX4X4X5X0X8X0X0X0XwXqXqX0X5X4X3XG.G.G.G.F.F.H.G.G.H.F.F.J.J.Z.Z.C.x.l.u.r.x.l.3 X < < o o 3 i f i i f I *.T.=.=.,.:.` ",
"I.I.I.U.>.3.[ ! m.c.x.x.x.x.c.x.x.x.x.x.x.x.x.x.c.l.u.i.w.w.r.r.i i i i i 3 3 < o o O O O O o o o o < < 3 3 3 i 3 < < o O o o < 3 3 3 3 3 3 i f f f i f f w.u.u.l.u.w.f g i f f f f f f f f f f f f f f f f f f f f f f f f f f f f f f f f f f f f f f f f f f f f f f f f f f f f f f f f f f f f f f f f f f 3 3 < o o o o < < < < < < < < < < o o o o < 3 3 3 < w.F.0X0X4X5X4XpXhXBXBXBXBXZXfXfXsXfXsXsXsXsXhXjXjXfXdXwX5X4X5X5X4X4X5X5X5X5X0XwXqXpXdXdXdXpX0X0X0X0X0XqXpXdXpXsXsXsXdX0XG.Z.H.G.G.3X4X4X5X5X4X4X4X4X4X5X5X5XqX0X0X0XqX0X3XF.F.F.H.G.4X0XqXlXqXqX0X0X5X8X0X0X5X0XqXqXqXqXqXqXF.H.G.H.H.4XqXsXsXsXsXsXpXqX0X5X5X5X5X5X5X5X5X5X3XG.H.F.F.F.F.H.5X5X4X4X4X4X4X4X8X8X5X4X4X6X6X4X4X4X4X4X5X5X8X8XqXqXpXsXsXsXsXsX5X0X0X0X0X4X4X3X3X3XIXIX3X4X5X8X5X5X0X0X0X0XqXqX0X5X4X3XG.IX3X3XF.H.G.G.G.F.F.Z.J.J.Z.Z.C.x.l.u.r.x.l.3 X < < o o 3 i f i i f I -.T.=.=.,.:.` ",
"I.I.I.U.>.3.[ ! m.c.c.z.x.c.l.l.c.c.c.c.c.c.c.c.c.l.u.w.w.w.r.r.i f f f f i 3 3 O O O O O O O O < < < < 3 3 3 3 3 3 < < o o < < 3 3 3 3 3 3 i f f f i f f w.u.l.u.r.w.f g i f f f f f f f f f f f f f f f f f f f f f f f f f f f f f f i f f f f f f f f f f f f f f f f f f f f f f f i f f f f f f f f f f f 3 3 < o o o o < < < < < < < < < < o o o o < 3 3 3 4 w.F.0X5X4X5X0XdXhXmXBXBXBXZXbXbXbXbXbXbXbXbXjXjXgXsXdXqX5X4X5X5X5X5X5X5X5X5X0XqXqXpXdXpXpXqXqXqXwX0X0XqXlXpXsXsXsXsXqX5XH.Z.G.3X3X4X4X4X5X5X4X6X4X5X5X0X0X0XqX0X0XqXqXqX4XF.H.H.H.G.4X5X0XqXqXqX0X5X5X5X8X0X5X0X0XqXqXqXqXqXF.G.3X3XG.4XqXdXsXdXdXpXqX0X5X4X5X5X5X5X5X5X5X5X4X3XG.F.F.F.H.H.0X0X0X5X5X4X4X4X5X5X5X5X5X5X5X5X5X5X5X5X5X5X5X5XqXqXpXdXdXdXpXpX4X5X5X5X5X6X3XG.4X3X3X3X3X6X5X0X4X5X5X8X0X0X0X0X8X5X6X3X3X3X4X4XG.3X3X3XG.H.F.F.F.J.Z.Z.C.x.l.u.r.x.l.3 X < 3 < o 3 i f i i f I *.T.=.=.,.:.L ",
"I.I.I.U.>.3.[ ! k.h.h.f.s.s.s.s.u.l.l.l.l.l.f.f.c.l.u.w.w.w.r.r.f w.w.w.w.f i i < < < < < < < < i 3 3 3 3 3 3 3 i 3 < < < < < < 3 3 3 3 3 3 i i f f i f f w.u.l.u.u.w.f f i f f f f f f f f f f i i i i i i i i i 3 i i i i i i i i i i i i 3 3 i i i i i i i i i 3 i i i i i i i i i i i i 3 3 i i i i i i i i 3 3 < o o o o < < < < < < < < < < o o o o < 3 3 3 3 w.F.0X5X4X5X0XpXjXbXbXhXMXMXdXdXpXdXdXpXdXdXpXpXpXqXqX0X4X3X4X4X4X4X4X4X4X4X4X5X0X0X0X0X5X5X0X0X8X5X5X0X0X0XqXqXqXwX0X4X3XG.5X5X5X5X5X5X5X5X5X5X0X0XqXqXqXlXpXqXqXqXpXqX5XG.3XIXG.IX3X4X0X0X0X0X5X4X4X4X4X4X4X4X0X0XwX0X0X0XG.4X4X4X3X4X0XqXqXpXqXqX0X5X3XG.5X5X5X5X5X5X5X5X5X6X3XG.H.G.G.IXpXqXqXqX0X0X5X4X4X4X4X5X0X0X0X0X0X0X0X0X5X5X4X4X0X0XqXqXqXqXqX0X5X0X0X0X0X5X6X3X4X4X3X3X4X4XeX0X4X4X4X5X8X0X0X0X5X5X4X4X4X6X4X5X4X4X5X4X6X3XH.F.J.J.Z.Z.C.x.l.u.r.x.l.3 X < 3 < o 3 i f i i f I *.T.=.=.,.:.L ",
"I.Y.I.U.>.3.[ ! E y.u.r.r.r.r.r.r.r.r.r.r.r.r.r.c.l.u.w.w.w.r.r.w.r.u.u.r.w.w.f f f f f f f f f w.f f f i i 3 3 i 3 3 < < < < < 3 3 3 3 3 3 i i f f i f f w.u.l.u.r.w.f g i f f f f f f f f f f < < < < < < < < < < < < < < < < < < < < < < < < < < < < < < < < < < < < < < < 3 < < < < < < < < < < < < < < < < 3 3 < o o o o < < < < < < < < < < o o o o < 3 3 3 4 w.F.0X5X4X5X4X0XdXsXdXpXdXsXF.F.F.F.F.F.F.F.3X3X4X4X3XG.H.F.H.H.H.H.H.H.H.H.F.H.G.G.G.H.F.F.4X3XG.H.H.H.G.3X3X3XG.G.4X8XqXpXqXqXqX0X0X5X4X4X0X0X0XqXpXdXsXsXsXpXpXdXsXdX0X4X4X4X4X3X3X3X4X5X5X4X4X3XG.IX3X3XIX3X4X5X8X8X5X5X4X5X0X5X4X3X4X0X0X0X0X0X5X3XH.F.5X5X5X5X5X5X5X5X0X5X4X3X3X3X4X4XsXsXdXpXqX0X0X0X3X3X4X5X0XqXqXpXpXlXqX0X5X4X3X3X5X0X0X0X0X0X5X4XqXpXpXpXpXqX0X0X4X4X4X4X4X5X0X0X6X4X4X4X5X0X0X0X5X5X4X4X4X4X5X0X0X0X0X0X8X4X3XG.J.J.Z.Z.C.x.l.u.r.x.u.3 X < 4 o o 3 i f i i f I *.T.=.=.,.:.L ",
"I.Y.I.U.>.3.[ ! T T i.w.w.n n w.w.w.w.w.w.w.w.w.c.l.u.w.w.w.i.r.u.u.l.l.l.u.w.w.u.u.u.u.u.u.u.u.u.r.w.f i i 3 3 i 3 3 < < < < < 3 3 3 3 3 3 i i f f i f f w.r.s.u.r.w.f i i f f f f f f f f f f < < < < < < < < < < < < < < < < < < < < < < < < < < < < < < < < < < < < < < < < < < < < < < < < < < < < < < < < 3 3 < o o o o < < < < < < < < < < o o o o < 3 3 3 4 w.F.0X5X4X5XG.4X0XqX0X5X0X0XF.F.F.F.F.F.F.F.C.Z.Z.J.F.Z.Z.C.Z.Z.Z.Z.Z.Z.Z.Z.C.C.Z.Z.Z.C.C.x.F.F.Z.Z.C.Z.Z.Z.Z.Z.C.Z.3X0XsXhXsXdXpXqX0X5X4X4X0XqXqXpXdXsXgXgXsXsXdXsXgXsXqX4X0X5X6X3XIX3X3X4X4X4X3XH.H.H.G.G.G.G.4X4X4X4X6X4X4X0XwX0X4X3X4X5X0X0X0X5X4XG.F.Z.5X5X5X5X5X5X5X5X0X0X5X4X4X4X4X5XgXgXsXdXpXqXqX0XG.IX4X5X0XqXdXdXsXdXlX0X5X4XIXH.4X4X5X0X5X4X4X3XsXsXgXgXsXsXdXpX4X4X4X4X4X5X0X0X4X4X4X4X5X8X0X0X5X5X4X4X4X5X0X0XqXqXqXqX0X5X4X3XZ.J.Z.Z.C.x.l.u.r.x.l.3 X < < o o 3 g f i i f I *.T.=.=.,.:.L ",
"I.I.I.U.>.3.[ ! U Y i.u.s.s.s.s.u.r.w.w.f f w.w.r.r.r.r.r.r.r.r.r.r.r.r.r.r.r.r.w.w.w.r.r.r.u.u.u.r.w.i q 3 3 3 o < < 3 3 3 < < 3 3 3 3 3 3 3 3 f i i i i f w.w.w.f f i i i f f f f f f f f f f < < < < < < < < < < < < < < < < < < < < < < < < < < < < < < < < < < < < < < < < < < < < < < < < < < < < < < < < < < < < < < < < < < < < < < < < < o o o o < 3 3 < < f F.0X4X3X3X0X0X0XqXqXqXpXpXZ.Z.F.F.F.F.F.F.Z.Z.Z.F.F.F.F.F.F.F.F.F.F.F.F.F.F.F.F.F.F.F.F.F.F.F.F.F.F.F.F.F.F.H.F.F.4XgXjXsXsXpXqX0X5X0X0XqX4X0XpXgXjXgXsXdXpXdXsXsXsXpXqX0X4X4X4X5X5X8X5X8X0X0X5X4X3XG.H.H.3X3X3X4X4X4X4X5X0X0X0X0X0X0X0X0X0X0X5X4X3XG.H.H.H.H.G.3X4X5X0X0X0X0X0X0X0X0X0X0XpXsXgXjXfXpX0X4X8X5X5X0X0XqXdXsXsXdXqX0X0X5X5X5X0X0X0X0X0X0X0X0XdXsXgXjXsXpX0X4X0X0X0X0X0X0X0X0X0X0X0X0X0X0X0X0X0X0X0X0X0X0X0X0XqX0X0XqXqXqX4XF.F.F.F.F.Z.C.c.l.r.x.h.3 O < 3 = o 3 i f i i f I R.E.T.=.,.$.K ",
"I.I.I.U.>.3.[ ! T T i.i.r.r.n n l.l.u.u.r.u.u.u.u.u.u.u.u.u.s.s.u.u.u.s.u.u.u.u.u.u.u.u.u.u.s.l.l.u.w.f i i 3 3 3 3 i i i i i 3 3 3 3 3 3 3 3 3 f f i i i f w.w.w.w.f i i i f f f f f f f f f f < < < < < < < < < < < < < < < < < < < < < < < < < < < < < < < < < < < < < < < < < < < < < < < < < < < < < < < < < < < < < < < < < < < < < < < < < < o o o < 3 3 < o f F.qX0X5X0X6X4X4X5X5X0X0X0XC.C.C.C.C.C.C.C.C.C.C.C.A.Z.Z.Z.C.C.C.C.C.C.C.C.C.C.C.C.C.C.C.C.C.C.C.C.C.C.C.C.C.F.Z.C.G.pXsXqXsXpX0X5X4X4X4X4X3X5XqXdXsXsXpXqXdXsXsXgXsXdXqXqX4X4X4X5X5X5X5X5X0XeX5X4X3XG.H.H.3X3X3X4X4X4X4X4X0X8X0X0X0X0X0X0X0X0X5X4X3XG.H.H.H.H.G.3X4X5X0X0X0X0X0X0XeX0X8X8XdXsXgXjXgXdXqX5X0X0X0X0XqXpXsXsXsXsXpXqX0X0X0X0X0XeX8X8X0X0X0X0XsXsXjXjXgXdXwX5XeXeXeX0X0X0X0X0X0X8X8X8X0X0X0X0XeXeX0X0X0X0X0X0XqXqXqXqXpXqX4XH.F.F.F.F.Z.x.c.l.r.x.l.3 O < 3 < o 3 i f i i f I R.E.T.=.,.$.K ",
"I.I.I.U.>.3.[ ! E y.i.w.w.n f f n w.w.w.w.w.w.w.F F w.F w.w.w.w.w.w.w.w.w.w.N Y f f f f f f f f w.f i 3 < < < < < < < < < < < < < < 4 3 4 3 3 3 f f f f f w.w.r.w.w.f f i i f f f f f f f f f f < < < < < < < < < < < < < < < < < < < < < < < < < < < < < < < < < < < < < < < < < < < < < < < < < < < < < < < < < < < < < < < < < < < < < < < < < < o o < < 3 3 < o f F.0X0X0XqX0X0XqXqXqXqXqXqXF.F.F.F.F.F.F.F.H.H.F.F.F.F.F.F.F.F.F.F.F.F.F.F.F.F.F.F.F.F.F.F.F.F.F.F.F.F.F.F.F.G.H.F.4XsXjXsXhXjXsXpXwX0X0X0XqXpXsXjXjXjXgXsXdXdXsXsXsXdXpXqX4X4X4X4X4X4X4X4X5X5X4X4X3XG.G.H.G.IX3X3X4X4X4X4X5X5X5X5X5X5X5X5X5X5X4X4X3XG.H.H.H.H.G.3X4X4X5X5X5X5X5X5X5X5X5X5XdXsXgXgXsXdXqX0XqX0X0X0XqXpXsXsXsXsXpXqX0X0X0XqX5X5X5X5X5X5X5X5XdXsXgXgXsXdXqX0X5X5X5X5X5X5X5X5X5X5X5X5X5X5X5X5X5X5X5X5X5X5X5X5XpXqXqXqXpXqX5XG.F.F.F.Z.C.x.c.l.r.x.l.3 X < < o o 3 i f i i f I R.E.T.=.,.$.K ",
"I.I.I.U.>.3.[ ! E y.i.w.r.u.s.l.w.r.u.c.c.x.x.c.c.x.x.x.x.x.x.x.x.x.x.x.x.x.x.x.c.c.c.c.l.l.l.l.c.u.w.N f f f f i i i 3 3 3 3 3 i i i i i i i i w.w.f f f w.r.u.u.r.w.f f i f f f f f f f f f f < < < < 3 3 3 < < < < < 3 3 3 < 3 3 < < < < < 3 < < < < < < < < < < < 3 < < < < < < < 3 < < < < < < < < 3 3 3 < < < < < 3 3 3 < 3 3 < < < < < 4 < < < < < 3 3 i 3 < i Z.4X3XG.3X4X4X4X4X4X4X5X5XZ.Z.Z.Z.Z.Z.Z.Z.Z.Z.Z.Z.Z.Z.C.C.C.C.C.C.C.C.C.C.C.C.C.C.C.C.C.C.C.C.C.C.C.C.C.C.Z.F.Z.C.F.qXdX0XdXpXqXqX0X0X0XeX0XqXpXsXsXsXdXdXqXqXqXqXqXqXqX0X5X4X4X4X4X4X4X3X4X4X4X3X3XG.G.H.G.G.G.3X3X3X4X4X4X4X4X4X4X4X6X6X4X6X4X3X3XG.H.H.H.H.G.3X3X4X4X4X4X4X4X4X4X4X6X6XqXqXpXpXpXqX0X5X0X8X5X5X0X0XqXqXqXqX0X0X5X5X5X0X4X4X4X4X4X4X4X4XqXqXpXpXpXqX0X5X4X4X4X4X4X4X4X4X4X4X4X4X4X4X4X4X4X4X4X4X6X4X6X6X0X0X0X0XqX0X3XF.Z.Z.Z.Z.C.x.c.l.r.x.l.3 X < 4 o o 3 i f i i f I R.E.T.=.,.$.K ",
"I.I.I.U.>.3.[ ! T T i.u.c.C.J.H.F.G.4X5X0X0X0X0XqXqXqXqXqXqXqXqXqXqXqXqXqXqXqXqXqXqXqX0X0X0X5X5X0X5X4X3XG.G.G.G.F.Z.C.C.x.x.C.C.w.w.w.w.w.w.w.w.w.w.w.w.w.r.u.l.l.u.w.f f i f f f f f f f f f f 3 3 3 3 3 3 3 3 3 3 3 3 3 3 3 3 3 3 3 3 3 3 3 3 3 3 3 3 3 3 3 3 3 3 3 3 3 3 3 3 3 3 3 3 3 3 3 3 3 3 3 3 3 3 3 3 3 3 3 3 3 3 3 3 3 3 3 3 3 3 3 3 3 < < < < 3 i i f 3 i x.Z.C.x.C.c.c.l.l.l.l.l.l.i i i i i i i i f f f f i i i 3 i i i i i i i i i i i i i i i i i i i i i i i i i f i 3 f C.Z.x.x.x.C.A.Z.Z.Z.J.Z.J.F.F.H.H.F.F.4X4X4X4X4X4X4X5X5X5X4X4X3X3XG.G.3X3X3X3XG.G.G.G.H.H.G.G.3X3X3X4X3X3X3X3X3X3X3X3X3X3X3X3XG.G.G.G.G.G.G.G.3X3X3X3X3X3X3X3X3X3X3X3X4X4X5X5X4X4X4X3X4X3X3XG.3X4X4X5X5X4X4X3XIX3X3X4X3X3X3X3X3X3X3X3X4X4X5X5X5X4X4X3X3X3X3X3X3X3X3X3X3X3X3X3X3X3X3X3X3X3X4X3X3X3X3X3X4X3X3X4X4X4XF.C.C.C.Z.Z.C.x.c.l.r.x.l.3 X < < o o 3 i f i i f I R.E.T.=.,.$.K ",
"I.I.I.U.>.3.[ ! T Y i.u.x.J.).5XG.4X0XpXsXsXsXdXjXgXjXjXjXjXjXjXjXgXjXjXjXjXgXjXjXgXgXsXsXdXpXpXdXpXqX0X0X0X0XqX4X3XF.Z.Z.Z.Z.F.r.r.r.r.u.u.u.u.r.r.w.w.r.u.l.c.c.l.r.w.f f i g f f f f f f f f 3 3 3 3 3 3 3 3 3 3 3 3 3 3 3 3 3 3 3 3 3 3 3 3 3 3 3 3 3 3 3 3 3 3 3 3 3 3 3 3 3 3 3 3 3 3 3 3 3 3 3 3 3 3 3 3 3 3 3 3 3 3 3 3 3 3 3 3 3 3 3 3 3 3 < < 3 3 i i w.3 i l.x.l.w.r.w.w.w.w.w.w.f f 3 3 3 3 3 3 3 3 i i i 3 3 < < < < < < < < < < < < < < < < < < < < < < < < < < < < 3 < O 3 l.x.w.w.r.c.K.A.Z.Z.Z.Z.Z.Z.Z.Z.Z.Z.Z.G.H.H.H.H.G.3X4X5X4X4X4X3XG.H.H.G.G.G.G.G.G.G.G.F.H.H.G.G.3X3X3XIXIXIXIXG.G.G.G.G.G.G.G.G.G.G.G.G.G.G.G.G.G.G.G.IXIXIXIXIXG.G.IXG.G.G.G.G.G.G.G.G.G.H.F.F.H.G.3X3XG.H.F.F.H.G.G.G.G.G.G.G.G.IXG.G.G.G.G.G.G.G.G.G.G.IXIXIXIXIXIXG.G.IXG.IXIXIXIXIXIXIXIXG.G.G.G.G.H.H.G.3XH.Z.x.C.C.C.C.C.x.x.l.r.x.l.3 X < < o o 3 i f i i f I R.E.T.=.,.$.K ",
"I.I.I.U.@.2.[ ! E y.i.r.z.A.G.4XA.F.4X0XpXpXqXqXdXdXdXdXdXdXdXdXdXdXdXdXdXdXdXdXdXdXpXqXqX0X0X5X0X5X4X4X3X4X4X4XG.F.Z.x.c.x.C.C.r.r.r.r.r.r.r.r.u.u.r.r.u.l.c.x.x.c.u.w.f f i i f f f f f f f f 3 3 3 3 3 3 3 3 3 3 3 3 3 3 3 3 3 3 3 3 3 3 3 3 3 3 3 3 3 3 3 3 3 3 3 3 3 3 3 3 3 3 3 3 3 3 3 3 3 3 3 3 3 3 3 3 3 3 3 3 3 3 3 3 3 3 3 3 3 3 3 3 3 3 3 < 3 3 i i w.3 3 u.x.s.r.l.c.c.l.l.u.u.r.r.f f f f f f f f r.w.w.f f i i 3 i i i i i i i i i i i i i i i i i i i i i i i i i f i 3 f x.C.l.c.x.Z.F.G.G.H.H.3XG.G.H.H.H.H.G.G.H.F.F.F.G.4X4X5X5X4X3XG.H.F.F.H.H.H.G.H.G.G.G.F.F.F.H.G.G.3X3XG.G.G.G.G.G.G.G.H.H.H.H.G.G.G.G.G.G.G.H.H.H.H.H.G.G.G.G.G.G.G.G.G.G.H.H.H.H.G.3X3XG.H.F.F.H.G.G.G.G.H.F.F.H.G.3XG.G.G.G.G.G.G.G.G.G.H.H.H.G.G.3XG.G.G.G.G.G.G.G.G.G.G.G.G.G.G.G.G.G.G.G.G.G.G.G.G.H.F.G.3XH.Z.x.x.x.C.C.C.x.x.c.r.x.s.3 X < < o o 3 i f i i f I R.E.T.=.,.$.K ",
"I.I.I.U.@.3.[ ! k.y.i.w.s.b.J.G.J.G.0XpXsXsXsXdXsXsXsXsXsXsXsXsXsXsXsXsXsXsXsXsXsXsXsXpXqXqX0X0X0X0X5X4X4X4X5X8X5X3XF.C.C.C.Z.F.w.w.w.w.w.w.w.w.l.s.u.u.u.l.x.x.x.x.u.w.f f i i f f f f f f f f 3 3 3 3 3 3 3 3 3 3 3 3 3 3 3 3 3 3 3 3 3 3 3 3 3 3 3 3 3 3 3 3 3 3 3 3 3 3 3 3 3 3 3 3 3 3 3 3 3 3 3 3 3 3 3 3 3 3 3 3 3 3 3 3 3 3 3 3 3 3 3 3 3 3 3 3 3 3 i f f 3 3 u.C.x.c.C.r.r.r.w.w.f f f i i i i i i i i w.f f i 3 3 < < < < < < < < < < < < < < < < < < < < < < < < < < 3 i 3 o 3 u.c.w.c.x.A.Z.F.Z.Z.C.H.F.F.Z.Z.J.F.F.IXG.H.F.H.3X4X0X5X5X4X3XG.H.F.F.H.H.H.H.H.G.G.G.F.F.F.H.G.G.G.<XH.H.H.H.H.H.H.H.F.H.H.H.G.G.G.G.G.G.G.H.H.H.H.F.H.H.H.H.H.H.H.H.3XG.G.H.H.G.4X6X6X4XIXH.H.G.G.3X3XIXG.H.H.G.4X6XH.H.H.H.H.H.H.H.3XG.G.H.H.IX4X6XH.H.H.H.H.H.H.H.H.H.H.H.H.H.H.H.H.H.H.H.H.H.H.H.3XG.G.3X4XG.Z.x.x.x.C.C.C.x.x.c.r.x.s.3 X < < o o 3 i f i i f I R.E.T.=.,.$.K ",
"I.I.I.U.>.3.[ ! E h.u.F l.H.(.Z.H.G.4X0XpXdXsXsXdXdXsXsXsXsXpXpXdXdXdXdXdXdXdXdXfXsXsXdXlXqX0X0X4X4X4X4X4X4X4X4X5XG.Z.C.Z.F.Z.Z.r.r.r.r.r.r.i.i.f w.w.u.u.u.r.r.x.l.u.w.f f i i f f f f g i i i i i 3 3 3 3 3 < < < < < < 3 3 3 3 3 3 3 3 3 3 3 3 3 3 3 3 3 3 3 3 3 3 3 3 3 3 3 3 3 3 3 3 3 3 3 3 3 3 3 3 3 3 3 3 3 3 3 3 3 3 3 3 3 3 3 3 3 3 3 3 3 3 3 i f f w.3 i f w.u.l.c.c.c.l.u.w.w.w.r.r.f f f w.f f i 3 i i i i i i i i 3 3 3 3 3 3 3 3 3 3 3 3 3 3 3 3 3 3 3 3 3 3 3 3 < < < 3 i w.x.C.c.x.C.Z.F.F.F.F.F.F.F.F.F.H.H.H.3X3X3X3X3X3X3X3X5X5X4X4XG.H.F.F.G.G.G.G.G.G.G.G.G.G.H.H.G.G.G.G.G.G.G.G.G.G.G.G.G.G.G.G.G.G.H.H.G.G.G.G.G.G.G.G.G.G.H.H.G.G.G.G.3X3X3X3X3X3X3X3X3X3X3X3X3X3X3X3X3X3X3X3X3X3X3X3X3X3X3X3X3X3X3X3X3X3X3X3X3X3X3X3X3X3X3X3X3X3X3X3X3X3X3X3X3X3X3X3X3X3X3X3X3X3X3X3X3X3XG.H.F.Z.Z.Z.Z.x.C.F.F.x.l.x.x.l.w.i < o o o 3 3 i i f f i x R.E.T.=.,.$.K ",
"I.I.I.U.>.3.[ ! E h.u.w.x.(.4XG.).4X0XqXdXsXsXgXpXdXsXsXsXdXpXqXdXdXdXdXdXdXdXdXsXsXsXpXqXqX0X0X5X5X5X5X5X5X5X5X3XF.x.x.x.C.C.x.f f N N f f f f r.r.u.l.l.u.u.r.x.l.r.w.f i i i f f f i i i i i f f i i i i 3 3 3 3 3 3 3 3 3 3 3 3 3 3 3 3 3 3 3 3 3 3 3 3 3 3 3 3 3 3 3 3 3 3 3 3 3 3 3 3 3 3 3 3 3 3 3 3 3 3 3 3 3 3 3 3 3 3 3 3 3 3 3 3 3 3 3 3 3 3 i f w.w.3 i f w.u.l.l.l.c.l.u.w.w.w.r.r.f f f w.f f i i i i i i i i i i 3 3 3 3 3 3 3 3 3 3 3 3 3 3 3 3 3 3 3 3 3 3 3 3 3 < 3 3 i w.l.x.u.l.x.C.Z.Z.Z.Z.Z.Z.Z.Z.J.F.F.F.3X3X3X3X3X3X3X3X8X5X4X4X3XG.H.F.F.F.F.F.F.F.F.F.F.F.F.F.F.F.F.F.F.F.F.F.F.F.F.F.F.F.F.F.F.F.F.F.F.F.F.F.F.F.F.F.F.F.F.F.F.F.F.F.H.H.H.H.H.H.H.H.H.H.H.H.H.H.H.H.H.H.H.H.H.H.H.H.H.H.H.H.H.H.H.H.H.H.H.H.H.H.H.H.H.H.H.H.H.H.H.H.H.H.H.H.H.H.H.H.H.H.H.H.H.H.H.H.G.H.F.F.Z.Z.C.C.Z.x.x.F.Z.l.w.l.l.r.f i < < < < 3 3 i i f f i x R.E.T.=.,.$.K ",
"I.Y.I.U.>.3.[ ! E h.u.w.b.5XqXeX5X0XqXsXgXjXjXjXgXjXjXhXhXjXjXjXjXjXjXjXjXjXjXjXzXhXjXjXgXsXsXsXsXsXsXsXsXsXsXsXsXqX5X4X4X0X5X4XF.F.F.F.F.F.F.F.Z.J.F.F.Z.C.K.x.Z.C.x.c.u.r.r.r.u.u.r.r.w.w.w.w.w.w.w.f f f f f i i i i i i i i i i i i i 6 i i i i i i i i i i i i i i i i i i i i i i i 6 i i 3 i i i i i i i 3 i i i i i i i i i i i i i i i i 3 3 3 i f w.w.i f w.r.l.l.l.l.c.l.u.w.w.w.r.r.f f w.w.w.f i i i i i i i i i i i i i i i i i i i i i i i 6 i i i i i i i i i i i 3 3 i i f w.r.w.w.u.x.x.C.C.C.x.C.C.C.C.C.Z.Z.F.F.F.F.F.F.F.F.G.H.F.F.J.Z.Z.C.Z.Z.Z.Z.Z.Z.Z.Z.Z.Z.Z.Z.Z.Z.Z.Z.Z.Z.Z.Z.Z.Z.Z.Z.Z.Z.Z.Z.Z.Z.Z.Z.Z.Z.Z.Z.Z.Z.Z.Z.Z.Z.Z.Z.Z.Z.Z.Z.Z.Z.Z.Z.Z.Z.Z.Z.Z.Z.Z.Z.Z.Z.Z.Z.Z.Z.Z.Z.Z.Z.Z.Z.Z.Z.Z.Z.Z.Z.Z.Z.Z.Z.Z.Z.Z.Z.Z.Z.Z.Z.Z.Z.Z.Z.Z.Z.Z.Z.Z.Z.Z.Z.Z.Z.Z.Z.Z.Z.Z.Z.Z.Z.Z.Z.Z.C.C.x.x.x.C.c.x.Z.C.w.i f w.f i 3 3 3 3 3 3 3 i i f f i x R.E.T.=.,.$.K ",
"I.Y.I.U.>.3.[ ! T h.y.w.C.wXsXaXqXpXsXgXjXhXbXbXmXBXBXZXZXZXBXBXZXZXZXZXZXZXZXZXCXCXZXBXBXBXmXmXBXBXBXBXBXBXBXBXDXBXhXjXhXbXbXhXsXsXsXsXsXsXsXsXpXlXqXqX0X4X3XH.5X6XG.F.Z.Z.Z.Z.Z.Z.Z.C.C.C.C.C.u.u.r.r.w.w.w.w.w.w.w.f f f f f i i i i i i i i i i i i i i i i i i i i i i i i i i i i i i i i i i i i i i i i i i i i i i i i i i i i i i i i i i i i i f w.r.f f w.u.l.l.l.l.c.l.u.w.w.w.r.r.f w.w.w.w.f g i i i i i i i i i i i i i i i i i i i i i i i i i i i i i i i i i i i i i i i i i i f w.r.l.c.c.c.c.c.c.x.x.x.x.x.l.l.l.l.l.l.l.l.x.x.x.c.l.s.u.u.b.x.x.x.C.C.C.C.C.C.C.C.x.x.x.b.C.C.C.C.x.x.x.b.C.C.C.C.C.C.C.C.b.b.b.x.C.C.C.C.C.C.C.C.x.x.x.b.C.C.C.C.C.C.C.C.C.C.C.C.C.C.C.C.C.C.C.C.C.C.C.C.C.C.C.C.C.C.C.C.C.C.C.C.C.C.C.C.C.C.C.C.C.C.C.C.C.C.C.C.C.C.C.C.C.C.C.C.C.C.C.C.C.C.x.x.x.c.c.l.C.l.l.K.c.i < 3 i i 3 3 3 3 3 i 3 3 i i f f i x R.E.T.=.,.$.K ",
"I.I.I.U.>.3.[ ! T d.i.w.C.qXjXfXdXsXgXjXbXMXMXMXBXBXCXDXFXFXFXDXFXFXFXFXFXFXFXFXFXFXDXDXDXCXCXCXFXFXFXFXFXFXFXFXCXmXhXjXhXbXhXjXdXdXdXdXdXdXdXdXjXgXgXsXdXqX5X4XqX0X4X3XG.H.F.H.F.F.F.F.Z.Z.Z.Z.c.c.l.l.u.u.r.r.r.r.w.w.w.f f f i i i i i i i i i i i i i i i i i i i i i i i i i i i i i i i i i i i i i i i i i i i i i i i i i i i i i i i i i i i i f f w.r.f w.r.u.l.l.l.l.c.l.u.w.w.w.r.r.w.w.w.w.w.N f i i i i i i i i i i i i i i i i i i i i i i i i i i i i i i i i i i i i i i i 3 3 3 i f w.r.r.u.u.u.u.s.l.c.c.c.c.r.r.r.r.r.r.r.r.u.u.u.r.r.r.i.w.c.c.c.c.x.x.x.x.x.x.c.c.c.c.c.z.x.x.c.c.c.c.c.z.c.c.c.c.x.x.x.x.c.c.c.c.c.c.c.c.x.x.c.c.c.c.c.z.c.c.c.c.c.c.c.c.c.c.c.c.c.c.c.c.c.c.c.c.c.c.c.c.c.c.c.c.c.c.c.c.c.c.c.c.c.c.c.c.c.c.c.c.c.c.c.c.c.c.c.c.c.c.c.c.c.c.c.c.c.c.c.c.c.c.c.l.l.f.u.u.C.l.u.x.u.3 O < < < 3 3 i i i i 3 3 i i f f i x R.E.T.=.,.$.K ",
"I.I.I.U.>.3.[ ! E d.w.f b.wXjXjXsXfXjXhXbXMXMXbXMXMXmXBXZXZXZXZXCXCXCXCXCXCXCXCXBXBXBXZXBXBXBXBXZXZXZXZXZXZXZXZXSXBXhXjXhXbXbXhXpXpXpXpXpXpXpXpXsXdXdXpXqX0X4X3X5X4X3XH.F.Z.Z.Z.Z.Z.C.C.C.C.x.x.x.c.c.l.l.u.u.u.u.u.r.w.w.f f f i i i i i i i f i i i i i i i i i i i i i i i i i i i i i i i f i i f f i i i i i i f f i i i i i i i i i i i i i i i i f w.r.u.w.w.u.l.c.l.l.l.c.l.u.w.w.w.r.r.w.w.r.r.w.w.f f i i i i i i i i i i i i i i i i i i i i i i i f i i i i i i i i i i i i i 3 3 < < 3 i f w.w.w.w.r.r.u.u.l.l.l.c.c.c.c.c.c.c.c.c.c.c.c.c.c.c.c.c.c.c.c.c.c.c.c.c.c.c.c.c.c.c.c.c.c.c.c.c.c.c.c.c.c.c.c.c.c.c.c.c.c.c.c.c.c.c.c.c.c.c.c.c.c.c.c.c.l.l.l.l.l.l.l.l.l.l.l.l.l.l.l.l.l.l.l.l.l.l.l.l.l.l.l.l.l.l.l.l.l.l.l.l.l.l.l.l.l.l.l.l.l.l.l.l.l.l.l.l.l.l.l.l.l.l.l.l.l.l.l.l.u.l.l.l.l.u.u.u.x.r.r.c.r.3 X o o < 3 3 i i 3 3 3 3 i i f f i x R.E.T.=.,.$.K ",
"I.I.I.U.>.3.[ ! E y.N i x.0XfXfXsXgXjXhXbXbXbXbXhXbXMXBXBXZXZXBXZXZXZXZXZXZXZXZXBXBXBXBXBXBXBXBXBXBXBXBXBXBXBXBXGXCXMXMXMXmXmXMXsXsXsXsXsXsXsXsXqXlXqXqX0X5X4X3X5X4XG.F.Z.Z.Z.Z.C.C.C.C.x.x.x.x.c.c.c.l.l.s.u.u.u.u.r.w.f f i i f f f f f f f f f f f f f f f f f f f f f f f f f f f f f f f f f f f f f f f f f f f f f f f f f f f f f f f f f i i f f w.r.u.w.r.l.c.c.l.l.u.c.l.u.i.w.w.r.r.w.w.r.r.r.w.f f i i i i i i i i f f f f f f f f f f f f f f f f f f f f f f f f 3 i i i i 3 < < < 3 i f w.w.w.w.r.r.u.u.l.l.c.c.x.x.x.x.x.x.x.x.x.x.x.x.x.x.x.x.c.c.c.c.c.c.c.c.c.c.c.c.c.c.c.c.c.c.c.c.c.c.c.c.c.c.c.c.c.c.c.c.c.c.c.c.c.c.c.c.c.c.c.c.c.c.c.c.l.l.l.l.l.l.l.l.l.l.l.l.l.l.l.l.l.l.l.l.l.l.l.l.l.l.l.l.l.l.l.l.l.l.l.l.l.l.l.l.l.l.l.l.l.l.l.l.l.l.l.l.l.l.l.l.l.l.l.l.l.l.l.l.u.u.u.l.l.l.l.l.x.w.r.c.u.3 o < o < 3 3 i 3 3 < 3 3 i i f f i x R.E.T.=.,.$.K ",
"I.I.I.U.>.3.[ ! E y.N i l.5XfXfXsXgXjXhXbXbXbXhXMXMXBXZXDXDXDXDXFXFXFXFXDXDXDXDXCXCXCXCXCXDXDXDXCXCXCXCXCXCXCXCXDXBXhXjXhXbXbXhXqXqXqXqXqXqXqXqXpXdXdXdXlXqX0X5X0X0X4XG.H.F.F.F.Z.Z.Z.Z.C.C.C.C.c.c.c.l.l.u.u.u.u.u.w.w.f i i i f f f f f f f f f f f f f f f f f f f f f f f f f f f f f f f f f f f f f f f f f f f f f f f f f f f f f f f f f f g f f w.r.u.r.u.l.c.c.c.l.u.c.l.u.i.w.w.i.r.w.r.r.r.r.w.N f i i i i i i i i f f f f f f f f f f f f f f f f f f f f f f f f 3 3 i i i i < < < 3 i f w.w.w.w.u.u.u.l.l.c.c.c.l.l.l.l.l.l.l.l.u.u.f.l.l.l.c.c.c.c.c.c.c.c.c.c.c.c.c.c.c.c.c.c.c.c.c.c.c.c.c.c.c.c.c.c.c.c.c.c.c.c.c.c.c.c.c.c.c.c.c.c.c.c.c.c.l.l.l.l.l.l.l.l.l.l.l.l.l.l.l.l.l.l.l.l.l.l.l.l.l.l.l.l.l.l.l.l.l.l.l.l.l.l.l.l.l.l.l.l.l.l.l.l.l.l.l.l.l.l.l.l.l.l.l.l.l.l.l.l.u.h.l.l.l.l.c.c.c.w.w.c.u.3 < 3 o < 3 i i 3 < < 3 3 i i f f i x R.E.T.=.,.$.K ",
"I.I.I.U.>.3.Q ! E h.y.w.C.wXfXaXpX0XqXbXBXmXMXmXMXMXbXMXBXCXZXBXDXFXFXDXCXZXBXmXZXFXDXMXMXDXFXCXmXBXZXCXCXCXCXZXBXBXmXmXMXMXbXbXdXdXdXdXdXdXdXdXdXdXdXdXpXqX0X0X0X5X4X3XG.H.G.G.C.C.C.C.C.C.C.C.c.c.z.z.z.z.c.z.w.w.w.w.w.w.w.w.f f w.w.f f f f f f f f w.f f f f w.w.w.f i 3 3 3 3 3 3 3 3 3 3 i i i i i i i i u.r.w.N f f w.w.f f w.w.w.f i i w.w.w.f f f f f l.l.l.l.l.l.l.l.u.u.w.w.f F w.w.F w.w.w.w.f f i w.w.w.N f w.w.w.i i i i i i i i f f f f f f f f f f f f f f i 3 f f f f f f f f 3 i i f f w.w.w.u.u.u.u.u.u.u.u.c.c.c.c.l.l.c.c.l.l.c.c.c.c.c.c.l.c.c.c.c.c.c.l.c.c.c.c.l.l.c.c.u.u.u.u.u.u.u.u.l.l.l.l.l.l.l.l.l.l.l.l.l.l.l.l.l.l.l.l.l.l.l.c.u.u.l.l.l.u.w.w.u.u.u.u.u.u.u.u.u.u.u.u.u.u.u.u.u.u.u.u.u.u.u.u.u.u.u.u.u.u.u.u.u.u.u.u.u.u.u.u.u.u.u.u.u.u.u.u.u.u.u.u.u.u.u.u.u.u.u.u.u.u.u.u.c.l.r.w.i 3 < < o < < 3 3 3 3 3 i f f w.w.w.w.I R.E.T.=.,.$.K ",
"I.I.I.U.>.3.[ ! E h.y.w.C.wXfXaXaXqXpXMXZXBXMXBXMXjXgXgXjXjXgXdXsXsXsXsXdXqXqX0X4X0X0X4X0XjXMXbXMXMXmXBXBXBXBXBXCXZXZXZXBXBXBXBXBXBXBXBXBXBXBXBXZXZXZXZXBXMXbXhXhXjXfXsXdXpXpXdXpXpXpXpXpXpXpXpXqXqXqXqXqXqXqXqXpXpXpXpXpXpXpXpXqXqXqXqXqXqXqXqXqXqXqXqXqXqXqXqXqXqXpXqXqX0X5X4X4X4X4X4X4X4X4X4X5X5X5X5X5X5X5X5X3XG.H.F.F.F.F.F.F.F.F.H.F.F.Z.Z.F.Z.Z.Z.Z.C.C.C.C.C.C.C.C.C.C.C.C.x.x.c.l.l.c.c.l.c.x.x.c.l.u.r.l.l.l.l.l.l.l.l.w.w.w.w.w.w.w.w.w.w.w.w.w.w.w.w.w.w.w.w.w.w.f i f f f f f f f f i i i i i f f f i i i i i i i i i i i i i i i i i i i i i i i i i i i i i i i i i i i i i i i i i i i i i i i i f f f f f f f f f f f f f f f f f f f f f f f f i i i f i i 3 3 i i i i i i i i 3 3 q 3 i i i i i i i i i i i i q q i i i i i i i i i i i i i i i i i i i i i i 3 3 i i i i i i i i i i i i i i i i 3 3 3 < < < < 3 3 i i i i i i f f w.w.w.w.I R.E.T.=.,.$.K ",
"I.I.I.U.>.3.[ ! E h.y.w.K.wXfXaXfXpXsXmXDXZXBXZXmXhXsXdXpXqX0X4XqXpXpXqXqX0X5X4XF.4X4XG.5XgXMXhXhXbXMXmXNXmXmXMXZXZXZXZXZXCXCXCXGXGXGXGXGXGXGXGXFXFXDXCXBXmXMXhXbXhXjXgXsXsXsXsXgXgXgXgXgXgXgXgXgXgXgXgXgXgXgXgXgXgXgXgXgXgXgXgXsXsXsXsXsXsXsXsXsXsXsXsXsXsXsXsXsXsXsXsXsXpXqX0X0X0X0X0X0X0X0X0X0X0X0X0X0X0X0X0X0X5X4X4X3X4X4X4X4X4X4X4X4X3XG.H.H.H.F.F.F.F.Z.Z.C.C.C.C.C.C.C.C.x.x.c.l.u.f.l.c.f.l.c.c.l.u.r.w.w.w.w.w.w.w.w.w.w.w.w.w.w.w.w.w.r.r.r.r.r.r.r.r.r.u.u.u.u.r.w.f f f f f f f f f i i i i i 3 3 3 < < 3 < 3 3 < < < < < < < < < < < < < < < < < < < < < < < < < < < < < < < < < < < < 3 < 3 4 < < 3 3 3 3 3 3 3 3 3 3 3 3 3 3 3 3 3 3 3 3 3 3 3 3 < < 3 3 3 < o O O O O O O O O O O O O O O O O O O O O O O O O O O O O O O O O O O O O O O O O O O O O O O O O O O O O O O O O O O O O O O O O O X O o < < 3 3 3 3 i i f f f f f f f w.w.r.w.w.^ R.E.T.=.,.$.K ",
"I.I.I.U.>.3.[ ! E h.y.w.K.wXfXaXjXdXsXBXFXCXZXDXCXmXjXsXsXdXqX0XsXsXsXsXsXpXqX0X0XpXpX0XqXjXMXhXhXbXMXmXNXNXmXMXmXNXBXBXZXZXCXCXCXCXCXCXCXCXCXCXCXZXZXBXMXbXjXgXbXjXjXsXsXdXdXsXpXpXpXpXlXpXpXlXdXdXdXdXdXdXdXdXqXqXqXqXqXqXqXqXqXqXqXqXqXqXqXqXqXqXqXqXqXqXqXqXqXqXqXqX0X5X4X3XH.H.H.H.H.H.H.H.H.H.H.H.G.G.G.G.4X4X3XG.H.G.G.IXH.G.G.3XG.H.F.Z.F.F.Z.Z.Z.Z.C.C.C.C.C.C.C.C.C.C.C.x.x.l.l.l.c.c.l.l.c.c.c.l.r.i.w.w.w.w.w.w.w.w.w.w.w.w.w.w.w.w.i.i.r.r.r.r.i.i.r.u.u.u.u.w.w.f f f f f f f f f f f i 3 3 < < < i i i i i i i i 3 3 3 3 3 3 3 3 3 3 3 3 3 3 3 3 3 3 3 3 3 3 3 3 3 3 3 3 3 3 3 3 i i i i i i i i i i i i i i i i i i i i i i i i i i i i i i i i 3 3 i i i 3 < < < < < < < < < < < < < < < < < < < < < < < < < < = = o = < < < < < < < < < < < < < o < < < < < < o o & < < < < < < < < < < < < < O o < < 3 i i i 3 i i f f f f i f f w.r.r.r.i.R R.E.T.=.,.$.K ",
"I.I.I.U.>.3.[ ! E h.y.w.K.wXfXaXjXsXgXBXFXDXZXDXCXmXjXsXsXfXsXdXdXdXdXdXpXqX0X5X4XqX0X4X8XsXjXgXMXMXmXBXBXBXBXBXBXBXZXZXCXDXDXFXBXBXBXBXBXBXBXBXFXFXFXDXCXBXmXMXmXMXbXjXjXgXgXjXdXdXdXdXdXdXdXdXsXsXsXsXsXsXsXsXsXsXsXsXsXfXsXsXgXgXgXgXgXgXgXgXgXgXgXgXgXgXgXgXgXgXgXgXsXdXlXqX0X0X0X0X0X0X0X0X0X0X0X0X0X0X0X0X5X4X3XG.H.H.G.3XH.G.3X3XG.H.F.F.F.F.F.F.F.Z.Z.Z.Z.Z.Z.Z.Z.Z.Z.Z.Z.Z.C.x.x.x.C.C.x.K.C.C.K.x.c.l.l.l.f.s.u.u.u.l.l.l.l.l.l.l.l.l.w.w.w.w.w.w.w.w.w.w.r.r.w.w.f f f f f f f f f f f f i i 3 < < o i i i i i i i i i i i 6 i i i i i i i i i 3 q i i i i i i i i i i i i 3 i i i i i i i i i i i i i i i i i i i i i i i i i i i i i i i i i i i i i i i i i 3 3 < < < < < < < < < < < < < < < < < < < < < < < < < < < < < < < < < < < < < < < < < < < < < < < < < < < < < < < < < < < < < < < < < < < < < < 3 3 3 < 3 i i i i i i f Y w.r.u.u.r.R R.E.T.=.,.$.K ",
"I.I.I.U.>.3.[ ! E h.i.w.K.wXfXaXjXdXgXBXFXDXZXDXBXhXsXqXpXsXsXsXsXsXsXsXdXqX0X0XG.5X0X4XwXhXmXMXMXMXmXBXBXBXBXBXSXSXDXDXDXFXFXFXDXDXFXFXFXFXFXDXDXDXDXDXCXBXBXmXbXhXjXsXsXsXsXsXsXsXdXdXdXdXdXdXsXsXsXsXsXsXsXsXpXpXpXpXpXpXpXpXdXdXsXdXdXdXdXdXdXsXdXdXsXsXdXdXdXsXsXsXpXqX0X0X5X5X5X5X5X5X5X5X4X4X4X4X4X4X4X4X3XG.H.F.F.F.F.F.F.F.F.H.F.F.Z.C.Z.Z.Z.Z.Z.C.C.C.x.x.x.x.x.x.x.x.x.x.l.u.u.u.u.l.u.u.l.l.s.r.w.w.w.w.w.w.w.w.w.w.w.F w.w.w.Y N N w.w.w.w.w.w.w.w.w.w.w.i.w.w.f i f f f f f f f f f f f i 3 3 < < 3 3 3 3 3 3 3 3 3 3 3 3 3 3 3 3 3 3 3 3 3 3 3 3 3 3 3 3 3 3 3 3 3 3 3 3 3 3 3 3 3 3 3 3 3 3 3 3 3 3 3 3 3 3 3 3 3 3 3 3 3 3 3 3 3 3 3 3 3 3 3 3 < < 3 3 3 < o O o o o o o o o o o o o o o o o o o o o o o o o o o o o o o o o o o o o o o o o o o o o o o o o o o o o o o o o o o o o o o o o o o o o o O O O X < 3 3 i i i i i f w.r.u.f.u.u.R R.E.T.=.,.$.K ",
"I.Y.I.U.>.3.[ ! E h.i.w.C.wXfXaXgXpXsXBXFXCXBXCXBXbXsXqXqXpXdXdXgXjXjXgXsXsXpXqXeXpXpX0XpXbXBXMXhXbXMXmXmXmXMXMXBXBXBXBXmXmXmXmXZXZXZXZXCXCXCXZXMXMXmXmXmXmXMXMXhXjXgXsXdXpXdXdXsXsXsXsXsXsXsXsXsXsXsXsXsXsXsXsXqXqXqXqXqXqXqXqXqXqXlXqXqXqXqXqXqXqXqXqXqXqXqXqXpXpXpXpXqX0X5X4X4X4X4X4X4X4X4X4X4X4X4X4X4X4X4X4X0X5X4X4X3X3X4X4X3X4X6X4X4X3XH.H.H.F.F.F.F.Z.Z.Z.C.C.C.C.C.C.C.C.C.C.x.c.l.c.c.x.c.c.c.x.c.l.u.r.s.s.l.l.l.l.l.l.i.i.r.r.r.r.w.i.r.r.r.r.r.r.r.r.r.u.u.u.u.r.w.f f f f f f f f f w.f f f i i i 3 3 3 3 3 3 3 3 3 3 3 3 3 3 3 3 3 3 9 3 3 3 3 3 3 3 3 3 3 3 3 3 3 3 3 3 3 i 3 i i 3 3 3 3 3 3 3 3 3 3 < < < < < < < < < 3 3 3 < < < < < < < < < < < < < < < < O X o o o o o o o o o o o o o o o o o o o o o o o o o o o o o o o o o o o o o o o o o o o o o o o o o o o o o o o o o o o o o o o o o o o o o < < < 3 i i f f f f f w.w.r.u.l.l.u.! R.E.T.=.,.$.K ",
"I.Y.I.U.>.3.[ ! E h.y.w.C.wXfXaXfXpXsXmXDXZXBXZXFXBXjXdXpXdXsXdXpXdXdXdXpXqX0X5XqXsXpX5X5XdXsXpXjXjXhXMXMXMXbXbXhXjXjXjXfXsXsXsXhXhXhXhXhXhXhXhXMXmXBXBXBXBXBXBXCXZXBXMXMXMXMXMXMXMXMXMXMXMXMXMXMXMXMXMXMXMXMXMXmXmXmXmXmXmXmXmXBXBXBXBXBXBXBXBXBXBXBXBXBXBXBXBXBXBXBXBXBXMXbXhXbXbXbXbXbXbXbXbXhXhXhXhXhXhXhXhXMXMXhXjXjXjXjXhXjXjXhXhXhXjXgXsXdXdXpXpXqXqXqXqXqXqXqXqXqXqXqXqXqX0X0X5X4X4X5X5X4X5X5X5X5X6X3XG.4X4X4X4X4X4X4X4XG.G.G.G.G.G.G.G.l.l.l.l.l.l.l.l.l.c.c.c.c.s.r.w.f f f f f f f f w.f f f f i i i i i i i i i i i f f f f f f f f f f f f f f f f f f f f f f f f f f f f f f f f i i i i i i i i i i 3 3 3 3 3 3 3 3 3 i i i 3 3 3 3 3 3 3 3 3 3 3 3 3 3 3 3 < o 3 3 3 3 3 3 3 3 3 3 3 3 3 3 3 3 3 3 3 3 3 3 3 3 3 3 3 3 3 3 3 3 3 3 3 3 3 3 3 3 3 3 3 3 3 3 3 3 3 3 3 3 3 3 3 3 3 3 3 3 3 3 3 3 < < 3 3 i i f f i f f w.w.w.w.w.w.w.r.u.l.l.u.! R.E.T.=.,.$.K ",
"I.I.I.U.>.3.[ ! E h.y.w.C.wXfXaXsXqXdXmXDXCXZXSXSXmXgXdXdXsXsXdXgXgXsXsXdXdXpXlXfXsXdXdXdXsXjXzXgXgXjXjXjXjXjXjXpXqXqX0X4X4X4X6XsXsXpXqXpXgXbXMXhXhXhXhXbXMXAXBXMXAXBXZXCXZXZXBXmXAXBXBXZXZXCXCXmXBXBXBXZXZXCXCXBXBXBXBXZXZXCXCXCXCXZXZXBXBXBXBXZXZXZXZXBXBXBXBXmXmXBXBXZXZXCXSXBXBXBXBXBXZXZXCXCXCXZXZXBXBXBXBXDXCXBXmXmXBXCXDXBXBXBXBXmXMXhXjXMXMXMXMXMXMXMXMXMXhXgXsXpXdXdXsXpXpXpXpXpXpXdXpXdXdXpXpXpXpXpXpXqXqXqXpXdXsXsXsXsXjXsX4X3X0X0X3X4XZ.s.f f w.w.w.c.c.c.c.c.c.c.c.r.u.u.u.r.w.f i f f f f f f f f f f f f f f f f f f f f f f f f f f f f f f f f f f f f f f f f f f f f f f f f f f g i i i 3 3 3 3 3 3 3 3 3 3 3 3 3 3 3 3 3 3 3 3 3 3 3 3 3 3 3 3 3 3 3 3 3 3 3 3 3 3 3 3 3 3 3 3 3 3 3 3 3 3 3 3 3 3 3 3 3 3 3 3 3 3 3 3 3 3 3 3 3 3 3 3 3 3 3 3 3 3 3 3 3 3 3 3 3 3 3 3 3 3 i i 3 3 i i f f f f f f f f f f i f f w.r.u.l.c.w.w.w.w.w.w.w.R R.E.T.=.,.$.K ",
"I.I.I.U.>.3.[ ! E h.y.w.C.wXfXaXsXqXdXmXDXCXZXSXDXmXgXdXdXsXsXdXgXgXsXsXsXdXdXdXsXsXdXdXsXgXhXbXgXgXgXgXgXgXgXgXsXdXqX5X4X4X6X4XgXsXdXpXdXgXbXMXmXmXmXmXBXCXFXFXDXFXFXGXGXGXFXFXDXDXFXFXFXGXGXGXBXBXBXBXZXZXCXCXFXFXFXFXFXFXFXGXGXFXFXFXFXFXFXFXZXZXZXZXZXBXBXBXBXBXBXBXZXZXCXCXFXFXFXFXFXFXFXGXGXFXFXFXFXFXFXFXDXZXBXmXmXmXBXZXBXBXBXBXMXMXhXjXMXMXMXMXMXMXMXMXmXMXjXgXsXsXsXsXdXdXdXdXdXdXdXdXdXdXdXdXdXdXdXdXqXlXpXdXdXsXsXsXsXjXdX4X3X0X0X4X4XF.l.w.w.w.w.w.c.c.c.c.c.c.c.c.r.r.r.r.w.f f i i i i i i i i i i i i i i i i i f f f f f f f f f f f f f f f f f f f f f f f f f f f f f f f f f f i i i i 3 3 3 3 3 3 3 3 3 3 3 3 3 3 3 3 3 3 3 3 3 3 3 3 3 3 3 3 3 3 3 3 3 3 3 3 3 3 3 3 3 3 3 3 3 3 3 3 3 3 3 3 3 3 3 3 3 3 3 3 3 3 3 3 3 3 3 3 3 3 3 3 3 3 3 3 3 3 3 3 3 3 3 3 3 3 3 3 3 3 i 3 3 3 3 i f f i i i i i i i i f f f w.r.u.l.l.w.w.w.w.w.w.w.R R.E.T.=.,.$.K ",
"I.I.I.U.>.3.[ ! E h.y.w.C.wXfXaXsXqXdXmXFXCXZXDXSXmXgXdXdXsXsXdXgXgXgXsXsXsXsXsXsXsXsXsXgXjXbXMXsXsXsXfXsXsXsXsXjXsXqX4X3X3X4X0XgXsXsXdXsXgXbXMXhXhXhXbXMXBXCXDXZXCXDXDXDXCXZXBXBXBXZXZXZXCXCXCXZXZXZXZXCXCXCXDXCXCXCXCXCXZXZXZXZXZXCXCXCXCXCXSXCXZXZXZXCXCXCXCXBXBXZXZXCXCXCXDXCXCXCXCXCXZXZXZXZXZXCXCXCXCXSXSXDXCXBXmXmXmXmXBXmXBXBXBXmXMXhXjXbXbXbXbXMXMXMXMXBXMXbXjXsXsXsXsXsXsXsXsXsXsXsXsXsXsXsXsXsXsXsXsXpXpXdXdXdXsXsXsXdXgXdX4X3X0XqX4X5XF.c.w.w.r.r.r.c.c.c.c.l.l.l.l.w.w.w.w.w.f i 3 i i i i i i i i i i i i i i i i f f f f f f f f f f f f f f f f f f f f f f f f f f f f f f f f f f i i i 3 3 3 3 3 3 3 3 3 3 3 3 3 3 3 3 3 3 3 3 3 3 3 3 3 3 3 3 3 3 3 3 3 3 3 3 3 3 3 3 3 3 3 3 3 3 3 3 3 3 3 3 3 3 3 3 3 3 3 3 3 3 3 3 3 3 3 3 3 3 3 3 3 3 3 3 3 3 3 3 3 3 3 3 3 3 3 3 3 3 3 3 3 3 3 3 3 i f i i i i i i i i f f f w.w.r.u.l.r.r.i.r.r.r.r.R R.E.T.=.,.$.K ",
"I.I.I.U.>.3.[ ! E h.y.w.C.wXfXaXsXqXdXmXFXCXZXSXSXmXgXdXdXsXsXdXsXsXsXsXsXsXsXsXsXsXsXsXgXjXhXbXgXgXgXgXgXgXgXgXjXsXqX4X3X4X5X0XgXsXsXsXsXgXjXbXjXjXjXhXMXBXZXDXZXZXCXCXCXZXBXmXBXBXBXBXBXBXBXBXDXDXDXDXDXDXFXDXCXCXZXZXZXBXBXBXBXBXBXZXZXCXCXCXCXCXCXDXDXDXFXFXDXDXDXDXDXDXDXDXCXCXZXZXBXBXBXBXBXBXBXZXZXCXCXCXDXCXZXBXBXmXmXmXNXBXBXBXBXMXMXbXbXbXbXbXbXbXbXbXMXMXhXjXfXsXsXdXdXdXdXdXdXdXdXdXdXdXdXdXdXdXdXdXpXpXpXpXpXpXpXdXdXsXpX4X3X0XqX5X5XF.x.w.w.r.r.r.l.l.l.l.l.l.l.l.w.w.w.w.w.f i 3 i i i i i i i i i i i i i i i i f f f f f f f f f f f f f f f f f f f f f f f f f f f f f f f f f i i i i 3 3 3 < < < < < < < < < < < < < < < < < < < < < < < < < < < < < < < < < < < < < < < < < < < < < < < < < < < < < < < < < < < < < < < < < < < < < < < < < < < < < < < < < < < < < < < < 3 3 < < 3 3 i i i i i i i i i i f f w.w.w.r.r.u.r.r.r.r.r.r.r.Q R.E.T.=.,.$.K ",
"I.I.I.U.>.3.[ ! E h.i.w.K.wXfXaXsXqXdXmXFXCXZXDXSXmXgXdXdXsXsXdXdXdXdXdXdXdXsXsXdXsXsXsXfXgXgXgXfXgXgXgXfXfXfXfXgXdXqX5X4X5X0XqXsXsXsXsXsXsXgXjXMXMXmXmXBXSXFXGXFXFXGXGXGXFXFXDXFXDXDXDXDXDXDXDXDXDXDXDXDXDXCXCXFXFXFXFXFXFXFXFXFXFXFXFXFXFXFXFXZXZXCXCXDXFXFXFXDXDXDXSXCXCXCXCXFXFXFXFXFXFXFXFXFXFXFXFXFXFXFXFXZXZXZXBXBXBXmXMXmXNXBXBXBXmXMXMXhXhXhXhXhXhXhXhXjXjXjXjXgXsXsXdXdXdXdXdXsXsXsXsXdXsXdXdXdXdXdXdXpXpXpXpXpXpXpXqXdXgXdX4X3X0X0X4X5XF.c.w.w.w.r.w.l.l.l.l.l.l.l.l.w.i.r.w.w.f i i i i i i i i i i i i i i i i i i f f f f f f f f f f f f f f f f f f f f f f f f f f f f f f f f f f i i i i 3 3 3 3 3 3 3 3 3 3 3 3 3 3 3 3 3 3 3 3 3 3 3 3 3 3 3 3 3 3 3 3 3 3 3 3 3 3 3 3 3 3 3 3 3 3 3 3 3 3 3 3 3 3 3 3 3 3 3 3 3 3 3 3 3 3 3 3 3 3 3 3 3 3 3 3 3 3 3 3 3 3 3 3 3 3 3 3 3 3 3 3 3 3 3 q i f i i i i i i i i w.w.w.w.w.w.r.r.u.u.u.r.u.u.r.! R.E.T.=.,.$.K ",
"I.I.I.U.>.3.[ ! E h.i.w.K.wXfXaXsXqXdXmXFXCXZXDXSXmXgXdXdXsXsXdXqXqXqXqXpXpXpXpXdXdXsXsXsXpXqXqXpXpXpXpXpXpXpXpXqXqXqX0X0XqXqXqXdXdXdXdXdXdXdXdXjXjXjXjXjXhXMXMXbXMXMXBXBXBXBXmXMXMXMXMXbXbXbXhXBXBXBXNXmXmXMXMXMXMXMXmXmXBXBXBXBXBXBXmXmXMXMXMXMXMXMXmXBXBXBXZXBXBXBXmXmXMXMXMXMXMXMXmXmXBXBXBXBXBXBXmXmXMXMXMXhXbXMXMXMXMXMXbXhXbXMXMXMXMXbXhXhXhXhXhXhXhXhXhXgXjXjXhXhXjXjXgXjXjXjXjXjXjXjXjXjXjXjXjXjXjXjXjXgXgXsXsXsXsXsXsXfXjXsX4X3X8XeX3X4XZ.l.f f w.w.w.u.u.u.u.u.u.u.u.u.u.u.u.i.w.f i f f f f f f f f f f f f f f f f f f f f f f f f f f f f f f f f f f f f f f f f f f f f f f f f f f i i i 3 3 3 3 3 3 3 3 3 3 3 3 3 3 3 3 3 3 3 3 3 3 3 3 3 3 3 3 3 3 3 3 3 3 3 3 3 3 3 3 3 3 3 3 3 3 3 3 3 3 3 3 3 3 3 3 3 3 3 3 3 3 3 3 3 3 3 3 3 3 3 3 3 3 3 3 3 3 3 3 3 3 3 3 3 3 3 3 3 3 3 i i 3 3 i i f f f f f f f f f f w.w.w.w.w.w.w.w.u.u.u.u.u.u.u.! R.E.T.=.,.$.K ",
"I.I.I.U.@.2.[ ! E h.i.w.C.wXfXaXsXqXdXmXFXCXZXDXSXmXgXdXdXsXsXdX5XeX0X0XqXqXqXqXdXdXsXdXlX0X4X3X5X4X5X5X4X5X4X4X4X5XqXpXdXdXdXpXqXqXqXpXqXqXqX0X0X8X5X4X4X5XeX0X4X0XqXpXdXsXsXsXqXqXqX0X0X0X5X5XjXjXjXgXsXsXsXsX5X0X0XqXpXsXsXgXgXsXsXpXqX0X0X5XdXdXsXsXgXjXhXhXjXjXjXgXsXsXsXsX8X0X0XqXpXsXsXgXgXsXsXpXqX0X0X8XqXpXsXgXjXjXgXgXdXsXsXgXgXgXsXsXjXjXjXjXjXjXjXjXgXjXbXmXBXBXmXMXmXmXmXmXmXmXmXmXmXmXmXmXmXmXmXmXMXMXMXMXbXhXhXjXjXzXsX5XIX4X4XF.G.C.r.i i f f f u.u.u.u.u.u.u.u.c.c.c.c.u.r.w.f w.w.w.w.w.w.w.w.w.w.w.w.w.w.w.w.f f f f f f f f f f f f f f f f f f f f f f f f f f f f f f f f f f p i i i 3 3 i i i i i i i i i i i i i i i i i i i i i i i i i i i i i i i i i i i i i i i i i i i i i i i i i i i i i i i i i i i i i i i i i i i i i i i i i i i i i i i i i i i i i i i i f f i i f f w.w.w.w.w.w.w.w.w.w.w.w.w.w.w.w.w.w.l.l.l.l.h.l.u.! R.E.T.=.,.$.K ",
"I.I.I.U.@.3.[ ! E h.y.w.C.wXfXaXsXqXdXmXFXCXZXDXSXmXgXdXdXsXsXdX6X4X5X5X0X0XwXqXdXdXsXdXqX5XG.F.H.H.H.H.H.H.H.H.H.4XqXsXfXsXsXpX0X0XqXqXqX0X0X8X0X0X4X4X3X3X4X6XIX4X0XqXpXsXsXsX0X0X0X0X5X4X4X4XpXpXqXqXqX0X0X0X3X6X5X0XqXsXsXgXgXsXsXlX0X5X4X4X5X5X0X0XqXpXdXdXpXpXlXqXqX0X0X0X4X4X5X0XlXsXsXgXgXsXsXlX0X5X4X4X3X4X0XpXdXsXdXpX0X0XqXqXpXpXqXqXhXjXjXjXjXjXjXhXjXhXmXZXDXDXDXCXDXDXDXDXDXDXDXDXDXDXDXDXDXDXDXDXCXCXZXBXBXBXmXmXhXMXgX5XG.4X3XF.H.C.w.i i i i i r.r.r.r.r.r.u.u.x.x.x.x.c.u.w.w.w.w.w.w.w.w.w.w.w.w.w.w.w.w.w.w.f f f f f f f f f f f f f f f f f f f f f f f f f f f f f f f f f f i i i i 3 3 f f f f f f f f f f f f f f f f f f f f f f f f f f f f f f f f f f f f f f f f f f f f f f f f f f f f f f f f f f f f f f f f f f f f f f f f f f f f f f f f f f f f f f f f w.f f f f w.w.r.w.w.w.w.w.w.w.w.r.r.i.w.w.w.w.w.l.l.l.l.l.l.l.~ R.E.T.=.,.$.K ",
"I.I.I.U.>.3.[ ! E h.i.w.C.wXfXaXsXqXsXBXFXFXDXFXBXbXsXqXpXsXsXdX0X0X4X4X5XqXsXgXsXsXdXpX0X4X3XH.3X3X3XIXG.G.G.G.F.4XpXsXpXpXsXjXwXqXqXqXqX0X0X5X5X5X4X6X4X3XG.G.H.3X5X0XpXdXsXsXsXqX5X4X5X0X5X4XdXdXsXsXdXqX5X4X0X0X5X5X0XqXpXsXsXdXqX0X0X5X5X8X0XqXqXdXsXsXsXsXsXdXdXsXsXsXqX4X3X3X4X4X0XqXdXsXsXdXqX0X0X5X5X5X3X5XqXsXsXsXdXqXgXsXdXqXpXdXgXjXhXhXjXjXjXhXbXbXMXmXBXCXCXCXBXBXFXFXSXCXZXCXCXDXZXZXZXZXZXZXZXZXmXmXmXmXMXMXhXjXMXBXhX4XF.H.3XG.F.x.N 3 3 i i i r.r.w.w.r.u.l.c.l.l.c.c.c.l.r.w.w.w.f f w.l.u.f w.w.u.w.f i f w.w.f i i w.w.f i i i i i i f f w.f f w.f f i q 3 i i i i i i i i f f f f f f f f f f f f f f f f f f f f f f f f f f f f f f f f i i i i i i i i i i i i i i i i i i i i i i i i i i i i i i i i i i i i i i i i i i i i i i i i i i i i i i i i i i i i i i i i f i i i i f w.w.w.w.w.w.w.w.w.w.w.w.w.w.w.w.w.w.l.l.l.l.l.l.l.~ R.E.T.=.,.$.K ",
"I.I.I.U.>.3.[ ! E h.y.w.C.wXfXaXsXlXsXBXFXDXCXFXBXbXsXqXpXsXsXdX0X5X4X3X4X0XpXsXsXsXsXpXwX5X3XG.G.G.G.G.H.H.H.H.H.5XpXsXpXpXsXgXqXqXqXqXqX0X0X5X5X5X5X4X4X3X3XIXG.3X5XwXpXdXsXsXsXqX5X4X5X0X5X4XsXsXsXsXsXqX0X5X5X4X4X5X0XqXsXgXsXsXpXqX0X0X0X0XqXqXdXsXsXgXgXsXsXdXdXsXsXsXqX6X4X4X4X5X0XpXsXsXdXdXqX0X0X5X5X5X4X0XpXsXgXgXsXpXsXsXdXpXpXdXsXgXbXhXhXjXhXhXMXMXgXjXbXAXBXBXBXBXZXZXBXBXBXBXBXZXBXBXBXBXBXBXBXBXMXMXMXMXbXhXjXgXjXhXsXG.C.Z.F.Z.H.C.w.i i i i i r.r.w.w.w.u.l.c.l.l.c.c.c.f.r.w.l.u.r.r.l.c.u.f l.x.C.x.l.u.l.x.f i 3 3 i i 3 < f f f f f f w.w.i i i f f i i i i i i i i i i i i i i i i i i i i i i i i i i i i i i i i i i i i i i i i i i i i i i i i i i i i i i i i i i i i i i i i i i i i i i i i i i i i i i i i i i i i i i i i i i i i i i i i i i i i i i i i i i i f f i i i f w.w.w.w.w.w.w.w.w.w.w.w.w.w.w.w.w.w.l.l.l.l.l.l.l.~ R.E.T.=.,.$.K ",
"I.Y.I.U.>.3.[ ! E h.y.w.K.wXfXaXsXlXsXBXFXDXZXDXBXbXsXqXpXsXsXdX5X4X4X3X6X0XqXpXsXsXsXpXqX0X4XIXG.G.G.G.G.G.G.G.3X5XqXpXqXqXdXsXqXqXqXqXqX0X0X5X5X5X5X4X6X4X4X4X3X4X8XqXpXsXsXsXsXqX5X4X5X0X5X4XsXsXsXsXsXpXqX0X4X4X4X5X0XpXsXgXsXsXpXqX0X0X0XqXqXqXdXsXgXgXgXsXsXdXdXsXsXsXqX6X5X5X5X0XqXpXsXsXdXpXqX0X5X5X5X5X0XqXdXsXgXsXsXdXsXsXdXpXpXpXdXsXhXhXjXjXjXbXMXMXhXMXBXZXFXFXFXFXFXFXFXFXFXFXFXFXDXDXDXDXDXDXDXDXZXZXZXZXBXmXMXbXhXMXjX5XF.G.4XG.G.C.i.i i f f f r.w.w.w.w.r.s.l.l.l.c.c.c.l.r.w.w.f i f w.w.f i 3 f w.w.f i g f u.r.w.w.u.u.w.i i i 3 3 3 3 3 3 i i i i f f f f f f f f f f f f i i i i i i i i i i i i i i i i i i i i i i i i i i i i i i i i f f f f f f f f f f f f f f f f f f f f f f f f f f f f f f f f f f f f f f f f f f f f f f f f f f f f f f f f f f f f f f f f f f f f f w.w.r.r.r.r.r.r.r.r.r.r.r.r.r.i.r.r.r.l.l.l.l.l.l.l.~ R.E.T.=.,.$.K ",
"I.Y.I.U.>.3.[ ! E h.y.w.K.wXfXaXfXlXsXBXFXCXBXCXBXbXsXqXpXsXsXdX0X0XeX5X0XqXpXdXsXsXsXdXqX0X4X4X4X4X4X4X4X4X5X5X5X0XwXqXqXqXqXpXwXqXqXqXqX0X0X5X5X5X5X5X4X4X4X4X4X4X0XqXdXsXsXsXsXqX5X4X5X0X5X4XqXlXpXlXqXqXqXqX0X0X0X0X0XqXqXpXqXqX0X0X5X5X5X0X5X0XqXpXdXdXdXdXsXdXdXsXsXsXqX6X4X4X4X4X0X0XlXpXqXqX0X0X5X5X8X0X0X0XqXpXdXdXpXlXsXsXdXpXpXpXpXpXsXsXsXsXfXjXhXbXbXMXMXmXBXBXBXZXBXBXZXCXCXCXCXZXZXZXZXZXZXZXZXZXBXBXBXNXMXbXjXjXsXhXgX4XF.G.4XG.F.x.w.3 3 i i i w.w.w.w.w.r.u.l.l.l.c.c.c.l.r.i.w.i i u.x.c.u.u.w.u.x.C.x.c.x.x.3 3 < 3 3 3 O   r.r.u.r.w.w.f f u.r.w.w.f f f N f f f f f f f f f f f f f f f f f f f f f f f f f f f f f f f f f f f f f f f f f f f f f f f f f f f f f f f f f f f f f f f f f f f f f f f f f f f f f f f f f f f f f f f f f f f f f f f f f f f f f f f f w.w.f f f w.r.u.r.r.r.r.r.r.r.r.r.r.r.r.r.r.r.r.l.l.l.l.l.l.l.~ R.E.T.=.,.$.K ",
"I.I.I.U.>.3.[ ! E h.y.w.C.wXfXaXgXpXsXmXDXBXBXZXBXbXsXqXpXdXdXdXpXpXlXlXpXdXdXsXsXsXsXdXlXqX0X4X0X0X0XqXqXqXpXpXqX0X0X0X0XqXqXqXqXqXqXqXqX0X0X5X4X5X5X5X5X5X5X5X4XeXwXlXdXsXsXsXsXqX5X4X4X0X5X4X0X5X5X5X8X0X0X0XdXdXpXqX0X5X4X4X5X4X4X3XG.3X3X4X3X4X5X0X0XqX0X0XsXdXdXsXsXsXwX6X3XIXG.IX3X4X5X0XqX0X0X5X4X5X5X0X4X5X0X0X0X0X0X0XdXdXdXdXpXqXqXqXqX0X0XqXqXdXsXgXdXdXpXqXwX0X0X0XqXqXdXsXsXsXsXdXsXsXsXsXdXsXdXsXdXdXpXqXqX5X4XG.G.8X4XC.l.x.C.x.Z.l.i < o < < < w.w.f f F w.r.u.l.l.c.c.c.s.r.w.x.r.c.4XpX0X0XqXpXgXMXmXMXMXMXmXGXFXGXHXHXGXZXMX0X0X0X0X5X4XG.F.F.Z.C.l.r.w.w.w.w.w.w.w.w.w.w.w.w.w.w.w.w.w.w.w.u.u.u.u.u.u.u.u.u.u.u.u.u.u.u.u.w.w.w.w.w.w.w.w.w.w.w.w.w.w.w.w.w.w.w.w.w.w.w.w.w.w.w.w.w.w.w.w.w.w.w.w.w.w.w.w.w.w.w.w.w.w.w.w.w.w.w.w.w.w.w.w.w.w.w.w.w.w.w.w.w.w.w.w.w.w.w.w.w.w.w.w.w.r.u.l.u.u.u.u.u.u.u.u.u.u.u.u.u.u.u.u.l.l.l.l.l.l.l.~ R.E.T.=.,.$.K ",
"I.I.I.U.>.3.[ ! E d.y.w.C.wXfXaXgXpXsXmXCXBXMXBXBXbXsXqXpXdXdXdXsXsXsXsXsXsXsXsXdXsXsXsXpXqX0X8XqXqXpXdXsXsXsXgXdXqX5X4X0X0X0X5XqXqXqXqXqX0X0X5X4X4X5X5X0X0X0X0XeX0XqXpXsXsXsXsXsXqX5X4X4X0X5X4X4X4X3X3X4X5X0XqXgXgXsXpX0X4XH.F.3XG.H.F.F.H.G.G.F.H.3X4X5X5X5X5XsXdXdXsXsXsXwX4XG.H.H.H.H.G.4X4X0X0X5X4X4X5X5X0X4X4X4X4X4X4X4X5XdXdXsXdXpXqX0X0X4X4X4X5X0XqXpXsXsXdXqX5X4X3X3XG.4X5XqXpXdXdXlXqXlXqXqXqXqXqXqXqXqXqXqX0X5X3XH.F.Z.4X3XC.l.x.C.x.C.r.3 O O o o o w.f f f f w.i.r.l.l.c.c.c.s.r.w.c.f c.0XjXdXdXhXgXMXDXGXFXFXFXFXmXmXmXBXBXMXjXpXsXgXgXgXsXqX5X4X0X4XF.x.u.w.w.w.w.w.w.w.w.w.w.w.u.u.u.u.u.u.u.u.c.c.c.c.c.c.c.c.c.c.c.c.c.c.c.c.u.u.u.u.u.u.u.u.w.w.w.w.w.w.w.w.w.w.w.w.w.w.w.w.w.w.w.w.w.w.w.w.w.w.w.w.w.w.w.w.w.w.w.w.w.w.w.w.w.w.w.w.w.w.w.w.w.w.w.w.w.w.w.w.w.w.w.w.w.w.w.w.r.r.w.w.i.u.l.c.s.s.s.s.u.u.u.u.s.s.s.s.u.u.u.u.l.l.l.l.l.l.l.~ R.E.T.=.,.$.K ",
"I.I.I.U.>.3.[ ! E d.y.w.C.wXfXaXgXpXsXmXCXBXMXmXBXbXsXqXpXdXdXdXsXsXsXsXsXsXdXpXdXsXsXsXdXqXqX0XqXqXpXdXsXsXgXgXsXqX4X4X5X0X0X4XqXqXqXqXqX0X0X5X4X4X5X5X0X0X0XqX0XqXqXdXsXsXsXdXsXqX5X4X4X0X5X4X4X3X3X3X4X0XqXpXsXsXsXdXqX4XH.F.G.G.H.F.F.H.G.3XF.G.3X4X5X5X5X5XsXdXdXsXsXsXqX4X3XIXG.G.G.IX4X4X0X5X4X4X4X5XeX0X0X5X4X4X4X4X5X5XpXdXsXsXpXqXeX4X4X4X4X4X0XqXdXsXjXgXdXqX0X0X0XwX0XqXsXjXjXjXgXsXgXgXgXgXfXfXgXgXgXgXsXsXqX0X4X3XF.5X5XF.C.Z.F.Z.C.u.3 o O o o o f f f f f w.w.r.l.c.c.c.c.s.r.w.i.3 w.5XsX0X0XsX5XdXbXBXBXmXmXBXDXDXFXGXGXDXMXgXpXdXdXdXqX4XH.Z.5X3XZ.x.u.r.r.u.r.r.r.r.r.r.r.r.u.u.u.u.r.r.r.r.c.c.c.c.c.c.c.c.c.c.c.c.c.c.c.c.r.r.r.r.u.u.u.u.r.r.r.r.r.r.r.r.r.r.r.r.r.r.r.r.r.r.r.r.r.r.r.r.r.r.r.r.r.r.r.r.r.r.r.r.r.r.r.r.r.r.r.r.r.r.r.r.r.r.r.r.r.r.r.r.r.r.r.r.r.r.r.r.u.u.r.r.u.l.c.x.l.l.l.l.u.u.s.l.l.l.l.l.s.s.s.s.l.l.l.l.l.l.l.~ R.E.T.=.,.$.K ",
"I.I.I.U.>.3.[ ! E d.y.w.C.wXfXaXgXpXsXMXZXmXMXmXBXbXsXqXpXdXdXdXpXdXdXsXdXdXqXqXdXdXsXsXdXpXqX0X0XqXqXpXdXsXfXgXgXqX4X3X5X0X5X4XqXqXqXqXqX0X0X5X4X4X5X0X0X0XqXqX0XqXpXdXsXsXdXdXsXqX5X4X5X0X5X4X4X6X4X4X4X0XpXsXpXdXdXdXqX0X3XH.3XG.G.H.H.G.4X6XH.3X4X5X0X0X0X0XsXdXdXsXfXsXqX4X4X4X3X3X3X4X4X5X5X4X4X4X6X5XeX0XqX0X0X5X5X5X0X0XpXdXsXsXdXqX5X4X4X4X4X5X0XpXsXsXdXqX0X5X4X5X0XqX4X0XqXsXgXsXdXpXdXdXdXdXdXdXdXdXsXsXdXqX0X4XG.H.C.G.G.C.c.C.C.x.Z.l.i < < < < < f f f f f w.w.r.l.l.c.c.c.l.r.w.x.g u.qXjXqX0XgXpXjXBXFXFXFXFXFXBXBXZXDXDXBXjXpXsXsXgXsXpX0XG.F.3XF.C.c.r.r.s.c.u.u.u.u.u.u.u.u.w.w.w.w.w.w.w.w.l.l.l.l.l.l.l.l.l.l.l.l.l.l.l.l.w.w.w.w.w.w.w.w.u.u.u.u.u.u.u.u.u.u.u.u.u.u.u.u.u.u.u.u.u.u.u.u.u.u.u.u.u.u.u.u.u.u.u.u.u.u.u.u.u.u.u.u.u.u.u.u.u.u.u.u.u.u.u.u.u.u.u.u.u.u.u.u.l.u.u.u.u.l.c.x.l.l.l.l.l.l.l.l.l.l.l.l.l.l.l.l.l.l.l.l.l.l.l.~ R.E.T.=.,.$.K ",
"I.I.I.U.>.3.Q ! E h.i.w.C.wXfXaXpXsXjXbXmXBXBXBXMXhXsXpXsXsXsXdXgXfXsXdXdXdXsXsXpXdXsXsXdXqX5X4X0X0X0XqXpXdXsXsXpXqX0X8X4X4X4X4XqXqXpXqXqX0X5X4X5X4X4X4X6X5X0X0X5X0X0XqXpXdXsXsXqXwX0X5X5X5X5X0X0X8X4X6X4X0XqXpXsXsXdXpXqX5X3XG.F.F.F.F.F.G.4X4XG.3X4X4X5X5X4X6XjXjXjXgXsXqX4X3XF.F.F.F.H.G.3X3XG.IX4X4X4X4X4X3X0X0X5X5X5X0X0XqXsXdXdXsXsXsXwX4X5X4X5X8X0XqXsXsXsXsXpX0X0X5X5X5X4XqXsXfXsXdXdXsXsXsXsXsXsXsXsXsXpXpXsXjXdXG.F.3X4X3XH.F.Z.Z.Z.Z.x.w.3 o < < < o f i i i i f w.w.l.l.l.l.l.l.l.l.c.i w.eXjXpX0XdXqXhXDXKXFXZXZXZXZXZXZXFXGXSXhXqXsXsXsXsXqX4XF.C.0X4XZ.x.r.w.w.r.u.u.u.u.u.u.u.u.s.u.w.f i f l.x.l.l.l.l.l.l.l.l.x.x.x.c.c.c.l.l.C.c.r.w.w.u.s.u.u.u.u.u.u.u.u.u.u.u.u.u.u.u.u.u.u.u.u.u.u.u.u.u.u.u.u.u.u.u.u.u.u.u.u.u.u.u.u.u.l.l.l.u.u.r.r.w.w.w.w.w.w.r.r.r.u.u.u.r.i.w.w.w.r.r.w.w.w.r.u.l.u.u.u.u.l.l.l.l.l.l.l.l.l.l.l.l.u.u.l.c.c.l.u.! R.E.T.=.,.$.K ",
"I.I.I.U.>.3.[ ! E h.i.w.K.wXfXaXpXsXjXbXMXAXBXBXMXhXsXpXsXsXsXdXsXdXpXlXpXpXdXsXpXdXsXsXpXqX5X4X4X5X0X0XqXlXpXdXqXwX0X0X5X5XeX0XqXpXpXqXqX0X5X4X5X4X4X6X4X5X0X0X0X0X0XqXpXdXsXsXqXqX0X5X5X5X0X0X0X5X4X4X4X0XqXpXpXpXpXqX0X0X4X4X3XG.G.H.H.G.3X4XG.IX4X4X5X5X4X6XsXsXsXsXpX0X5X4XH.H.H.G.3X3X4X4X3X4X4X5X0X5X5X4X0X0X5X5X5X0X0XqXsXdXdXsXsXsXwX4X5X4X5X8X0XlXsXsXsXsXpX0X5X5X4X5X4XqXsXfXsXdXdXsXsXsXsXsXsXsXsXsXdXpXsXjXdXG.F.G.3XH.F.Z.Z.C.Z.Z.x.w.3 o < < < o f i i i i f w.w.l.l.u.l.l.l.l.l.l.i r.0XbXsXpXgXsXhXZXDXZXmXmXBXBXmXmXZXDXZXhXdXsXsXsXsXlX5XG.F.H.Z.x.r.f f f f N f f f f f f f c.c.l.r.w.w.u.l.l.l.l.l.l.l.l.l.x.x.x.c.c.l.l.l.w.f f f w.w.w.w.N N N f f f f f f f w.w.f f f f f f f f f f w.w.f f f f f f f f f f w.n f f f N w.w.w.w.f f f f w.w.w.w.w.w.w.w.w.w.w.w.f f f f u.u.r.r.r.u.s.l.x.x.x.x.c.c.l.l.l.s.s.s.l.l.l.l.u.u.l.c.c.l.u.! R.E.T.=.,.$.K ",
"I.I.I.U.>.3.[ ! E h.i.w.C.wXfXaXpXsXjXhXMXmXmXmXMXhXsXpXsXsXsXdXlXqXqXwX0XqXqXpXpXdXsXdXpX0X4X3X3X4X4X4X8X0X0XqX5X5X8X0X0X0X0X0XpXpXpXpXqX0X5X4X5X4X4X4X5XeX0XqX0X0XqXqXpXdXsXsXqXqX0XeX5X5X0X0X0X5X4X4X4X0X0XqX0X0X0X0X0X0X0X0X0X0X4X3XG.G.G.G.G.G.4X4X5X4X4X6X0X0XqXqX0X0X5X4X3X4X4X4X4X4X5X5X4X5X0X0XqXqX0X0X0X0X0X5X5X5X0X0XsXdXdXsXsXsXqX4X5X4X5X8X0XlXsXsXsXsXqX0X5X5X4X5X4XqXsXfXsXdXdXsXsXsXsXsXsXsXsXsXdXpXsXjXpXH.Z.H.F.F.Z.C.x.x.x.x.x.w.3 o < < < o f i i i i f w.w.u.u.u.u.s.s.s.s.l.i u.pXBXbXjXMXjXbXMXMXbXhXbXMXMXbXhXbXMXMXbXjXhXhXbXbXjXsXpXqXdXqX0X4XIXG.3X4X3X3X3X3X3X3X3X3XF.F.H.F.F.C.x.c.l.l.l.l.l.l.l.l.x.x.c.c.l.l.l.s.u.x.Z.F.G.H.F.F.3X3X3X3X3X3X3X3X3X3X3X3X3X3X3X3X3X3X3X3X3X3X3X3X3X3X3X3X3X3X3X3XG.3X3X3X3X3X3X3X4X4X3X3XG.G.G.H.3X3X3X3X3X3X3XIXG.H.H.H.F.F.F.F.Z.Z.C.C.C.C.A.A.Z.Z.Z.C.C.c.l.r.s.s.u.u.s.u.s.s.u.u.l.c.c.l.u.! R.E.T.=.,.$.K ",
"I.I.I.U.>.3.[ ! E h.i.w.C.wXfXaXpXsXgXhXMXMXMXMXMXhXsXpXsXsXsXdX0X0X8X5X5X0XqXqXpXdXdXdXqX0X3XH.G.G.G.3X4X6X4X4X3X4X5X0X0XqXqXqXpXdXdXpXqXqX0X5X5X4X4X4X5X0XqXlXqXqXqXpXpXdXsXsXpXqX0X0X5X0X0X0X5X5X4X4X4X5X8X0X4X4X4X5X0XqXpXpXdXpX0X5X3XG.H.H.G.IX4X4X5X5X4X6X3X3X4X4X5X5X5X5X5X5X5XeX0X0X0X0X5X0XqXqXpXpXpXpXqX0X0X5X5X5X0X0XsXdXdXsXsXsXqX4X5X5X5X8X0XlXsXsXsXsXqX0X5X5X4X5X4XqXsXsXsXdXdXsXsXsXsXsXsXsXsXsXdXpXsXjXqXF.Z.F.Z.Z.C.x.c.c.c.c.x.w.3 o < < < o f i i i i f w.w.u.r.u.u.u.u.u.u.u.i c.sXDXBXMXBXMXMXhXgXsXsXgXjXjXgXsXsXgXhXMXMXZXCXSXDXCXZXBXmXFXDXZXBXBXBXZXCXBXBXBXBXBXBXBXBXpXdXsXsXsX0XH.C.l.l.l.l.l.l.l.l.c.c.c.l.l.s.u.u.x.H.qXgXjXgXsXdXBXBXBXBXBXBXBXBXBXBXBXBXBXBXBXBXBXBXBXBXBXBXBXBXBXBXBXBXBXBXBXBXBXBXBXBXBXBXBXBXZXBXBXBXBXNXmXmXMXMXMXbXbXbXhXhXjXjXjXgXgXsXsXsX5X0X0X0X0X5X4X6XH.H.H.F.Z.x.u.w.u.u.u.u.u.u.u.u.u.u.l.c.c.l.u.! R.E.T.=.,.$.K ",
"I.I.I.U.>.3.[ ! E h.y.w.K.wXfXaXpXsXgXjXbXMXMXMXMXjXsXpXsXsXsXdX5X4X4X4X4X0X0XqXdXdXdXdXqX5XG.F.H.H.H.H.G.G.IXIXH.3X4X0XqXqXqXqXdXdXdXdXpXqX0X5X4X4X4X5X0XqXpXdXpXpXpXpXdXdXaXsXpXqXqX0X0X0X0XqX4X5X5X5X5X4X4X6XG.G.3X4X5XqXsXgXsXsXqX5X3XG.F.F.G.IX4X4X5X5X4X4XF.H.H.G.3X4X5X5X0X0X0X0X0X0X0X0X8X0XqXpXsXsXsXsXqXqX0X5X5X5X5X8XsXdXdXsXsXsXqX4X5X4X5X5X0XqXsXsXsXsXlX0X5X5X4X5X6XwXsXfXsXdXdXsXsXsXsXsXsXsXsXsXdXpXsXgXqXF.C.Z.Z.C.x.c.l.l.l.l.x.w.3 o < < < o f i i i i f w.w.r.r.r.r.r.r.r.r.r.i x.jXGXDXBXDXBXMXgXpXqXpXsXsXsXsXpXqXpXgXMXBXFXFXFXGXGXFXFXFXDXDXCXCXCXDXDXFXCXCXCXCXCXCXCXCXjXjXhXMXMXsX3XC.l.l.l.l.l.l.l.l.c.l.l.l.u.u.r.r.w.Z.qXjXhXgXsXsXCXCXCXCXCXCXCXCXCXCXCXCXCXCXCXCXCXCXCXCXCXCXCXCXCXCXCXCXCXCXCXCXCXCXCXCXCXCXCXCXDXDXDXCXCXZXZXZXBXmXmXMXMXMXbXbXjXjXjXjXjXgXgXsXqXpXpXdXpXqX0X5X3X4X3XG.J.x.r.f r.r.r.r.r.r.r.r.u.u.l.c.c.l.u.! R.E.T.=.,.$.K ",
"I.I.I.U.>.3.[ ! E h.y.w.K.wXfXaXdXsXgXjXhXbXhXhXMXjXsXpXsXsXsXdX4X6X4X4X4X0XqXqXdXdXdXpXwX4XH.J.H.H.H.H.H.H.H.H.H.3X5XqXqXqXqX0XdXsXsXdXpXqX0X0X4X4X4X5X0XqXdXsXdXdXdXdXdXdXdXdXdXpXqX0X0X0XqXqX4X4X5X8X5X4X3XG.H.H.H.G.4XqXsXjXsXdXqX5X3XH.F.F.G.IX4X4X5X4X4X6XF.F.F.F.G.4X5X0XqXqXqX0X0X0X0X0X5X0XqXpXsXsXsXsXpXqX0X5X5X4X5X5XsXdXdXsXsXsXqX4X5X4X5X5X0XqXsXsXsXsXlX0X5X5X4X5X6XwXsXsXsXdXdXsXsXsXsXsXsXsXsXsXdXpXsXgXqXZ.x.Z.Z.C.x.c.l.l.l.l.x.w.3 o < < < o f i i i i f w.w.r.r.r.r.r.r.r.r.r.i x.hXHXFXBXDXZXMXsXqXqXpXdXdXsXdXpXqXqXsXMXZXZXZXCXCXCXCXDXSXNXBXBXBXBXBXBXBXBXBXBXBXBXBXBXBXjXgXgXhXbXsXG.c.l.l.l.l.l.l.l.l.l.l.l.u.u.r.r.r.f C.qXjXjXfXsXgXBXBXBXBXBXBXBXBXBXBXBXBXBXBXBXBXBXBXBXBXBXBXBXBXBXBXBXBXBXBXBXBXBXBXBXBXBXBXBXBXZXZXBXBXBXBXNXmXBXBXmXMXMXbXhXhXhXhXjXjXjXgXgXgX0X0XqXqXqX5X4XG.3X4X4X3XF.x.r.f r.r.i.i.r.r.r.r.u.u.l.c.c.l.u.! R.E.T.=.,.$.K ",
"I.Y.I.U.>.3.[ ! E h.y.w.C.wXfXaXdXsXgXjXhXhXhXjXMXjXsXpXdXsXsXdX4X4X4X4X5X0XqXpXdXdXdXpX0X4XF.Z.G.G.H.H.H.H.H.H.G.4X0XqXpXqX0X5XsXsXsXsXdXqX0X0X4X4X4X5X0XqXsXsXsXsXsXsXdXdXdXdXdXpXqXqX0XqXqXqX4X4X5X0X5X4XG.H.G.H.F.H.4XqXsXjXsXpX0X4XG.F.F.F.G.IX4X4X5X5X4X4XG.H.F.F.H.3X5X0XqXqXwX0X0X5X5X5X4X5X0XpXsXsXsXsXpXqX0X5X4X4X4X4XsXdXdXsXsXsXwX4X5X4X5X5X0XpXsXsXsXsXlX0X5X5X4X5X4XwXsXsXsXdXdXsXsXsXsXsXsXsXsXsXsXpXsXsX0XZ.x.C.Z.C.x.x.c.l.c.c.x.w.3 o o < < o f i i i i f w.w.w.w.w.w.w.w.w.w.i.i x.hXHXFXBXCXZXbXdXqXpXsXsXdXdXsXsXpXqXdXbXZXZXZXBXBXBXBXZXZXBXZXZXCXCXZXZXBXCXCXCXCXCXCXCXCXjXsXsXjXhXsXG.c.l.l.l.l.l.l.l.l.l.l.u.u.r.r.w.w.w.F.sXbXhXjXjXbXCXCXCXCXCXCXCXCXCXCXCXCXCXCXCXCXCXCXCXCXCXCXCXCXCXCXCXCXCXCXCXCXCXCXCXCXCXCXCXCXDXDXDXCXCXZXZXZXZXZXBXNXMXMXbXbXMXMXbXbXhXhXjXjX4X0X0XqX0X4XH.F.H.G.4X3XF.x.w.f w.w.w.w.w.w.w.w.u.f.c.c.c.l.u.! R.E.T.=.,.$.K ",
"I.Y.I.U.>.3.[ ! E h.y.w.C.wXfXaXdXsXgXjXjXjXjXjXMXjXsXpXdXsXsXdX4X4X4X4X0XqXpXdXdXdXdXpX0X3XF.Z.G.G.G.G.H.H.H.H.G.6X0XqXpXqX0X4XsXsXsXsXdXqXwX0X4X4X4X5X0XpXsXgXsXsXsXsXsXdXdXdXsXdXqXqXqXqXqXqX4X4X5X0X5X4XG.F.G.H.F.H.3X0XsXjXpXqX0X4XG.F.F.F.G.IX4X4X5X5X4X6X3XG.H.F.H.3X5X0XqXqX0X0X0X5X4X4X4X4X0XqXdXsXsXsXdXpXqX0X4X4X4X4XsXdXdXsXsXsXwX4X5X5X5X0X0XpXsXsXsXsXlX0X8X5X4X5X4XwXsXsXsXdXdXsXsXsXsXsXsXsXsXsXsXpXdXfX0XZ.x.C.Z.Z.C.x.c.c.c.c.x.w.3 o < < < o f i i i i f w.w.w.w.w.w.w.w.w.w.i.i C.bXHXDXmXBXBXhXdXqXdXfXsXpXpXsXsXdXqXdXhXBXFXDXCXZXZXZXCXDXBXBXZXCXCXZXBXmXCXCXCXCXCXCXCXCXbXjXsXjXMXjX4XC.l.l.l.l.l.l.l.l.l.f.u.u.r.r.w.w.f Z.qXjXsXdXsXjXCXCXCXCXCXCXCXCXCXCXCXCXCXCXCXCXCXCXCXCXCXCXCXCXCXCXCXCXCXCXCXCXCXCXCXCXCXCXCXCXDXDXDXCXCXZXZXBXmXMXMXbXhXjXgXgXjXjXjXgXgXgXsXsX0X0XqXpXqX5XG.F.F.H.3X3XF.x.w.i w.w.w.w.w.w.w.w.u.u.l.c.c.l.u.! R.E.T.=.,.$.K ",
"I.I.I.U.>.3.[ ! T y.w.f x.eXaXtXsXsXsXsXjXhXMXmXmXhXsXpXdXdXdXqX5X5X5X5X5X5X5X5XsXdXpXqX0X4X3XG.3X3X3X3X3X3X3X3X5X5X5X5X5X5X5X5XdXdXdXdXdXdXdXdX0X0X0X0X0X0X0X0XdXdXdXdXdXdXdXdX0X0X0X0X0X0X0X0X4X4X6X6X6X4X4X4XF.F.H.3X5X0XqXqXqXqX0X5X3XH.F.F.6X6X4X4X4X6X6X6X3X3X3X3X3X3X3X3X0X0X0X0X0X0X0X0XpXpXpXpXpXpXpXpX5X5X5X5X5X5X5X5XdXdXdXdXdXdXdXdX0X0X0X0X0X0X0X0X0X0X0X0X0X0X0X0XdXdXdXdXdXdXdXdXdXdXdXdXdXdXdXdXgXsXdXqX5XH.Z.C.x.x.x.x.x.x.x.x.r.f < < < 3 3 < f f i i i f w.w.f f f f w.r.l.c.l.f x.jXFXCXmXCXBXMXgXsXsXfXsXdXsXsXgXgXjXjXhXhXZXZXZXCXCXCXCXCXZXZXZXZXZXZXZXZXZXZXZXZXZXZXZXZXjXsXsXgXjXsX4XC.C.C.C.C.x.x.l.u.c.w.w.l.l.f f u.w.F.dXbXbXjXjXjXDXDXDXDXDXDXDXDXCXCXCXCXCXCXCXCXCXZXBXBXBXBXBXZXmXBXZXCXDXFXDXDXGXFXFXDXCXDXDXFXBXZXZXZXZXBXmXmXMXMXbXbXbXbXbXbXgXfXsXsXsXgXjXjX5X0XqXqX0X5X0XqX5X4X5X0XG.l.w.u.w.x.c.f 3 f r.w.< f l.x.x.l.l.~ R.E.T.=.,.$.K ",
"I.I.I.U.>.3.[ ! T y.w.f x.eXaXpXqX0X0X5X5X8X0X0X0XG.Z.C.C.Z.C.C.Z.Z.Z.Z.Z.Z.Z.Z.H.H.F.Z.Z.C.x.x.x.x.x.x.x.x.x.x.Z.Z.Z.Z.Z.Z.Z.Z.Z.Z.Z.Z.Z.Z.Z.Z.Z.Z.Z.Z.Z.Z.Z.Z.Z.Z.Z.Z.Z.Z.Z.Z.Z.Z.Z.Z.Z.Z.Z.Z.C.C.C.C.C.C.C.C.l.c.x.C.C.Z.F.F.F.F.Z.C.C.x.c.l.C.C.C.C.C.C.C.C.x.x.x.x.x.x.x.x.Z.Z.Z.Z.Z.Z.Z.Z.C.C.C.C.C.C.C.C.Z.Z.Z.Z.Z.Z.Z.Z.Z.Z.Z.Z.Z.Z.Z.Z.Z.Z.Z.Z.Z.Z.Z.Z.Z.Z.Z.Z.Z.Z.Z.Z.Z.Z.Z.Z.Z.Z.Z.Z.Z.Z.Z.Z.Z.Z.Z.Z.F.F.F.Z.C.x.l.u.c.c.c.c.c.c.c.c.u.f 3 < 3 i 3 3 3 3 3 3 3 i i f f f f f w.r.l.c.c.f C.jXGXCXBXDXZXMXjXsXgXgXsXsXsXsXgXgXjXjXjXhXsXsXsXsXsXsXsXsXgXgXgXjXjXjXjXjXjXjXjXjXjXjXjXjXjXsXdXsXjXdX3XC.C.C.C.C.x.x.l.u.Z.x.x.F.H.Z.Z.G.Z.0XMXDXZXmXMXmXsXsXsXsXsXsXsXsXdXdXdXdXdXdXdXdXsXdXqXqX0X0XqXqX0XqXqXdXsXsXsXsXqXqX0X0X0XqXqXqXpXpXdXdXdXqXqX0XdXdXdXdXsXsXsXsXqXqX0X0X0X0XqXqXpXsXsXsXpXpXgXhXBXmXBXCXMXqX4X0XG.6XF.w.< < < o < f l.x.x.l.l.~ R.E.T.=.,.$.K ",
"I.I.I.U.>.3.[ ! T y.w.f x.eXaXpXsXdXqX0X4X3X3X3X3XF.x.c.x.x.c.l.C.C.C.C.Z.C.C.C.Z.Z.Z.C.C.C.x.x.x.x.x.x.x.x.x.x.C.C.C.C.Z.C.C.C.x.x.x.x.x.x.x.x.C.C.C.C.C.C.C.C.x.x.x.x.x.x.x.x.C.C.C.C.C.C.C.C.C.C.C.C.C.C.C.C.x.x.x.x.C.C.C.Z.C.C.C.C.C.x.x.x.C.C.C.C.C.C.C.C.x.x.x.x.x.x.x.x.C.C.C.C.C.C.C.C.c.c.c.c.c.c.c.c.C.C.C.C.Z.C.C.C.x.x.x.x.x.x.x.x.C.C.C.C.C.C.C.C.C.C.C.C.C.C.C.C.x.x.x.x.x.x.x.x.x.x.x.x.x.x.x.x.x.x.C.C.C.C.x.x.u.u.u.u.u.u.u.u.c.w.i 3 i i i i < o o o o < 3 3 f f f f w.w.u.l.x.w.C.hXHXDXBXFXSXmXjXgXjXjXjXsXgXgXgXjXjXjXjXjXsXsXsXsXsXsXsXsXsXsXfXgXjXjXjXhXjXgXgXgXgXgXgXgXgXsXdXsXgXdX3XC.C.C.C.C.x.x.l.u.x.u.x.F.G.F.H.5X4XsXCXHXFXCXZXCXpXpXpXpXpXpXdXdXpXpXpXpXpXpXpXpXpXqX0X5X4X4X4X4X4X5X0XqXqXpXqXqX3X3X3X3X3X4X0X0XqXqXpXpXqXqX0X0X0X0X0X0XqXqXpXpXqX0X5X4X4X3X4X4XsXsXsXsXdXgXMXZXFXCXFXGXBXsXqXdXdXdX3Xw.O X O X < f s.x.x.l.l.~ R.E.T.=.,.$.K ",
"I.I.I.U.>.3.[ ! T y.w.f x.eXaXpXjXgXsXqX0X5X4X4X0X3XJ.A.Z.Z.Z.C.Z.Z.Z.Z.Z.Z.Z.Z.C.C.C.Z.Z.Z.Z.Z.A.A.A.C.C.C.A.Z.Z.Z.Z.Z.Z.Z.Z.Z.Z.Z.Z.Z.Z.Z.Z.Z.Z.Z.Z.Z.Z.Z.Z.Z.Z.Z.Z.Z.Z.Z.Z.Z.Z.C.Z.Z.Z.Z.Z.Z.Z.Z.Z.Z.Z.Z.Z.Z.Z.Z.Z.Z.Z.Z.C.C.C.C.Z.Z.Z.Z.Z.Z.Z.Z.Z.Z.Z.Z.Z.Z.C.C.C.C.Z.Z.C.C.Z.C.Z.Z.Z.Z.Z.Z.Z.Z.Z.Z.Z.Z.Z.Z.Z.Z.Z.Z.Z.Z.Z.Z.Z.Z.Z.Z.Z.Z.Z.Z.Z.Z.Z.Z.Z.Z.Z.Z.Z.Z.Z.Z.Z.Z.Z.Z.Z.Z.Z.Z.Z.Z.Z.Z.Z.Z.Z.Z.Z.Z.Z.Z.x.x.C.C.C.C.C.C.u.u.u.u.u.u.u.u.x.r.f i f f f i o o O O O < < 3 f f f f f w.u.l.x.w.C.bXHXFXZXFXDXBXhXjXjXhXjXgXgXgXjXjXjXjXjXjXhXhXhXhXhXhXhXhXgXgXjXjXhXbXbXMXhXhXhXhXhXhXhXhXjXsXsXgXjXsX4XC.C.C.C.C.x.x.l.u.r.w.u.Z.H.Z.Z.<XG.dXBXFXDXZXCXDXjXjXjXjXjXjXjXjXjXjXjXjXgXgXgXgXjXsXdXqX0X5X5X5X0XqXpXsXsXsXsXsX0X0X0X0XqXpXsXsXsXgXgXjXgXsXdXdX0X0XqXqXdXsXsXgXsXpXqX0X5X4X5X4XdXdXpXqXqXsXMXDXBXmXBXCXMXqX4X0XpXpXG.f O < 3 3 < f l.x.x.l.l.~ R.E.T.=.,.$.K ",
"I.I.I.U.>.3.[ ! T y.w.f x.eXaXtXdXpXqX0X5X4X4X4X5XG.Z.C.C.C.C.x.C.C.C.C.C.C.C.C.c.x.x.x.x.x.C.C.x.x.x.x.x.x.x.x.C.C.C.C.C.C.C.C.C.C.C.C.C.C.C.C.x.x.x.x.x.x.x.x.C.C.C.C.C.C.C.C.x.x.x.x.x.x.x.x.x.x.x.x.x.x.x.x.C.C.x.x.x.x.x.x.x.x.x.x.x.x.C.C.x.x.x.x.x.x.x.x.x.x.x.x.x.x.x.x.x.x.x.x.x.x.x.x.C.C.C.C.C.C.C.C.C.C.C.C.C.C.C.C.C.C.C.C.C.C.C.C.x.x.x.x.x.x.x.x.x.x.x.x.x.x.x.x.C.C.C.C.C.C.C.C.C.C.C.C.C.C.C.C.x.x.x.x.x.c.u.r.c.c.c.c.c.c.c.c.x.u.f i f f f f < < o o < < 3 3 f g i f f w.r.u.x.w.C.hXHXDXBXDXDXBXhXjXjXhXjXgXjXjXjXjXjXjXgXgXsXsXsXsXsXsXsXsXsXsXsXsXfXgXjXjXsXsXsXsXfXfXfXsXhXgXsXjXhXsX4XZ.C.C.C.C.x.x.l.u.x.l.x.G.4XF.F.G.F.wXbXZXCXZXDXGXsXsXsXsXsXsXsXsXsXsXsXsXsXsXsXsXsXpXqX8X4X3X3X3X5X0XqXpXdXdXdXpX4X4X6X4X5X0XqXpXdXdXsXsXsXpXqXqX0XqXqXpXsXsXgXgXsXsXpXqX0X8X8X0XpXpXpXqXqXsXmXFXFXDXFXKXBXsXqXdX0XqXF.f o < i i < f u.x.x.l.l.) R.E.T.=.,.$.K ",
"I.I.I.U.>.3.[ ! T y.w.f x.eXaXtXaXdXqXqX0X0XqXqX4XH.C.x.C.C.C.x.Z.Z.Z.Z.Z.Z.Z.Z.C.C.C.C.Z.Z.Z.Z.Z.Z.Z.Z.Z.Z.Z.Z.Z.Z.Z.Z.Z.Z.Z.Z.C.C.C.C.C.C.C.C.A.A.A.A.C.C.C.C.C.C.C.C.C.C.C.C.C.C.C.C.C.C.A.A.C.C.C.C.C.C.C.C.C.C.C.C.C.C.C.C.C.C.C.C.C.C.C.C.C.C.C.C.C.C.C.C.Z.Z.Z.Z.Z.Z.Z.Z.C.C.C.C.A.A.A.A.Z.Z.Z.Z.A.A.A.Z.Z.Z.Z.Z.Z.Z.Z.Z.C.C.C.C.C.C.C.C.A.A.A.A.C.C.C.C.A.A.A.A.C.C.C.C.C.C.C.C.C.C.C.C.C.C.C.C.C.C.C.C.Z.Z.Z.Z.C.x.l.u.c.c.c.c.c.c.c.c.x.r.f i f f f i 3 < < < < 3 3 i i i i i f w.i.u.l.f x.jXGXCXmXCXCXmXjXgXjXjXjXsXjXjXjXjXjXgXgXfXsXsXsXsXsXsXsXsXjXjXjXjXjXjXjXjXjXjXjXjXjXjXjXjXjXgXsXgXjXsX4XC.C.C.C.C.x.x.l.u.r.w.c.F.IXZ.C.F.G.lXMXCXZXZXFXHXdXdXdXdXdXdXdXdXsXsXsXsXsXsXsXsXdXpXqX0X4X4X4X4X0X0XqXdXsXsXsXdX4X3X3X3X4X5X0X0XdXdXsXsXsXpXqXqX0X0X0XwXqXqXpXpXpXqX0X5X4X4X5X5XpXdXsXdXsXjXmXDXFXDXGXHXZXsXqXsXqXqXH.w.o o < < < f s.x.x.l.l.) R.E.T.=.,.$.K ",
"I.I.I.U.@.2.[ ! T y.w.f x.eXaXtXsXsXpXqX0X0X0X0X4XF.C.x.x.C.x.x.Z.Z.C.C.Z.Z.Z.Z.Z.Z.Z.Z.Z.Z.Z.Z.C.C.C.C.C.Z.Z.C.Z.Z.C.C.Z.C.Z.Z.C.C.C.C.C.C.C.C.Z.Z.Z.Z.Z.Z.Z.Z.C.C.C.C.C.C.C.C.Z.Z.Z.Z.Z.Z.Z.Z.C.C.C.C.C.C.C.C.C.C.C.C.C.C.C.C.C.C.C.C.C.C.C.C.C.C.C.C.C.C.C.C.C.C.C.C.C.C.Z.A.Z.Z.Z.Z.Z.Z.Z.Z.C.C.C.C.C.C.C.C.Z.Z.C.C.Z.C.Z.Z.C.C.C.C.C.C.C.C.Z.Z.Z.Z.Z.Z.Z.Z.Z.Z.Z.Z.Z.Z.Z.Z.C.C.C.C.C.C.C.C.C.C.C.C.C.C.C.C.Z.Z.Z.Z.Z.C.x.c.u.u.u.u.u.u.u.u.c.r.i i i f f i < < < < < 3 3 i i i i i f f w.r.r.i c.gXDXBXMXBXZXMXjXsXgXgXsXsXhXhXjXjXgXgXfXsXgXgXgXgXjXjXjXjXhXhXhXjXgXsXsXsXjXjXjXjXjXjXjXjXsXpXqXdXsXlXH.x.C.C.C.C.x.x.l.u.f i u.F.4XF.F.G.5XsXmXZXBXMXBXCXsXsXsXsXsXsXsXsXgXgXgXgXgXfXfXgXsXdXqXqX0X0XqXqXqXpXsXsXgXjXjXgXqXqX0X0X0XwXqXqXsXsXsXgXsXsXpXpX0X0X0X0X0XqXqXqX0X0XeX5X4X5XeX0X0XqXdXdXdXsXhXMXmXMXAXZXhX0X3X5X4X0XH.w.o o o X < f l.x.x.l.l.) R.E.T.=.,.$.K ",
"I.I.I.U.@.3.[ ! T y.w.f x.eXaXtX0X5X3XH.Z.Z.Z.Z.Z.x.r.w.w.w.w.f w.w.w.w.w.w.w.w.l.u.u.r.r.w.w.w.w.w.w.w.w.w.w.w.w.w.w.w.w.w.w.w.w.w.w.w.w.w.w.w.r.r.r.r.r.r.r.r.w.w.w.w.w.w.w.w.r.r.r.r.r.r.r.r.f f f f f f f f f f f f f w.w.w.w.w.w.f f f f f f f f f f f f f w.w.w.w.w.w.w.w.r.r.r.r.r.r.r.r.u.u.r.r.r.r.r.r.w.w.w.w.w.w.w.w.w.w.w.w.w.w.w.w.r.r.r.r.r.r.r.r.r.r.r.r.r.r.r.r.w.w.w.w.w.w.w.w.w.w.w.w.w.w.w.w.w.w.w.r.r.w.w.f w.w.w.w.w.w.w.w.c.w.i 3 i i i i < < o o o < 3 3 i i i i i f w.r.w.3 l.sXCXBXbXBXBXMXgXsXsXsXsXdXhXhXjXjXgXfXsXsXsXsXsXsXsXsXsXsXpXqXqX0X5X4X3XG.0X0X8X8X8XeX0X0XpXwX0XqXpX0XZ.u.C.C.C.C.x.x.l.u.u.u.Z.qXsXpXpXfX0XgXmXmXhXgXjXhX0X0X0X0X0X0X0X0XqXqXqXqXqXqXqXqX0X0X5X4X4X4X5X5X5X0XqXpXdXdXdXdXpXqXqX0X0X0XqXqXqXqXqXqXqX0X0X5XpXpXpXqXqXqXqXqXqXqX0X0X0XqXqXpXG.4X0X0X0X0XpXsXbXjXbXMXgX4XF.3XZ.H.Z.w.< 3 3 o < f l.x.x.l.l.) R.E.T.=.,.$.K ",
"I.I.I.U.>.3.[ ! u y.s.i.x.).0XeX0X4XH.Z.C.C.C.C.Z.c.f 3 i f w.w.f f w.f l f f f f f f f f f l w.f f f f f f f f f f f w.f f f f f f f f f f l w.f f f f f f f f f f f w.f f f f f f f f f f l w.f f f f f f f f f f f w.f f f f f f f f f f l w.f f f f f f f f f f f f f f f f f f f w.f f f f f f f f f f l w.f f f f f f f f f f f w.f f f f f f f f f f l w.f f f f f f f f f f f w.f f f f f f f f f f l w.f f f f f f f f f f f w.f f f f f f f f f f f f < o o o o < 3 3 3 < 3 3 i f w.r.N g l.4XsXgXgXhXsXsXsXdXpXpXqXqXbXbXhXhXjXjXjXgXsXsXsXsXsXpXqXwXqXpX0XZ.C.Z.Z.x.C.F.0XqXqX0X5X5X4X4X4X0XqX5XF.C.C.C.C.x.x.u.w.w.w.i l.qXbXsXdXhXgXgXgXgXsXdXqXqX4X4X4X4X0XqXlXdXdXdXdXdXpXqX0X5X4X5X0XqXqXqXqXqXpXpXpXpXpXpXpXpXqXpXsXgXgXdXqX0X0X0X0X0X0XqXpXsXpXqX0X5X4X4X4X5X0X0XqXdXsXsXsXsX6X4X4X4X0XqXpXdXdXqXpXsX5XC.u.x.r.x.s.3 X < < o < i u.x.x.c.c.5.R.T.T.T.,.$.K ",
"I.I.I.U.>.3.[ ! V y.u.l u.F.5X4XpXqX5XG.F.F.F.H.Z.c.f 3 i f f f f f f f f f f f f f f f f f f f f f f f f f f f f f f f f f f f f f f f f f f f f f f f f f f f f f f f f f f f f f f f f f f f f f f f f f f f f f f f f f f f f f f f f f f f f f f f f f f f f f f f f f f f f f f f f f f f f f f f f f f f f f f f f f f f f f f f f f f f f f f f f f f f f f f f f f f f f f f f f f f f f f f f f f f f f f f f f f f f f f f f f f f f f f f f f f f f < o o o o < 3 3 3 < 3 3 i f w.r.c.u.Z.qXbXbXhXMXhXhXjXjXjXgXgXsXgXfXsXsXsXdXpXpXhXhXhXhXjXsXdXpXqXdX0XF.C.Z.Z.x.x.F.5XqXqX0X0X0X4X4X6XeX0X4XZ.x.C.C.C.C.x.u.w.w.u.f x.dXMXsXdXhXsXsXsXsXsXsXpXqX4X4X4X4X8XwXqXpXdXsXsXdXlX0X5X4X4X4X0XqXpXpXpXpXdXdXdXdXdXdXdXdXqXdXsXgXsXpX0X5X4X4X4X5X0XqXpXsXdXpXqX0X4X4X4X4X0XwXqXdXsXsXsXsX4X4X4X4X5X0XqXpXsXdXsXsX0XC.u.x.r.x.s.3 X < < o < i u.x.x.c.c.5.R.T.T.=.,.$.K ",
"I.Y.I.U.>.3.[ ! U d.i.i w.J.4X4X0X5XG.F.Z.C.C.Z.Z.c.f i i f f i i i i i i i i i i i i i i i i i i i i i i i i i i i i i i i i i i i i i i i i i i i i i i i i i i i i i i i i i i i i i i i i i i i i i i i i i i i i i i i i i i i i i i i i i i i i i i i i i i i i i i i i i i i i i i i i i i i i i i i i i i i i i i i i i i i i i i i i i i i i i i i i i i i i i i i i i i i i i i i i i i i i i i i i i i i i i i i i i i i i i i i i i f f f f f f f f < o o o o < 3 3 3 < 3 3 i f w.r.w.w.x.qXjXgXsXsXfXsXsXsXsXdXdXdXBXAXmXmXMXMXMXMXjXjXgXsXdXqX0X5XpXsXwXF.C.Z.Z.x.x.Z.4X0XqX0X0XqX6X4X4X4X5X3XZ.c.C.C.C.x.x.u.w.w.c.w.x.sXMXgXdXhXsXsXsXsXsXsXsXsX5X4X4X4X8X0XqXpXsXsXsXdXqX0X4X4X3X4X0XqXpXdXsXsXsXsXsXsXsXsXsXsXdXsXsXsXsXqX0X4X3X3X4X4X0XqXpXsXsXdXqX0X4X4X4X4X0XqXqXdXsXsXsXsX5X5X4X4X8X0XqXpXjXsXsXgX0XC.u.x.r.x.s.3 X < < o < i u.x.x.c.c.5.R.T.=.=.,.$.K ",
"I.Y.I.U.>.3.[ ! U y.i.i r.F.eX0X5X4XH.Z.C.x.C.C.Z.x.w.f f f f i f f f f f f f f f f f f f f f f f f f f f f f f f f f f f f f f f f f f f f f f f f f f f f f f f f f f f f f f f f f f f f f f f f f f f f f f f f f f f f f f f f f f f f f f f f f f f f f f f f f f f f f f f f f f f f f f f f f f f f f f f f f f f f f f f f f f f f f f f f f f f f f f f f f f f f f f f f f f f f f f f f f f f f f f f f f f f f f f f f f f f f f f f f f f f f f f < o o o o < 3 3 3 < 3 3 i f w.r.f f x.0XjXsXpXdXsXsXsXsXsXsXsXsXsXsXsXsXdXdXdXdXjXjXjXgXsXqX0X5XpXdX0XF.C.Z.Z.x.C.F.4XqXqXqXqXdXeX4X4X4X4X3XZ.x.C.C.C.x.x.u.w.w.c.w.x.dXMXsXpXjXgXgXsXsXsXsXsXgX5X5X5X4X5X0XqXqXsXsXsXdXqX0X4X3X3X4X0XqXdXsXsXsXsXsXsXsXsXsXsXsXsXsXsXdXpXqX5X4XG.G.3X4X5XqXdXsXgXsXpX0X5X4X4X4X0XqXpXdXsXsXdXdX8X5X5X4X5X0XqXqXjXfXgXgX0XC.u.x.r.x.s.3 X < < o < i u.x.x.c.c.5.R.T.=.=.,.$.K ",
"I.I.I.U.>.3.[ ! V y.i.f u.H.wXwXqX0X4XH.F.Z.F.F.Z.x.w.f w.w.f i f f f f f f f f f f f f f f f f f f f f f f f f f f f f f f f f f f f f f f f f f f f f f f f f f f f f f f f f f f f f f f f f f f f f f f f f f f f f f f f f f f f f f f f f f f f f f f f f f f f f f f f f f f f f f f f f f f f f f f f f f f f f f f f f f f f f f f f f f f f f f f f f f f f f f f f f f f f f f f f f f f f f f f f f f f f f f f f f f f f f f f f f f f f f g f f f < o o o o < 3 3 3 < 3 3 i f w.r.r.w.C.qXbXjXgXjXjXjXhXhXhXhXhXhXjXjXjXjXjXjXjXjXMXMXMXMXhXjXsXdX0XqX5XZ.C.Z.Z.x.Z.H.5X0X0X0XqXdX0X5X4X4X4X4XF.C.C.C.C.x.x.u.w.w.u.f c.pXbXsXpXjXjXjXgXsXsXsXsXgX0X0X5X5X5X0XqXqXsXsXsXdXqX0X5X4X6X5X0XlXdXsXsXsXsXsXsXsXsXsXsXsXdXdXdXpXqX0X0X5X4X4X4X4X0XqXpXsXsXsXpXwX0X5X4X4XqXqXpXdXsXdXdXpX0X0X5X5X5X0X0XqXgXsXsXgX0XC.u.x.r.x.l.3 O < < o < i u.x.x.c.c.5.R.E.T.=.,.$.K ",
"I.I.I.U.>.3.[ ! V y.s.w.s.J.).H.).F.Z.x.l.l.l.c.l.w.f i f f i 3 i i i i i i i i i i i i i i i i f g i i i i i f i i i i i p i i i i i i i i i f f g i i i i i f i i i i i p i i i i i i i i i i f g i i i i i f i i i i i p i i i i i i i i i f f g i i i i i f f f i i i i i f i i i i i p i i i i i i i i i f f g i i i i i f i i i i i p i i i i i i i i i i f g i i i i i f i i i i i p i i i i i i i i i f f g i i i i i f i i i i i p i i i i i 3 3 i i i < o o o o < 3 3 3 < 3 3 i f w.r.r.f u.H.0X5X4X0X0X0X0X0X0X0XqXqXsXsXsXsXgXgXgXgXpXdXdXdXpXqX0X0X3X4XG.C.x.Z.Z.C.Z.F.3X4X4X4X5X0X4X3XG.G.4X3XF.A.C.C.C.x.x.u.w.w.u.i x.dXMXjXsXMXMXbXjXsXdXdXsXgX0X0X5X5X5X0X0XqXpXpXdXdXpXqX0X5X0X0XqXdXsXsXdXdXpXpXdXdXpXpXpXpXqXqXqXqXqXwX0X0X0X0X0X0X0XqXpXdXsXdXqXqX0X0X0X0XqXpXdXsXdXdXpXqX0X0X5X5X5X0X0X0XdXqXpXsX5XC.l.x.r.x.l.3 O < 3 = < i u.x.x.c.c.5.R.E.T.=.,.$.K ",
"I.I.I.U.>.3.[ ! U h.c.w.w.z.s.n u.w.f 3 < < < < 3 < o < 3 3 3 < 3 3 3 3 3 3 3 3 3 3 3 3 3 3 3 3 3 3 3 3 3 3 3 3 3 3 3 3 3 3 3 3 3 3 3 3 3 3 3 3 3 3 3 3 3 3 3 3 3 3 3 3 3 3 3 3 3 3 3 3 3 3 3 3 3 3 3 3 3 3 3 3 3 3 3 3 3 3 3 3 3 3 3 3 3 3 3 3 3 3 3 3 3 3 3 3 3 3 3 3 3 3 3 3 3 3 3 3 3 3 3 3 3 3 3 3 3 3 3 3 3 3 3 3 3 3 3 3 3 3 3 3 3 3 3 3 3 3 3 3 3 3 3 3 3 3 3 3 3 3 3 3 3 3 3 3 3 3 3 3 3 3 3 3 3 3 3 3 3 3 3 3 3 3 3 3 3 3 3 3 3 3 3 3 < < < < < < 3 3 < o o o o < 3 3 3 < 3 3 i f w.r.w.3 3 w.c.r.w.u.r.u.u.l.l.c.c.x.i i i f f f w.w.C.C.C.Z.Z.C.C.x.Z.H.Z.c.c.Z.Z.C.x.Z.F.F.Z.Z.Z.H.F.Z.C.Z.F.F.Z.C.C.C.C.x.x.u.w.w.l.f C.gXZXMXMXCXBXmXjXsXpXpXdXsXqX0X0X5X5X5X0X0XqXqXpXpXpXqXqXwXqXlXdXdXdXdXpXqXqXqXqXqXqXqXqXqX0X0X0X0X0XqXqXpXdXpXqXqXqXqXpXdXpXqXqXqXwXqXqXpXpXpXdXsXdXpXlXqXqX0X0X5X5X5X0X0X0X5X0XpX4XC.l.x.r.x.l.3 O < < = < i u.x.x.c.c.5.R.E.T.=.,.$.K ",
"I.I.I.U.>.3.[ ! T c.x.w.f f 3 + r.w.i < o O o o X   .   O o O X O O o o O O O O O o O O O O o o O O O O O O o O O O o o O O O O o O O O O O O O O O O O O O o O O O o o O O O O O o O O O O o o O O O O O O o O O O o o O O O O o O O O O O O O O O O O O O o O O O O O O O o O O O o o O O O O o O O O O O O O O O O O O O o O O O o o O O O O O o O O O O o o O O O O O O o O O O o o O O O O o O O O O O O O O O O O O O o O O O o o O O O O < < < < < < < < < o o o o < 3 3 4 < 3 3 i f w.r.C.w.i f w.i 3 i i i i f f f w.w.f f f w.w.r.r.u.r.u.l.c.x.x.c.c.x.Z.C.u.l.Z.F.C.c.x.C.x.c.l.x.C.C.x.c.x.A.Z.A.K.C.C.C.x.x.u.i.w.x.w.Z.hXFXZXBXHXCXBXhXsXpXqXpXdXqX0X0X5X5X5X0X0X0X0XqXpXpXpXlXqXdXdXsXsXdXpXqXqX0X0X0X0X0X0X0X0X0X5X5XeX0XqXpXdXsXsXdXpXqXqXpXpXqXqXqXqXqXqXdXsXpXdXdXsXdXpXqXqXqX0X0X5X5X5X0X0X4X3X5XqX4Xx.l.x.r.x.l.3 O < < o < i u.x.x.c.c.5.R.E.T.=.,.$.K ",
"I.I.I.U.>.3.[ ! E d.d.u.r.n g i f f i 3 < < < < 3 3 4 < 3 3 3 3 < < < < < < < < < < < < < < < < < < < < < < < < < < < < < < < < < < < < < < < < < < < < < < < < < < < < < < < < < < < < < < < < < < < < < < < < < < < < < < < < < < < < < < < < < < < < < < < < < < < < < < < < < < < < < < < < < < < < < < < < < < < < < < < < < < < < < < < < < < < < < < < < < < < < < < < < < < < < < < < < < < < < < < < < < < < < < < < < < < < < < < < < < < < < < < < < < < < < < < < < 3 3 3 i f w.u.l.c.u.w.f i i f f f f f f w.w.w.w.w.f i 3 i w.l.x.c.c.l.l.x.C.F.H.C.C.C.C.C.C.C.C.C.C.C.C.C.C.C.C.C.C.C.C.C.C.C.C.x.C.C.Z.A.K.c.s.l.i c.hXJXCXbXNXDXmXjXsXsXsXsXsXqXqXqXqXqXqXqXqXqXqXqXpXsXsXgXjXsXsXsXsXsXsXsXsXdXpXpXpXqXqXqXqXqXqXqXqXpXpXpXdXgXgXsXsXpXqXqXqXqXqXqXpXsXsXgXjXsXsXsXsXsXsXsXsX5X5X5X5X5X5X5X5XG.3X4X4XG.Z.x.l.r.x.h.3 X < < o # i u.x.x.c.c.5.R.E.T.=.,.$.K ",
"I.I.I.U.>.3.[ ! E d.s.u.r.n g i g i 3 < < < < < < < < < < < < < o o o o o o o o < < < < < < < < < < < < < < < < < < < < < < < < < < < < < < < < < < < < < < < < < < < < < < < < < < < < < < < < < < < < < < < < < < < < < < < < < < < < < < < < < < < < < < < < < < < < < < < < < < < < < < < < < < < < < < < < < < < < < < < < < < < < < < < < < < < < < < < < < < < < < < < < < < < < < < < < < < < < < < < < < < < < < < < < < < < < < < < < < < < < < < < < < < < < < < < < 3 3 3 i f w.r.l.l.r.w.f i f f f f f f w.w.w.w.w.f f i i i w.l.x.r.w.w.w.r.c.x.C.x.x.x.x.x.x.x.x.x.x.x.x.x.x.x.x.x.x.x.x.x.x.x.x.c.x.x.x.l.r.f i w.3 u.jXGXZXMXBXBXMXsXdXdXsXsXdX5X5X5X5X0X0X5X5X5X5X0X0XqXpXdXdXdXdXdXdXdXdXdXdXqXqXwX0X0X0X0X5X5X0X0X0X0XwXqXqXdXdXpXqX0X0X5X5X5X5X0X0XqXpXdXdXdXdXdXdXdXdXdXdX4X4X4X4X3X3X3X3X5X0X0X5XG.Z.c.r.r.x.h.3 X < < # # i u.x.x.c.c.5.R.E.T.=.,.$.K ",
"I.I.I.U.>.3.[ ! k.h.h.f.r.n g g i i 3 < o o o o < < o o < < < < O O O O O O O O < < < < < < < < < < < < < < < < < < < < < < < < < < < < < < < < < < < < < < < < < < < < < < < < < < < < < < < < < < < < < < < < < < < < < < < < < < < < < < < < < < < < < < < < < < < < < < < < < < < < < < < < < < < < < < < < < < < < < < < < < < < < < < < < < < < < < < < < < < < < < < < < < < < < < < < < < < < < < < < < < < < < < < < < < < < < < < < < < < < < < < < < < < < < < < < < 3 3 3 3 i f w.u.r.w.w.f f f w.w.N w.w.w.w.w.r.r.f f i i i N r.l.z.c.c.c.x.K.C.Z.Z.Z.Z.Z.Z.Z.Z.Z.C.A.A.Z.Z.Z.Z.Z.Z.Z.Z.Z.Z.Z.Z.Z.Z.Z.Z.C.x.l.w.f c.w.C.hXHXFXZXFXDXBXhXjXjXjXjXgXqXqXqXqXqXqXqXqXqXqXpXpXsXsXsXgXjXjXjXjXjXjXjXjXdXdXdXdXpXpXqXqXqXqXlXpXdXdXsXdXgXsXsXsXdXpXqXqXqXqXpXdXsXsXsXgXjXjXjXjXjXjXjXjX0X0X0X0X0X0X0X0X0X0X0X4XH.C.l.i.r.x.f.3 X < < o # i u.x.x.c.c.5.R.E.T.=.,.$.K ",
"I.I.I.U.>.3.[ ! k.h.l.l.u.w.b g f f i 3 < < < < 3 3 < < < < < < < < < < < < < < < < < < < < < < 3 3 < < < < < < < < < < < < < < < < < < < < < < 3 3 < < < < < < < < < < < < < < < < < < < < < < 3 3 < < < < < < < < < < < < < < < < < < < < < < 3 3 < < < < < < 3 3 < < < < < < < < < < < < < < < < < < < < < < 3 3 < < < < < < < < < < < < < < < < < < < < < < 3 3 < < < < < < < < < < < < < < < < < < < < < < 3 3 < < < < < < < < < < < < < < < < < < < < < < < 3 < 4 < < < < 3 3 3 3 i f w.w.w.w.w.w.w.w.w.r.w.w.w.r.r.u.u.u.f i i i i f w.r.c.c.c.c.c.x.x.x.x.x.x.x.x.x.x.x.x.x.x.x.x.x.x.x.x.x.x.x.x.x.x.x.x.x.x.x.c.u.r.r.l.w.C.dXMXbXjXbXbXgXdXpXdXdXpXqX5X5X5X5XeX5X5X5X5X0X0X0XqXqXqXqXpXpXpXpXpXpXpXpXqXqXwX0X0X0X0X0X0X0X0X0X0XqXqXqXqXqXqXwX0X0X0X5X5X0X0X0XqXqXqXqXpXpXpXpXpXpXpXpX4X4X4X4X4X4X6X6X3XG.G.F.Z.x.l.r.r.x.f.3 X < < o < i u.x.x.c.c.5.R.E.T.=.,.$.K ",
"I.I.I.U.>.3.[ ! k.h.c.l.s.r.n f r.w.f f i i i i i i i i i i i i 3 3 3 3 3 3 3 3 3 3 3 3 3 3 3 3 3 3 3 3 3 3 3 3 3 3 3 3 3 3 3 3 3 3 3 3 3 3 3 3 3 3 3 3 3 3 3 3 3 3 3 3 3 3 3 3 3 3 3 3 3 3 3 3 3 3 3 3 3 3 3 3 3 3 3 3 3 3 3 3 3 3 3 3 3 3 3 3 3 3 3 3 3 3 3 3 3 3 3 3 3 3 3 3 3 3 3 3 3 3 3 3 3 3 3 3 3 3 3 3 3 3 3 3 3 3 3 3 3 3 3 3 3 3 3 3 3 3 3 3 3 3 3 3 3 3 3 3 3 3 3 3 3 3 3 3 3 3 3 3 3 3 3 3 3 3 3 3 3 3 3 3 3 3 3 3 3 3 3 3 3 3 3 3 3 3 3 3 3 3 3 3 3 3 3 3 3 3 3 3 3 3 3 3 i i f w.f f w.w.r.u.u.u.r.r.r.u.u.l.l.l.i i i i i f f f i i i i i i 3 3 < < < < < < < < < < < < < < < < < < < < < < < < < < < < 3 i i i 3 3 f x.F.Z.C.A.F.Z.x.x.C.C.x.c.x.x.x.x.x.x.x.x.x.x.x.x.x.C.C.C.x.x.x.x.K.x.K.K.C.C.C.C.x.x.x.x.x.x.x.x.C.C.C.C.C.C.C.x.x.x.x.x.x.x.x.x.x.K.C.C.x.x.x.x.x.x.x.x.c.c.c.c.c.c.c.c.x.x.x.x.x.c.l.l.r.x.l.3 X < < o < i u.x.x.c.c.5.R.E.T.=.,.$.K ",
"I.I.I.U.>.3.[ ! j.c.c.c.s.r.n n s.u.w.f f f f f f f f f f f f f i i i i i i i i 3 3 3 3 3 3 3 3 3 3 3 3 3 3 3 3 3 3 3 3 3 3 3 3 3 3 3 3 3 3 3 3 3 3 3 3 3 3 3 3 3 3 3 3 3 3 3 3 3 3 3 3 3 3 3 3 3 3 3 3 3 3 3 3 3 3 3 3 3 3 3 3 3 3 3 3 3 3 3 3 3 3 3 3 3 3 3 3 3 3 3 3 3 3 3 3 3 3 3 3 3 3 3 3 3 3 3 3 3 3 3 3 3 3 3 3 3 3 3 3 3 3 3 3 3 3 3 3 3 3 3 3 3 3 3 3 3 3 3 3 3 3 3 3 3 3 3 3 3 3 3 3 3 3 3 3 3 3 3 3 3 3 3 3 3 3 3 3 3 3 3 3 3 3 3 3 3 3 3 3 3 3 3 3 3 3 3 3 3 3 3 3 3 3 3 3 3 i f f i f w.r.l.l.l.l.u.u.u.l.l.c.c.x.i i i i i i i i i i i i i 3 < o O X O O X O O X X X X X O X O O X X X X X X X X X X X O < 3 f f 3 3 i w.r.r.w.w.x.u.w.r.l.l.i.f u.u.u.u.u.u.u.u.u.u.u.u.u.u.u.u.r.r.r.r.r.r.r.r.c.c.c.l.l.u.u.u.u.u.u.l.l.c.c.z.u.u.u.u.u.u.u.u.u.u.u.u.u.u.u.s.r.r.r.r.r.r.r.r.r.r.r.r.r.r.r.r.r.r.r.u.u.l.l.l.r.x.f.3 X < < o < i u.x.x.c.c.5.R.E.T.=.,.$.K ",
"I.Y.I.U.>.3.[ ! m.c.x.z.l.u.w.n u.r.w.f p i f f f f f f f f f f i i i i i i i i 3 3 3 3 3 3 3 3 3 3 3 3 3 3 3 3 3 3 3 3 3 3 3 3 3 3 3 3 3 3 3 3 3 3 3 3 3 3 3 3 3 3 3 3 3 3 3 3 3 3 3 3 3 3 3 3 3 3 3 3 3 3 3 3 3 3 3 3 3 3 3 3 3 3 3 3 3 3 3 3 3 3 3 3 3 3 3 3 3 3 3 3 3 3 3 3 3 3 3 3 3 3 3 3 3 3 3 3 3 3 3 3 3 3 3 3 3 3 3 3 3 3 3 3 3 3 3 3 3 3 3 3 3 3 3 3 3 3 3 3 3 3 3 3 3 3 3 3 3 3 3 3 3 3 3 3 3 3 3 3 3 3 3 3 3 3 3 3 3 3 3 3 3 3 3 3 3 3 3 3 3 3 3 3 3 3 3 3 3 3 3 3 3 3 3 3 3 3 i i 3 i w.u.c.x.x.c.l.l.l.c.c.x.x.x.i i i f i i i i w.w.w.w.w.i 3 < < < < < < < < < < < < < < < < < < < < < < < < < 3 < < < 3 i w.r.f w.u.u.s.c.x.c.C.x.c.x.C.C.c.u.x.x.x.x.x.x.x.x.x.x.x.x.x.x.x.x.x.x.x.x.x.x.x.x.C.C.C.C.x.x.x.x.x.x.x.x.C.C.C.C.x.x.x.x.x.x.x.x.x.x.x.x.x.x.x.x.x.x.x.x.x.x.x.x.x.x.x.x.x.x.x.x.l.u.r.r.r.r.u.l.r.x.l.3 X < < o < i u.x.x.c.c.M.R.E.T.=.,.$.K ",
"I.Y.I.U.>.3.[ ! m.c.x.z.l.u.w.n u.r.l p i i i i i i i i i i i i 6 6 6 6 6 6 6 6 6 6 6 6 6 6 6 6 6 6 6 6 6 6 6 6 6 6 6 6 6 6 6 6 6 6 6 6 6 6 6 6 6 6 6 6 6 6 6 6 6 6 6 6 6 6 6 6 6 6 6 6 6 6 6 6 6 6 6 6 6 6 6 6 6 6 6 6 6 6 6 6 6 6 6 6 6 6 6 6 6 6 6 6 6 6 6 6 6 6 6 6 6 6 6 6 6 6 6 6 6 6 6 6 6 6 6 6 6 6 6 6 6 6 6 6 6 6 6 6 6 6 6 6 6 6 6 6 6 6 6 6 6 6 6 6 6 6 6 6 6 6 6 6 6 6 6 6 6 6 6 6 6 6 6 6 6 6 6 6 6 6 6 6 6 6 6 6 6 6 6 6 6 6 6 6 6 6 6 6 6 6 6 6 6 6 6 6 6 6 6 6 q 6 3 4 3 6 i p 3 p w.f.z.x.x.c.l.l.l.z.c.x.x.b.i i p f p i 6 3 i p f f i 4 o X o o o o o o o o o o o o o o o o o o o o o o o o < # O O O & 3 q 6 l i.w.r.l.x.x.x.l.f.z.b.b.l.r.s.s.s.s.s.s.s.s.l.l.f.s.s.s.u.u.z.z.z.z.c.c.z.z.x.x.c.z.l.l.f.s.s.f.l.l.z.c.x.x.u.u.s.s.s.f.l.l.l.l.f.s.s.s.u.u.z.z.z.z.z.z.z.z.s.s.s.s.f.f.f.f.K.x.l.s.u.u.u.u.u.x.l.3 O < 4 # # i u.x.x.z.z.M.R.T.=.=.,.$.K ",
"I.I.I.O.#.3.5.5.k.h.h.l.s.s.s.s.e.D D k z 0 8 8 k k k k k k k k 7 7 7 7 7 7 7 7 7 7 7 7 7 7 7 7 7 7 7 7 7 7 7 7 7 7 7 7 7 7 7 7 7 7 7 7 7 8 7 7 7 7 7 7 7 7 7 7 * * 1 5 5 5 8 8 7 7 7 7 7 7 7 7 7 7 7 7 7 7 7 7 7 7 7 7 7 7 7 7 7 7 7 7 7 7 7 7 7 7 7 7 7 7 7 7 7 7 7 7 7 7 7 7 7 7 7 7 7 7 7 7 7 7 7 7 7 7 7 7 7 7 7 7 7 7 7 7 7 7 7 7 7 7 7 7 7 7 7 7 7 7 7 7 7 7 7 7 7 7 7 7 7 7 7 7 7 7 7 7 7 7 7 7 7 7 7 7 7 7 7 7 7 7 7 7 7 7 7 7 7 7 7 7 7 7 7 7 7 7 7 7 7 7 7 7 7 7 7 7 7 7 7 7 7 7 7 7 z k D a.g.n.n.n.g.g.g.g.g.g.g.g.k k k k k k k k k k k p 7 1 @ @ @ @ @ @ @ @ @ @ @ @ @ @ @ @ @ @ @ @ @ @ @ @ @ @ @ @ # * 8 7 0 p z k D g.g.b.b.b.g.g.g.g.g.g.g.g.b.b.b.b.b.b.b.b.b.b.b.b.b.b.b.b.b.b.b.b.b.b.b.b.b.b.b.b.b.b.b.b.b.b.b.b.b.b.b.b.b.b.b.b.b.b.b.b.b.b.v.b.b.b.b.b.b.b.b.b.b.b.b.b.b.b.b.b.b.b.b.b.b.b.b.b.b.b.b.b.Z.v.a.0 5 & & * & 0 a.v.b.z.n.M.<.=.&.-.{.%.` ",
"I.I.I.O.#.3.5.5.k.h.h.f.s.s.s.s.a.p.G D l k z 0 l l l l l l l l 0 0 0 0 0 0 0 0 0 0 0 0 0 0 0 0 0 0 0 0 z z 0 0 0 0 0 0 0 z 0 0 0 0 0 0 z 0 0 0 0 0 0 0 z z 0 0 8 8 7 7 7 7 7 7 7 7 7 7 7 7 7 7 7 7 7 7 7 7 7 7 7 7 7 7 7 7 7 7 7 7 7 7 7 7 7 7 7 7 7 7 7 7 7 7 7 7 7 7 7 7 7 7 7 7 7 7 7 7 7 7 7 7 7 7 7 7 7 7 7 7 7 7 7 7 7 7 7 7 7 7 7 7 7 7 7 7 7 7 7 7 7 7 7 7 7 7 7 7 7 7 7 7 7 7 7 7 7 7 7 7 7 7 7 7 7 7 7 7 7 7 7 7 7 7 7 7 7 7 7 7 7 7 7 7 7 7 7 7 7 7 7 7 7 7 7 7 7 7 7 7 7 7 7 7 7 7 z l G a.n.v.v.v.g.g.g.g.g.g.g.g.l l l l l l l l l l l k z 8 * # & & & & & & & & & & & & & & & & & & & & & & & & # & * 8 7 0 z k z l G a.n.v.v.v.g.g.g.g.g.g.g.g.v.v.v.v.v.v.v.v.v.v.v.v.v.v.v.v.v.v.v.v.v.v.v.v.v.v.v.v.v.v.v.v.v.v.v.v.v.v.v.v.v.v.v.v.v.v.v.v.v.v.v.v.v.v.v.v.v.v.v.v.v.v.v.v.v.v.v.v.v.v.v.v.v.v.v.v.v.v.v.v.v.n.D 7 * # * * & z a.v.v.n.v.m.<.=.;.-.{.%.` ",
"I.I.I.O.#.3.5.5.k.h.l.l.s.s.s.s.g.g.a.p.G D l l p.p.p.p.p.p.p.p.k k k k l l k l k k k k l k k k k k k k k k k l k k k k k k k k l l l l k k k k k k k k k k l l z z z z z z z z 0 0 0 0 0 0 0 0 0 0 0 0 0 0 0 0 0 0 0 0 0 0 0 0 0 0 0 0 0 0 0 0 0 0 0 0 0 0 0 0 0 0 0 0 0 0 0 0 0 0 0 0 0 0 0 0 0 0 0 0 0 0 0 0 0 0 0 0 0 0 0 0 0 0 0 0 0 0 0 0 0 0 0 0 0 0 0 0 0 0 0 0 0 0 0 0 0 0 0 0 0 0 0 0 0 0 0 0 0 0 0 0 0 0 0 0 0 0 0 0 0 0 0 0 0 0 0 0 0 0 0 0 0 0 0 0 0 0 0 0 0 0 0 0 0 0 0 0 0 0 0 0 z k D a.g.n.n.n.g.g.g.g.g.g.g.g.p.p.p.p.p.p.p.p.p.p.p.D l z 8 5 8 8 8 8 8 8 8 8 8 8 8 8 8 8 8 8 8 8 8 8 8 8 8 8 8 8 7 0 z k l l z k G a.g.b.n.n.g.g.g.g.g.g.g.g.G p.p.p.p.p.p.p.p.p.p.p.p.p.p.p.p.p.p.p.p.p.p.p.p.p.p.p.p.p.G G p.p.p.p.p.p.p.p.G G G p.p.p.p.p.p.p.p.p.p.p.p.p.G G G p.p.p.p.p.G G G G p.p.p.p.G G G p.p.p.p.p.p.l 0 * # # & * & 0 a.v.v.n.n.M.<.=.&.-.{.%.` ",
"I.I.I.O.#.3.5.5.k.h.l.f.s.s.s.s.z.n.g.g.g.a.p.p.g.g.g.g.g.g.g.g.D D D D D e.D D D D D D D D D D D D D D D D D e.D D D D D D D D e.e.D D D D D D D D D D D D D e.D D D l l l k k 0 0 0 0 0 0 0 0 0 0 0 0 0 0 0 0 0 0 0 0 0 0 0 0 0 0 0 0 0 0 0 0 0 0 0 0 0 0 0 0 0 0 0 0 0 0 0 0 0 0 0 0 0 0 0 0 0 0 0 0 0 0 0 0 0 0 0 0 0 0 0 0 0 0 0 0 0 0 0 0 0 0 0 0 0 0 0 0 0 0 0 0 0 0 0 0 0 0 0 0 0 0 0 0 0 0 0 0 0 0 0 0 0 0 0 0 0 0 0 0 0 0 0 0 0 0 0 0 0 0 0 0 0 0 0 0 0 0 0 0 0 0 0 0 0 0 0 0 0 0 0 0 z k D a.g.n.n.n.g.g.g.g.g.g.g.g.g.g.g.g.g.g.g.g.g.g.g.a.e.l 0 7 0 0 0 0 0 0 0 0 0 0 0 0 0 0 0 0 0 0 0 0 0 0 0 0 0 0 p k k l l D z k e.g.g.n.n.n.g.g.g.g.g.g.g.g.5 5 5 5 5 5 5 5 5 5 5 5 5 5 5 5 5 5 5 5 5 5 5 5 5 5 5 5 5 5 5 5 5 5 5 5 5 5 5 5 5 5 5 5 5 5 5 5 5 5 5 5 5 5 5 5 5 5 5 5 5 5 5 5 1 5 5 5 5 5 5 5 5 5 5 5 5 5 5 5 0 8 * # @ # & * & 0 a.v.b.z.n.M.<.=.&.-.<.%.` ",
"I.I.&.O.#.3.5.M.k.h.l.l.s.s.s.s.z.b.z.z.g.g.g.g.g.g.g.z.z.z.z.z.p.p.p.p.p.p.p.p.p.p.p.p.p.p.p.p.p.p.p.p.p.p.p.p.p.p.p.p.p.p.p.p.p.p.p.p.p.p.p.p.p.p.p.p.p.p.p.p.p.p.e.e.D l l k p p p p p p p p p p p p p p p p p p p p p p p p p p p p p p p p p p p p p p p p p p p p p p p p p p p p p p p p p p p p p p p p p p p p p p p p p p p p p p p p p p p p p p p p p p p p p p p p p p p p p p p p p p p p p p p p p p p p p p p p p p p p p p p p p p p p p p p p p p p p p p p p p p p p p p p p p k e.a.g.z.z.z.g.g.g.g.g.g.g.g.z.z.z.g.z.z.z.z.z.z.z.g.p.D k p p p p p z z z p p p p p p p p p p z z z p p p p k k k k l l l l p k e.a.g.z.z.z.g.g.g.g.g.g.g.g.@ @ @ @ @ @ @ @ @ @ @ @ @ @ @ @ @ @ @ @ @ @ @ @ @ @ @ @ @ @ @ @ @ @ @ @ @ @ @ @ @ @ @ @ @ @ @ @ @ @ @ @ @ @ @ @ @ @ @ @ @ @ @ @ @ @ @ @ @ @ @ @ @ @ @ @ @ @ @ @ & # # # # # & & & p a.b.b.z.z.M.<.&.;.-.<.%.` ",
"I.I.I.O.#.3.5.5.k.h.l.l.s.s.s.s.z.z.z.z.z.z.z.z.z.z.z.z.z.z.z.z.t.t.t.t.p.p.p.p.t.t.t.t.t.t.t.t.t.t.t.t.p.t.t.t.p.p.t.t.t.t.p.p.p.p.p.p.t.t.t.t.t.t.t.t.p.p.t.t.a.a.t.e.F l k s p p p p p p p p p p p p p p p p p p p p p p p p p p p p p p p p p p p p p p p p p p p p p p p p p p p p p p p p p p p p p p p p p p p p p p p p p p p p p p p p p p p p p p p p p p p p p p p p p p p p p p p p p p p p p p p p p p p p p p p p p p p p p p p p p p p p p p p p p p p p p p p p p p p p p p p p p l e.a.z.z.z.z.f.f.f.f.f.f.f.f.z.z.z.z.z.z.z.z.z.z.z.g.t.w.s p p p p p p p p p p p p p p p p p p p p p p p p p s s s k k k l l p l e.a.z.z.z.z.f.f.f.f.f.f.f.f.1 1 1 1 1 1 1 1 1 1 1 1 1 1 1 1 1 1 1 1 1 1 1 1 1 1 1 1 1 1 1 1 1 1 1 1 1 1 1 1 1 1 1 1 1 1 1 1 1 1 1 1 1 1 1 1 1 1 1 1 1 1 1 1 1 1 1 1 1 1 1 1 1 1 1 1 1 1 1 1 # # # # # & & & & p a.z.z.z.z.M.<.&.;.-.<.%.` ",
"I.I.I.O.#.3.5.M.k.h.l.l.s.s.s.s.s.f.l.l.l.z.z.z.l.l.z.l.l.l.l.l.r.r.r.r.e.e.i.r.r.r.r.r.r.r.r.r.r.r.r.r.e.i.i.i.e.e.i.i.r.r.r.r.r.r.r.r.i.i.r.r.r.e.r.r.e.i.i.i.s.a.t.e.l f p p s s s s s s s s s s s s s s s s s s s s s s s s s s s s s s s s s s s s s s s s s s s s s s s s s s s s s s s s s s s s s s s s s s s s s s s s s s s s s s s s s s s s s s s s s s s s s s s s s s s s s s s s s s s s s s s s s s s s s s s s s s s s s s s s s s s s s s s s s s s s s s s s s s s s s s s s p f e.a.z.z.z.z.f.f.f.f.f.f.f.f.l.z.l.l.l.l.l.l.l.l.l.s.t.l p i p p p p p p p p p p p p p p p p p p p p p p p p s p p p p p p p p f e.a.l.z.z.z.f.f.f.f.f.f.f.f.4 1 1 1 4 4 4 4 4 4 4 4 1 1 1 1 4 4 4 4 1 1 1 1 4 4 4 4 4 4 4 4 1 1 1 1 4 4 4 4 4 4 1 1 4 4 4 4 1 1 1 4 4 4 4 4 4 4 1 1 4 4 4 4 1 1 1 1 4 4 4 4 4 4 1 1 4 4 4 4 # # < 1 < & # # & p a.x.z.z.z.M.,.&.&.-.<.%.` ",
"I.I.I.O.#.3.5.5.k.h.l.l.s.s.s.s.u.u.s.f.l.l.l.l.f.f.f.f.f.l.l.l.w.w.w.w.w.w.w.w.w.w.w.w.w.w.w.w.w.w.w.w.w.w.w.w.w.w.w.w.w.w.w.w.w.w.w.w.w.w.w.w.w.w.w.w.w.w.w.w.u.u.r.w.f p i i f f f f f f f f f f f f f f f f f f f f f f f f f f f f f f f f f f f f f f f f f f f f f f f f f f f f f f f f f f f f f f f f f f f f f f f f f f f f f f f f f f f f f f f f f f f f f f f f f f f f f f f f f f f f f f f f f f f f f f f f f f f f f f f f f f f f f f f f f f f f f f f f f f f f f f f f i f w.u.l.c.c.c.l.l.l.l.l.l.l.l.l.l.f.f.f.f.f.f.l.l.f.u.w.f i 6 i i i i i i i i i i i i i i i i i i i i i i i i i i i i i i i q i f w.u.l.z.z.z.f.l.l.l.l.l.l.l.o o o o o o o o o o o o o o o o o o o o o o o o o o o o o o o o o o o o o o o o o o o o o o o o o o o o o o o o o o o o o o o o o o o o o o o o o o o o o o o o < < < 4 < < o o & i u.x.x.c.c.M.,.=.;.-.<.%.` ",
"E.Y.I.U.8.6.Q I j.h.l.l.l.s.s.s.l.l.l.l.l.l.l.l.l.l.l.l.l.l.l.l.u.u.u.u.u.u.u.u.u.u.u.u.u.u.u.u.u.u.u.u.u.u.u.u.u.u.u.u.u.u.u.u.u.u.u.u.u.u.u.u.u.u.u.u.u.u.u.u.f f f f f f f f i i i i i i i i i i i i i i i i i i i i i i i i i i i i i i i i i i i i i i i i i i i i i i i i i i i i i i i i i i i i i i i i i i i i i i i i i i i i i i i i i i i i i i i i i i i i i i i i i i i i i i i i i i i i i i i i i i i i i i i i i i i i i i i i i i i i i i i i i i i i i i i i i i i i i i i i u.u.u.u.u.u.u.u.l.l.l.l.l.l.l.l.l.l.l.l.l.l.l.l.u.u.u.u.u.u.u.u.i i i i i i i i i i i i i i i i i i i i i i i i i i i i i i i i u.u.u.u.u.u.u.u.l.l.l.l.l.l.l.l.= = = = = = = = = = = = = = = = = = = = = = = = = = = = = = = = = = = = = = = = = = = = = = = = = = = = = = = = = = = = = = = = = = = = = = = = = = = = = = = = = = = = = = = = f f w.r.s.c.x.M.<.+X#X{.<.%.` ",
"E.Y.I.U.^.6.Q I U Y N f f f f f f f b b b b b b b b b b b b b b f f f f f f f f f f f f f f f f f f f f f f f f f f f f f f f f f f f f f f f f f f f f f f f f e e e e e e e e g g g g g g g g g g g g g g g g g g g g g g g g g g g g g g g g g g g g g g g g g g g g g g g g g g g g g g g g g g g g g g g g g g g g g g g g g g g g g g g g g g g g g g g g g g g g g g g g g g g g g g g g g g g g g g g g g g g g g g g g g g g g g g g g g g g g g g g g g g g g g g g g g g g g g g g g f f f f f f f f b b b b b b b b f f f f b b b b f f f f f f f f g g g g g g g g g g g g g g g g d d g g g g g g g g g g g g g g f f f f f f f f b b b b b b b b f f f f f f b b f f b b f f f f f f f f f f f f f f f f f f b b f f f f f f f f f f b b f f f f f f f f f f f f f f b b f f f f f f f f f f f f f f b b f f f f f f f f d f f f e e a g b Y w.R <.+X#X{.<.%.` ",
"E.Y.I.U.^.6.Q I t a i i i 9 9 9 e e e e e e e e e e e e e e e e a a a a a a a a a a a a a a a a a a a a a a a a a a a a a a a a a a a a a a a a a a a a a a a a u u u u u u e u d d d d d d d d d d d d d d d d d d d d d d d d d d d d d d d d d d d d d d d d d d d d d d d d d d d d d d d d d d d d d d d d d d d d d d d d d d d d d d d d d d d d d d d d d d d d d d d d d d d d d d d d d d d d d d d d d d d d d d d d d d d d d d d d d d d d d d d d d d d d d d d d d d d d d d d d a a a a a a a a e e e u e e e e e e e e e e e e a a a a a a a a d d d d d d d d d d d d d d d d d d d d d d d d d d d d d d d d a a a a a a a a e e e e e e e e a a a a a a a a a a a a a a a a a a a a a a a a a a a a a a a a a a a a a a a a a a a a a a a a a a a a a a a a a a a a a a a a a a a a a a a a a a a a a a a a a a a a r a a a r r r a a a a J <.+X#X{.<.%.` ",
"E.Y.I.U.^.6.Q I V d d f g g g g d d d d d d d d d d d d d d d d v v b Y Y Y v v v v v v v v Y Y v b v v v v v v Y Y Y Y v v v v v v v v v v Y Y v b v v v v v v d v d v v v v v r r r r r r r r r r r r r r r r r r r r r r r r r r r r r r r r r r r r r r r r r r r r r r r r r r r r r r r r r r r r r r r r r r r r r r r r r r r r r r r r r r r r r r r r r r r r r r r r r r r r r r r r r r r r r r r r r r r r r r r r r r r r r r r r r r r r r r r r r r r r r r r r r r r r r r r r Y v v v v v v v d d d d d d d d d d d d d d d d v v v v v v v v r r r r r r r r r r r r r r r r r r r r r r r r r r r r r r r r v b v v v v v v d d d d d d d d e e e e e e e e e e e e e e e e e e e e e e e e e e e e e e e e e e e e e e e e e e e e e e e e e e e e e e e e e e e e e e e e e e e e e e e e e e e e e e e e e e e e e e e e Y Y Y Y v d d J ,.+X#X{.<.%.` ",
"E.Y.I.U.^.6.Q I V d f g f g g g d y y y y y y y y y y y y y y y v v v v v v v v v v v v v v v v v v Y Y v v v v v v v v v v v v v v v v v v v v v v Y Y v v v v y y y y y y y y w w w w w w w w w w w w w w w w w w w w w w w w w w w w w w w w w w w w w w w w w w w w w w w w w w w w w w w w w w w w w w w w w w w w w w w w w w w w w w w w w w w w w w w w w w w w w w w w w w w w w w w w w w w w w w w w w w w w w w w w w w w w w w w w w w w w w w w w w w w w w w w w w w w w w w w w v v v v v v v v y y y y y y y y y y y y y y y y v v v v v v v v w w w w w w w w w w w w w w w w w w w w w w w w w w w w w w w w v v Y Y v v v v y y y y y y y y Y Y Y Y Y Y Y Y Y Y Y Y Y Y Y Y Y Y Y Y Y Y Y Y Y Y Y Y Y Y Y Y Y Y Y Y Y Y Y Y Y Y Y Y Y Y Y Y Y Y Y Y Y Y Y Y Y Y Y Y Y Y Y Y Y Y Y Y Y Y Y Y Y Y Y Y Y Y Y Y Y Y Y Y Y Y Y Y y.T Y Y v y y x ,.+X#X{.<.%.` ",
"E.I.I.U.^.6.Q I u a i i i i 9 9 r r r r r r r r r r r r r r r r r r r r r r r r r r r r r r r r r r r r r r r r r r r r r r r r r r r r r r r r r r r r r r r r w w w w w w w w r r r r r r r r r r r r r r r r r r r r r r r r r r r r r r r r r r r r r r r r r r r r r r r r r r r r r r r r r r r r r r r r r r r r r r r r r r r r r r r r r r r r r r r r r r r r r r r r r r r r r r r r r r r r r r r r r r r r r r r r r r r r r r r r r r r r r r r r r r r r r r r r r r r r r r r r r r r r r r r r r r r r r r r r r r r r r r r r r r r r r r r r r r r r r r r r r r r r r r r r r r r r r r r r r r r r r r r r r r r r r r r r r r r r r r r r v v v v v v v v v v v v v v v v v v v v v v v v v v v v v v v v v v v v v v v v v v v v v v v v v v v v v v v v v v v v v v v v v v v v v v v v v v v v v v v v v v v v v v v v v v v y r r w > <.#X#X{.<.%.` ",
"E.Y.I.U.^.6.Q I U B N f f f f b v v v v v v v v v v v v v v v v c c c c c c c c c c c c c c c c c c c c c c c c c c c c c c c c c c c c c c c c c c c c c c c c y y y y y y y y U U U U U U U U U U U U U U U U U U U U U U U U U U U U U U U U U U U U U U U U U U U U U U U U U U U U U U U U U U U U U U U U U U U U U U U U U U U U U U U U U U U U U U U U U U U U U U U U U U U U U U U U U U U U U U U U U U U U U U U U U U U U U U U U U U U U U U U U U U U U U U U U U U U U U U U U c c c c c c c c v v v v v v v v v v v v v v v v c c c c c c c c U U U U U U U U U U U U U U U U U U U U U U U U U U U U U U U U c c c c c c c c v v v v v v v v r r r r r r r r r r r r r r r r r r r r r r r r r r r r r r r r r r r r r r r r r r r r r r r r r r r r r r r r r r r r r r r r r r r r r r r r r r r r r r r r r r r r r r r r v v v v c c c J ,.+X#X{.<.%.` ",
"!.Y.L.Y.Q.>. .H 5.} } ) ~ ~ ~ ) ( ( ( ( ( ( ( ( ( ( ( ( ( ( ( ( W W W W W W W W W W W W W W W W W W W W W W W W W W W W W W W W W W W W W W W W W W W W W W W W ( ( ( ( ( ( ( ( W W W W W W W W W W W W W W W W W W W W W W W W W W W W W W W W W W W W W W W W W W W W W W W W W W W W W W W W W W W W W W W W W W W W W W W W W W W W W W W W W W W W W W W W W W W W Q Q Q Q Q Q Q W W W W W W W W W W Q Q Q Q Q Q Q W W W W W W W W W W W W W W W W W W W W W W W W W W W W W W W W W W W W W W W W W W W W ( ( ( ( ( ( ( ( ( ( ( ( ( ( ( ( W W W W W W W W W W W W Q Q Q Q Q Q Q W W W W W W W W W W Q Q Q Q Q Q Q W W W W W W W W W W W W ( ( ( ( ( ( ( ( ( ( ( ( ( ( ( ( ( ( ( ( ( ( ( ( ( ( ( ( ( ( ( ( ( ( ( ( ( ( ( ( ( ( ( ( ( ( ( ( ( ( ( ( ( ( ( ( ( ( ( ( 4.4.[ ( ( ( ( [ ( ( ( ( ( ( ( ( ( ( ( ( ( ( ( ( ( ( ( ( ( ( ( [ ( 5.5.5.Q Q Q Q W W W / -.#X#X[.{.:...",
"/./.P.!.W.R.,.,.{.{.{.*X*X-.&.o.o.X.X.X.X.X.X.X.X.X.X.X.X.X.X.X.X.X.X.X.X.X.X.X.X.X.X.X.X.X.X.X.X.X.X.X.X.X.X.X.X.X.X.X.X.X.X.X.X.X.X.X.X.X.X.X.X.X.X.X.X.X.X.X.X.X.X.X.X.X.X.X.X.X.X.X.X.X.X.X.X.X.X.X.X.X.X.X.X.X.X.X.X.X.X.X.X.X.X.X.X.X.X.X.X.X.X.X.X.X.X.X.X.X.X.X.X.X.X.X.X.X.X.X.X.X.X.X.X.X.X.X.X.X.X.X.X.X.X.X.X.X.X.X.X.X.X.X.X.X.X.X.X.X.X.X.X.X.X.X.o.o.O.&.;.;.].].[.[.-.&.*.U.~.~.~.~.U.O.&.-.[.[.].].;.;.&.O.o.X.+.X.X.X.X.X.X.X.X.X.X.X.X.X.X.X.X.X.X.X.X.X.X.X.X.X.X.X.X.X.X.X.X.X.X.X.X.X.X.X.X.X.X.X.X.X.X.X.X.X.X.X.X.X.X.X.X.X.X.X.X.X.X.X.o.o.O.&.;.;.].].[.[.-.&.O.U.~.~.~.~.U.O.&.-.[.[.].].;.;.&.O.o.o.+.o.o.X.X.X.X.X.X.X.X.X.X.X.X.X.X.X.X.X.X.X.X.X.X.X.X.X.X.X.X.X.X.X.X.X.X.X.X.X.X.X.X.X.X.X.X.X.X.X.X.X.X.X.X.X.X.X.X.X.X.X.X.X.&.&.-.-.{.{.*X*X;.-.-.*.O.X.+.+.X.X.X.X.X.X.X.X.X.X.X.X.X.X.X.X.o.o.O.&.;.;.].].[.[.-.&.o.U.~.Q.;.].].}.[.|.|.",
"/././.!.E.E.+X[.[.[.#X#X#X+XT.I.%X$X$X$X$X$X$X$X$X$X$X$X$X$X$X$X$X$X$X$X$X$X$X$X$X$X$X$X$X$X$X$X$X$X$X$X$X$X$X$X$X$X$X$X$X$X$X$X$X$X$X$X$X$X$X$X$X$X$X$X$X$X$X$X$X$X$X$X$X$X$X$X$X$X$X$X$X$X$X$X$X$X$X$X$X$X$X$X$X$X$X$X$X$X$X$X$X$X$X$X$X$X$X$X$X$X$X$X$X$X$X$X$X$X$X$X$X$X$X$X$X$X$X$X$X$X$X$X$X$X$X$X$X$X$X$X$X$X$X$X$X$X$X$X$X$X$X$X$X$X$X$X$X$X$X$X$X$X$X$X%X%X%X%X&X&X-X-X&X&X#XT.I.L.P.P.P.P.L.I.T.#X&X&X-X-X&X-X%X%X%X%X%X$X$X$X$X$X$X$X$X$X$X$X$X$X$X$X$X$X$X$X$X$X$X$X$X$X$X$X$X$X$X$X$X$X$X$X$X$X$X$X$X$X$X$X$X$X$X$X$X$X$X$X$X$X$X$X$X$X$X$X$X$X$X$X%X%X%X%X&X&X-X-X&X&X#XT.I.L.P.P.P.P.L.I.T.#X#X&X-X-X&X&X%X%X%X%X%X$X$X$X$X$X$X$X$X$X$X$X$X$X$X$X$X$X$X$X$X$X$X$X$X$X$X$X$X$X$X$X$X$X$X$X$X$X$X$X$X$X$X$X$X$X$X$X$X$X$X$X$X$X$X$X$X$X$X$X$X$X$X$XT.+X#X#X#X#X#X#X&X&X%X%X%X%X!.E.$X$X$X$X$X$X$X$X$X$X$X$X$X$X$X$X%X%X%X%X&X&X-X-X&X&X#XT.I.L.P.Y.].}.}.}.}.}.}.",
"/./.P.Y.Y.T.-.;.1.;.[.[.#X#X+X=.+X=.=.=.=.=.=.=.=.=.=.=.=.=.=.=.=.=.=.=.=.=.=.=.=.=.=.=.=.=.=.=.=.=.=.=.=.=.=.=.=.=.=.=.=.=.=.=.=.=.=.=.=.=.=.=.=.=.=.=.=.=.=.=.=.=.=.=.=.=.=.=.=.=.=.=.=.=.=.=.=.=.=.=.=.=.=.=.=.=.=.=.=.=.=.=.=.=.=.=.=.=.=.=.=.=.=.=.=.=.=.=.=.=.=.=.=.=.=.=.=.=.=.=.=.=.=.=.=.=.=.=.=.=.=.=.=.=.=.=.=.=.=.=.=.=.=.=.=.=.=.=.=.=.=.=.=.=.=.=.T.T.[.[.[.}.}.}.}.&X#X+XI.L.L.P.P.P.L.I.+X[.}.}.}.}.}.[.[.=.T.T.=.=.=.=.=.=.=.=.=.=.=.=.=.=.=.=.=.=.=.=.=.=.=.=.=.=.=.=.=.=.=.=.=.=.=.=.=.=.=.=.=.=.=.=.=.=.=.=.=.=.=.=.=.=.=.=.=.=.=.=.=.=.=.=.T.T.+X[.[.}.}.}.}.}.[.+XI.L.P.P.P.L.L.I.+X[.}.}.}.}.}.[.[.T.T.T.=.=.=.=.=.=.=.=.=.=.=.=.=.=.=.=.=.=.=.=.=.=.=.=.=.=.=.=.=.=.=.=.=.=.=.=.=.=.=.=.=.=.=.=.=.=.=.=.=.=.=.=.=.=.=.=.=.=.=.=.=.=.=.=.[.[.[.[.[.[.[.[.[.[.+XT.+XT.E.T.=.=.=.=.=.=.=.=.=.=.=.=.=.=.=.=.T.T.+X[.[.}.}.}.}.}.[.+XI.L.P.I.[.}.}.}.}.}.[.",
"P.P.P.I.Y.&.;.1.1.$.{.{.*X#X#X[.].].].].].].].].].].].].].].].].].].].].].].].].].].].].].].].].].].].].].].].].].].].].].].].].].].].].].].].].].].].].].].].].].].].].].].].].].].].].].].].].].].].].].].].].].].].].].].].].].].].].].].].].].].].].].].].].].].].].].].].].].].].].].].].].].].].].].].].].].].].].].].].].].].].].].].].].].].].].].].].;.;.;.;.].].].|.|.|.|.*X*XR.U.X.X.X.X.U.R.*X*X|.|.|.|.].].].;.;.;.;.].].].].].].].].].].].].].].].].].].].].].].].].].].].].].].].].].].].].].].].].].].].].].].].].].].].].].].].].].].].].].].;.;.;.;.].].].|.|.|.|.*X*XR.U.X.X.X.X.U.R.*X*X|.|.|.|.].].].;.;.;.;.].].].].].].].].].].].].].].].].].].].].].].].].].].].].].].].].].].].].].].].].].].].].].].].].].].].].].].].].].].].].].].;.[.[.[.[.].].].].].].;.;.;.-.-.[.;.].].].].].].].].].].].].].].;.;.;.;.].].].|.|.|.|.*X*XR.U.X.O.[.}.}.}.}.[.[.",
"P.P.P.I.*.O.| | %.%.XX{.{.{.].]. X X X X X X X X X X X X X X X X X X X X X X X X X X X X X X X X X X X X X X X X X X X X X X X X X X X X X X X X X X X X X X X X X X X X X X X X X X X X X X X X X X X X X X X X X X X X X X X X X X X X X X X X X X X X X X X X X X X X X X X X X X X X X X X X X X X X X X X X X X X X X X X X X X X X X X X X X X X X X X X X.X.X.X.X XoXoXoX X.X.X.X=X8.@.#.#.#.8.=X.X.X.X XoXoXoX X.X.X.X.X X X X X X X X X X X X X X X X X X X X X X X X X X X X X X X X X X X X X X X X X X X X X X X X X X X X X X X X X X X X X X X X X.X.X.X.X XoXoXoX X.X.X.X=X8.#.#.#.#.8.XX.X.X.X XoXoXoX X.X.X.X.X X X X X X X X X X X X X X X X X X X X X X X X X X X X X X X X X X X X X X X X X X X X X X X X X X X X X X X X X X X X X X X X X|.{.{.{.{.{.{.{.=X=X.X.X.X.X=X=X X X X X X X X X X X X X X X X X.X.X.X.X XoXoXoX X.X.X.X=X8.#.#.[.}.}.}.[.[.].",
"I.I.I.U.#.| ` L `  .%.%.%.' ' ' `._._._._._._._._._._._._._._._._._._._._._._._._._._._._._._._._._._._._._._._._._._._._._._._._._._._._._._._._._._._._._._._._._._._._._._._._._._._._._._._._._._._._._._._._._._._._._._._._._._._._._._._._._._._._._._._._._._._._._._._._._._._._._._._._._._._._._._._._._._._._._._._._._._._._._._._._._._._._._._.`.' ' ' ' `.`._._.'.'.XXXX0.6.2./ / 2.6.0.XXXX'.'._._._.'.' ' ' ' `._._._._._._._._._._._._._._._._._._._._._._._._._._._._._._._._._._._._._._._._._._._._._._._._._._._._._._._._._._._._._._.`.' ' ' ' `._._._.`.'.XXXX0.6.2./ / 2.6.0.XXXX'.'._._._.`.' ' ' ' `._._._._._._._._._._._._._._._._._._._._._._._._._._._._._._._._._._._._._._._._._._._._._._._._._._._._._._._._._._._._._._.'.' ' ' ' ' ' %.%.XXXX' ' ' ' '.'._._._._._._._._._._._._._._._.`.' ' ' ' `._._._.`.'.XXXX0.6.2.| [.}.}.[.[.[.].",
"I.I.U.*.#. .L H H H ] ] ] A A A Z C C C C C C C C C C C C C C C C C C C C C C C C C C C C C C C C C C C C C C C C C C C C C C C C C C C C C C C C C C C C C C C C C C C C C C C C C C C C C C C C C C C C C C C C C C C C C C C C C C C C C C C C C C C C C C C C C C C C C C C C C C C C C C C C C C C C C C C C C C C C C C C C C C C C C C C C C C C C C C Z M M M m m m m m A A ] { { Q R H H R Q { { ] A A m Z m m m M M M Z C C C C C C C C C C C C C C C C C C C C C C C C C C C C C C C C C C C C C C C C C C C C C C C C C C C C C C C C C C C C C C Z M M M m m m Z m A A ] { { Q R H H R Q { { ] A A m m m m m M M M Z C C C C C C C C C C C C C C C C C C C C C C C C C C C C C C C C C C C C C C C C C C C C C C C C C C C C C C C C C C C C C C Z A A A S ] ] ] { ] S S M M M m Z C C C C C C C C C C C C C C C Z M M M m m m Z m A A ] { { Q R K [.&X[.[.[.].;."
};
