/* XPM */
static char *_b1c114ec88942c98a8f75960662a69dbceOh6pfI8wUxJ45[] = {
/* columns rows colors chars-per-pixel */
"423 423 256 2 ",
"   c #1B1D17",
".  c #171009",
"X  c #290705",
"o  c #350202",
"O  c #3C0201",
"+  c #350A02",
"@  c #38080A",
"#  c #2C1409",
"$  c #36150C",
"%  c #390914",
"&  c #291915",
"*  c #361715",
"=  c #2A0A14",
"-  c #1C231B",
";  c #103018",
":  c #28241B",
">  c #34251B",
",  c #39251C",
"<  c #2E3116",
"1  c #371D23",
"2  c #2B1C22",
"3  c #1D2A26",
"4  c #133537",
"5  c #193938",
"6  c #12362A",
"7  c #242B24",
"8  c #2B2B25",
"9  c #2C2D2B",
"0  c #262726",
"q  c #342D24",
"w  c #3C2B24",
"e  c #342B2B",
"r  c #3A2B2D",
"t  c #372528",
"y  c #2C322B",
"u  c #283328",
"i  c #33332C",
"p  c #3B332B",
"a  c #363829",
"s  c #3B2C33",
"d  c #2E3332",
"f  c #2A3738",
"g  c #333334",
"h  c #3B3335",
"j  c #3B353B",
"k  c #3B3B3C",
"l  c #363937",
"z  c #2B2D32",
"x  c #1B1C23",
"c  c #430201",
"v  c #4C0201",
"b  c #4C0806",
"n  c #4D0908",
"m  c #430B08",
"M  c #540101",
"N  c #5C0101",
"B  c #580905",
"V  c #45110C",
"C  c #471411",
"Z  c #491815",
"A  c #500C13",
"S  c #640101",
"D  c #6C0101",
"F  c #640A01",
"G  c #6C0A02",
"H  c #6A050A",
"J  c #740101",
"K  c #7C0101",
"L  c #740A03",
"P  c #7B0A01",
"I  c #7C030A",
"U  c #78080A",
"Y  c #780714",
"T  c #71130F",
"R  c #43221B",
"E  c #47281A",
"W  c #552D1A",
"Q  c #72291A",
"!  c #491A27",
"~  c #731A26",
"^  c #472A28",
"/  c #582B2B",
"(  c #48352C",
")  c #56362B",
"_  c #452C36",
"`  c #43353B",
"'  c #453838",
"]  c #593A38",
"[  c #562A35",
"{  c #6B2628",
"}  c #77272A",
"|  c #68382A",
" . c #792B32",
".. c #673739",
"X. c #763836",
"o. c #72332D",
"O. c #394539",
"+. c #2F4834",
"@. c #1A4A32",
"#. c #484639",
"$. c #58463A",
"%. c #504D31",
"&. c #674538",
"*. c #6F4532",
"=. c #5A4A18",
"-. c #2A3D42",
";. c #393B44",
":. c #37334E",
">. c #183C44",
",. c #433D43",
"<. c #4B3D45",
"1. c #573B46",
"2. c #503951",
"3. c #6B3946",
"4. c #533A62",
"5. c #194C4D",
"6. c #1A4846",
"7. c #1C4F50",
"8. c #164B56",
"9. c #06585A",
"0. c #0C5151",
"q. c #394746",
"w. c #334F4F",
"e. c #096459",
"r. c #34665D",
"t. c #2C6456",
"y. c #095766",
"u. c #1D6764",
"i. c #097B6E",
"p. c #04776B",
"a. c #17756C",
"s. c #037374",
"d. c #037B79",
"f. c #0A7A79",
"g. c #1F7C74",
"h. c #16777A",
"j. c #106B73",
"k. c #216965",
"l. c #27656C",
"z. c #2B6F72",
"x. c #355167",
"c. c #444344",
"v. c #4C4444",
"b. c #4C444A",
"n. c #454B4B",
"m. c #4C4B4C",
"M. c #484946",
"N. c #52444B",
"B. c #544A4B",
"V. c #584747",
"C. c #47544B",
"Z. c #56534A",
"A. c #4A4A54",
"S. c #534D53",
"D. c #584954",
"F. c #455651",
"G. c #4A5551",
"H. c #4B5B55",
"J. c #475857",
"K. c #535353",
"L. c #575758",
"P. c #654745",
"I. c #645558",
"U. c #6D4C4D",
"Y. c #4E6254",
"T. c #555A62",
"R. c #655A63",
"E. c #6B6569",
"W. c #566664",
"Q. c #830101",
"!. c #8B0201",
"~. c #840A02",
"^. c #8C0A03",
"/. c #84040A",
"(. c #8C030B",
"). c #840A0C",
"_. c #8B0A0D",
"`. c #930201",
"'. c #9B0202",
"]. c #930A03",
"[. c #9B0B02",
"{. c #93020B",
"}. c #9C020B",
"|. c #940C0A",
" X c #9B0A0A",
".X c #881306",
"XX c #971305",
"oX c #890814",
"OX c #940312",
"+X c #9C0412",
"@X c #960A15",
"#X c #8A151B",
"$X c #971516",
"%X c #A30103",
"&X c #AB0102",
"*X c #A30B01",
"=X c #AC0B01",
"-X c #A3030B",
";X c #AB020B",
":X c #A70A0C",
">X c #B30202",
",X c #BC0102",
"<X c #B30A01",
"1X c #B3020B",
"2X c #BC010B",
"3X c #BA0B06",
"4X c #A71305",
"5X c #A30212",
"6X c #AB0312",
"7X c #A90915",
"8X c #B80615",
"9X c #A61619",
"0X c #B6140E",
"qX c #8C2619",
"wX c #8B1722",
"eX c #991725",
"rX c #920F2A",
"tX c #AA1627",
"yX c #852725",
"uX c #862833",
"iX c #8F2F2E",
"pX c #AB262C",
"aX c #A62618",
"sX c #C30101",
"dX c #CB0201",
"fX c #C3020B",
"gX c #C80608",
"hX c #D30102",
"jX c #DB0102",
"kX c #D7030A",
"lX c #C60615",
"zX c #D70415",
"xX c #CB120E",
"cX c #E30102",
"vX c #E90107",
"bX c #F40104",
"nX c #EA0216",
"mX c #CF0C23",
"MX c #864336",
"NX c #8E3545",
"BX c #895055",
"VX c #05856D",
"CX c #008473",
"ZX c #0F8275",
"AX c #008A77",
"SX c #05877C",
"DX c #138776",
"FX c #16846C",
"GX c #278476",
"HX c #177C82",
"JX c #0C7984",
"KX c #297985",
"LX c #0B8784",
"PX c #148384",
"IX c #0B928A",
"UX c #278487",
/* pixels */
"e.CXIXAXd.LXLXd.LXLXLXLXLXLXLXLXSXAXAXAXAXAXAXAXAXAXAXAXAXAXAXAXAXAXAXAXAXAXAXAXAXAXAXAXAXAXAXAXAXAXAXAXAXAXAXAXAXAXAXAXAXAXAXAXAXAXAXAXAXAXAXAXAXAXAXAXAXAXAXAXAXAXAXAXAXAXAXAXAXAXAXAXAXAXAXAXAXAXAXAXAXAXAXAXAXAXAXAXAXAXAXAXAXAXAXAXAXAXAXAXAXAXAXAXAXAXAXAXAXAXAXAXAXAXAXAXAXAXAXAXAXAXAXAXAXAXAXAXAXAXAXAXAXAXAXAXAXAXAXAXAXAXAXAXAXAXAXAXAXAXAXAXAXAXAXAXAXAXAXAXAXAXAXAXAXAXAXAXAXAXAXAXAXAXAXAXAXAXAXAXAXAXAXAXAXAXAXAXAXAXAXAXAXAXAXAXAXAXAXAXAXAXAXAXAXAXAXAXAXAXAXAXAXAXAXAXAXAXAXAXAXAXAXAXAXAXAXAXAXAXAXAXAXAXAXAXAXAXAXAXAXAXAXAXAXAXAXAXAXAXAXAXAXAXAXAXAXAXAXAXAXAXAXAXAXAXAXAXAXAXAXAXAXAXAXAXAXAXAXAXAXAXAXAXAXAXAXAXAXAXAXAXAXAXAXAXAXAXAXAXAXAXAXAXAXAXAXAXAXAXAXAXAXAXAXAXAXAXAXAXAXAXAXAXAXAXAXAXAXAXAXAXAXAXAXAXAXAXAXAXAXAXAXAXAXAXAXAXAXAXAXAXAXAXAXAXAXAXAXAXAXAXAXAXAXAXAXAXAXAXAXAXAXAXAXAXAXAXAXAXAXAXAXAXAXAXAXAXAXAXAXAXAXAXAXSXd.d.d.d.d.d.d.",
"e.CXIXAXd.LXLXd.SXJXJXJXJXJXJXJXCXCXCXCXCXCXCXCXCXCXCXCXCXCXCXCXCXCXCXCXCXCXCXCXCXCXCXCXCXCXCXCXCXCXCXCXCXCXCXCXCXCXCXCXCXCXCXCXCXCXCXCXCXCXCXCXCXCXCXCXCXCXCXCXCXCXCXCXCXCXCXCXCXCXCXCXCXCXCXCXCXCXCXCXCXCXCXCXCXCXCXCXCXCXCXCXCXCXCXCXCXCXCXCXCXCXCXCXCXCXCXCXCXCXCXCXCXCXCXCXCXCXCXCXCXCXCXCXCXCXCXCXCXCXCXCXCXCXCXCXCXCXCXCXCXCXCXCXCXCXCXCXCXCXCXCXCXCXCXCXCXCXCXCXCXCXCXCXCXCXCXCXCXCXCXCXCXCXCXCXCXCXCXCXCXCXCXCXCXCXCXCXCXCXCXCXCXCXCXCXCXCXCXCXCXCXCXCXCXCXCXCXCXCXCXCXCXCXCXCXCXCXCXCXCXCXCXCXCXCXCXCXCXCXCXCXCXCXCXCXCXCXCXCXCXCXCXCXCXCXCXCXCXCXCXCXCXCXCXCXCXCXCXCXCXCXCXCXCXCXCXCXCXCXCXCXCXCXCXCXCXCXCXCXCXCXCXCXCXCXCXCXCXCXCXCXCXCXCXCXCXCXCXCXCXCXCXCXCXCXCXCXCXCXCXCXCXCXCXCXCXCXCXCXCXCXCXCXCXCXCXCXCXCXCXCXCXCXCXCXCXCXCXCXCXCXCXCXCXCXCXCXCXCXCXCXCXCXCXCXCXCXCXCXCXCXCXCXCXCXCXCXCXCXCXCXCXCXCXCXCXCXCXCXCXCXCXCXCXCXCXCXCXCXCXCXCXCXCXCXd.d.d.d.d.d.d.",
"e.CXIXCXd.LXLXs.d.JXJXJXJXJXJXJXCXCXCXCXCXCXCXCXCXCXCXCXCXCXCXCXCXCXCXCXCXCXCXCXCXCXCXCXCXCXCXCXCXCXCXCXCXCXCXCXCXCXCXCXCXCXCXCXCXCXCXCXCXCXCXCXCXCXCXCXCXCXCXCXCXCXCXCXCXCXCXCXCXCXCXCXCXCXCXCXCXCXCXCXCXCXCXCXCXCXCXCXCXCXCXCXCXCXCXCXCXCXCXCXCXCXCXCXCXCXCXCXCXCXCXCXCXCXCXCXCXCXCXCXCXCXCXCXCXCXCXCXCXCXCXCXCXCXCXCXCXCXCXCXCXCXCXCXCXCXCXCXCXCXCXCXCXCXCXCXCXCXCXCXCXCXCXCXCXCXCXCXCXCXCXCXCXCXCXCXCXCXCXCXCXCXCXCXCXCXCXCXCXCXCXCXCXCXCXCXCXCXCXCXCXCXCXCXCXCXCXCXCXCXCXCXCXCXCXCXCXCXCXCXCXCXCXCXCXCXCXCXCXCXCXCXCXCXCXCXCXCXCXCXCXCXCXCXCXCXCXCXCXCXCXCXCXCXCXCXCXCXCXCXCXCXCXCXCXCXCXCXCXCXCXCXCXCXCXCXCXCXCXCXCXCXCXCXCXCXCXCXCXCXCXCXCXCXCXCXCXCXCXCXCXCXCXCXCXCXCXCXCXCXCXCXCXCXCXCXCXCXCXCXCXCXCXCXCXCXCXCXCXCXCXCXCXCXCXCXCXCXCXCXCXCXCXCXCXCXCXCXCXCXCXCXCXCXCXCXCXCXCXCXCXCXCXCXCXCXCXCXCXCXCXCXCXCXCXCXCXCXCXCXCXCXCXCXCXCXCXCXCXCXCXCXCXCXCXCXd.d.d.d.d.d.d.",
"9.d.IXSXd.PXPXs.HXHXHXHXHXHXHXHXh.ZXZXZXZXZXZXZXZXZXZXZXZXZXZXZXZXZXZXZXZXZXZXZXZXZXZXZXZXZXZXZXZXZXZXZXZXZXZXZXZXZXZXZXZXZXZXZXZXZXZXZXZXZXZXZXZXZXZXZXZXZXZXZXZXZXZXZXZXZXZXZXZXZXZXZXZXZXZXZXZXZXZXZXZXZXZXZXZXZXZXZXZXZXZXZXZXZXZXZXZXZXZXZXZXZXZXZXZXZXZXZXZXZXZXZXZXZXZXZXZXZXZXZXZXZXZXZXZXZXZXZXZXZXZXZXZXZXZXZXZXZXZXZXZXZXZXZXZXZXZXZXZXZXZXZXZXZXZXZXZXZXZXZXZXZXZXZXZXZXZXZXZXZXZXZXZXZXZXZXZXZXZXZXZXZXZXZXZXZXZXZXZXZXZXZXZXZXZXZXZXZXZXZXZXZXZXZXZXZXZXZXZXZXZXZXZXZXZXZXZXZXZXZXZXZXZXZXZXZXZXZXZXZXZXZXZXZXZXZXZXZXZXZXZXZXZXZXZXZXZXZXZXZXZXZXZXZXZXZXZXZXZXZXZXZXZXZXZXZXZXZXZXZXZXZXZXZXZXZXZXZXZXZXZXZXZXZXZXZXZXZXZXZXZXZXZXZXZXZXZXZXZXZXZXZXZXZXZXZXZXZXZXZXZXZXZXZXZXZXZXZXZXZXZXZXZXZXZXZXZXZXZXZXZXZXZXZXZXZXZXZXZXZXZXZXZXZXZXZXZXZXZXZXZXZXZXZXZXZXZXZXZXZXZXZXZXZXZXZXZXZXZXZXZXZXZXZXZXZXZXZXZXZXZXZXZXZXZXZXZXZXZXZXZXZXZXZXZXZXd.d.d.d.d.d.d.",
"9.f.PXf.s.HXHXj.KXKXg.KXKXKXKXg.g.g.g.g.g.g.g.g.g.g.g.g.g.g.g.g.g.g.g.g.g.g.g.g.g.g.g.g.g.g.g.g.g.g.g.g.g.g.g.g.g.g.g.g.g.g.g.g.g.g.g.g.g.g.g.g.g.g.g.g.g.g.g.g.g.g.g.g.g.g.g.g.g.g.g.g.g.g.g.g.g.g.g.g.g.g.g.g.g.g.g.g.g.g.g.g.g.g.g.g.g.g.g.g.g.g.g.g.g.g.g.g.g.g.g.g.g.g.g.g.g.g.g.g.g.g.g.g.g.g.g.g.g.g.g.g.g.g.g.g.g.g.g.g.g.g.g.g.g.g.g.g.g.g.g.g.g.g.g.g.g.g.g.g.g.g.g.g.g.g.g.g.g.g.g.g.g.g.g.g.g.g.g.g.g.g.g.g.g.g.g.g.g.g.g.g.g.g.g.g.g.g.g.g.g.g.g.g.g.g.g.g.g.g.g.g.g.g.g.g.g.g.g.g.g.g.g.g.g.g.g.g.g.g.g.g.g.g.g.g.g.g.g.g.g.g.g.g.g.g.g.g.g.g.g.g.g.g.g.g.g.g.g.g.g.g.g.g.g.g.g.g.g.g.g.g.g.g.g.g.g.g.g.g.g.g.g.g.g.g.g.g.g.g.g.g.g.g.g.g.g.g.g.g.g.g.g.g.g.g.g.g.g.g.g.g.g.g.g.g.g.g.g.g.g.g.g.g.g.g.g.g.g.g.g.g.g.g.g.g.g.g.g.g.g.g.g.g.g.g.g.g.g.g.g.g.g.g.g.g.g.g.g.g.g.g.g.g.g.g.g.g.g.g.g.g.g.g.g.g.g.g.g.g.g.g.g.g.g.g.g.g.g.g.g.g.g.g.g.g.d.d.d.d.d.d.d.",
"9.h.UXh.j.HXKXj.l.l.l.l.l.l.l.l.k.k.k.k.k.k.k.k.k.k.k.k.k.k.k.k.k.k.k.k.k.k.k.k.k.k.k.k.k.k.k.k.k.k.k.k.k.k.k.k.k.k.k.k.k.k.k.k.k.k.k.k.k.k.k.k.k.k.k.k.k.k.k.k.k.k.k.k.k.k.k.k.k.k.k.k.k.k.k.k.k.k.k.k.k.k.k.k.k.k.k.k.k.k.k.k.k.k.k.k.k.k.k.k.k.k.k.k.k.k.k.k.k.k.k.k.k.k.k.k.k.k.k.k.k.k.k.k.k.k.k.k.k.k.k.k.k.k.k.k.k.k.k.k.k.k.k.k.k.k.k.k.k.k.k.k.k.k.k.k.k.k.k.k.k.k.k.k.k.k.k.k.k.k.k.k.k.k.k.k.k.k.k.k.k.k.k.k.k.k.k.k.k.k.k.k.k.k.k.k.k.k.k.k.k.k.k.k.k.k.k.k.k.k.k.k.k.k.k.k.k.k.k.k.k.k.k.k.k.k.k.k.k.k.k.k.k.k.k.k.k.k.k.k.k.k.k.k.k.k.k.k.k.k.k.k.k.k.k.k.k.k.k.k.k.k.k.k.k.k.k.k.k.k.k.k.k.k.k.k.k.k.k.k.k.k.k.k.k.k.k.k.k.k.k.k.k.k.k.k.k.k.k.k.k.k.k.k.k.k.k.k.k.k.k.k.u.u.u.k.k.k.k.k.k.k.k.k.k.k.k.k.k.k.k.k.k.k.k.k.k.k.k.k.k.k.k.k.k.k.k.k.k.k.k.k.k.k.k.k.k.k.k.k.k.k.k.k.k.k.k.k.k.k.k.k.k.k.k.k.k.k.k.k.k.k.k.k.k.k.k.k.k.k.k.k.k.k.k.a.f.d.d.d.d.d.d.",
"9.h.UXh.j.KXz.l.8.8.8.7.7.7.7.5.5.5.5.5.5.5.5.5.5.5.5.5.5.5.5.5.5.5.5.5.5.5.5.5.5.5.5.5.5.5.5.5.5.5.5.5.5.5.5.5.5.5.5.5.5.5.5.5.5.5.5.5.5.5.5.5.5.5.5.5.5.5.5.5.5.5.5.5.5.5.5.5.5.5.5.5.5.5.5.5.5.5.5.5.5.5.5.5.5.5.5.5.5.5.5.5.5.5.5.5.5.5.5.5.5.5.5.5.5.5.5.5.5.5.5.5.5.5.5.5.5.5.5.5.5.5.5.5.5.5.5.5.5.5.5.5.5.5.5.5.5.5.5.5.5.5.5.5.5.5.5.5.5.5.5.5.5.5.5.5.5.5.5.5.5.5.5.5.5.5.5.5.5.5.5.5.5.5.5.5.5.5.5.5.5.5.5.5.5.5.5.5.5.5.5.5.5.5.5.5.5.5.5.5.5.5.5.5.5.5.5.5.5.5.5.5.5.5.5.5.5.5.5.5.5.5.5.5.5.5.5.5.5.5.5.5.5.5.5.5.5.5.5.5.5.5.5.5.5.5.5.5.5.5.5.5.5.5.5.5.5.5.5.5.5.5.5.5.5.5.5.5.5.5.5.5.5.5.5.5.5.5.5.5.5.5.5.5.5.5.5.5.5.5.5.5.5.5.5.5.5.5.5.5.5.5.5.5.5.5.5.5.5.5.5.5.5.5.5.5.5.5.5.5.5.5.5.5.5.5.5.5.5.5.5.5.5.5.5.5.5.5.5.5.5.5.5.5.5.5.5.5.5.5.5.5.5.5.5.5.5.5.5.5.5.5.5.5.5.5.5.5.5.5.5.5.5.5.5.5.5.5.5.5.5.5.5.5.5.5.5.5.5.5.5.5.5.5.5.0.i.d.d.d.d.d.d.",
"9.h.KXh.l.z.z.l.4 4 4 4 4 4 5 4 4 4 4 4 4 4 4 4 4 4 4 4 4 4 4 4 4 4 4 4 4 4 4 4 4 4 4 4 4 4 4 4 4 4 4 4 4 4 4 4 4 4 4 4 4 4 4 4 4 4 4 4 4 4 4 4 4 4 4 4 4 4 4 4 4 4 4 4 4 4 4 4 4 4 4 4 4 4 4 4 4 4 4 4 4 4 4 4 4 4 4 4 4 4 4 4 4 4 4 4 4 4 4 4 4 4 4 4 4 4 4 4 4 4 4 4 4 4 4 4 4 4 4 4 4 4 4 4 4 4 4 4 4 4 4 4 4 4 4 4 4 4 4 4 4 4 4 4 4 4 4 4 4 4 4 4 4 4 4 4 4 4 4 4 4 4 4 4 4 4 4 4 4 4 4 4 4 4 4 4 4 4 4 4 4 4 4 4 4 4 4 4 4 4 4 4 4 4 4 4 4 4 4 4 4 4 4 4 4 4 4 4 4 4 4 4 4 4 4 4 4 4 4 4 4 4 4 4 4 4 4 4 4 4 4 4 4 4 4 4 4 4 4 4 4 4 4 4 4 4 4 4 4 4 4 4 4 4 4 4 4 4 4 4 4 4 4 4 4 4 4 4 4 4 4 4 4 4 4 4 4 4 4 4 4 4 4 4 4 4 4 4 4 4 4 4 4 4 4 4 4 4 4 4 4 4 4 4 4 4 4 4 4 4 4 4 4 4 4 4 4 4 4 4 4 4 4 4 4 4 4 4 4 4 4 4 4 4 4 4 4 4 4 4 4 4 4 4 4 4 4 4 4 4 4 4 4 4 4 4 4 4 4 4 4 4 4 4 4 4 4 4 4 4 4 4 4 4 4 4 4 4 4 4 4 4 4 4 4 4 4 4 4 4 4 4 4 4 4 4 i.d.d.d.d.d.d.",
"y.j.KXj.l.z.z.7.>.>.6.q.q.q.l f f -.-.-.-.q.q.q.-.-.-.-.-.-.-.-.-.-.-.-.-.-.-.-.-.-.-.-.-.-.-.-.-.-.-.-.-.-.-.-.-.-.-.-.-.-.-.-.-.-.-.-.-.-.-.-.-.-.-.-.-.-.-.-.-.-.-.-.-.-.-.-.-.-.-.-.-.-.-.-.-.-.-.-.-.-.-.-.q.q.q.-.-.f f f f f f f f f -.-.-.-.q.q.q.-.f f -.-.-.-.-.-.-.-.-.-.-.-.-.-.-.-.-.-.-.-.-.-.-.-.-.-.-.-.-.-.-.-.-.-.-.-.-.-.-.-.-.-.-.-.-.-.-.-.-.-.-.-.-.-.-.-.-.-.-.-.-.-.-.-.-.-.-.-.-.-.-.-.q.q.q.-.-.f f f -.-.-.-.-.-.-.-.-.-.-.-.-.-.-.-.-.-.-.-.-.-.-.-.-.-.-.-.-.-.-.-.-.-.-.-.-.-.-.-.f f f f f f f f -.-.-.-.-.-.-.-.-.-.-.-.-.-.-.6.-.-.-.-.-.-.-.-.-.-.-.-.-.-.-.-.-.-.-.-.-.-.-.-.-.-.-.-.-.-.-.-.q.q.q.q.q.q.w.w.f f f f f f f f -.-.-.-.-.-.-.-.f f -.-.q.q.q.q.-.-.-.-.q.q.q.q.-.-.-.-.-.-.-.-.f f f f f f f f f f -.-.-.q.q.q.-.-.-.-.-.-.-.-.-.-.-.-.-.-.-.-.-.-.-.-.-.-.-.-.-.-.-.-.-.-.-.-.-.-.-.-.-.-.-.-.q.-.-.f f -.q.7.e.d.LXLXd.d.d.",
"y.j.KXj.l.z.z.7.4 5 f f l l i y l l l l ;.;.q.q.f f f f f f f f f f f f f f f f f f f f f f f f f f f f f f f f f f f f f f f f f f f f f f f f f f f f f f f f f f f f f f f f f f f f f f f f f f f f f f f f k l l f f f f f f f f f f f l f l l ;.q.q.;.l f f f f f f f f f f f f f f f f f f f f f f f f f f f f f f f f f f f f f f f f f f f f f f f f f f f f f f f f f f f f f f f f f f f f f f f f f k l l f f f f f f f f f f f f f f f f f f f f f f f f f f f f f f f f f f f f f f f f f f f f f f f f f f f f f f f f f f f f f f f f f f f f f f f f f f f f f f f f f f f f f f f f f f f f f f f f f f f f f l l l l l l ;.;.f f f f f f f f f f f f f f f f l l l k k k ;.;.l l l l k k k k k k k k ;.;.l l f f f f f f f f z f f f f l l l f f f f f f f f f f f f f f f f f f f f f f f f f f f f f f f f f f f f f f f f ;.;.l f l l ;.7.e.d.LXLXd.d.d.",
"y.j.HXj.l.z.z.7.4 5 f f a i q 8 l l l k ;.q.q.c.g g g g g g g g g g g g g g g g g g g g g g g g g g g g g g g g l l l l l l l l g g g g g g g g g g g g g g g g g g g g g g g g g g g g g g g g g g g g g g g g k k l l g d z d l l l l l l l l l k ;.c.c.;.k l g g g g g g g g g g g g g g g g g g g g g g g g g g g g g g g g g g g g g g g g l l l l l l l l l l l l l l g l l l l l l l g l l l l l l l l l k k l l g d z d g g g g g g g g g g g g g g g g g g g g g g g g g g g g g g g g g g g g g g g g k k k k k k k k g g g g g g g g l l l l l l g l l l l l g l l l l l l l g l l l l l l l l g g g l l l l l l l l k k k l l j j j k k k k k k k k g g g g g g g g ;.;.;.;.k k k k k k k k k k k k k k k k k k k k k k k k k k k k z d d d g l l l l l l l l g l l g g g g g g g g g g g g g g g g g g g g g g g g g g g g g g g g ;.;.k l l j k 6.e.d.LXLXd.d.d.",
"y.j.HXj.j.z.z.7.6.+.+.+.O.a a q h l k k ,.c.M.M.k j k k j k k k k k k k k k k k k k k k k k k k k k k j j k k k k k k k ` ` ` ` k k k k j k k k k k j j j k k k k k k k k k k k k k k k k k k k k j k k j k k k c.c.c.k k k j j k k k k j l g g l k k c.c.c.` k k k k k h k k k k k k k k k k k k k j j j k k k k k k k k k k k k k l k j k k k k k k ` ` ` k k ` k k k k k k ` ` ` ` ` k k k ` k k k ` ` ` k k c.c.c.k k k j j k k l k j k k k k k j j j j k k k k k k k k k k k k k k k k k k k j k k j k k k k k k k k k k k k k k k k k k k k k ` ` ` ` O.O.` k k k k ` ` ` k ` ` ` k ` ` ` k ` k k ` k ` k k k k k ` ` ` ` c.c.c.#.k k k k k k k k k k k k k k k k k k k k c.c.,.` k k k k k k k k k k k k k k k k k k k k k k k k k k k k h g l j k k k k ` k k k k k ` ` k k k k k k k k k k j j j k k k k k k k k k k k k k k k k k k k c.k k h g h j 6.e.d.LXLXd.d.d.",
"y.JXJXj.j.z.z.7.t.w.O.#.#.%.%.a a g l k c.M.m.m.M.M.M.M.M.M.M.M.M.M.M.c.M.M.M.M.M.M.c.c.M.M.M.M.M.M.M.M.M.M.M.M.m.m.m.m.m.m.m.m.M.M.M.M.M.M.M.M.M.M.M.M.M.M.M.M.M.M.c.c.c.c.M.M.M.M.M.c.M.M.c.c.M.M.M.M.M.M.M.M.K.K.Z.m.m.m.M.M.#.#.` k l h g h g h k c.M.M.c.c.M.M.c.c.M.M.M.M.M.M.c.c.M.M.M.M.M.M.M.M.M.M.M.M.M.M.M.M.M.M.M.M.M.M.M.M.M.M.c.c.m.m.m.m.m.m.m.m.m.m.m.m.m.m.m.m.m.m.m.m.m.m.m.m.m.m.m.m.m.m.m.m.K.K.Z.m.m.m.M.M.M.M.M.M.M.M.M.M.M.M.M.M.M.M.M.M.M.M.c.c.c.M.M.M.M.M.c.c.M.M.M.M.M.M.M.M.M.M.M.M.#.#.#.#.c.c.c.c.c.M.M.M.M.M.M.M.m.m.m.m.Z.Z.m.m.m.m.m.m.m.m.m.m.m.m.m.m.m.m.m.m.m.m.m.m.m.m.m.m.m.m.m.m.m.m.m.m.K.K.Z.m.M.M.M.c.c.c.c.c.c.c.c.c.M.M.c.c.c.M.M.M.M.M.c.c.` k k l k k k k l l h h k k k h k k k k #.#.#.#.c.c.c.c.` #.c.c.M.M.m.m.m.m.m.m.m.m.m.m.M.M.c.c.M.M.M.M.M.M.M.M.M.M.M.M.M.M.M.M.M.M.M.M.M.M.M.M.c.c.M.c.c.c.k l g g g @.e.s.LXLXd.d.d.",
"y.JXJXs.j.g.z.7.t.t.F.%.%.%.%.%.a g l #.M.m.Z.Z.m.m.m.m.m.m.m.m.m.m.m.m.m.m.m.m.m.m.m.m.m.m.m.m.m.m.m.m.m.m.m.m.L.L.L.L.L.L.L.L.m.m.m.m.m.m.m.m.m.m.m.m.m.m.m.m.m.m.m.m.m.m.m.m.m.m.m.m.m.m.m.m.m.m.m.m.m.m.m.m.L.L.L.L.K.K.Z.Z.M.c.#.#.k h g i g h k c.M.M.M.M.m.m.m.m.m.m.m.m.m.m.m.m.m.m.m.m.m.m.m.m.m.m.m.M.m.m.m.m.m.m.m.m.m.m.m.m.m.m.m.m.L.L.L.L.L.L.L.L.L.L.L.L.L.L.L.L.L.L.L.L.L.L.L.L.L.L.L.L.L.L.L.L.L.L.L.L.K.K.Z.Z.m.m.m.m.m.m.m.m.m.m.m.m.m.m.m.m.m.m.m.m.m.m.m.m.m.m.m.m.m.m.m.m.m.m.m.m.m.m.m.m.c.c.M.c.c.c.c.c.m.m.m.m.m.m.m.m.L.L.L.L.L.L.L.L.L.L.L.L.L.L.L.L.L.L.L.L.L.L.L.L.L.L.L.L.L.L.L.L.L.L.L.L.L.L.L.L.L.L.L.K.Z.m.M.M.c.c.c.c.c.c.c.c.m.m.m.m.m.m.m.m.m.m.M.c.#.k l h l l l l l l h h k h h h l l l l c.c.c.c.c.c.c.c.M.M.M.m.B.Z.Z.Z.L.L.L.L.L.L.L.L.m.m.m.m.m.m.m.m.m.m.m.m.m.m.M.M.m.m.m.m.m.m.m.m.m.m.m.B.m.m.m.m.M.c.k g i i i 5 e.s.LXLXd.d.d.",
"y.JXJXs.s.g.g.7.t.t.w.%.%.%.a a a a l #.M.Z.K.K.M.M.M.M.M.M.M.M.M.M.M.M.M.M.M.M.M.M.M.M.M.M.M.M.M.M.M.M.M.M.M.M.K.K.K.K.K.K.K.K.M.M.M.M.M.M.M.M.M.M.M.M.M.M.M.M.M.M.M.M.M.M.M.M.M.M.M.M.M.M.M.M.M.M.M.M.M.M.M.M.L.L.L.K.K.Z.Z.Z.M.M.c.#.k l a i i h O.M.M.m.m.M.M.M.M.M.M.M.M.M.M.M.M.M.M.M.M.M.M.M.M.M.M.M.M.M.M.M.M.M.M.M.M.M.M.M.M.M.M.M.M.M.K.K.K.K.K.K.K.K.K.K.K.K.K.K.K.K.K.K.K.K.K.K.K.K.K.K.K.K.K.K.K.K.L.L.L.K.K.Z.Z.Z.M.M.M.M.M.M.M.M.M.M.M.M.M.M.M.M.M.M.M.M.M.M.M.M.M.M.M.M.M.M.M.M.M.M.M.M.M.M.M.M.M.M.M.M.M.M.M.M.M.M.M.M.M.M.M.M.K.K.K.K.L.L.K.L.K.K.K.K.K.K.K.K.K.K.K.K.K.K.K.K.K.K.K.K.K.K.K.K.K.K.K.K.K.K.K.K.L.L.L.Z.m.M.c.#.M.M.M.M.M.M.M.M.M.M.M.M.M.M.M.M.Z.m.M.M.#.k k h l l l l k k k k k k l l l l l l M.M.M.M.M.M.M.M.c.c.M.M.m.m.Z.Z.K.K.K.K.K.K.K.K.M.M.M.M.M.M.M.M.M.M.M.M.M.M.M.M.M.M.M.M.M.M.M.M.M.M.M.M.M.M.M.M.M.c.O.l i i i 5 e.s.SXLXd.d.d.",
"y.s.JXs.j.g.g.e.t.t.w.#.%.( E E q a l #.M.Z.Z.Z.#.#.#.#.#.#.#.#.#.v.v.v.v.v.v.v.v.v.v.v.v.v.v.v.v.v.v.v.v.v.v.v.Z.Z.Z.Z.Z.Z.Z.Z.v.v.v.v.v.v.v.v.v.v.v.v.v.v.v.#.#.#.#.#.#.#.#.#.#.#.c.c.c.M.c.M.#.#.v.v.v.v.M.c.H.H.H.Z.Z.V.$.$.$.#.#.#.k a a a a h ' M.B.B.B.B.M.M.M.M.M.M.M.M.M.M.M.M.M.M.M.v.v.v.v.v.M.M.M.c.M.M.M.M.v.v.v.v.M.M.M.M.c.M.M.c.Z.Z.Z.Z.Z.Z.Z.Z.Z.Z.Z.Z.Z.Z.Z.Z.Z.Z.Z.Z.Z.Z.Z.Z.Z.Z.Z.Z.Z.Z.Z.Z.L.K.K.Z.Z.m.m.M.M.M.M.M.v.v.v.v.v.v.v.M.M.M.M.M.M.M.M.M.M.M.M.M.M.v.v.v.v.v.v.#.#.#.#.#.#.#.#.#.C.C.M.M.m.m.m.m.c.c.c.M.O.#.#.#.V.V.P.&.$.$.$.%.Z.Z.Z.Z.Z.Z.Z.Z.Z.Z.Z.Z.Z.Z.Z.Z.Z.Z.Z.Z.Z.Z.Z.Z.Z.Z.Z.Z.Z.Z.Z.Z.L.L.Z.m.M.#.#.' M.M.B.B.B.B.B.B.v.v.v.v.M.M.M.M.Z.Z.m.M.#.O.l l h h h h h k h k h k h h h h h h B.B.B.B.B.B.B.B.' #.#.#.v.v.M.v.Z.Z.Z.Z.Z.Z.Z.Z.c.c.c.M.M.v.v.v.v.M.M.M.M.M.M.M.M.M.M.M.M.M.M.#.#.#.#.#.#.#.$.$.V.$.' h a i i 5 e.s.LXLXd.d.d.",
"0.l.KXh.h.KXj.9.l.r.H.K.V.| W W ( a O.#.#.$.Z.Z.Z.Z.$.$.#.$.$.$.] ] ] ] ] ] ] ] ] ] ] ] ] ] ] ] ] ..] ] ] ] ] ] P.P.P.P.P.P.P.P.V.P.P.P.P.P.V.V.] 1.1.1.] ] ] ] %.%.%.%.%.%.%.%.#.M.C.G.G.A.q.c.V.] ..3.3.D.D.J.r.r.t.Y.%.*.| | %.%.%.%.%.a a q ( ( ' ' ] ] V.V.1.] ] $.] ] ] ] ] ] ] $.] ] ] ] ] ] ] ] $.#.#.#.#.#.#.$.] ] ] ] B.M.M.M.M.M.v.M.L.L.L.L.L.L.L.Z.I.I.U.U.I.I.I.I.I.I.I.U.I.I.I.I.Z.L.L.L.L.L.L.L.Z.Z.Z.Z.Z.Z.Z.Z.#.#.$.$.] ] ] ] ] ] ] ] ] $.#.#.#.#.#.#.#.$.$.$.] V.V.V.V.] ] / ] ) ] %.%.#.#.O.C.q.q.q.O.q.M.M.M.q.q.+.+.+.#.%.*.*.MXMX*.=.=.%.$.P.P.P.P.P.P.P.P.P.P.P.P.P.P.V.Z.Z.Z.Z.Z.Z.Z.Z.Z.Z.Z.Z.Z.Z.Z.Z.M.M.M.M.M.M.B.B.v.#.$.$.$.] ] ] ] ] ] ] 1.v.v.#.V.B.M.#.k l i i ( ( ' ' ' ( ' ( ' ( ( ( ( ( ' ' $.] ] ] ] ] ] $.V.V.V.V.V.V.V.V.U.U.U.U.U.I.Z.L.M.M.B.V.V.V.V.V.V.V.V.V.V.V.V.V.V.V.V.V.V.V.V.V.$.$.$.&.&.&...| ..] ) ^ w e i 5 u.s.f.f.LXLXd.",
"8.l.z.z.h.KXh.9.u.x.J.Z.&.| Q Q W ( ) ) $.&.&.&.&.&.&.| | | ........X...X.......X...X........... . . . . . . ...3.3.3.3.3.3.3.3.3.3.3.3.X.3.X.X.X.............| =.=.=.=.=.=.%.%.%.#.M.m.S.A.A.b.V.....3.3.3.D.T.r.t.t.C.%.*.yXqX*.=.=.=.W W W W / / / [ ....3.3.................................X. .X.....] ] ] ] ] ] ...... ...3.V.V.V.V.V.&.&.P.P.P.P.P.P.P.P.U.U.U.U.U.U.U.U.U.U.U.U.U.U.U.U.P.P.P.P.P.P.P.P.P.P.P.P.P.P.P.P.] ............................] ] ] ..] ............3.3.....{ { | | ) ) %.#.#.O.C.q.q.q.q.q.c.M.m.M.q.+.+.+.%.&.iXiXaXaXqXQ =.=.*.*.*.*.*.*.*.*.*.*.*.*.*.*.*.*.&.&.&.&.&.&.&.&.&.&.&.&.&.&.&.P.&.&.P.&.P.P.P.P.................................P.&.] ] ( ( ^ ^ / / / / / / / / / / / / / / / / ................................NXNXNX3.U.U.P.P.$.] ] ..........................................&.=.*.| | | | | | { / ( ( p h +.u.s.f.f.LXZXd.",
"0.l.z.h.h.HXh.9.0.7.q.v...o.Q Q Q Q } } } iXiXiXiXiXiXyXyXyXyXiXuXuXuXuXuXuXuXuXuXuXuXuXuXuXuXuXuXuXuXuXuXuXuXuXuXuXuXuXuXuXuXuXuXuXiXuXiXiXiXuXuXuXuXuXuXuXuXyXQ Q Q Q Q Q | ) ] ] V.V.D.D.2.2.V.$...3.3.3.D.T.r.t.t.Y.&.*.qXqXqXyXyXQ Q Q Q Q ~ ~ } yXuXuXuXuXuXuXuXuXuXuXuXuXuXuXuXuXuXuXuXuXuXuXuXuX . .o.o.o.o. . .uXuXuXuXuX . . .X.X.X.uXuXX. . .X.X.X.uXuXuXuXuXuXuXuXuXuXuXuXuXuXuXuXuXuXX.X.X.X.X.X.X. . . . . . . . . . . . .uXuXuXuXuXuXuXuX . . . . . . . . .uX .uXuXuXuXuXuXuX} ~ } { | | ) $.#.#.C.q.q.O.O.q.q.c.N.N.c.#.#.%.&.o.iXpX0X0XaXaXqXqXiXiXiXiXiXiXiXiXiXiXiXiXiXiXiXiXiXiXiXiXiXiXiXiXiXiXiXiXiXiXiXiXuXuXuXuXuXuXuXuXuXuXuXuXuXuXuXuXuXuXuXuXuXuXuXuXuXuX .} { { { ~ } } } } } } } } } } } } } } } } uXuXuXuXuXuXuXuX}  .}  .} } } uXiXiXiXiXuXuXX.X.o.{ } }  .uXuXuXuX .uX} uX} } } } } }  .uX} uX} | Q Q Q Q Q Q { { { / ) ' ' O.w.u.s.f.f.JXLXd.",
"0.a.g.j.h.HXj.9.0.>.l _ { } qX$X$X$X$X9XaXaXpXpXpXpXtX9X9X9X9XtXtXtXtXtXtXtXtXtXtXtXtXtXtXtXtXtXtXtXtXtXtXtXtXtXtXtXtXtXtXtXtXtXtXtXtXtXtXtXtXtXtXtXtXtXtXtXtX9X$X.X.X.X.XT Q ~ { ..3.3.3.3.3.1.V.$.] 1.1.2.D.T.r.r.r.Z.&.iXaXaXaXaXaXaX9X$X$X$X$X$XeXeXtXtXtXtXeXeXeXeXeXeXeXeXeXeXeXeXeXeXeXtXtXtXtXtXeXeXwXyXyXwXeXeXtXtXtXtXtXeXeXeXeXeXeXeXeXeXeXeXeXeXeXeXeXeXeXeXeXeXeXeXeXtXeXeXeXeXeXeXeXeXeXeXeXeXeXeXeXeXeXeXeXeXeXeXeXeXeXeXeXeXeXeXtXeXeXeXeXeXeXeXeXeXeXeXeXeXeXeXeXtXtXtXtXeX$X#X#X~ { { | ] $.#.M.q.O.+.l k q.,.1.1.V.V.V.&.X.yXpXmXmXxXxX0XaXaXaXtXtXtXpXtXtXtXtXtXtXpXpXtXtXtX9X9X9X9XtXtXtXtX9X9X9X9XtXtXtXtXtXtXtXtXtXtXtXtXtXtXtXtXtXtXtXtXtXtXtXtXtXtXtXtXtXeXeXeXeXwX#X#XeXeXeXeXeXeXeXeXeXeXeXeXeXeXeXeXeXeXeXeXeXeXeXeX$XeXeXeX$X$X$XeXtXtXtXtXeXeXyXyXwXwX#XwX$X$X7X$X$X$X$X$X$X$X$XeXeX$X$X$X$XeX$X#XQ Q Q T T T T T { / / ] ] #.M.w.u.s.f.f.JXZXd.",
"9.j.h.f.f.HXj.9.>.>.s [ { wX$X9X8XlXlXlXxXxXxXxXmXmXlXlXfXfXfXlXlXlXlXlX8X8X8X8XlXlXlXlXlXlX8X8XlXlXlXlXlXlXlXlXlXlXlX8X8X8X8X8XlXlXlXlXlXlXlXlXlXlX8X8X8X8XlX8X3X<X=X:X X|.oXY ~ }  .3.3.3.3.1.M.#.v.<.1.D.S.T.r.r.Y.Z.*.iXaX0XxXxXxXxXxXxXgXgXlXlXlXlXlXlXlXlX8X8X8X8X8X8X8X8X8X8X8X8X8X8X8X8XlXlXlX8X8X7X7X7X7X7X7X8X8XlXlXlXlXlXlXlXlXlXlXlX8X8X8X8X8X8X8X8X8X8X8X8X8X8X8X8X8X8X8X8X8X8X8X8X8X8X8X8X8X8X8X8X8X8X8X8X8X8X8X8X8X8X8X8X8X8X8X8X8X8X8X8X8X8X8X8X8X8X8X8X8X8X8X8X8X8X8XlX8X8X1X5X_.#X~ } o...$.$.M.q.O.O.f l ;.,.3.3.P.P.P.X.iXtXmXzXnXnXnXkXxXxXxXzXzXzXzXzXzXzXzXzXzXzXzXzXzXzXlXlXlXlXlXlXlXlXlXlXlXlXlXlXlXlXlXlXlXlXlXlXlXlXlXlXlXlXlXlXlXlXzXzXzXzXzXzXlXlXlXlXlX8X8X8X8X8X8X8X8X8X8X8X8X8X8X8X8X8X8X8X8X8X8X8X8X8X8X8X8X8X1X1X1X1X1X1X1X8XlXlXlX8X7X7X7X7X7X7X6X6X1X8X2X8X8X1X1X1X1X1X1X1X1X1X1X1X1X1X1X:X#X.X).U U U Y T T { / ] V.M.C.w.u.s.f.f.f.f.d.",
"9.p.ZXd.d.HXj.9.8.-.s [ ~ eX9XlXkXvXvXvXvXvXvXvXnXvXcXjXjXjXjXjXkXkXkXkXkXkXkXkXkXkXkXkXkXkXkXkXkXkXkXkXkXkXkXkXkXkXzXkXkXkXkXkXzXzXzXzXzXzXzXkXkXkXkXkXkXkXkXkXkXxXgX2X;X-XOXoX#X~  .3.3.3.3.1.M.O.c.v.1.D.S.T.J.J.H.U.MXpXtXxXcXvXvXvXvXvXvXvXvXvXkXkXzXzXkXkXfXfXfXfXfXgXfXgXfXfXfXfXfXgXfXkXkXkXkXkXfXfX2X2X2X2XfXfXkXkXkXkXzXzXzXzXzXzXzXkXkXkXkXkXkXkXkXkXkXgXgXgXfXfXfXfXgXgXgXgXgXgXfXgXkXkXkXkXkXkXkXkXkXkXkXkXkXkXkXkXkXkXkXgXfXfXfXfXfXfXfXgXfXgXkXkXkXkXkXkXfXgXfXgXfXkXlXlXfXfXfX>X{.oXoXwX} o...V.#.O.O.f f f f k 1.3.U.U.U.U.iXtXmXnXnXnXbXvXkXkXvXnXnXnXnXvXnXvXnXnXnXnXnXvXnXvXvXcXcXvXvXvXcXvXvXvXvXvXcXcXcXvXvXnXnXnXnXvXnXzXnXnXnXnXnXnXnXnXnXnXnXnXnXnXnXnXzXkXzXkXkXkXkXkXzXzXzXzXzXzXzXzXzXzXzXzXzXzXzXzXfXgXfXgXgXgXgXgXgXsXfXsXfXfXfXgXkXkXkXgXfX2X2X3X1X2X2XsXkXhXkXhXgXsXfXfXgXfXgXfXfXfXfXsXfXsXfX2X-X@X_.(.(.(.oXY T ~ | &.Z.M.q.w.u.s.f.f.f.f.d.",
"e.p.SXd.d.PXj.9.8.:.<.{ wX$X8XzXvXbXbXbXbXbXbXbXbXbXbXcXcXcXcXcXjXjXjXjXjXjXjXjXjXjXjXjXjXjXjXjXhXhXhXhXhXhXhXjXcXcXvXvXvXvXvXvXkXjXkXjXjXjXjXjXjXjXjXjXjXjXjXjXnXzXkXlX8X6X+XoXoX~  .3.3.3.1.N.q.+.q.M.N.D.S.T.J.H.K.U.iXpXmXkXbXbXbXbXbXbXbXbXbXbXvXvXcXcXjXjXhXdXdXdXhXdXdXdXhXdXdXdXdXdXdXhXjXjXjXhXdXsX,X,X,X,XsXdXhXjXjXjXcXcXcXcXvXcXcXcXcXcXcXcXcXcXcXjXhXhXhXhXhXhXhXhXhXhXhXhXhXhXhXjXjXcXcXcXcXcXcXcXvXvXvXvXvXvXvXvXjXjXhXhXdXdXsXsXsXsXdXdXhXhXjXjXjXhXjXjXjXhXhXdXdXdXhXhXdXdXsX>X'.{.oX#XyX ...P.#.#.O.f f f f k 1.P.I.I.U.U.iXtXmXnXnXbXbXbXvXvXbXbXbXbXbXbXbXbXbXbXbXbXbXbXbXbXbXbXbXbXbXbXbXbXbXbXbXbXbXbXbXbXvXvXvXbXvXbXvXvXnXvXnXnXvXvXvXvXbXbXbXbXbXbXbXbXvXvXcXcXcXjXjXjXkXkXkXkXvXkXvXkXvXvXkXkXkXkXkXkXhXdXhXdXdXdXdXdXhXhXhXhXhXhXhXhXjXjXhXhXdXgXsXsXsXsXdXhXjXcXvXcXhXdXhXhXhXhXhXhXhXhXhXdXhXdXhXdX1X6X5X5X+XOX(.).Y ~ ..P.Z.C.q.6.u.s.f.f.f.f.d.",
"e.p.SXd.d.PXj.9.x.w.1.~ wX7XlXzXbXbXbXbXbXbXbXbXbXbXbXcXcXcXcXcXjXhXhXhXhXhXhXhXhXhXhXhXhXhXhXdXdXdXdXdXdXdXdXhXjXcXvXvXvXvXvXvXjXjXjXjXjXjXjXjXhXhXhXhXhXhXhXhXnXzXzXlX8X6X@XoXY ~ { ..1.N.N.n.w.+.q.M.b.D.L.T.J.H.Z.U.iXpXmXvXbXbXbXbXbXbXbXbXbXbXcXcXjXjXjXhXdXdXdXdXdXdXdXdXdXdXdXdXdXdXdXdXjXjXhXdXsX,X,X,X,X,X,XsXdXhXjXjXjXcXcXjXcXcXcXcXcXcXcXcXcXcXcXjXjXhXhXhXhXhXhXhXhXhXhXhXhXhXhXjXjXcXcXcXcXcXcXcXvXvXvXvXvXvXvXvXjXjXhXdXdXsX,X,X,X,XsXsXdXdXjXjXjXhXhXhXhXhXdXdXdXdXdXsXsX,X,X>X'.{.OX#XwX ...P.#.#.l f f f f l c.B.L.L.I.U.iXeXmXnXnXnXbXvXcXcXbXbXbXbXbXbXbXbXbXbXbXbXbXbXbXbXbXbXbXbXbXbXbXbXbXbXbXbXbXbXbXbXbXbXbXbXbXcXcXcXbXbXvXvXvXvXvXvXbXbXbXbXbXbXbXbXcXcXcXcXcXjXjXjXjXjXjXjXjXjXjXjXjXjXjXjXjXjXjXjXdXdXdXdXdXdXdXdXhXhXhXhXdXdXhXhXjXjXhXdXdXsXsX3XsXdXdXjXjXcXcXcXjXdXhXhXhXhXhXhXhXhXhXhXhXhXhXgX2X8X8X6X6X5XOXoX~ } X.P.Z.C.+.6.j.s.f.f.f.SXd.",
"e.p.CXp.d.PXHXy.x.A.3.uXeXtXmXzXbXbXbXbXcXcXcXcXbXbXcXjXjXjXjXjXdXdXdXdXdXdXdXdXdXdXdXhXhXdXsXsX>X>X,X,X,XsXsXdXdXdXhXkXcXvXcXjXhXdXdXdXdXdXdXhXhXkXkXkXkXhXdXsXgXfX,X>X%X{.I T { { ] <.M.q.q.w.@.+.q.n.<.<.A.L.J.K.I.U.iXpXzXvXcXbXcXcXcXjXjXjXcXjXhXdXdXdXdXdXsXsXgXgXgXgXsX,X,X,X>X>X,X,XsXgXhXhXdXdX3X<X=X=X%X*X<X<XdXdXdXdXkXkXjXhXhXjXkXkXjXhXhXjXhXhXdXdX,X>X,X,X,X3XsXsXxXxXgX,X,X,XsXgXdXhXjXhXhXhXhXdXhXhXdXdXhXjXjXkXjXhXdXsX,X&X%X'.'.*X<X3XdXdXdXdXdXdXhXhXhXgXsX,X,X<X<X<X<X=X*X%X-X+X@XwXwX .| ] ( h O.q.q.q.q.q.w.w.w.w.C.$.X.iX8XzXnXnXvXjXdXsXjXcXcXcXcXbXbXbXbXbXbXvXcXcXcXcXcXcXcXcXcXcXcXcXjXjXjXjXjXjXjXjXcXcXcXcXvXvXvXvXcXjXjXdXdXdXdXhXjXbXnXvXvXnXvXhXjXhXdXdXhXhXkXkXhXhXdXdXdXdXsXsXsXsXsXsXsXsXsXsXgXgXsX,X,XsXgXxX,X,X,X,X,X,X,X,XsXsX3X<X=X=X*X*X'.%X>X,XdXjXjXjXdX,X,X>X>X,X,XsX,X,XsXsX,X,X>X>XfXlX8X8X8X6X5X@XwX} { ] #.O.+.5.e.s.HXHXf.s.d.",
"e.p.CXp.d.PXHXy.x.A.3.uXtXtXmXzXcXbXbXcXcXcXjXjXjXhXdXsXsXsXsXsX3X<X3X3X3X3X3X3XgXgXxXgXgX<X,X&X*X'.*X*X=X=X<X<X>X,XsXdXhXhXhXdX,X>X>X&X>X>X>X,X3X3XgXgXgX<X>X>X>X&X&X'.!.K D B Z ^ r l +.6.6.@.@.+.q.M.<.2.A.L.J.K.I.U.iXpXzXvXcXcXcXjXjXhXdXdXgXsX,X>X&X&X&X&X&X=X=X<X<X=X=X=X=X&X%X%X&X=X<X<X,XsX,X>X=X*X[.].`.[.=X=X<X3XsX,X>X>X>X&X&X>X>X>XsX,X,X,X,X,X>X>X&X=X&X=X<X<X<X<X3X3X<X=X=X=X=X<X>X,X,X,XsX,X,X>X>X>X>X>X>X,X,XsXsXsX,X&X%X`.!.Q.^.].*X=X<XsXsXsXsXsXgXgXgX3X<X<X*X*X*X*X[.].!.!.!.(./.Y T { / ( ( l O.q.q.q.q.q.+.@.@.@.@.+.) Q 9XlXzXvXkXhX,X>XdXdXdXhXhXjXhXjXjXhXhXhXhXdXdXdXdXdXdXdXdXdXdXdXsXsXsXsXsXsXsXsXhXjXjXjXjXjXhXhXdXsX,X>X&X&X&X>X,XjXcXjXhXkXhX,X,X>X>X>X>X,XgXxXxXgXgXsXsX,X,X,X,X,X,X,X,X,X,X,X<X&X&X%X%X&X=X=X=X=X=X=X=X=X=X=X=X*X*X[.].].^.].!.`.%X>XsXdXhXdX>X&X%X%X%X%X=X&X<X<X<X<X<X=X=X&X1X2X8X1X6X5X+XoXY ~ / / l +.@.@.e.s.HXJXf.s.d.",
"9.p.CXp.s.HXHXy.x.2.3.uXtXtXmXzXcXcXcXjXjXhXdXsXgXsX,X>X&X&X*X=X=X=X=X=X<X<X<X=X0X0X0X0X<X=X%X`.!.Q.^.^.].[.[.*X%X%X>X,XsXsXsX,X%X'.'.`.`.`.'.'.=X=X=X=X=X*X%X'.%X'.`.Q.K S M c $ * 0 u 5 4 4 6 @.+.M.M.<.2.2.S.J.K.U.U.iXpXzXvXjXhXhXdXdXdX3X<X&X%X'.`.!.!.!.!.`.'.[.[.[.[.`.`.`.`.`.`.`.'.[.=X&X&X*X'.`.^.~.~.~.^.XX*X4X=X<X<X'.`.`.!.`.`.`.'.=X=X*X%X%X%X'.'.'.[.[.[.*X*X4X4X4X4X[.[.`.'.[.[.'.%X%X=X=X*X%X'.'.'.`.`.`.'.%X&X>X>X&X'.!.K J D P ~.XXXX=X<X,X,X,X,X3X3X3X<X=X=X`.].^.^.~.P J J J J D H B Z R w p l O.q.q.q.q.q.@.@.@.@.@.+.( Q $X8XzXzXkXsX=X=X&X>X>X,X,X,X,X,X,XsX,X,X,X>X>X>X,X>X>X>X>X>X>X>X&X&X&X&X&X&X&X>X,XsXsXsXsXsX,X,X<X&X'.`.!.Q.Q.!.%XsXgX,X,XxX,X'.'.`.`.`.`.'.*X=X3X3X3X<X<X<X>X>X<X<X<X<X<X<X<X=X'.`.!.!.!.!.`.`.*X*X*X*X*X*X[.[.].].^.~.~.P K K K !.'.=X,XsXdXsX%X`.`.!.!.`.`.'.*X4X4X4X4X*X[.'.&X;X;X-X-X{.(./.H H A ^ q 7 6 6 e.s.HXJXf.d.d.",
"9.p.f.s.s.HXKXy.x.2.3.uXeXtXmXzXjXcXjXjXhXdXsX,XgX<X=X*X*X[.[.[.=X=X=X=X4X4X4X4X0X0X0X0X4X[.`.!.K K K Q.Q.!.`.'.'.%X&X,X3XsXsX,X'.`.!.!.!.!.`.`.=X=X4X4X=X*X'.'.'.`.`.Q.J S M m @ * : 0 6 4 6 6 @.+.M.V.1.2.2.D.S.K.U.U.iXpXmXzXhXgXgXgXgX<X<X=X'.`.!.Q.K K K K !.`.[.[.[.[.].].!.!.!.Q.!.!.`.[.=X=X*X[.].^.~.P ~.~.XXXX4X=X=X=X'.`.`.!.!.`.`.'.[.[.[.[.'.`.`.`.`.`.].[.[.[.[.[.[.[.`.!.!.!.].].`.'.[.[.[.[.'.`.!.!.!.!.!.!.`.'.>X>X%X'.^.K G F L P .XXX=X<X,X,X>X>X<X3X<X=X=X[.].^.^..X~.P L G S S N M n Z , > i f O.q.q.q.q.q.6.@.@.@.@.+.) } $X8XlXzXxX3X=X*X&X&X&X>X<X<X<X<X<X<X<X>X>X&X&X%X=X=X=X=X=X=X=X=X*X*X*X*X*X*X*X&X>X,X,X,X,X,X<X<X=X*X].Q.K J D J '.,XgX>X>X0X<X`.!.!.!.Q.!.!.].[.<X<X<X<X<X&X&X&X<X<X<X<X<X<X<X=X`.!.Q.Q.Q.Q.!.!.[.[.[.[.[.[.[.].^.^.~.P P P P K K Q.'.=X,XsXsX,X%X].!.!.!.!.].].XX4X4X4X4X[.[.'.%X-X-X}.}.{.(.I S M C * q 7 6 6 e.s.HXJXf.d.d.",
"9.p.h.s.j.HXKXy.x.2.3.3.eXtXmXzXkXcXjXjXhXdXsX,XxX3X<X=X*X[.XX4X*X=X=X=X=X=X=X=X0X0X0X0X=X%X'.!.K J K Q.Q.!.`.'.%X>X,XfXgXgXkXgX&X'.'.`.`.'.'.%X=X0X0X0X0X=X=X%X*X[.`.!.K J S B m * t e d f 5 5 +.O.V.V.1.1.2.D.S.K.I.U.iXpXmXzXhXgXgXgX3X<X<X=X*X].!.Q.K K K Q.].[.*X4X4X*X[.'.!.!.!.!.!.`.`.'.<X<X=X=X[.].^.^.Q.~.].[.=X=X&X%X*X].`.`.`.`.].[.4X4XXX[.[.[.].`.`.`.'.'.[.[.*X*X[.'.`.`.!.`.`.`.[.[.[.4X4X[.[.].!.!.!.!.!.`.].*X3XfX>X%X].~.L G G P .XXX=X>X,X,X,X,X,X2X3X<X=X*X`.].XX.X.X~.P L N M B n Z , > q u y +.q.q.n.n.n.q.+.+.+.+.#.) } 9X8XzXzXkXsX=X*X=X=X<X<X<X<X3X3X3X3X<X<X<X<X&X=X=X4X4X4X4X4X=X=X*X*X*X*X*X*X*X&X,XsXfXfX2X3X3X0X0X4X].Q.J J D K '.0XxX3X3X0X0X'.`.!.!.!.!.].].*X3X3X3X,X>X>X>X&X<X<X<X<X<X<X<X<X'.`.`.!.!.`.`.'.[.[.[.[.'.'.'.].XXXX^..X~.P P ~.Q.!.'.>X,XdXdXsX=X[.'.`.`.'.[.[.4X4X4X4X4X*X[.'. X}.+X}.{.(.(.Y S A Z ^ r u u 6 e.s.HXPXf.s.d.",
"0.j.h.j.j.KXKX8.x.2.3.3.eXtX8XzXvXvXcXjXhXdXsXsXxX3X<X=X*X*X[.4X=X&X&X&X>X>X&X>X0X0X8X8X1X&X%X`.Q.K Q.Q.!.`.'.%X&X,XfXlXzXzXzXkX>X&X%X%X%X%X&X&X3X0X0X0X0X1X&X&X=X*X'.].Q.K D N A Z ! _ _ j s z a #.V.1.1.1.1.D.S.K.I.U.iXpXmXkXhXhXgXgXsX<X<X=X=X[.].Q.K P P ~.'.%X:X:X:X:X%X*X`.`.`.`.`.'.'.%X2X2X:X:X*X X].].Q.!.`.-X&X&X>X&X'.`.!.!.!.!.`.`.:X:X:X X[.[.[.'.'.'.'.'.%X*X%X*X:X-X'.'.'.`.'.'.'. X X:X:X X X[.`.`.`.!.`.`. X:XfXgX2X&X'.Q.P L L P ^.[.&X,XsXsXsXfXfXfX2X,X&X%X'.[.[.XX.X~.P L B b V Z , , q u 7 u f q.q.n.A.m.h g d a a ( { T 9XlXzXnXkXsX<X*X=X>X<X<X<X3X3X3X3X0X3X<X<X<X>X&X=X=X=X=X=X=X=X=X*X*X*X*X=X=X=X&XfXsXfXfXfX8X0X0X0X:X].~.K J J Q.'.8XxX8X3XxX0X'.`.`.!.!.`.]. X:X3X2X2X,X,X,X>X>X2X2X2X2X2X2X2X2X%X%X'.'.'.'.%X*X%X'.%X'.%X'.%X'. X].].^.^.~.~.^.Q.`.%X,XfXkXkXkX>X*X'.'.'.'.%X%X:X:X0X0X:X:X%X'. X@X@X_._.oXoXY H A ! ^ p a u 6 e.s.HXPXf.s.d.",
"0.u.g.j.j.KXKX8.x.2.1.3.eXtX8XzXnXnXvXvXkXkXdXsXgX3X>X%X%X'.[.*X>X1X1X1X1X1X1X1X2X2X2X2X2X>X&X%X`.!.!.`.'.%X&X>X>X,XfXkXzXzXkXkX,X>X&X&X&X&X>X>X2X2X2X2X2X2X>X&X&X%X'.`.!.K J S H A ! ! [ _ _ s ( #.V.3.3.3.1.D.S.K.Z.U.iXpXmXzXjXjXhXhXsXsX<X<X=X'.].!.Q.Q./.(.'.%X&X;X;X&X&X%X%X%X%X'.%X%X&X1X2X2X1X&X%X'.`.`.!.`.'.&X1X1X,X>X'.`.`.!.!.`.`.`.-X-X X'.'.'.`.'.'.%X%X%X&X&X&X;X8X1X&X%X%X%X&X%X'.'.'.-X-X'.'.`.'.`.`.`.`.'.}.1XgXdX,X&X'.!.K J J Q.].%X1XfXdXdXdXdXkXkXfX2X>X&X%X'.'.`.!.Q.K D b m $ * > < u u 3 u f q.n.m.m.S.` [ ' ' ( ) } $X8XzXnXnXcXhX,X&X&X&X>X>X>X<X2X2X2X<X,X>X>X>X&X&X&X=X=X=X=X=X=X=X%X%X%X%X%X%X%X&X,XsXfXfXfX2X2X1X;X-X`.!.Q.K K !.'.2XlX1X1X8X1X'.'.`.`.`.`.'.:X6X2XfXfXfXfXfXfX,XfXfXfXfXfXfXfXfX>X&X%X%X%X%X&X&X&X%X&X%X&X%X&X%X'.`.`.!.!.!.Q.!.`.'.&XfXzXzXnXkX>X%X%X'.'.%X%X&X1X8X8X8X8X1X;X'.|././././.I I H H A Z ^ p i u 6 e.s.HXPXf.s.d.",
"0.u.h.p.s.KXz.x.x.2.1.3.uXeX8XzXnXnXvXcXkXkXfX2X,X&X%X'.`.`.`.'.;X1X1X1X1X1X1X>X;X1X1X1X1X1X&X%X`.`.`.'.'.%X;X;X%X&X>X,XfXfXfX,X&X%X%X%X%X%X&X&X>X>X1X1X;X%X%X'.'.`.!.Q.K D S N N A A ! ! ! _ 1 ( #.V.3.3.3.1.D.S.K.Z.U.iXpXmXzXkXhXhXhXdXsX,X<X&X'.`.!.Q.Q.Q.!.`.%X%X%X%X%X'.'.%X%X%X%X%X&X;X1X&X&X&X%X'.`.!.!.!.`.'.%X;X1X,X>X-X'.'.`.`.'.}. X'.`.`.`.`.!.!.`.'.%X%X%X&X&X1X1XlX2X1X&X&X&X;X-X!.!.`.`.`.`.`.!.`.`.`.`.`.'.'.;X,XsX>X%X`.Q.J D K Q.`.%X1XfXsXdXsXsXfXfXfX2X;X;X`.`.!.!.Q.K J S v + + $ > < < u 3 u f q.M.m.S.D.D.D.V.V.P.X.iXpX8XzXnXnXcXdX,X=X'.%X%X%X&X&X&X>X&X&X&X%X%X'.'.`.'.`.`.'.'.'.%X%X'.'.'.'.'.'.'.%X&X>X>X>X;X;X;X-X}.`.!.Q.Q.K Q.!.`.>X8X&X&X1X-X!.`.!.!.!.!.`. X:X1X2X2X2X2X,X,X,XfXfXfXfXfXfX2X2X%X'.'.'.'.'.%X%X%X%X%X%X&X&X&X%X`.`.!.!.Q.Q.Q.Q.`.'.&X2XlXzXzXkX%X`.`.!.`.`.'.'.8X8X8X8X7X;X-X'.Q.J K J J D S N M A Z ^ w 8 u 6 9.s.HXPXf.s.d.",
"6.k.ZXp.CXPXz.x.A.D.M.$.| qX8XkXjXjXhXsX,X&X%X'.'.`.`.!.!.!.!.!.`.`.'.'.'.'.`.`.!.!.`.`.`.`.'.`.`.`.`.`.`.`.`.`. X`.!.!.Q.Q.!.!.!.^. X:X7X:X%X%X'.'.'.'.`.!.Q.K K K J D H H A A m % 1 1 s s s d a #.V.1.1.1.2.S.J.J.Z.P.iXeX0X2XxXxXxXgXsX,X,X,X&X&X%X`.`.!.Q.Q.`.`.`.`.`.`.`.`.'.'.'.'.'.'.'.'.'.'.`.!.Q.Q.K K K Q.].'.;X&X>X&X'.].`.].`.`.`.`.K K Q.Q.!.!.!.`.`.`.'.%X&X>X>X>X>X&X&X&X%X'.'.`.!.Q.Q.Q.Q.Q.!.`.!.`.`.'.'.'.'.%X1X>X&X%X`.Q.K K K Q.`.'.;X>X>X>X&X&X%X%X'.`.!.Q.(./.I J D D S N B c O @ R , > : u y O.M.m.m.b.<.A.S.H.K.Z.&.iXaX0XkXjXjXdX>X'.!.:X:X:X-X%X%X%X%X%X'.`.!.Q.K K J S S D D J Q.!.`.%X%X%X%X%X'.`.!.`.`.`.`.!.(.Q./.J K K K Q.(.(.{.'.%X%X%X%X'.`.`.Q.Q.Q.Q.Q.~.~.~.Q.!.`.'.%X>X2X2X>X>X&X%X'.'.`.!.|.^.^.!.!.`.`.'.'.'. X-X%X'.'.`.`.`.`.!.Q.Q.Q.Q.Q.!.'.%X1X,X,X&XQ.D D D J K !.`.-X:X-X-X`.!.Q.K K J D D S N M v b m Z , w q e 5 9.s.PXPXf.d.d.",
"6.k.VXVXVXSXz.w.D.N.M.#.) qXlXkXjXjXdX,X>X%X`.!.(.(.(.Q.Q.(.(.Q.!.!.].].].].!.!.Q.Q.Q.Q.!.!.!.!.`.`.`.`.].].!.^.^.Q.K J J J J J P ~.|.$X:X X'.'.'.'.'.].^.K J D D D S S B A A C % * 1 t r g z y a #.V.V.1.2.2.L.J.J.C.P.iXqX9X2XlXgXgXgXsX3X,X,X&X&X%X'.'.`.!.!.`.`.`.`.`.`.`.`.'.`.`.`.'.'.`.`.`.!.^.Q.K J J J J K ^.`.-X-X&X%X`.!.!.!.!.!.!.!.K K Q.Q.Q.!.!.!.!.`.`.'.&X>X>X,X>X>X&X&X%X'.'.].~.P K K K Q.Q.!.!.!.`.`.'.'.'.%X&X&X%X'.!.Q.K K Q.Q.`.'.-X&X&X&X%X'.'.`.!.!.Q.K I I J H H N N B N v c m Z E , : 8 y O.M.m.m.b.<.A.J.J.H.Z.&.iXaX3XdXjXjXsX&X!.Q.$X|. X X'.'.'.'.%X'.!.K J G G G B N N S J K !.`.%X%X%X-X'.`.!.Q.(.(././.K K J J J J K K /./.(.|.`.'.%X%X'.'.`.!.Q.K K K P P P P K K Q.`.'.&X1X1X&X&X%X'.`.^.~.~..X~.~.K Q.Q.^.].].`.'. X'.'.`.`.`.`.!.!.Q.Q.Q.Q.K Q.`.'.;X>X>X%XJ N N N S J Q.!. X X X X^.Q.K J J J D S S M v c c $ * , w w e f 9.s.PXPXf.d.d.",
"6.k.VXVXVXSXz.w.D.N.M.#.) qXlXkXjXjXdX,X>X%X`.!.!.(.Q.Q.(.(.(.!.!.!.].].].].!.!.Q.Q.Q.!.!.!.!.`.`.'.'.'.`.`.].!.^.Q.K J J J J J P ~.^.|. X'.'.'.'.'.'.].^.K J D D D S S B A A C % * 1 t r g z y a #.v.V.1.2.N.L.J.J.Z.P.iXeX7X2XgXgXgXsXsX,X>X>X&X&X%X'.'.`.`.!.`.`.`.`.`.`.`.`.`.`.`.'.`.'.`.`.`.!.^.Q.K J J J J K ^.`.-X;X&X%X`.!.!.!.].!.].].Q.Q.Q.Q.Q.!.!.!.!.!.`.'.&X&X>X,X2X1X1X;X-X-X X|.~.P K K K Q.Q.!.!.!.`.`.'.'.%X-X&X&X%X'.!.Q.K K K Q.`.'.-X%X&X&X%X'.'.`.!.!.Q.K I U J H H N B B B v c m Z E , : 8 y O.M.m.m.b.,.A.J.J.H.Z.&.iXaX3XgXjXjXsX&X].Q.|.|. X'.'.'.'.'.%X'.!.K J G G G N N N D J Q.!.'.%X%X%X-X'.`.!.Q.(.(.(./.K J J J J K K K /././.(.`.'.%X%X'.'.`.!.Q.K K K K P P P K Q.^.`.'.%X&X>X&X&X%X'.`.^.~.~.~.~.K K K Q.^.^.].`.'. X'.'.`.`.`.`.!.!.Q.Q.Q.Q.K Q.`.'.;X1X>X%XP F N N D J Q.!. X X X X^.Q.K J J J D S S N v c c $ * , w w e f 9.s.PXPXJXd.d.",
"6.k.VXVXVXSXz.w.D.N.M.#.) qXlXkXjXjXdX,X>X%X`.!.!.Q.Q.Q.(.(.(.!.!.!.].].].].!.!.Q.Q.Q.!.!.!.!.`.'.%X%X'.'.'.`.`.!.!.Q.K J J J J ~.~.~.^.`.'.'.'.'.'.'.].^.K J D D S S N B n n V % * 1 t r g z y a #.v.1.1.2.N.L.J.J.Z.P.iXeX7X2XfXgXgXsX,X,X>X>X&X&X%X%X'.`.`.`.'.`.`.`.`.`.`.`.`.`.'.'.`.'.`.`.`.!.^.Q.K J J J J K ^.`.-X%X&X%X`.!.!.!.].].].].Q.Q.Q.Q.!.!.!.!.!.!.`.'.%X&X>X>X2X1X1X;X:X:X X|.~.P K K K Q.Q.!.!.!.`.`.'.'.'.-X&X&X%X`.!.Q.K J K Q.!.'.-X%X&X&X%X'.'.`.!.!.Q.K I U U H H N N M B v c m Z E , : 8 y O.M.m.m.b.,.A.x.J.C.Z.&.o.aX3XgXjXhXsX&X].Q.^.^.`.`.'.'.%X'.%X'.!.K J G G G F S S D J Q.`.'.%X%X%X-X'.`.!.Q._._.(./.K K J J K K K K /././.(.`.'.'.'.'.'.`.!.Q.K K K K P P P ~.~.^.`.'.%X&X&X&X&X%X'.`.!.~.~.~.P K K K Q.^.!.].`.'. X'.'.`.`.`.`.!.!.Q.Q.Q.Q.K Q.`.'.;X>X>X%XP F S S D J Q.`. X X X X^.Q.K J J J D D S N v c c $ * , w w e 5 9.s.HXPXf.d.d.",
"6.k.VXVXVXSXz.w.D.N.n.#.) qXlXkXjXjXdX,X>X%X`.!.Q.Q.Q.Q.(.(.(.{.!.!.].].].].!.!.Q.Q.Q.!.!.!.!.`.%X%X%X%X%X%X'.'.'.`.!.Q.K K Q.K ~.~.~.^.`.`.'.'.'.'.`.`.^.K J D S S S N N n n m @ * 1 t g g z y a O.V.V.1.1.N.L.J.J.C.P.iXeX7X2XfXsXfX,X,X>X>X&X&X&X%X%X%X'.'.`.'.'.'.'.'.'.'.'.'.'.`.'.`.'.'.`.`.!.^.Q.K J J J J K ^.`.-X%X&X%X`.].!.!.!.!.].].!.!.!.!.!.!.!.Q.!.!.`.'.%X&X>X>X>X>X&X%X-X'.|.].~.P K K K Q.Q.!.!.!.`.`.'.'.'.-X&X&X%X`.!.Q.K J K Q.!.`.-X%X%X%X%X'.'.`.!.!.Q.K I I H H H N N B B M c m Z E , : 8 y O.n.m.m.<.,.w.w.w.C.%.&.Q aX3XkXjXjXsX=X].Q.Q.^.`.`.'.'.%X%X%X'.!.K J G G G F F D J K !.`.'.%X%X%X-X'.`.Q.Q.).)././.K K K K /././.K /.K K Q.`.'.'.'.'.`.`.!.Q.Q.K K Q.P ~.~.~.^.].`.'.'.%X%X%X%X%X'.`.!.^.~.~.K K K K Q.Q.!.].`.'. X'.'.`.`.`.`.!.!.Q.Q.Q.Q.K Q.`.'.;X>X>X%XP F S S D K !.`. X X X X^.Q.K J J J D S S M v c c $ Z , w w e 5 9.s.PXPXf.d.d.",
"6.k.VXVXVXSXz.x.D.N.M.#.) qXlXkXjXjXdX,X>X%X`.!.Q.Q.Q.Q.(.(.OX{.!.!.].].].].!.!.Q.Q.Q.!.!.!.!.`.%X&X&X&X&X%X%X%X%X'.`.`.!.!.!.!.~.P K Q.!.`.'.%X'.'.`.`.^.K J D S S N N M v m @ @ * 1 t g g z y a O.V.V.1.1.N.L.J.J.Z.P.iXeX7X2XfXfXsX,X,X>X&X&X&X&X%X%X%X%X%X'.'.'.'.'.'.'.'.'.'.'.`.`.`.'.'.`.`.!.^.Q.K J J J J K ^.`.-X%X&X%X`.].!.].!.!.].].].].].!.!.!.Q.!.Q.!.`.'.%X&X&X>X&X&X%X%X'.`.!.^.~.P K K K Q.Q.!.!.!.`.`.'.'.'.-X%X%X'.`.!.K J J K K ^.`. X%X%X%X%X'.'.`.!.!.Q.K I I H H H N N B B M c m Z E , : 8 y O.M.m.m.<.<.q.w.w.C.%.&.Q $X3XkXjXjXsX&X].Q.Q.Q.!.`.`.'.%X%X%X'.!.Q.J G G G G G D J Q.!.`.%X%X%X-X X`.!.Q.K K K K K /./.Q.Q.(./././.K K K K !.`.'.'.'.`.`.!.Q.Q.Q.Q.Q.Q.~.~.^.].`.`.'.'.'.'.%X%X'.'.`.].!.^.Q.K K J K K Q.!.].`.'. X'.'.`.`.`.`.!.!.Q.Q.Q.Q.K Q.`.'.;X>X>X%XP F F S D K !.`. X X X X^.Q.K J J J D S S N v c c $ Z , w w e 5 9.s.PXPXf.d.d.",
"6.k.VXVXVXSXz.x.D.N.M.#.) qXlXkXjXjXdX,X>X%X`.!.Q.K Q.Q.(.{.OXOX!.!.].].].].!.!.Q.Q.Q.!.!.!.!.`.&X>X>X&X&X&X&X%X1X;X%X'.`.`.'.].~.P K K Q.!.'.%X'.`.`.`.^.K J D S S N N M v c @ % * 1 t g g z y +.O.V.V.1.1.N.L.J.J.G.P.iXeX0X2X,XsX,X,X>X>X&X&X&X&X%X*X*X*X*X*X'.'.'.'. X X'. X'.'.`.`.'.`.'.`.`.!.^.Q.K J J J J K ^.`.-X%X&X%X`.].].].!.!.!.!.|.|.].!.!.!.Q.Q.Q.!.!.`.'.%X&X>X%X%X'.`.!.!.Q.Q.~.P K K K Q.Q.!.!.!.`.`.'.'.'.%X-X%X'.`.Q.K J J J K ^.]. X-X%X%X%X'.'.`.!.!.Q.K I I H H H N N B B M c m Z E , : 8 y O.M.m.m.<.<.q.w.w.C.%.&.Q $X3XkXjXjXsX&X].Q.K Q.!.!.`.'.%X%X%X'.!.K J G G G G J J K Q.!.'.%X%X%X'. X].^.K J D D J K /.(.{.@X{.(.(./.K J J J !.`.`.'.|.`.!.!.Q.Q.Q.Q.Q.Q.^.^.|. X'.`.`.`.`.`.'.'.'.'.`.`.].!.K K J J J K Q.Q.].`.'. X'.'.`.!.`.`.!.!.Q.Q.Q.Q.K Q.`.'.;X>X>X%X.XG F D J K !.'. X X X X^.Q.K J J J D S S M M v c $ * , w w e f 9.s.PXPXf.d.d.",
"6.k.VXVXVXSXz.x.D.N.M.#.) qXlXkXjXjXdX,X>X%X`.!.K K Q.Q.(.OXOXOX!.!.].].].].!.!.Q.Q.Q.!.!.!.!.'.&X>X>X>X>X&X&X&X8X1X;X%X'.'.'. X^.P K K Q.!.'.%X'.`.`.`.^.K J D S N N M M v c @ % * 1 t g g z y +.O.v.V.1.1.N.L.J.J.G.P.iXeX0X2X,X,X,X,X>X>X&X&X&X&X%X*X*X*X*X*X'. X X X X X X X'.`.`.`.`.`.`.`.`.!.^.Q.K J J J J K ^.`.-X%X&X%X`.].].].!.!.!.!.|.|.|.].!.!.Q.Q.Q.Q.!.`.'.%X&X&X'.'.`.!.!.Q.K K ~.P K K K Q.Q.!.!.!.`.`.'.'.'.%X-X%X'.!.Q.K J D J K ~.^. X'.%X%X'.'.'.`.!.!.Q.K I I H H H N N B B M c m Z E , : 8 y O.M.m.m.<.<.q.w.w.C.#.&.Q XX3XkXjXjXsX&X].Q.K K Q.!.`.'.%X%X%X'.!.K J G G G L J K K Q.`.'.%X%X'.'. X^.~.K J S S D K /._.@X+X{.{.(./.K J D D Q.!.].|.].].!.!.Q.Q.Q.Q.Q.^.^.!. X X'.'.`.`.`.`.'.'.'.`.`.`.`.].K K J J J K Q.Q.].`.'. X'.'.`.`.`.`.!.!.Q.Q.Q.Q.K Q.`.'.;X>X>X%X.XG F D J K !.'. X X X X^.Q.K J J J D S S M M v m $ Z , w w e f 9.s.PXPXf.d.d.",
"6.k.VXVXVXSXz.w.2.N.n.#.&.qX2XjXjXkXkXsX&X`.!.!.^.(._.|.@X@X9X9X|.|.|.|.|.|.|.|.K K K Q.Q.Q.!.`.%X&X>X&X>X>X&X;X&X%X%X-X-X-X:X X~.P K Q.!.!.'.'.'.'.'.].!.K J S D S N M M v c o @ % 1 r h g z 7 a O.V.V.1.1.N.L.J.J.Z.&.iXeX7X2XgXgXfX,X>X&X%X%X%X%X=X0X0X0X=X:X'.`.`.`.'.'.'.'.`.`.`.`.`.`.`.!. X|.^.Q.K J D D J K ^.`.-X%X&X%X'.].!.!.!.!.].|.].].|.|.].!.!.Q.J K Q.!.`.%X%X&X%X'.`.!.Q.K K K K K K K Q.Q.Q.Q.Q.Q.!.!.`.'.'.'.:X-X'.!.Q.J D D P J K Q.].'.-X:X!.`.`.`.!.!.K J K J D S N B M M M v c m Z ^ w < : 9 d q.m.S.S.S.q.w.w.n.#.$.Q $X<XdXjXjX,X%X!.K K K Q.!.`.'.%X-X'.`.!.K D D F D P K Q.Q.!.`.`.'.'.'.'.|.^.~.J J D S S J (.@X+X}.+X{.(.K J J G L K ^.].|.|.].!.Q.Q.Q.Q.!.!.!.!.`. X'.'.'.`.`.`.!.!.!.`.'. X'.'.`.Q.K J J J K Q.Q.].`.`.`.'.'.'.'.'.`.`.!.Q.K K K K Q.`.'.;X>X>X%XP G G G J Q.!.`.`.'. X|.^.~.K K K J J D N M v c c $ Z , w w e f 9.s.PXPXf.d.d.",
"6.k.VXVXVXSXz.w.2.N.n.#.&.qX2XjXjXkXkXsX&X`.!.!.^.(._._.@X@X@X7X|.|.|.|.|.|.|.|.K K Q.Q.Q.!.!.`.%X&X&X&X&X&X&X;X%X%X%X-X-X-X X X~.P K K !.!.'.'.'.'.'.].!.K J S D S N M M v c o @ % 1 r h g z 7 a O.V.V.1.1.N.L.J.J.Z.&.X.eX7X2XgXgXfX,X>X&X%X%X%X%X&X<X0X4X=X*X'.`.`.`.'.'.'.'.`.`.`.`.`.`.`.!. X|.^.Q.K J D D J K ^.`.-X%X&X%X'.].!.!.!.!.].].!.].].|.].!.Q.Q.J J K !.`.'.%X&X%X'.`.Q.K K K K K K K Q.Q.Q.Q.Q.Q.Q.!.!.`.'.'.'.-X'.`.!.K J D S L P P ~.!.`.'.%X!.`.`.`.!.!.Q.K K J D S N N M M M v c m Z ^ w < : 9 d q.M.m.N.S.q.w.w.n.#.$.Q $X<XdXjXjX,X%X!.K K K Q.!.`.'.%X-X'.`.!.K J D F D P Q.Q.!.`.`.'.'.'.'.'.].^.P J G F S S J (.@X+X}.5X}.!.Q.J D G G K Q.^.|.|.^.!.Q.Q.Q.!.!.!.`.`.`.-X%X'.'.`.`.!.!.Q.!.`.'. X'.'.'.Q.K J J J K Q.Q.].`.`.`.'.'.'.'.'.`.`.!.Q.K K K K Q.`.'.;X>X>X%XP F F D J K !.`.`.'. X|.^.~.K K K J J D N M v c c @ Z , w w e 5 9.s.HXPXJXd.d.",
"6.k.VXVXVXSXz.w.2.N.n.#.&.qX2XjXjXjXkXsX&X`.`.!.^.(.(.(.OX@X+X+X|.].].].].].].].Q.Q.Q.Q.Q.!.!.`.'.%X&X&X&X&X&X-X%X%X'.'.'.`.`.].~.P K Q.!.!.'.'.'.'.'.].!.K J S D S N M M v O o @ * 1 r h g z 7 a O.V.V.1.2.N.L.J.J.G.P.X.qX7X2XfXfXsX,X>X&X&X%X%X&X=X=X=X=X=X*X'.'.`.`.`.`.'.'.`.`.`.`.`.`.`.!.`.].!.Q.K J D D J K ^.`.-X&X&X%X`.!.!.!.!.!.!.].!.!.].].].!.Q.K J J K Q.`.'.%X%X%X'.`.Q.K K K J K K K Q.Q.Q.Q.Q.Q.!.!.`.`.`.'.'.'.'.].!.K J D D L L P Q.^.].`.'.`.`.`.`.`.!.Q.K J J D S N N M M M v c m Z ^ w q : y d O.M.m.N.A.;.w.w.n.#.$.Q $X<XdXjXjX,X%X!.K K K Q.!.`.'.%X%X'.`.!.K J D F G P Q.!.!.`.`.'.'.'.'.`.^.~.P G F F N S J (.+X5X}.5X}.{.Q.J D F G J Q.~.^.^.^.Q.Q.Q.!.!.!.`.`.'.'.-X%X%X'.`.!.!.Q.Q.Q.`.`.-X%X%X'.Q.K K J K K Q.!.].`.`.`.'.'.'.'.'.`.`.!.Q.K K K K Q.`.'.;X>X>X%XP F F D J K !.`.`.'. X X^.~.K J K K J D N M v c c @ Z , w r e f 9.s.PXPXJXd.d.",
"6.k.VXVXVXSXz.w.2.N.n.#.&.qX2XjXjXjXkXsX&X'.`.].!.(.(.(.{.OXOXOX].].].].].].].].Q.Q.Q.Q.!.!.!.!.'.%X%X%X%X%X%X X'.'.`.`.].!.!.^.~.P K Q.!.!.'.'.'.'.'.].!.K J S D S N M M c O o @ * 1 r h g z 7 a O.V.V.1.1.2.L.J.J.G.P.X.qX7X2XfXsX,X,X>X>X&X%X&X&X=X=X=X*X*X*X'.'.`.`.`.`.'.`.`.`.`.`.`.`.`.!.`.].^.Q.K J J J J K ^.`.-X&X&X%X`.!.!.Q.Q.!.!.!.!.!.!.].!.!.Q.K J J K Q.!.'.%X%X%X'.`.!.K K J J K K K K Q.Q.Q.Q.!.!.!.`.`.`.`.`.'.`.!.Q.K J G D G L P K Q.!.`.`.`.`.'.`.`.!.Q.K K J D S N N M M M v c m Z ^ w < 7 y d k c.b.<.b.;.w.w.C.#.$.Q $X<XdXjXjX,X%X!.K K K Q.!.`.'.%X%X%X'.!.K J G G G ~.!.`.`.'.'.'.'.'.`.].^.~.P D N B B N J (.+X5X-X6X-X{.Q.J D F F L K Q.Q.Q.Q.Q.Q.!.!.!.`.'.'.'.%X;X&X%X'.`.!.Q.Q.K Q.!.`.-X%X%X'.^.K K K K Q.Q.!.].`.`.`.'.'.'.'.'.'.`.!.Q.K K K K Q.`.'.;X>X>X%XP F F S J K Q.!.`.'.'. X].~.K J K K J D N M v c c $ Z , w r e f 9.s.PXPXJXd.d.",
"6.k.VXVXVXSXz.A.2.N.n.#.&.qX2XhXhXjXhXsX&X'.`.`.!.(.(.(.(.{.{.{.!.!.!.!.!.!.!.!.!.!.!.!.!.!.!.!.`.'.'.'.'.'.'. X X|.].!.Q.Q.Q.K ~.P K Q.!.!.'.'.'.'.'.].Q.K J S D S N M M v O o @ * 1 e h g z 7 a O.v.V.1.2.2.L.J.J.C.P.iXeX7X2X,X,X,X,X>X>X&X&X>X&X%X%X%X%X*X'.'.'.'.`.`.`.`.`.`.`.`.`.`.`.`.`.`.!.!.Q.K K J J J K ^.`.-X-X&X%X`.!.Q.Q.Q.Q.!.!.!.!.!.!.!.Q.Q.K J D K Q.!.`.'.%X%X'.`.Q.K K J P K K K K Q.Q.Q.!.!.!.!.`.`.`.`.`.`.`.!.Q.K J G G G L P K Q.Q.!.!.`.`.'.'.`.`.Q.K J J D S N N M M M v c m Z ^ w q 7 y g k ,.,.,.,.q.w.w.C.#.$.Q $X<XdXjXhX,X%X!.K K K Q.!.`.'.%X%X%X'.!.Q.J J G L ^.].`.'.'.%X%X%X`.`.!.Q.P G F B B M N J (.5X6X-X6X;X`.Q.J D B F L P K K K K Q.Q.!.!.`.'.'.%X-X;X&X&X%X'.`.^.Q.K K K ^.`.-X&X&X%X!.P K K K Q.^.!.].`.`.`.'.'.'.'.'.'.`.!.Q.K K K K Q.`.'.;X>X>X%XJ F S S D K Q.!.'.'.'. X^.~.K J K J J S N M v c c $ * , w w e 5 9.s.PXPXf.d.d.",
"6.k.VXVXVXSXz.A.2.N.n.#.&.qX2XhXhXjXhXsX&X'.'. X(.(.(.(.(.(.(.!.!.!.!.!.!.!.!.!.].].!.!.!.!.!.!.`.`.'.'.`.`.|.|.|.].^.~.K K J J P P K Q.!.!.'.'.'.'.'.].Q.K J S D S N M M v c o @ * 1 e h g z 7 a O.v.V.1.2.2.L.J.J.Z.P.iXeX7X2X,X,X,X,X>X>X>X&X,X&X%X'.'.'.'.'.'.'.`.`.`.`.`.`.`.`.`.`.`.`.`.`.!.!.Q.Q.K K P P J K ^.`.-X-X&X%X`.Q.Q.Q.Q.Q.Q.!.Q.!.!.!.!.Q.K J J D J Q.!.`.'.-X:X'.`.!.K K P P K K K K Q.Q.Q.!.!.`.`.`.`.`.`.!.`.!.Q.Q.K L G G G G L J K Q.Q.!.`.'.'.'.'.`.!./.K J D S N N M M M v c m Z ^ w q 8 y d l k ,.` ;.q.w.w.C.#.$.Q $X<XdXjXhX,X%X!.K K K Q.!.`.'.%X%X:X'.`.Q.K L G L ^.`.'.'.%X%X%X%X`.`.!.Q.P G N M B M N J (.5X6X;X6X;X`.Q.J F B F L P J D J K Q.!.!.`.`.'.%X-X;X;X&X&X%X'.`.^.Q.K J K ^.`.-X&X&X%X^.~.K K K Q.^.^.].`.`.`.'.'.'.'.'.'.`.!.Q.K K K K Q.`.'.;X>X>X%XJ N S S D J Q.!.'.'.'. X^.~.K J K J J S N M v c m $ * , w w e 5 9.s.PXPXf.d.d.",
"6.k.VXVXVXSXz.x.2.N.n.#.&.qX2XhXdXhXhXsX&X'.'. X(.(.(.(.Q.(.(.Q.!.!.!.!.!.!.!.!.|.|.].!.!.!.!.!.!.`.`.`.].].].].|.^.~.P J J D D P P K Q.!.!.'.'.'.'.'.`.!.K J S D S N M M v c o @ % 1 r h g z 7 a O.V.V.1.1.2.L.J.J.Z.P.iXeX7X2X>X,X,X>X,X>X>X>X3X&X%X'.`.`.'.'.'.`.`.`.`.`.`.`.`.`.`.`.`.`.`.`.!.!.Q.Q.K P P P J K ^.`.-X-X&X%X!.Q.Q.K K Q.Q.!.Q.Q.!.!.Q.Q.K J D D J Q.!.`.'.'.:X X`.!.Q.K P P K K K K K Q.Q.Q.].`.`.`.`.`.!.!.!.!.Q.K P L G G G G L J K K K Q.`.'.'.'.'.].(./.K J D S N B M M M v c m Z ^ w q 8 y g l k j j j q.w.w.C.#.$.Q $X>XdXjXjX,X%X!.K K K Q.!.`.'.%X%X:X X].Q.K P L P |. X'.-X%X%X&X%X`.!.Q.Q.J F B M B B N J (.5X6X;X1X;X`.Q.J F F F L L D D D J Q.^.!.`.'.'.-X;X;X;X&X&X%X'.`.^.Q.K J K ^.`.-X&X&X%X].~.~.K Q.Q.^.].].`.`.`.'.'.'.'.'.'.`.!.Q.K K K K Q.`.'.;X>X>X%XJ N N S D J Q.!.'.'.'. X].^.K K K J J S N M v c c $ Z , w w e 5 9.s.PXPXf.d.d.",
"6.u.CXVXCXSXz.x.A.A.n.$.| qX8XkXsXsXdX,X&X'.'. X].(.(.(.Q.Q.Q.Q.!.!.!.!.!.!.!.!.|.|.|.^.!.!.Q.Q.!.`.`.`.`.].|.|.|..X~.P K J D D ~.Q.Q.Q.!.!.`.'.'.'.'.`.!.K J D D S N M M v c o @ % 1 r h g z 7 a O.v.V.1.1.N.S.J.J.C.&.X.qX7X2X>X>X>X>X>X,X>X>X3X>X%X'.`.`.`.`.'.'.'.'.`.`.`.`.!.!.!.!.!.!.!.`.`.!.!.Q.Q.K P P J K !.`.-X&X&X%X!.Q.K K K K Q.!.Q.!.!.!.!.Q.Q.J D D J K !.`.}.-X:X-X'.!.Q.Q.P P K K K K K Q.Q.Q.(.].`.`.!.!.!.!.!.!.Q.Q.K P L L L L J J K K Q.Q.`.'.'.'. X{.(.Q.K J D S S N N M M c c m Z ^ w 8 7 u d l k j h g c.q.q.n.#.=.Q qX=XsXhXhX,X%X!.K K K Q.!.'.'.-X-X;X-X].Q.K P L P .X|. X X-X-X-X;X`.`.!.Q.J D S M B B N J (.5X6X-X6X;X`.Q.J D F F L J D D D J Q.!.`.`.}.-X:X;X7X1X>X>X&X'.`.^.Q.K K K !.`.%X&X&X%X|.~.~.Q.Q.Q.^.|.`.`.`.`.'.'.'.'.'.`.`.!.!.Q.Q.Q.Q.!.'.%X&X>X>X%XJ S S S D J K Q.'.'. X X{.!.Q.K K J D S N M v O @ % * w r e e 5 9.s.PXPXf.d.d.",
"9.p.f.p.d.LXh.y.x.w.m.P.X.yX9X8XlXlX8X8X;X%X'.'.`.].!.!.Q.Q.Q.Q.`.`.`.`.`.`.!.!.(.(.(.Q.Q.Q.K Q.!.`.`.`.}.}.+X+X(.Q.K J J J J K Q.Q.!.{.{.`.!.!.`.`.{.{.{.!.Q.K D S N M M v c o @ * 1 r h g z 7 u +.M.V.1.<.A.A.r.r.C.V.X.qX9X8X1X1X1X2X2X2X2X2X2X>X&X'.`.!.!.].'.%X%X%X'.`.^.Q.~.~.Q.Q.Q.!.!.`.'.'.`.`.!.!.Q.Q.K Q.!.'.-X&X&X%XQ.K J J J K Q.!.!.`.}.}.}.'.`.Q.J D J K (.{.}.;X-X-X}.`.!.Q.Q.K U J J D D J K K /.(.(.!.(.!.!.!.`.`.!.!.Q./.I P P I K Q.Q.Q.!.!.}.}.{.{.{.{.(.(.J J J J D D S M M c O @ Z ^ a 8 7 u f -.;.;.;.:.2.2.n.M.#.%.Q qX*X>XdXdX,X%X].Q.Q.Q.!.`.'.'.-X-X}.`.!.K J D D D ).(.(.{.}.}.-X-X`.`.`.!.Q.J D S S S D K (.{.5X5X}.`.!.K J D S D U K K Q./.Q.(.!.{.}.}.-X5X6X6X7X>X>X&X%X'.`.!.Q.Q.Q.].'.%X&X&X%X|./././.Q.(.(.|.+X}.}.}.}.'.'.`.'.`.`.`.!.!.!.!.`.`.%X&X&X>X>X%XK D D D D J K Q.{.}.5X-X-X}.`.!.).T U H B n v m % % 1 t r d d 5 9.s.PXPXf.d.d.",
"9.p.f.s.s.PXHXy.8.x.N.3.uXeX9X:X0X0X7X6X;X%X'.'.'.`.`.!.Q.Q.Q.Q.`.'.'.{.`.{.`.!.!.(.Q././.K K Q.`.'.}.}.}.+X+X+X{.(.Q.K J J J K Q.(.(.{.{.!.(.Q.!.(.{.{.{.(.Q.K D S N M M v c o @ % 1 r h g z 7 u +.M.B.1.<.A.J.x.r.C.$.X.qX9X:X6X6X1X1X2X2XfXfX2X1X&X'.`.!.Q.!.%X&X&X%X'.].~.K ~.P K K Q.Q.!.'.'.%X'.'.`.!.!.Q.Q.Q.`.'.-X&X&X%X/.J J J J K Q.(.!.{.}.}.}.'.'.!.J D J K (.{.}.5X-X-X}.'.`.!.Q.K U G D D D J K K /./.Q.Q.(.(.!.!.`.'.`.!.(./.I I I K /.Q.Q.!.!.!.}.{.{.{.{.(.(.(.J J J J J D S N M c O @ ^ r i u 3 u f -.;.;.:.:.2.2.b.M.$.%.Q qX[.>XsXsX,X%X].Q.Q.Q.!.`.}.}.-X;X}.`.!.K J D D D U ).(.(.{.}.}.-X'.`.`.!.Q.K J D D D J K (.{.+X5X}.`.!.K J J D J U K /./.Q.Q.(.(.{.{.}.+X5X5X6X7X>X>X&X%X'.`.!.Q.Q.!.`.'.&X&X&X%X|.)./././.(.{.OX+X+X+X}.}.}.'.`.`.].`.!.!.!.!.`.`.'.%X&X&X&X&X%XK J D D D J K Q.{.}.5X5X;X-X'.`.oXY H H B n m O % * 1 t g g z 5 9.s.PXPXJXd.d.",
"9.p.f.s.s.PXHXy.8.x.N.3.uXeX9X:X0X0X7X;X:X%X'.'.`.`.`.!.!.Q.Q.Q.`.}.}.{.{.{.{.(.(.Q.Q././.K /.Q.`.}.}.}.}.}.+XOX(.(.Q.K J J J K Q.(.(.(.{.!.(.Q.(.(.(.(.!.Q.Q.K D S N M M v c o @ * 1 r h g z 7 u +.M.B.1.<.A.J.w.w.C.$.X.qX9X;X6X6X1X1X2X2XfXfX2X1X%X'.`.!.Q.!.'.&X%X%X'.].~.K P P K K Q.Q.!.'.%X%X'.`.`.!.Q.Q.K Q.`.'.-X%X&X%X/.J J J J K Q.(.!.{.}.}.}.'.`.Q.D S J K (.{.}.5X-X-X}.'.!.!.Q.K U G D D D J K K K /.Q.Q.(.(.(.{.'.'.`.!.Q./.K K I K /.Q.!.!.`.`.{.{.{.{.(.(.(./.J J J J J D S N M c O @ ^ r i u 3 u f -.;.;.:.:.2.2.b.M.$.%.Q qX[.>XsXsX,X%X!.Q.Q.(.(.`.}.}.-X;X}.`.!.K J D D D U /./.(.{.{.}.}.'.`.{.{.Q.K J D D D J K (.{.}.+X{.`.Q.K J D D D U K K /./.Q.Q.(.{.{.{.}.+X5X5X6X&X&X&X%X'.`.!.Q.Q.Q.`.'.%X&X&X%X|././.K /.Q.(.{.+X+X}.}.}.}.'.`.`.!.!.!.!.!.!.`.`.'.%X%X&X&X&X'.K J J J J J K Q.{.}.5X5X-X}.'.!.oXU H H B v c @ % * 1 t r g z 5 9.s.PXPXf.d.d.",
"9.p.f.s.s.PXHXy.8.x.N.3.uXeX9X:X0X8X6X;X-X'.'.`.`.`.`.!.^.^.^.!.{.}.}.}.{.{.{.{.Q.Q././././.)./.{.}.}.}.{.{.{.{.(.Q.K K J J J K Q.Q.(.(.(.(.(.Q.Q.Q.(.(.(.Q.K J D S N M M v c o @ * 1 r h g z 7 u +.M.B.1.<.A.J.w.w.C.$.o.qX:X;X6X6X1X1X2X2X2X2X2X1X%X`.!.!.Q.!.'.&X%X%X[.^.~.P P J J K K Q.`.'.%X%X'.`.!.Q.Q.K K Q.!.'.-X%X&X'.Q.J J J J K Q.(.!.{.{.}.}.'.`.Q.D S D K /.{.}.5X-X-X}.`.!.!.Q.K U G D D D J K K K Q.Q.Q.(.(.{.{.}.}.{.!.Q.K K J U I /.Q.(.`.`.`.`.!.!.!.(.(.Q./.J J J J D D S M M c O @ Z r i u 3 5 f -.;.;.:.:.2.2.b.M.$.%.Q qX[.>XsXsX,X%X!.Q.Q.(.!.{.}.-X5X5X}.`.!.K J D S D P I /.Q.!.`.'.'.'.'.{.{.(.K J D D D J K Q.(.{.}.{.!.Q.K J D D D U K K K /./.Q.Q.!.(.{.{.}.+X5X5X;X&X%X'.`.!.Q.Q.K Q.!.'.-X%X&X%X(./.K K K /.(.(.+X+X+X}.}.{.`.`.!.!.!.!.!.!.!.`.`.`.'.%X&X&X&X'.Q.J J J J K Q.Q.{.{.+X5X+X}.'.!.I H H B M v c O % * 1 t r g z 5 9.s.PXPXf.d.d.",
"9.p.f.s.s.PXHXy.8.x.N.3.uXeX$X:X7X7X;X;X%X'.`.`.`.`.].].!.^.^.].}.}.}.}.{.{.{.{.Q.K K K K ).)._.{.}.}.}.{.{.{.(.(.Q.K J J J J K Q.Q.(.(.(.(.(.Q.Q.Q.Q.Q.Q.K K J D S N M M c O o @ % 1 r h g z 7 u +.C.B.N.<.A.J.w.w.C.$.o.qX X&X:X:X6X1X1X2X2X2X2X;X%X`.!.Q.Q.!.'.%X%X'.|.^.~.P J J J J K !.]. X%X%X'.`.!.Q.K K K Q.!.`.-X%X%X'.Q.J J J J K Q.Q.(.(.{.{.{.`.!.Q.D S D K /.{.}.5X}.}.}.{.!.Q.Q.K U G D D D J K K K K Q.Q.(.(.{.{.}.}.{.!./.K J J U U K Q.!.`.}.}.!.(.(.(.Q.Q./.K J J J J D S N M v c O @ ^ p i u 3 5 f f -.;.:.:.2.2.N.M.%.=.Q qX[.>XsXsX,X%X!.Q.Q.(.(.{.}.5X5X5X}.`.Q.K D D S F J U K Q.(.`.`.`.}.}.{.{.(.K J D G G U K /.(.{.{.{.!.Q.K J D D D U I I K /./.Q.Q.(.!.!.{.}.}.}.-X;X%X%X'.`.^.Q.K K Q.!.`.-X-X%X'.(.I K K K K Q.(.@XOX{.{.}.{.`.`.Q.Q.Q.Q.!.!.!.`.!.`.'.%X-X%X%X'./.J J J J K Q.Q.{.{.+X+X+X}.`.!.I H S N M v c o % * * t r g z 5 9.s.PXPXf.d.d.",
"9.p.f.s.s.PXHXy.8.x.N.3.uXeX$X:X6X1X;X%X%X'.`.`.`.`.].].].|.|.|.}.}.+X+X{.{.{.OXK K K K I ).).oX+X+X}.{.{.(.(.(.(./.K J J J J J K Q.(.(.(.(.Q.Q.K K Q.Q.Q.K J D D S N M M c O o @ * 1 r h g z 7 u +.M.B.N.<.A.J.w.w.q.%.o.qX X%X:X:X6X1X1X2X2X2X1X;X%X`.!.Q.P ^.'.%X%X X|.^.~.P D D D J K Q.|. X%X%X'.`.!.K J J K K ^.`. X%X%X'.Q.K J J J K K /.Q.(.(.{.{.!.!.K S S D U /.(.}.+X}.}.}.{.!.Q.Q.K U G D D D J K K J K Q.Q.!.{.{.+X}.}.{.(./.J D D U U I Q.(.{.}.}.!.Q.Q.Q.Q.K K K J J J J D S N M M c O @ ^ p i u 3 5 f f -.;.:.:.2.2.N.M.#.=.Q qX[.>XsXsX,X%X!.Q.Q.(.(.{.+X5X5X5X}.`.Q.J D S S F G J K K Q.!.`.`.}.}.}.{.(.I J D G G J U /.Q.!.!.{.(.Q.J D D S D U U U I K /./.Q.Q.(.(.!.{.{.}.}.-X-X}.`.!.Q.K K J K (.|. X-X%X}./.J J J J K /.Q._.OX{.{.{.{.`.!.Q.K K Q.Q.!.!.!.!.!.'.}.-X-X%X{.Q.K K K K K /./.(.{.@X+X{.{.!.Q.I D S N M v O o % * * t r g z 5 9.s.HXPXf.d.d.",
"9.p.f.s.s.PXHXy.u.x.N.3.uXeX$X:X6X;X;X%X'.`.`.!.`.`.].].|.|.|.$X+X+X+X+XOX@X_._.J J J K I U ).oX@X+XOX{.{.(.Q.Q././.K J D D D J K /.Q.(.(././.K K K K K K J J D D S N M M c O o @ % 1 r h g z 7 u +.M.B.N.<.A.J.w.w.q.#.| #X X%X:X:X:X6X1X1X2X2X1X;X'.`.Q.Q.P ~.'.%X-X X|.).P P D D D J K ~.|. X:X%X'.`.Q.K J D J K ^.]. X-X%X'.Q.K J J J K K /.Q.(.(.(.(.(.Q.J S S D U /.(.{.+X}.}.{.!.(.Q.K J U G D D D J K K J K K Q.!.{.+X+X5X+X{.(.K J D S J U I /.(.{.+X+XQ.Q.Q.Q.K K K J D D D D D S N M v c O % ^ p i u 3 5 f -.;.;.:.:.2.2.m.M.#.=.Q qX[.>XsXsX,X%X].Q./.(.(.OX+X5X5X5X{.(.Q.J D S S S G J J K Q.!.!.!.}.}.OX_._.I U G G G L U K /.(.(.{.(.Q.J D S S F U U U U K K K /.Q.Q.Q.(.(.{.{.}.-X}. X].(./.K P J K ~._.|.}.}.{.K J J D J J K /._._.OX{.{.{.`.!.K J K K Q.Q.(.(.Q.!.`.{.}.}.}.{./.I K K K K /./.(.(._._.{.(.(.K J D S N M c O o % * 1 t r g z 5 9.s.PXPXf.d.d.",
"9.p.f.s.s.PXHXy.8.x.N.3.uXeX$X:X;X;X;X%X'.`.`.!.`.`.].].|.|.$X$X+X+X+X@X@X_._._.J J J J U U ).#X@X+XOX{.(.(.Q.K /.I J D D D D J K K /./././.K K J J K K K J D D D S N M M c O o @ % 1 e h g z 7 u +.M.B.N.<.A.J.w.w.q.%.| #X X%X:X:X:X6X1X1X1X1X1X;X'.!.Q.K P ~.`.}.}.}.|.).I L S S S D K /.@X$X-X-X'.`.Q.K J D J K ~.^. X'.%X'.Q.K J J J K K K /././.(././.K J S N F J I (.{.+X}.}.{.!.Q.Q.K J U G D D D J K K J J K Q.(.{.+X+X+X+X{.(.K J D S G J U /.(.@X+X+XQ.K K K K K J J D D D D S S N M v c O @ ^ p i u 3 5 f -.;.;.:.:.2.2.m.M.#.=.Q qX[.>XsXsX,X%X].Q./.)._._.+X+X7X7X{.(.Q.J S S N S D D J K K Q.!.!.}.{.@X_.oXI J D T G L U K /.Q.Q.(.Q.K J D S S S L U U U U K K K K Q.Q.(.!.(.{.{.+X}.{.(./.I U L G U I _._.OX{.{.K J D D D J K K _._.OX{.{.(.!.(.J D J J I ).)._.K Q.(.{.+X+X{.{.(./.K K K K /./._._._._._.(./.K J D S M M c O o % * 1 t r g z 5 9.s.PXPXf.d.d.",
"9.p.f.s.s.PXHXy.8.x.N.3. .#X@X'.%X&X%X%X'.'.`.`.:X X].!.Q.!.^.!.(.(.{._._.(././.J D D D J G L U (.{.{.(.(.(.(.)./.I J D D S D D ).).).).).).).).K J J J J D D D J D S N M v c @ @ % 1 r h g z 7 u a k j s s ,.F.w.w.C.Z.X.qX X'.:X:X:X:X6X1X1X1X;X:X'.!.Q.K P ~.{.}.}.{.oX).Y T N N N N D J I (.`.`.!.Q.K J D D P K K Q.!.`.`.`.Q./././.K K K K /./.).).).K J D M M N S D J Q.Q.{.{.{.{.(.).).U U G D D D J K K ).(.(.(.{.{.{.{.{.{.(./.K J G D S D U I (.(.(.!.Q././.K K K U U D D D F S N M v v c O @ Z r i u 3 5 f -.;.;.:.:.2.2.b.M.$.%.Q qX[.>XsXsX>X'.Q.J I I /.Q.(.!.`.`.!.Q.J D N N M M F D D J K Q.Q.!.`.(.(.(.I U D S M N S D J K /.(.Q.K J D N N N N S D J J U J J J K K K K K Q.!.{.+XOX(./.J D S S G H U ).oX@XOX_.J S S S S D J J )._._._.OX(.(.Q.I L G D D D D J K I )._.@XOXOX_./././././.K K K ).).).).).).).U D H T H M c O @ @ % 1 r h g z 4 9.s.PXPXf.d.d.",
"9.p.f.s.s.PXHXy.8.x.N.3. .#X|.'.;X;X;X%X%X'.'.`. X X].!.Q.Q.Q.^.Q.(.(._._._./.K D D D D D G G U Q.Q.Q.Q././.K K I U D D S S S D J K K K K K K K K K J J J J D D J D S N M v c @ @ % 1 r h g z 7 u a k j s s ,.F.w.w.C.Z.X.qX X'.'.`.'.'.%X%X&X&X;X:X`.!.K K L P !.{.(./.I I H H N M N N S J I (.`.`.!.Q.K J D D L P K Q.!.!.`.`.Q./././.K K K I I I I U U U D S M M N S D J K Q.{.{.{.(.(./.).U J G D D D J K K /.(.(.(.(.(.{.{.!.Q.Q.K D S S N S S J U /.(.(.(./.K K K K K U J S S F F S N M v v c O % R r i u 3 u f -.;.;.:.:.2.2.b.M.$.%.Q qX[.>XsXsX>X'.Q.J K K K /.Q.(.!.!.!.Q.J S N M M M F D D J K K Q.Q.!.(.(.).U J S N M M N D J I /.(./.K J S N N M N S D G J J J J J J J J K K Q.(.(.@XoXoXI J S S N N S H U I oX/./.D S S S S S D J )._._._._.(.Q.K U H H G D D D D D J I /.oXoX/./././././.K K K I K K J U U U U J D H T H M c O @ @ % 1 r h g z 4 9.s.PXPXf.d.d.",
"9.p.f.s.s.PXHXy.8.x.N.3. .#X|.'.6X1X;X;X:X-X'.'. X`.`.!.Q.Q.Q.^.Q.Q.(._._.).I K D D D S D D G G J K K K K J J J U J D S S S S S D D D D D D D D U U U J J J J D D D S N B v c @ @ % 1 r h g z 7 u +.k j s s ,.F.w.w.C.Z.X.qX X'.!.!.!.`.'.'.'.'.;X'.`.Q.K J L P Q.(.Q.K J D S S M M M N S D I /.!.!.!.Q.K J D S G J J K Q.!.!.!.Q./././.K K K U J U U U L G S N M v M S D J K Q.(.(.(.(./.I U U J G D D D J K K /./.(.(.(.(.{.(.Q.K J D S N M M N S G U I /.Q.Q.K K K K J U J G S F F F N N M v v c O % R r i u 3 u f -.-.;.:.:.2.2.b.M.$.%.Q qX[.>XsXsX>X'.Q.J J J K K Q.Q.!.!.Q.K J S N M M M F F D D J K Q.Q.(.Q./.I U G S N M M N F J U /././.K J S N M M M N F D G L J D D J J J J K K Q.(.oXoXoXU H S N M v M N H J I I J D S S N S S D J ).).)._.(./.Q.J H F S S S S S S S S D J I I I J /./././.K K I U D D D D S S S S D H T H M c O @ @ % 1 r h g z 4 9.s.PXPXJXd.d.",
"9.p.f.s.s.PXHXy.8.x.N.3. .#X|.'.0X8X7X6X:X:X-X-X'.`.!.Q.Q.Q.Q.Q.Q././.).)./.K J S S S S S S F G J K K K J J J D U J D S N N N S D D D D D D D D U U I U U U J J D D S N B v c @ @ % 1 r h g z 7 u +.k j s s ,.F.w.w.C.Z.o.qX X'.!.!.!.`.'.'.'.'.%X'.!.Q.J J G P /.(./.I J H S N M M M N S H Y oX!.!.Q.K J D S S D G J K K Q.!.!.Q.Q./././.K K U J J L L G F S M v v M N S J K Q.(.(.Q.Q.I U P U L G D D D J K K /.Q.Q.(.(.(.!.!.Q.K J D S N M M N N D J I /.Q.Q.K J J J J J G D S S F F N M M v v c O % ^ r i u 3 u f -.;.;.:.:.2.2.b.M.$.%.Q qX[.>XsXsX>X'.Q.J J J J K K Q.Q.Q.Q.K J S N M v M N F D D J K Q.Q.Q.Q./.I L D N M v M N S G U /./.K J D S N M M M N S F G G G D D J J J J J K Q.).oX).Y H S N M v v M N H H I I J D S N N N S D D I I ).)././.K J H B B B N N N N N S D H Y I I J /.Q.Q././.K U U D D D S S S S S D H T H M c O @ @ * 1 r h g z 4 9.s.PXPXf.d.d.",
"9.p.f.s.d.PXHXy.8.x.b.3. .#X|.'.0X8X7X6X:X:X-X-X'.`.!.Q.K K Q.Q.K K /././.I J J S S S S N S S D K K K K K K J J J D S N N N N N G J J J J J J J U U U U U J J J D D S N B v c @ @ * 1 r h g z 7 u +.O.h s j ,.F.w.w.C.Z.X.qX'.'.].^.].`.'.%X%X%X%X`.!.K J G G J /.OXoXI Y H H H M M M M S H Y oX!.!.Q.K J D S S F D D J K Q.Q.Q.Q.Q./././.K K U D G G G F S N v v v M N S D K K Q.Q.Q./.K U J J L G D D D J K K K /.Q.Q.(.(.!.(.Q.K K J D S N M M N F G U K K K J J J J D D D F S S F N B M v v v c O @ ^ p i u 3 u f -.-.;.:.:.2.2.b.M.#.%.Q qX[.>XsXsX>X'.Q.J J D J J K K Q.Q./.K D S M M v v B F F D J K K Q.Q.K K U G F N M v v B S D U I ).K J D S N M M M B S F G G G D D J J J J J K /.).oXY Y H N M v v b n H H Y Y Y I S S N N N S D D U I )././.K K D N A M M M M M M S S H Y Y Y Y I /.Q././.K K U U J G G G F F F F S H T H M c O @ @ * 1 r h g z 4 9.s.PXPXf.d.d.",
"9.p.f.s.s.PXHXy.8.x.b.3. .#X@X'.6X1X;X;X:X%X'.'.`.`.!.Q.K K K K K K K /.I K J D N N N N N N N S K K K K K K U J D S S N M M M N G J J J J J J J U U U J J D D D H H S N B v c @ @ * 1 r h g z 7 u +.O.h h j ,.F.w.w.C.Z.o.qX'.'.].^.].`.'.'.%X%X'.`.Q.K J D F G /.OXoXI Y Y H H M M M M S H Y ).!.!.Q.K J D S S F F D J J K Q.Q.(.Q.Q././.K U U D F F F F B M v v v M N S D J K Q.Q.K K J J G G L G D D D J K K K K Q.Q.Q.Q.!.Q.Q.K K J D S N M M M S D J K K K J D D D D D S S N N N B B M v c v c O % ^ p i u 3 u f -.-.;.:.:.2.2.b.M.#.%.Q qX[.>XsXsX>X'.Q.J D D D J J K K K /.K D S M v v b B F F D J K K K K K K J D S M v v v M S D U U ).K J D N M M v M B S F G G D D S J D J J J K /./.I Y H H B M c c n n A T Y Y Y Y F N N N N S S D U U I I K K J D N n n n M M M M N H H Y Y Y Y Y /.Q.Q././.K U U J G G F F F F F S H T H M c O @ @ * 1 r h g z 4 9.s.PXPXf.d.d.",
"9.p.f.s.s.PXHXy.8.x.N.3. .#X@X'.;X;X;X%X%X'.'.`.`.!.!.Q.K K K K K K K K K J J D N N N N N N N S J J J J J D D D D S N M M M M N S D D D D D D D J G D D D S D S H H S N B v c @ @ * 1 r h g z 7 u a O.h h j ,.F.w.w.C.Z.X.qX'.'.!.Q.!.!.`.`.'.'.'.`.Q.J D S S D K /.I I H H H B v v M M N H Y ).Q.!.Q.K J D S N S S D D J K K Q.(.Q.Q././.K U U S F F F N M v v v v M N S D J K Q.Q.K K J J G G J G D D D J K K K K Q.Q.Q.Q.!.Q.K J J D S M M v v M N D J J K J J D D D S S S S N N N N B M v c v c O @ w p i u 3 5 f -.;.;.:.:.2.2.m.M.#.%.Q qX[.>XsXsX>X'.Q.J D S D D J J K K /.K D N M v v b B F F D J J K K K K J J D N M v v v M N D U I ).K J D N M M v M B N F G G G D S D D D J J K /./.Y Y H H M v c O c v n H H H H H F N N N N N S D J J U I K K J S B n v v v v v M M N H H H H H H /.Q.Q././.K U U S S S N B M B B S H T H M c O @ @ % 1 e h g z 4 9.s.PXPXf.d.d.",
"9.p.f.s.s.PXh.y.7.w.N.3. .wX@X{.}.}.}.'.`.`.!.!.!.!.Q.K J K K K J J J U U J D S M M M M M N N N S S S S S S S N S S N M v M M M N N N N N N N N D S S S S N N N H H H B M n m % X * 1 e g g z 7 u +.k h h h ,.A.F.F.Z.P.X.yX_.!.K K K Q.Q.Q.!.!.`.!.K J D S S D J J J D S S N N M M M N S H Y I /.Q.K K J D S S S S D D J J K K Q./././.I I U U S S F F S N M v v v M M N S J J J J J J D D D F G G D S S D J U J J K K K K K K D S S N M v c c v M N S D D J D D S S S S S N N N N N B B M v c v O o % t _ i 9 7 5 f f -.-.-.f <.1.v.$.$.$.Q qX].*X>X>X%X`.Q.J D D D D J J J J K J D S N M M M F F D D J J K K J J J J D S M M M M N S G U U ).K J D S N M M M N S G G G G D S D D D D J K I oXY Y H H B M v c c c M B S S S S S S N N N S S D J J U I K J J S N M M M M M M M v M N S S S S S I I I I I U U L N N M M M v v M S Y Y H v O O @ X = 1 e g g z 4 9.s.PXPXf.d.d.",
"9.j.h.p.p.g.a.0.5.q.<.]  .~ Y oXI J K K K K K K K K K K J J J J G F F F F F F F M v v v v v v v M M M M M M M v M v v v v v v v M M M M M M M M M M M M M M M M M A n A A m % % = & 2 9 d d z u u f O.k j h ,.N.I.U.P.3. .~ Y H J J J K K K I K K K J J J J J J I I I I I J J H H H H J J J J I J J J J D D D D D D D D D D J J J J J J D D D D D D D S D D S S B M M B B N N N N N N N M M M M M M M M M M N N N N N N N N N N N N M M M M M M v v v v M M M M M M M M M v v v v v v v v v v c A % % % 1 ^ e 0 d f +.q.w.6.6.+.( &.U.&.| *.o.T L P (.(.(.Q.Q.K J J J I I I I I J J J J J H H H H H J J J J J I I I J J J J H H D D D J J J I I I I J J J D D H H J J J J J J J J J I I J J J I D D D D D S S S S S S D D D D D D D D D D D D D D D D D D D D D D S S S S S D D H H H H J J J J N N N N N N M M v v v v v v v v v v v c m @ @ X X X & 0 0 z z 5 9.s.PXPXf.d.d.",
"0.j.a.j.a.g.k.7.7.q.<.1. .~ Y Y H D D H D D D H D D D D D D D D N B B B B B B B v v v v v v v v v v v v v v v v v v v v v v v v v v v v v v v v v v v v v v v v n A m m % % % = = & 0 9 d d u u u f q.k l h ' 1.U.3.3.3. .~ A A H D D H H H H J D D D D D D D D D D D D D D D D D D D D D D D D S S S S S S S S D D D D D D D D D D D D D D D D D D D D D D D S N M M M M M M M v v v v v v v v v v v v v v v v v v v v v v v v v v v v v v v v c c c c c c c c v v v v v v v v v v v v v v v v % % = = 1 s r 0 9 u f +.@.6.@.@.a &.*.| | X.o.T F H T Y U I J J J D D D D D D D D D D D D D D D D D D D D D D D D D D D D D D D D D D D D D D D D D D D D D D D D D D D D D D D D D D D D D D D S S S D S S S S D D D D D D D D D D D D D D D D D D D D D D D D S S D S S S S S D D D D D D D D M v v v v v v v v v v v v v v v n A A m m % % = X .   0 u z u 5 9.s.PXPXf.d.d.",
"9.j.a.j.a.g.z.7.w.w.N.1. .~ ~ Y H S S S S S S S S S S S S S S N M b b b b b b b v v v v v v v v v v v v v v v v v v v v v v v v c c c c c c c c c c c c c c c c c m m % % % = = = & 2 9 d d u u u f q.k l h ` 1.1.3.3.3.{ ~ A A H S S S S S S S S S S S S S S S S S S S S S S S S S S S S S S S N N N N N N N N S S S S S S S S S S S S S S S S S S S S S S S N v c c c c c c c c c c c c c c c c c c c c c c c c c c c c c c c c c c c c c c c O O O O O O O O v v v v v v v v v v v v v v v b @ X X = 1 r e 0 0 u f @.@.@.@.5 q $.&.) ) | | A B B H H H H D S S S S S S S S S S S S S S S S S S S S S S S S S S S S S S S S S S S S S S S S S S S S S S S S S S S S S S S S S S S S S S S S S N N N N N N N N S S S S S S S S S S S S S S S S S S S S S S S S N N N N N N N N S S S S S S S N v c c c c c c c v v v v v v v b A A A A A % % = = = & 0 u z u 5 9.s.HXPXf.d.d.",
"9.j.g.j.a.g.z.7.r.J.N.1...~ ~ H H B B B B N M N M M M M M M M M b m m m m m m m c c c c c c c c c c c c c c c c c c c c c c c c O O O O O O O O o o o o o o o O O @ @ @ @ X = X = & 2 9 d d u u u f q.k l h ` 1.1.3.3.3.[ [ ! A A B B B B N N N M M M M M M M M M M M M M M M M M M M M M M M M v v M M M M M M N N M M M M N N N N M M M M N N N N M M N N N M c O O O O O O O O O O O O O O O o o o o o o o o o o o o o o o o o o o o o o o o o o o o o o o o c c c c c c c c c c c c c c c O X X X = 1 r e 9 0 u f f @.@.5 5 q %.$.) ) | ) C V A A H H S N N N M M M M M M M M M M M M M M M M M M M M M M M M M M M M M M M M M M M M M M M M M M M M M M M M M M M M M M M M M M M M M M M v v M M M M M M N N M M M M N N N N M M M M N N M M N M N N N N M v M M M M M M M M M M M M M M c O O O O O O O c c c c c c c m m A A m % % = = = & 2 0 9 d u 4 9.s.PXPXf.d.d.",
"9.j.g.j.a.g.z.7.w.F.S.1.3.{ ~ ~ A A A A A n n n n n n n n n n m m $ $ $ $ $ $ $ + + + + + + + + + + + + + + + + + + + + + + + + + + + + + + + + + + + + o o o o @ % % % % = = = = & 0 9 d d z u u f O.k l h ` 1.1.1.3.3.[ [ ! A A A A A A n n n n n n n n n n n n n n n n n n n n n n n n n n n c c c c c c c v n b b n n n n b n b b b b b b b n b b b n n n m + + + + + + + + + + + + + + + + + + + + o + o o + + + + + + + + o + + + o o o o + + + + + + + + + + + + + + + + + + + + + + + + X X X = 1 s e 0 9 u f +.+.@.@.f u %.$.%.) $.) Z V Z Z A A B B M n n n n n n n n n n n n n n n n n n n n n n n n n n n n n n n n n n n n n n n n n n n n n n n n n n n n n n n n n n n n n n n n c c c c c c c v n m m n n n n b n b b b b b b b n n n n n n n b c c v c c c c v n n n n n n n m + + + + + + + + + + + + + + + @ % % % % % % = = & & 0 9 d d u 5 9.s.PXPXf.d.d.",
"9.p.h.j.a.g.z.7.w.q.m.V.3...{ { / / / ! Z Z Z C C C C C C C C C * * * * * * * * # # # # # # # # # # # # # # # # # # # # # # # # $ $ $ $ $ $ $ $ # # # # # # # # % % % % % = = = = & 0 9 d d z z u f O.k l h ` N.1.1.3.3.3.[ [ ! / / / ! Z Z C C C C C C C C C C C C C C C C C C C C C C C C C C m m m m m m m m m @ @ @ m m m m @ @ @ @ m m m m m @ @ @ m m m @ $ $ $ $ $ $ $ $ $ $ $ $ $ $ $ $ # # # # # # # # # # # # # # # # # # # # # # # # # # # # # # # # # # # # # # # # # # # # # # # # * = = = t r e 0 d f +.+.q.+.+.+.+.%.Z.%.%.$.$.E R R E W Z Z A n C C C C C C C C C C C C C C C C C C C C C C C C C C C C C C C C C C C C C C C C C C C C C C C C C C C C C C C C C C C C C C Z Z m m m m m m m m m @ m m m m @ m @ @ @ @ m m m m @ m m m m @ m m m m m m m m m m C C C C C C C C $ $ $ $ $ $ $ $ # # # # # # # $ % % % % % = = = 2 t 9 d d d u 5 9.s.PXPXf.d.d.",
"9.p.h.j.a.z.z.7.6.q.b.N.1.3.....] ] ) / ^ E R R R R R R R R R , , > > > > > > > > > > > > > > > > > > > > > > > > > > > > > > > > > > > > > > > & & & & & & & & % % % % 1 1 2 & & & 0 9 y d z u u l O.k l h ` <.V.V.P.P.3.3.[ [ ] ) ) ^ ^ E R Z R R R R R R R R R R R R R R R R R R R R R R R R * * * * * * * * $ $ $ $ $ $ # # $ $ # $ $ $ $ $ $ $ # # $ $ # # * > : : > > > > > > > > > > > > & & & & & & & & & & & & & & & & & & & & & & & & & & & & : : : : > > > > > > > > > > > > > > > > ^ 1 2 1 s s e 0 l l q.q.q.w.q.O.+.Z.Y.#.#.Z.$.( w ^ ^ ^ ^ E Z Z R R R R R R R R R R R R R R R R R R R R R R R R R R R R R R R R R R R R R R R R R R R R R R R R R R R R R R R R R R R R R R R R * * * * * * * * $ $ $ $ $ $ $ $ $ $ # # $ $ # $ $ $ $ $ # $ $ # * * * * * * * * R R R R R R R , , > > > > > > > > > > > > > > , ! ! ! ! ! 1 1 1 2 9 9 g g d u 4 9.s.PXPXf.d.d.",
"9.p.h.j.u.z.z.7.6.q.c.N.V.1.3...V.$.] ( ( ^ w w w w w w w w w w q q q q q q q q a a a a a a a a a a a a a a a a a a a a a a a a q q q q q q q q : : : : : : : : 1 1 1 1 1 1 1 2   & 0 9 y d y u 9 l O.k l h ` v.D.D.D.U.P.1.1.] $.$.] ' ( ^ w w w w w w w w w w w w w w w w w w w w w w w w w w , , , , , , , , & & & & & & & & & & & & & & & & & & & & & & & & > > > > > > > > q q q q q q q q : : : : : : : : : : : : : : : : : : : : : : : : > > > > > > > > a a a a a a a a a a a a a a a p ' _ t t s s 9 0 k q.q.q.C.w.w.q.O.Y.Y.C.C.Y.Z.p p p ( ( ( ^ ^ , w w w w w w w w w w w w w w w w w w w w w w w w w w w w w w w w w w w w w w w w w w w w w w w w w w w w w w w w w w w w w w w w , , , , , , , , & & & & & & & & & & & & & & & & & & & & & & & & , , , , , , , , w w w w w w w w q q q q q q q q a a a a a a a p _ _ _ _ _ _ _ _ t t e g g d y 4 9.s.PXPXf.d.d.",
"9.i.DXh.u.z.z.r.w.q.m.S.D.V.V.V.V.v.#.' p q q : q q q q q q q q 8 8 8 y y y y y 8 8 8 y 8 8 8 8 8 8 8 8 8 8 8 8 8 8 8 8 8 8 8 8 i i i y 8 8 7 : : : : : : : : : 2 1 1 1 2 2 2 2 t 0 0 0 0 0 0 0 g d 9 9 g ` b.S.D.D.D.V.V.1.1.<.$.#.#.' p r t q t t q q t t t t t t t t q t t t t t t t t t q q ' ' p q q : & & : & & & & & : 8 : : : : : : : : q : & & & & & : - - : : : 8 y y 8 8 8 8 y y 8 8 : : : : -       : : : : - : : : : : : : - - - - : 7 8 8 y y i i 8 8 8 8 8 8 8 8 8 8 8 8 8 8 8 8 e t t e e e e 9 l l q.n.n.C.n.q.+.O.C.C.H.C.#.#.#.#.' ' h p r r t t t t t t q t t t t q t t t t t t t t q q q t q q q q q q q q q q q q q q q q : : : : : : : : t t t t t t t t p p q q q q : : ' ' p q q : & & & & & & & & : : : : : : : : : : 8 : & & & & & : : : : : 8 : 8 q ' p p q q q p p y y y y 8 8 8 8 8 8 y y 8 8 8 q _ _ _ _ _ s s s 2 0 0 9 9 9 0 6 9.s.f.PXf.d.d.",
"9.i.PXg.u.z.z.r.w.n.m.K.B.B.B.v.M.M.#.k g e 8 0 9 9 9 9 e e e 9 9 y y y y y y y 7 7 7 7 7 7 7 7 7 7 7 7 7 7 7 7 7 7 7 7 7 7 7 7 a y y y 9 7 7 7 - - - - - - -   & & & & & & & & 9 0 0 0 9 9 9 0 l g y e l k M.S.L.D.D.D.D.B.V.N.v.#.#.k l i e 9 8 8 8 8 8 8 8 8 8 8 8 8 8 8 8 8 8 8 8 8 8 8 7 7 g a i 8 0 :     :           & :                 : &           -   - - - 7 7 7 7 7 7 7 7 7 7 7 7 - - - - -           - - - - - - - - -           - : 7 7 7 8 9 y 7 7 7 7 7 7 7 7 7 7 7 7 7 7 7 8 8 t 9 9 9 9 9 9 d g k q.M.n.M.q.q.C.C.H.H.C.C.M.l l h a i i e e 8 8 8 8 8 8 8 8 8 8 7 7 8 8 8 8 8 8 8 8 8 8 8 8 g g g g g g g g g l g g g g g g g h h h h g g g 8 8 8 8 8 8 8 8 e 9 9 8 7 0 0 : g a i 8 0 :                 &                   0 :           :       : 0 8 8 9 i i 9 8 8 8 e i 7 7 7 7 7 7 7 7 7 7 7 7 7 7 7 8 r s r r r e e e 0 0 9 9 9 9 9 4 9.s.HXPXf.d.d.",
"9.i.PXh.u.z.z.r.w.n.G.G.G.m.M.M.M.M.#.k g i 9 8 y y y y y y y y y y y y y y y y 7 7 7 7 7 7 7 7 7 7 7 7 7 7 7 7 7 7 7 7 7 7 7 7 d d y y y 9 7 7                   & & & & &     9 9 9 9 9 9 9 9 l l l l k ,.M.m.L.L.L.K.S.S.B.B.M.c.#.O.l g g i 7 7 7 7 7 7 7 7 7 7 7 7 7 7 7 7 7 7 7 7 7 7 7 7 i i 9 8 0 : -   :             -                 -           - - - - - 3 7 7 7 7 7 7 0 0 7 7 7 7 3 - - - -                                 - - - - - 7 7 7 7 9 y 7 7 7 7 7 7 7 7 7 7 7 7 7 7 7 7 0 0 0 0 0 0 8 0 9 g k q.c.c.c.c.m.C.H.K.H.H.G.C.d g g i y y 9 9 8 8 8 8 9 9 8 9 8 8 8 8 8 9 8 9 8 8 8 8 8 8 8 8 : : : : : : : : 7 7 7 7 0 0 0 0 8 8 8 8 9 8 8 8 8 8 8 8 8 8 8 8 y y 9 9 8 7 0 0 i i 9 8 0 : -   - -     - - - -                 : -         : 0 . .   - 0 8 y i 9 9 9 9 9 9 y y 7 7 7 7 0 7 7 7 7 7 7 7 0 7 7 7 e e e e e e e e e 9 9 9 9 9 9 4 9.s.HXPXf.d.d.",
"e.i.PXh.u.z.z.r.w.F.G.G.C.C.q.O.M.c.c.k l d y 9 g d g d g d g g d d d d d d d d d d d d d d d d d d d d d d d d d d d d d d d d l l l g d 9 9 9 0 0 0 0 0 0 0 0 0 0 0 0 0 0 0 0 9 9 9 9 9 9 9 9 k k k k k c.M.M.m.m.m.m.m.m.m.m.M.c.c.q.k l l g g d g d g d g d g d g d g d g d g d g d g d g d k l l g d 9 9 9 d 9 0 3 0 3 0 0 0 0 0 0 0 0 0 0 0 0 0 3 0 0 9 9 y y y d d d d d d d d d d d d d d y 9 9 0 0 0 0 0 0 0 0 0 0 0 0 3 0 0 0 0 0 0 0 9 9 y d d g l l d d d d d d d d d d d d d d d g g g g g g g g g l k c.M.m.m.m.m.m.m.m.m.G.m.m.m.k l l l l l l l l l l l l l l l l l l l l l l l l l l l l l l l 9 9 9 9 9 9 9 9 g d g d g d g d g d g d g d g d l l l l l l l l k k k l l g g d k l l g d 9 9 9 9 9 9 9 9 9 9 9 0 0 0 0 0 0 0 0 9 0 7 0 7 9 d g 7 0 9 9 9 y g d g g l l k k k l d d d g d d d d d d d d d d d g l l l l k k k k j l g e 9 9 9 5 9.s.HXPXf.d.d.",
"e.CXPXh.u.z.W.r.J.F.J.F.F.q.+.+.q.c.;.k k g g d l l l l l l l l l l l l g g g g c.c.c.c.c.c.c.,.c.c.,.,.,.,.c.c.c.c.c.,.,.,.c.c.k k j l g g d d l l l g g g g l g g g g g g l l 9 9 9 9 e d d d k k ` c.c.c.c.c.k k O.O.O.O.O.q.c.c.c.q.c.;.k k c.c.c.c.c.c.c.q.c.c.c.c.c.c.c.c.c.c.c.c.c.c.c.c.M.M.c.c.c.;.;.k c.;.j g d d d g l l l l l l l l g g d d g j ;.c.M.c.c.c.c.c.c.c.c.c.c.c.c.c.c.c.c.c.,.;.k j j j g g g g l l l l d d g g j k k k k k ;.c.c.c.M.M.c.c.,.,.,.,.c.c.c.c.c.,.,.,.c.c.c.q.q.q.q.c.c.c.c.M.m.K.L.L.L.L.,.,.,.,.` ,.,.c.M.c.M.c.M.M.M.M.M.M.m.M.m.M.M.M.m.M.M.M.M.M.M.M.m.M.M.M.m.M.m.M.R.R.R.R.R.R.R.R.E.E.E.E.E.E.E.E.L.L.L.L.L.L.L.L.m.M.M.M.M.M.M.M.m.m.m.m.M.M.c.c.M.M.c.c.c.;.;.k k k k k k k k k l l l l l l l l k l l l k ;.M.M.m.m.c.;.j g d 9 k ;.M.m.m.m.m.M.c.c.,.,.,.,.c.c.c.c.,.,.,.,.c.c.q.q.q.c.M.m.m.G.c.k l g 9 e h f 9.s.HXPXf.s.d.",
"e.CXPXh.u.z.W.r.J.J.J.F.w.w.+.+.q.,.;.k j l g g j j j j j j j j j j j j j j j j m.m.m.m.B.B.S.B.m.m.m.m.B.N.m.m.m.m.m.m.B.N.m.m.,.,.j j j j s s ,.,.,.,.,.,.,.,.q.q.q.q.O.O.O.O.d d g g d g g g ` ,.M.M.m.M.q.k g g l l l l O.O.c.c.c.c.c.c.c.c.m.m.m.m.m.m.m.m.m.m.m.m.m.m.m.m.m.m.m.m.m.m.m.m.m.m.m.m.m.m.m.m.m.m.c.;.j l j j ,.,.,.,.,.,.,.,.k j l j ;.b.m.S.K.S.S.S.S.S.m.m.m.m.m.m.m.m.m.m.S.S.S.m.m.b.b.c.,.,.,.,.,.,.,.,.j j j ,.,.b.m.m.b.b.m.m.S.S.S.S.m.m.m.m.m.m.m.m.m.m.m.m.m.m.m.m.m.n.n.n.n.m.m.m.m.m.L.I.R.R.R.R.,.` h s s j j ,.m.m.m.m.m.S.K.K.K.K.L.L.L.L.L.L.K.L.L.L.L.L.L.L.L.L.L.L.L.L.L.L.E.E.E.E.E.E.E.E.E.E.E.E.E.E.E.E.R.R.R.R.R.R.R.R.L.L.L.L.L.L.L.L.L.L.L.L.L.S.S.S.m.m.m.m.m.m.m.m.b.b.b.b.b.b.b.b.,.,.,.,.,.,.,.,.c.c.c.c.M.m.K.L.R.R.L.m.,.l d 9 ;.b.S.L.R.R.L.K.m.m.m.m.m.m.m.m.m.m.m.m.m.m.m.m.n.n.n.m.G.K.L.L.G.M.k g 9 d h 6.y.s.HXPXf.s.d.",
"e.CXPXh.u.z.W.J.J.J.J.F.w.w.@.+.O.,.;.k j j j j j j j j j j j j j ` ` ` ` ` ` ` N.N.N.N.N.N.N.N.N.N.N.N.N.N.N.N.N.N.N.N.N.N.N.N.,.,.,.` ` j h h ,.,.,.,.,.,.,.,.q.q.q.q.O.O.O.O.d g g g h h h h ` c.m.m.m.M.q.k d d l l O.O.q.q.c.b.b.b.b.b.b.b.m.m.m.m.A.A.A.m.m.A.m.m.m.m.m.m.m.A.m.m.A.m.A.A.m.m.m.m.m.m.m.m.S.m.b.;.j j j j ,.,.,.,.,.,.,.,.j j j j ,.b.m.S.L.L.D.D.S.N.N.b.N.N.N.N.N.N.N.N.D.S.S.N.N.b.<.<.,.,.,.,.,.,.,.,.s h j ,.<.b.N.N.b.b.b.N.N.S.D.D.N.N.N.N.N.N.N.N.N.N.N.N.N.N.N.m.M.n.n.n.n.M.m.m.M.m.K.L.I.I.I.I.<.<._ s s _ ,.<.b.b.b.m.m.S.S.K.L.L.L.L.L.L.L.L.L.L.L.L.L.L.L.L.L.L.L.L.L.L.L.L.L.L.L.L.L.L.L.L.R.E.E.R.R.R.R.R.L.L.L.L.L.L.L.L.L.L.L.L.L.L.L.L.R.R.L.L.L.S.S.S.m.m.m.m.m.m.m.m.m.m.m.m.m.m.m.m.,.,.,.,.,.,.,.,.b.,.,.b.b.S.L.R.R.L.S.m.,.j s d j ,.S.R.R.R.L.S.N.N.N.N.N.N.N.N.N.N.N.N.N.N.N.m.q.q.q.n.G.K.L.L.L.m.c.g d h j q.y.s.HXPXf.s.d.",
"e.CXIXZXj.g.z.r.J.L.K.G.C.+.@.@.k ` k ` j j j j ` ` ` ` ` ` ` ` ` ` ` ` ` ` ` ` b.b.b.b.b.b.b.b.b.b.b.b.b.b.b.b.b.b.b.b.b.b.b.b.,.,.` ` ` j j h ` ` ` ` ` ` ` ` k l l l l l l l g g h h h h h h ' #.M.B.B.M.' l l l l O.q.q.q.q.c.c.b.b.b.M.b.b.M.M.M.M.b.b.b.M.M.M.b.b.1.1.N.b.b.M.M.M.M.b.1.1.<.<.v.v.b.b.b.b.V.N.<.` h r r s ` ` ` ` ` ` ` ` r r r s ' ] V.B.I.D.D.B.N.N.<.<.1.1.1.1.1.1.N.N.V.V.N.N.1.<.<.<.` ` ` ` ` ` ` ` t r s ` ' <.1.N.<.<.<.N.N.N.V.V.N.N.N.N.1.N.<.N.N.N.N.N.1.N.<.v.c.c.M.c.M.M.M.M.#.M.B.K.I.I.I.I.N.<.' _ _ ` <.N.` ,.,.v.M.m.B.S.D.D.D.D.D.K.K.S.K.K.K.D.D.D.D.D.D.D.D.D.D.D.D.D.R.R.R.R.R.R.R.R.E.E.E.E.E.E.E.E.E.E.E.E.E.E.E.E.D.D.D.D.D.D.D.D.L.L.L.D.D.S.N.B.#.#.#.c.v.v.N.v.N.N.v.b.M.M.M.M.` ` ` ` ` ` ,.;.;.;.k k c.V.U.U.B.v.v.' ' ' h h g j m.L.I.L.L.S.N.N.N.N.1.1.1.N.N.N.N.N.1.1.1.b.k O.q.M.m.K.K.L.L.B.c.h e s ` q.e.s.h.h.f.s.d.",
"s.LXIXLXSXIXg.t.J.K.P.P.%.%.+.u a h ' ' ' ' ' ' _ _ _ [ [ [ [ [ ' ' ' ' ' ' ' ' B.B.V.V.B.B.B.B.B.B.B.B.B.B.B.B.B.B.B.B.B.B.B.B.' ' ' ' ' ' ' ' ' ' ' ' ' ' ' ' ' ' ' h h h l l l l h ' ' ' ' ' a O.#.%.%.#.' ( p i y f +.6.w.w.q.M.M.m.m.m.S.K.K.S.m.m.m.M.M.c.q.q.c.1.1.3.1.1.M.c.q.q.M.1.3.3.1.v.v.v.v.1.1.1.' ] ] ] ] ] ] ] ( ( ( ( ( ( ( ) ^ / / / ) ] &.P.U.I.U.U.P.V.V.V.1.1.1.1.1.1.1.1.1.1.1.1.1.1.1.1._ _ _ _ _ _ _ _ ^ _ _ ' ] 1.V.V.1.1.1.1.1.1.1.] V.$.&.$.&.$.&.$.$.$.&.$.&.$.&.$.V.B.B.B.B.B.B.B.Z.Z.Z.Z.Z.Z.Z.Z.' ' _ h _ ' ' ' Z.Z.Z.Z.Z.Z.Z.Z.V.P.Z.Z.Z.Z.Z.Z.Z.Z.Z.Z.Z.Z.P.P.P.U.U.U.U.U.P.P.I.I.I.I.I.I.I.R.E.W.W.W.E.R.R.E.I.I.I.I.I.I.I.I.P.P.P.P.P.P.P.P.P.V.P.Z.P.Z.P.V.#.%.%.%.$.$.&.&.) ) ] #.#.O.+.l ' / [ [ [ <.,.;.5 >.@.+.%.&.*.MX&.$.$.%.%.( ( ( ( ' v.Z.D.K.S.B.V.V.V.V.V.V.V.V.1.1.1.1.1.1.1.1.V.V.V.Z.P.I.I.I.P.V.1.' ' _ _ l 7.u.g.g.i.p.d.",
"s.JXIXLXSXIXg.t.K.U.U.*.*.=.=.< ( ( ) ) ) / / / / / / { { { { { / ) ) ) / / / / ] ] ....] ] ] ] ] ......] ] ] ] ] ......] ] ] ] / / / / ) ) ) ) / / / / ) ) ) / / / / / ) ( ( ( ( ( / ) / / / / ( ( ) =.) ) ) / ^ ^ w i l +.w.w.M.M.m.m.m.m.K.K.K.S.m.m.m.M.M.c.O.#.] .. . . ...] #.#.#.] .. . ...] ..........................| { W W W W { { { Q Q Q Q { o.X.X.U.U.U.P.3.3...................................../ / / / [ / [ / / / / [ ......3.................| | | | | | | | | | | | | | | | ....] ] ] ] ] ] P.P.P.P.P.P.P.P.] / ( ^ ^ / ) ) P.P.P.P.P.P.P.3.3.3.3.P.P.P.V.V.V.V.P.P.P.P.3.3.3.3.3.3.3.3.3.3.U.U.U.U.U.U.U.U.E.E.E.E.E.E.I.U.U.U.U.U.U.U.U.U.3.3.3.3.3.3.3.3.3.3.3.3.3.3.3.&.%.=.%.=.| | o.o.{ | ) ] #.O.+.l ( ) [ [ [ 1.<.q.6.6.@.+.%.*.iXiX*.*.*.*.| W W / ) ) &.P.U.P.P.P.3.......3.3.3.........................3.U.U.U.U.U.3...[ / / / _ w.u.g.g.i.p.d.",
"y.JXLXd.f.GXz.n.P.NXiXpXiXQ Q W { { { { { } } } } } wXwXwXwXwXwX~ { { { { { { { } } } } } } } } } } } } } } } } } } } } } } } } { { { { { { { { { { { { { { { { { ~ { { { { { { { { { { { { { { Q Q Q Q } Q Q ~ { { / ^ ( ' v.M.M.M.M.m.m.m.K.K.K.K.m.m.m.m.M.v.] |  .uXeXeXeXuX .....|  .uXeXeXuX . . . . . .uX} } } uXuXuXuXyX~ Q #X#XyX#X#X#X#X#X#X#X#XwXiXiXiXuXuXuXuXuXuX} uXuXuXuXuXuXuXuXuXuXuXuXuXuXuXuX} } } } } } } } ~ ~ } } uXuXuXuXuXuXuXuXuXuXuXuX} } yXyXyXyXyXyX} yXyXyXyXyXyX} } } } } } } } }  . . . . . . . .} { { ~ ~ { { }  . . . . . . . . . . . . . . .o. . . . . . . .uXuXuXuXuXuXuXuXuXuXuXuXuXuXuXuXX.U.U.U.U.MXMXiXiXuXuXuXuXuXuXiXuXuXuXuXuXuXuXuXuXuXuXuXuXuXuXuX .Q Q Q Q Q } } } ~ } o...] ' ' l ' ( / [ [ 1.<.q.w.7.w.O.%.| qXqXiXiXqXqXqXqXQ Q } } uXuXNXuXuXuXuXuXuXuXuXuXuXuXuXuXuXuXuXuXuXuXuXuXuXuXuXuXuXuXuXuXuX} ~ ~ ~ [ w.u.z.g.i.p.CX",
"y.HXHXj.a.z.W.P.uXpXpXtXaX9X.X.X#XwXwXwXwXeXeXeXeXeXeXeXtXtXtXtX#X#X#X#XwX#X#X#X#XwXwXwX#X#X#X#X#X#XwXwXwXwX#X#X#X#XwXwXwXwX#X#X#X#X#XwXwX#X#X#X#X#X#XwXwX#X#X#X#X#X#X#X#X#X#X#X#X#X#X#X#XwX#X#X.X.X#X$X$X$X$X#XoXY T ~ { | ..$.v.M.M.m.m.m.K.K.K.K.m.m.m.m.M.]  .yXtXtXtXmXtXtXeXiXyXyXeXtXtXtXtXeXeXeXeXeXeXeXeXeXeXeXeXeXeXeX9X9X9X9X9X9X9X9X9X:X:X:X7X9X9XtXtXeXtXeXeXeXeX$XeXeXeXeXeXeXeXeXeXeXeXeXeXeXeXeX$X$X$X$XeX$XeX$X$X$XeXeXeXtXtXtXeXeXeXeXeXeXeXeX$X$X$X$X$X$X$X$X$X$X$X$X$X$X$X$X#X#X#X#X#X#X#X#XwXwXwXwXwXwXwXwXwXwX#X#X#X#XwXwXwXwXwXwXwXwXwXwXwXwXwXwXwXwXwXwXwX#XwXwXwXwXwXeXeX7X9X9XeXeX$XeXeXeXeXeXeXeXeXyX~ ~ ~ ~ #X#X#X#XeXeXeXeXeXtXtXtXeXeXeXeX$XeXeXeXeXeXeXeXeXeXeX#X)..X).oX#X#X#X#XwXwX . ...] ] ' #.' ' [ [ <.<.q.w.t.w.#.$.o.qX9XaX0X0X0X0X9X9X9X9XeXeXeXpXpXeXeXeXtXeXeXeXtXtXtXeXeXeXeXeXeXeXeXeXeXeXeXeXeXeXeXpXtXtXeX$X$X$X} w.u.g.g.i.p.CX",
"y.z.z.l.z.W.R.3.eXtXmXnXzXxX<X=X0X9X9X9X8X8X8X8X8X8XlXlXlXlXlXlX8X6X6X6X6X6X6X6X6X6X6X6X6X6X6X6X6X6X6X6X6X6X6X6X6X6X6X6X;X;X;X6X7X6X7X6X6X6X6X6X7X6X7X6X6X6X6X6X7X7X6X6X6X7X6X7X6X6X6X6X6X7X7X:X*X*X:X:X:X6X;X;X5X+X_.oX~ }  .X.1.M.M.m.m.m.K.K.K.K.m.m.m.M.M...eX8XlXzXnXnXnXzXlXtX9XtXlXlXzXzXlX8X8X8X8X8X8X8X8X8X8X8X8X8X8X8XlXfXlXfXlXlXlXfXfXfX2X2X2XfXlXlX8X8X8X8X8X8X8X1X8X8X8X8X8X8X8X8X8X8X8X8X8X8X8X8X8X8X8X8X8X8X8X8X8X8X8X8X8X8X8X8X8X8X8X8X8X8X8X8X1X>X>X>X>X>X>X>X>X>X>X>X>X>X>X;X;X6X6X6X6X6X6X6X;X;X;X;X;X;X;X;X0X7X6X;X;X6X7X0X;X;X;X;X6X;X6X:X;X;X;X;X;X;X;X;X;X;X;X;X;X;X:X;X1X2X2X2X2X8X8X1X8X6X6X7X7X7X7X:X`.`.`.`.'.'.'.'.7X6X8X8X8X8X8X8X1X;X1X1X1X1X;X;X1X1X1X1X1X1X1X;X-X}.-X-X5X+X+XOX@XwXuX .X...3.] #.O.' ' 1.<.<.q.J.r.C.$.| yX9X0XxXjXjXkXkXgXgXlXlXlXlXlXlX8X8X8XmX8X8X8X8X8X8X8X8X8X8X8X8X8X8X8X8X8X8X8X8X8X8X8XmX8X8X8X8X8X8XwXn.u.g.g.i.p.d.",
"8.l.z.l.r.W.U.uXtXlXnXnXvXcXjXsXgXlXlXlXlXlXlXlXzXzXzXzXzXzXzXzXfX2X2X2X2X2X2X,X2X2X2X,X2X,X2X,X2X2X2X,X2X,X2X,X2X2X2X,X2X,X2X,X2X2X2X2X2X2X2X2X2X2X2X2X2X2X2X2X2X2X2X2X2XfXfXfXfXfXfX2X2X2X2X2X>X>X,X,XsX,X,X>X1X;X}._.#XwXyXX.] M.M.m.m.m.B.K.K.K.m.m.m.m.M...tXzXnXnXnXnXnXnXzXlXlXlXzXnXnXnXkXgXfXgXkXgXgXgXfXfXlXkXfXfXfXfXkXkXkXkXkXkXkXkXkXhXdXdXdXhXkXkXzXlXzXgXkXgXgXsXgXfXfXgXfXgXfXgXfXgXfXgXgXfXfXgXgXfXgXfXgXsXgXsXkXfXkXfXlXkXlXkXfXgXfXgXfXgXgXgXsXsXsXsXsXsXsXsXsXsXsXsXsXsXsXsXfX,X2X2X2X,X2X,X,X,X,X,X,X,X,X,XfX2X2X,X,X,XfXfX,X,X,X,X,X,X,X,X,X>X>X,X,X,X,X,X,X,X,X,X,X>X>X,XdXdXdXdXdXdXsXsXfXfX2X,X2X,X,X>X1X1X1X1X,X,X2X2XfXfXsXsXgXdXgXdXsXfXfXfXsXfXfXfXsXfXsXfXsXfXsXfX2X1X1X1X1X6X5X+XOXwXwX . ...3.] #.O.#.' <.<.A.n.J.H.H.$.X.iX0XxXcXbXbXbXbXcXvXvXnXnXkXkXkXlXzXzXzXlXzXlXzXlXzXlXgXfXfXfXgXgXfXgXzXlXzXkXkXgXgXfXzXlXkXfXgXgXzXeXM.u.g.g.i.p.d.",
"0.l.z.k.r.W.U.iX7XlXvXbXbXbXcXjXkXxXxXxXkXkXkXkXkXkXkXvXvXvXvXkXdXsXsXsXsXsXsXsXdXsXdXdXdXdXdXdXdXdXdXdXdXsXdXdXdXdXdXdXdXdXdXdXsXsXsXsXsXsXsXsXsXsXsXsXsXsXsXsX,X,XsXsXdXdXdXdXdXdXdXdXsXsXsX,X>X,X,XsXsXsX,X,X>X&X%X|._.#XyX .] M.M.m.m.m.K.K.K.G.m.m.m.m.M...0XvXnXbXbXbXbXnXvXkXxXkXkXvXbXbXjXjXjXhXjXhXhXdXhXhXhXhXdXdXdXhXcXcXcXcXcXkXjXjXkXjXhXdXdXdXjXkXkXkXkXkXkXhXhXhXdXdXdXdXdXdXhXdXdXdXdXdXdXdXdXdXdXdXdXdXdXdXdXdXkXkXkXhXhXhXhXhXdXdXdXdXdXdXhXdXdXdXdXdXdXdXdXdXdXdXdXdXdXdXdXdXdXdXdXdXdXsXdXdXsXsXsXsXsXsXsXsXdXsXsXsXsXsXdXdXsXsXsXsXsXsXsXsX,X,X,XsXsXdXdXdXdXdXdXsXsX,X,XsXhXjXjXjXjXhXdXdXdXdXsXsXsXsXsXsXsXsXsXsXsXsXdXdXdXdXdXdXhXjXjXhXdXdXdXdXdXdXdXdXdXdXdXdXdXdXdXdXsXfXfX2X8X6X5X+XoX~ ~  ...3.1.v.O.+.O.#.<.2.A.A.J.J.Z.&.iXpXmXzXcXbXbXbXbXbXbXbXbXvXcXjXjXhXkXkXkXhXkXhXhXhXhXhXhXdXdXdXdXdXdXdXzXkXkXkXkXhXhXdXkXhXhXdXhXhXkXtXM.u.g.g.i.p.d.",
"9.a.g.u.r.W.U.iX7XfXvXbXbXbXcXjXhXgXgXgXgXgXkXkXkXjXjXjXjXcXcXjXdXsXsXsXsXsXsXsXsXdXdXdXgXgXgXdXdXdXdXdXgXgXdXdXdXdXdXdXgXgXgXdXsXsXsXsXsXsXsXsXsXsXsXsXsXsXsX,X,X,X,XsXsXdXdXhXhXdXdXsX,X,X,X,X>X>X,XsXsX,X,X>X&X%X`.^..XqXyXo.$.M.M.m.m.m.K.K.K.m.m.m.m.m.M...0XcXbXbXbXbXbXbXcXkXgXgXjXvXbXbXjXhXhXhXhXhXdXdXdXdXdXdXsXsXsXdXjXcXcXjXjXjXjXjXkXhXdXsXsXsXdXgXkXkXkXkXkXhXhXhXdXdXdXdXdXdXdXdXdXdXdXdXdXdXdXdXdXdXdXdXdXdXdXdXhXhXhXhXhXdXdXdXdXdXdXdXdXdXdXdXdXdXdXdXdXdXdXdXdXdXdXdXdXdXgXdXgXgXdXdXgXgXgXgXsXsXsXsXsXsXsXsXsXsXsX,X,XsXsXsXsXsXsXsXsXsXsX,X,X,X,XsXsXdXdXhXhXdXdXsX,X,X,X,XdXjXjXjXhXhXhXdXdXsXsXsXsX,X,X,X>X>X,X,X,X,X,XsXdXdXdXhXhXjXjXhXdXdXdXdXdXdXdXdXdXdXdXdXdXdXdXdXgXfXfX8X8X5X+XoXY ~ { ..] V.v.M.+.+.O.#.<.<.A.A.J.H.Z.&.iXpXmXnXbXbXbXbXbXbXbXbXbXvXcXjXdXdXdXhXhXdXdXdXhXdXdXdXdXdXdXdXdXdXdXdXkXkXkXkXkXhXdXdXhXdXdXdXdXdXkX9XM.u.g.g.i.p.d.",
"9.p.VXp.e.r.Z.{ eXmXnXbXbXcXjXdX3X<X3X3X3X3X3XgX>X,XsXdXdXdXdXsX,X<X>X&X&X&X&X&X&X&X&X&X&X&X<X<X<X<X<X<X<X>X&X&X%X%X%X%X&X&X&X&X<X>X&X&X&X&X>X<X<X<X<X<X<X<X>X=X*X'.'.=X3XxXgXdXsX,X>X&X'.'.`.'.<X<X>X<X3X3X&X'.'.^.K L T Q | *.' c.M.m.m.K.K.K.m.m.m.K.K.K.K.U.pXvXvXbXbXbXcXhXkXxX0X3XgXhXcXvXjXhXhXhXgXxXxXxXxXxXgX<X<X=X=X<X,XdXdXdXdXsX,X>X3X<X<X<X3X3X0X0X>X>X,X,X,XsXsXsXgXdX,X,X>X>X,X,X,X,X,X,X,X,XsXxXgXgXgXgXgXsX,X>X,X,X,X,X,X,X,X,X,X,X,X,X,X,X,X,X<X<X<X<X<X<X<X<X%X%X%X%X&X&X&X&X&X&X&X&X%X%X%X%X&X&X&X&X&X&X&X&X&X&X&X&X&X&X&X&X&X&X&X&X&X%X%X'.*X*X=X=X,X,XsXdXdXsX,X&X%X*X[.=X>XsXsXsXsX,X,X>X>X>X>X&X&X=X=X=X=X&X>X<X<X<X3XsX,XsXsXsXdXdXdXsXsX,X>X>X>X>X,X,X,X,XsXsX3X,X>X>X,X2X8X6X{.K I T A Z ) $.M.C.q.+.+.+.q.n.N.N.2.;.H.G.V...iXtXmXnXbXbXbXbXcXcXjXjXvXjXhXsXsX,X,X,X>X,X,XsXsX,X,X>X>X,X,X,X,X,XsXsXxXgXgXsXsX,X,X,X>X>X,X,XsXsX,X.Xc.u.g.g.i.p.d.",
"e.VXAXVXp.k.C.) #X7XkXjXjXdX,X&X*X[.[.[.*X*X*X=X%X&X>X<X3X3X,X,X=X=X*X*X'.'.'.'.[.'.'.'.'.*X=X4X=X*X*X*X'.'.'.'.`.`.'.'.'.'.'.*X=X*X'.'.'.'.*X=X*X*X=X=X*X'.`.!.^.~.!.[.=X3XgX,X,X>X&X'.`.^.~.^.[.[.'.*X=X=X`.Q.K D N b V Z W %.p k k c.M.m.m.m.m.m.m.Z.K.K.K.U.pXkXcXbXbXbXcXsX>X'.].!.'.&X,XsXsXsXsXsXsX3X3X3X3X<X=X[.].].].'.>X,X,X3X3X<X&X=X`.!.!.!.!.!.^.].*X=X&X=X<X<X<X<X<X=X=X%X%X%X%X%X&X&X&X%X&X=X<X<X=X<X<X<X<X&X%X%X%X%X%X%X%X%X%X%X&X&X=X=X&X&X&X=X'.`.`.`.`.`.`.`.`.`.`.`.'.'.[.[.[.'.'.'.'.'.`.`.[.[.*X*X*X*X*X*X'.'.'.'.'.'.'.'.'.'.*X*X'.'.`.!.~.~.^.[.*X>X,X,XsX,X&X%X`.^.~.!.%X>X>X,X,X>X&X%X*X*X*X*X[.[.[.[.[.*X*X=X=X=X<X<X<X<X,X,X,XsX,X,X>X=X%X%X%X%X=X=X<X<X<X<X<X=X=X%X&X;X6X{.K S M n + * q +.+.+.@.@.+.+.q.m.N.N.2.,.q.k _ / #X7XfXcXbXbXcXcXjXjXhXdXgXdX,X&X'.'.'.'.=X=X<X<X<X<X=X=X%X%X%X%X=X=X&X=X<X<X<X=X&X=X=X&X%X&X=X<X<X<X<X.Xc.u.g.g.i.p.d.",
"e.VXAXVXVXFXt.( T {.>X,X,X>X%X!.!.Q.Q.Q.!.!.!.!.'.'.*X=X<X<X<X=X[.XX].].].^.!.!.].^.!.!.^.].XXXX].].^.^.^.!.Q.Q.!.^.!.^.].].].].XX].].!.!.].].XXXXXX].].!.Q.K J L G J Q.[.=X>X>X,X&X'.`.Q.P L P ^.!.!.!.].].Q.D N M c + # # < a i g l k k c.M.M.m.m.m.K.K.K.K.U.pXxXkXvXvXvXhX>X!.K D D K !.%X>X>X>X>X>X>X=X=X4X[.].^.Q.K J J K *X&X>X<X=X=X*X].J J J J D D G J ].[.[.[.*X*X4X4X[.[.`.!.!.!.`.`.`.`.`.`.`.'.[.*X[.[.[.[.[.'.`.`.`.`.`.`.`.`.`.`.`.`.'.`.`.`.`.`.Q.K K K K K K K Q.Q.Q.^.^.^.^.].].].].].^.!.^.!.].].].].].].].].^.^.!.^.!.!.!.!.].].].].].^.!.K S F J Q.].*X>X,X<X>X'.!.K D F J '.&X&X=X=X*X'.'.[.].].].].^.^.^.].].[.[.*X*X4X4X=X=X<X<X,X,X,X<X*X[.'.`.`.'.[.[.*X4X4X4X4X*X[.'.'.-X}.Q.S c o o . . ; u @.@.@.6 +.+.c.m.N.2.2.<.f g w ! Y 7XlXcXcXcXjXhXhXdX,X<X<X*X`.!.K K K K [.[.*X4X4X*X[.[.!.!.`.`.`.`.'.'.[.[.[.[.'.`.`.`.`.'.[.4X4X4X*XT q.u.g.g.i.p.CX",
"e.CXAXVXVXFXt.( A oX-X>X>X%X`.Q.Q.K K K Q.Q.Q.!.`.`.*X=X=X=X=X*X].XX^.^.^.^.Q.Q.^.^.Q.Q.^.^.XXXX^.^.^.^.Q.Q.Q.Q.Q.Q.^.^.^.^.^.].XX^.^.Q.Q.^.^.XXXXXXXXXX^.K J S G N S J ].*X&X%X,X&X'.!.K L G L .X^.Q.^.].^.K D M c o X X # < u y g l k k c.M.M.m.m.m.K.K.K.K.U.pXxXxXkXnXvXdX&XQ.J G G P ^.=X<X&X>X>X>X&X=X4X4X[.^.Q.J D D D J '.&X&X;X:X*X[.^.K J J J L G L L ^.].].[.[.[.[.[.[.].].!.!.!.!.!.!.!.!.Q.!.!.`.[.].[.XX[.[.].!.!.].`.!.!.`.`.`.`.!.!.!.!.!.!.!.!.J J J J J J J J K P ~.~.~..X.X.X^.^.^.^.^.^.Q.Q.^.^.^.^.^.^.^.^.Q.Q.Q.Q.Q.Q.Q.Q.^.^.].XX^.^.Q.J N N D P ].*X<X3X,X&X'.Q.J N M N `.*X*X*X*X*X[.`.].].^.^.^.^.^.^.^.].].[.[.*X*X=X=X=X=X<X<X,X,X<X[.].].!.!.].].[.[.4X4X4X4X[.[.`.%X-X+X/.N O X X . . ; ; 6 6 6 6 +.O.M.V.D.2.2.<.j l ( / wX9XmXnXjXjXjXhXgXsX<X<X*X].^.K J D D D ^.[.[.*X[.[.[.].!.!.!.!.].].].].[.[.[.].].].].`.`.].[.[.4XXX[.T q.u.g.g.i.p.d.",
"y.d.LXCXVXFXr.' ~ oX6X8X>X%X`.Q.^.^.^.^.!.!.!.`.`.'.%X*X=X=X&X*X[.].].!.!.!.!.!.!.!.!.!.!.!.].XX].].].].].!.!.!.!.!.!.!.].].].].].!.!.!.!.!.!.].4X4XXXXX].!.K D G N S J `.&X&X&X,X>X%X`.Q.L G L XX`.`.`.@X@X/.J N v O o # : u a l k k c.M.m.m.m.m.m.m.K.K.K.K.U.pXxXxXzXnXnXdX&X!.P G G P .X4X0X>X,X,X,X3X3X0X0X4X].^.K J J G K '.&X;X;X6X-X}.`.Q.K K P L L T P !.`.'.'.[.*X*X*X4X*X'.`.`.`.`.'.!.!.!.!.!.`.`.'.*X*X4X4X*X[.'.`.'.'.'.'.'.'.'.'.!.!.`.`.`.`.!.!.K K K K K K K K K K /.~./.)..X.X].].].].!.!.!.!.!.!.!.!.!.!.!.!.!.!.!.!.Q.!.!.!.^.].].].].!.!.K S F L ~.[.<X2XxX,X>X'.Q.J S M N `.%X=X=X=X*X'.'.`.`.].!.!.^.^.!.].`.`.'.[.*X*X=X=X<X>X<X<X2X,X<X%X`.`.`.`.`.`.'.*X4X4X4X4X*X[.'.;X7X7X/.S c o X . . : u a a d u O.O.#.V.1.1.2.<.j l ( / yXtXmXnXjXjXhXdXdX,X<X=X4X].^.P J D G J !.'.[.*X*X[.'.`.`.`.`.'.'.[.[.[.4X4X4X*X[.[.'.'.`.`.'.*X*X*X[.T q.u.g.g.i.p.CX",
"y.JXLXd.i.g.J.` ~ rX8X8X8X&X`.!.].`.`.`.`.'.'.'.'.'.%X&X>X>X&X%X'.`.`.`.`.!.!.!.`.!.!.!.!.`.'. X[.[.[.[.'.`.`.`.`.!.`.`.`.`.'.[.`.`.`.!.!.!.`.`.:X:X:X X'.`.!.K G S D Q.'.>X,X,XfX,X&X'.Q.P L P $X}.}.+X7X@X(.I H M c @ & 8 g O.l k k c.M.m.m.m.m.m.m.K.K.K.K.U.pXxXlXzXnXnXfX&X!.J F F G ~.].&X2XfXfXfXfXlX8X0X:X X].^.Q.K K Q.-X1X1X8X6X5X}.{.K K J J G G G U `.'.'.'.%X*X%X%X:X*X%X'.'.'.'.%X`.`.`.`.`.'.'.%X=X:X:X:X:X%X%X'.%X%X%X%X%X%X%X'.'.`.'.'.'.`.`.`.(././././././././././.(.(._._._.|.'.'.`.`.`.`.!.`.`.`.`.`.`.`.`.`.`.`.`.`.`.`.`.`.`.'.[.'.`.!.Q.G G P !.*X1XfXkXfX>X%X!.K D N D '.&X>X1X;X&X%X%X'.`.`.`.!.!.!.`.`.'.'.%X%X&X&X>X1X2X2X2X2XfXfX2X%X'.'.`.`.`.'.'.:X:X:X0X:X*X%X%X;X7X7X(.D v O + X # > a ' ' ' p #.#.V.P.3.3.2.<.g d r E T $XlXkXjXjXjXhXdXsX<X=X4XXX^.P P G G P `.'.%X%X%X*X'.'.'.'.'.'.%X%X%X*X:X:X:X*X%X*X%X%X`.'.%X%X*X*X*XT q.u.g.g.i.p.CX",
"y.JXJXJXh.z.T.1.~ rX8XlX8X;X`.!.'.'.'.'.'.%X%X%X'.%X&X>X2X2X>X&X%X'.'.'.'.`.`.`.'.`.`.`.'.'.%X-X%X'.'.'.'.`.`.`.'.'.'.'.%X%X%X-X'.'.'.`.`.`.'.'.'.'.%X%X'.'.`.Q.K D K !.&XfXgXdXkXfX>X%X`.Q.P ~.+X}.}.+X5X5XOXI H N n @ % t h k g g l k k c.M.M.m.m.m.K.K.K.K.U.pXmXzXnXnXnXzX&X`.K D F G K `.%XfXdXgXfXfXfX2X2X8X:X'.!.Q.Q.K !.;X8X8X8X8X6X5X}.Q.Q.K J J J J K '.%X%X%X&X&X;X;X;X&X%X'.'.'.%X%X%X%X%X'.%X%X&X;X&X&X;X;X;X&X%X%X%X%X%X%X%X%X%X%X%X%X%X%X%X%X%X'.{.(.(.(.(.(.(.(.(.(.OXOXOXOX@X@X-X%X%X'.'.'.'.'.'.'.'.'.'.'.'.'.%X%X%X%X%X%X%X%X%X%X%X-X%X'.'.!.J J Q.`.%X>XfXdXdXsX&X'.!.K J K %X,X2X2X2X1X&X&X%X'.'.'.'.'.`.'.'.%X%X&X&X>X>X2XfXfXfXfXfXlXlXfX&X%X%X'.'.%X%X%X1X8X8X8X8X1X;X&X%X&X-X!.D M c m + $ , ^ / / [ ^ ' #.V.3.3.3.2.<.;.k ( / Q $X8XkXcXcXcXjXhXsX,X<X:X*X].~.J J G K `.%X&X&X;X&X%X%X'.'.%X%X%X%X&X&X;X;X&X&X&X%X%X%X'.%X&X&X;X;X&XY q.u.g.g.i.p.CX",
"y.JXHXJXh.z.T.1.~ rX6X8X1X%X!.!.`.'.'.'.'.'.'.%X'.%X&X>X1X1X>X&X%X'.'.'.`.`.`.`.`.`.`.`.`.'.'.%X'.'.'.`.`.!.!.!.`.`.'.'.%X%X-X-X%X%X'.`.`.`.`.`.Q.!.!.`.`.!.!.Q.Q.K Q.`.1XfXfXgXkXfX>X%X`.!.~.~.{.`.`.`.OXOXI D S M c @ = 2 r j 0 9 9 g l k k k m.m.m.K.K.K.K.U.pXmXzXnXnXnXzX,X;X|.~.P P ^.'.&X>X,X>X>X>X>X1X;X;X:X'.!.Q.Q.Q.!.;X8X8X8X8X6X5X}.{.(.(././.oXoX(.`.%X%X%X&X&X;X;X%X'.`.`.!.!.!.`.%X%X%X%X%X&X;X1X'.%X%X%X'.'.`.!.`.`.`.`.`.`.`.'.%X%X&X&X&X&X&X%X!.(.(.(.(.(.(.(.{.{.OXOXOXOX+X+X-X-X-X%X%X'.'.'.'.'.`.`.`.!.!.`.-X;X;X;X;X;X;X;X&X&X;X;X%X'.`.!.K J K Q.`.'.%X&X1X>X%X'.!.!.Q.!.&X>X2X2X8X1X;X&X'.'.'.`.`.`.`.`.'.%X%X%X%X&X;X;X8X2X2XfXfXfXfXfX%X'.'.`.`.'.'.%X8X8X8X8X8X1X1X&X`.`.!.K S v c c o + * ^ ^ [ [ ^ ' #.V.3.3.3.2.<.L.G.B.&.yXpXmXzXkXcXjXjXdXsX3X<X&X'.!.Q.J J J K '.%X&X&X;X&X%X%X`.`.`.'.'.'.'.'.'.'.'.'.'.'.'.'.%X%X&X&X1X&X&XY n.u.g.g.f.p.CX",
"y.JXPXf.h.z.w.^ A I {.'.'.`.^.^. X'.'.'.'.'.`.`.'.'.'.'.%X%X%X'.!.!.!.!.!.!.Q.Q.^.^.!.!.Q.Q.K Q.`.`.`.!.Q.K K J K Q.!.`. X-X%X%X'.'.`.!.Q.K P L S S D J K Q.!.!.Q.Q.!.'.%X&X>X,X2X1X1X;X X|.|..X(.Q.K K I I D N M c O @ % * t e h 9 9 l M.K.K.m.M.M.M.M.M.M.M.] iX9X2XzXnXnXnXdX2X:X$X$X|. X'.'.`.`.`.`.`.`.'.`.'.`.!.!.Q.Q.Q.!.%X&X&X&X&X%X-X}.7X7X+X X|._.(.(.!.`.`.'.'.%X-X%X-X`.Q.K D S N D `.%X1X0X0X:X'.!.!.Q.Q.Q.K K K K D D J J Q.(.].`.!.`.'.%X&X&X&X%X`.!.!.Q.Q.!.!.!.|.|.|.|.{.!.!.!.!.!.{.}.}.-X5X5X5X{.Q.J D S N S `.'.%X&X&X>X>X>X>X&X;X-X'.`.!.Q.Q.Q.Q.K K J J J D J Q.!.{.}.5X-X%X%X%X%X'.'.'.`.`.`.!.!.Q.Q.Q.Q.!.`.!.!.!.Q.Q.Q.Q.!.'.%X;X>X>X&X!.K K J K K Q.!.'.'.-X-X&X%X%X`.(.I J D N M c O % * ^ _ <.<.,.k O.#.V.P.3.1.D.T.T.L.L.U.MXpX0XgXsXsXsXsXsX,X2X8X%X'.!.Q.K K K Q.'.%X%X&X%X%X'.'.'.'.`.`.!.!.!.Q.K K Q.!.`.'.%X&X1X>X&X&X%X%X'.U ;.z.UXh.s.ZXSX",
"y.f.PXf.i.z.w.^ A I !.`.`.!.~..X].'.'.`.`.`.`.`.`.`.`.`.`.`.`.`.Q.Q.Q.Q.Q.Q.Q.Q.~.~.~.Q.K K K K `.`.`.!.Q.J J D J K ~.^. X'.'.%X'.'.`.!.K P G F M B N D J K Q.Q.Q.Q.!.`.%X&X&X>X1X;X;X-X'.|.].|.(.K J J U H S v c O @ @ $ * t e h 9 9 l M.K.S.m.M.M.M.M.M.M.M.] iX9X1XlXnXnXnXhXfX1X:X$X X'.'.`.Q.Q.Q.Q.!.!.].].].].!.Q.Q.Q.Q.!.%X%X%X%X%X%X'.'.:X:X X X|.].!.!.Q.Q.!.`.`.'.'.'.'.!.K D S M M N !.%X;X0X7X:X`.!.K K J J J D D D N N S D J I ~.(.Q.!.'.%X*X&X&X%X`.!.Q.Q.Q.Q.!.!.!.].].|.].!.Q.Q.Q.Q.(.{.{.}.+X+X+X(.K D S M M N !.'.%X&X>X>X,X,X>X>X;X-X'.!.Q.K (.(./.J D S N N N S J /.{.-X;X;X%X'.'.'.`.`.`.].].^.^.Q.K K J J Q.Q.Q.Q.K P P P J K ^.`.-X%X&X%XK J J D J K K Q.].`.'.-X%X'.'.!.I H S N M v c o % * t ` ,.,.;.l +.#.Z.V.1.1.D.T.J.H.K.U.iXpX0XfX,XsXsX,X,X2X1X6X:X}.`.Q.K K K /.'.%X%X%X%X'.'.`.`.`.!.!.Q.Q.Q.K L L P ~.^.'.%X&X;X&X&X&X%X'.'.H -.z.UXh.s.LXLX",
"y.f.PXf.i.z.w.w A I !.`.`.!.~..X|.'.'.'.`.`.`.`.'.'.`.`.`.`.'.`.Q.Q.Q.Q.Q.Q.Q.Q.~.~.~.Q.K K K Q.`.`.`.!.Q.K J D J K ~.^. X X'.%X'.'.`.!.Q.P G G N N S D J K Q.Q.Q.Q.!.`.'.%X&X&X&X&X%X%X'.].^.^.(.K J J U H S v c O @ @ = * 1 e h 9 9 l M.m.m.M.M.M.M.M.M.M.M.] iX9X1XfXnXnXnXkXfX6X:X|.|.`.`.`.Q.K Q.Q.!.].|.|.].].!.Q.Q.Q.Q.!.%X%X%X%X%X%X'.'.:X X X|.].!.^.^.K K Q.!.`.`.'.'.'.!.Q.J S N B S !.'.:X:X:X X`.!.K J J J D D D D S S S D J K /.^.Q.!.'.%X*X&X&X%X`.!.Q.Q.Q.!.!.!.!.!.].].].!.Q.K K K /.(.{.{.}.}.}.(./.J S N N S !.'.%X&X>X>X,X,X>X>X;X-X'.!.Q.K (.(./.K D N N M N S J /.{.}.;X-X'.'.'.'.`.`.`.].|.|.^.Q.K J D J K Q.Q.Q.~.P P P J K ^.`.-X-X&X%XQ.K J J K K Q.Q.!.].`.'.'.`.`.Q.I H H N M v c o % * t ` ,.,.;.l +.#.V.V.1.1.D.T.J.H.K.U.iXpX0XfX,XsX,X,X,X>X>X;X:X-X{.(.K K K K '.%X%X%X%X'.'.`.`.`.!.!.Q.Q.Q.K P L P ~.!.'.%X&X;X&X&X&X%X'.`.H -.z.UXh.s.LXLX",
"y.f.PXf.i.z.w.w A I !.`.`.!.~..X].'.'.'.`.`.`.`.'.`.`.`.`.`.`.`.Q.Q.Q.K Q.Q.Q.K Q.Q.Q.Q.Q.K K Q.'.'.`.!.Q.K J J J K ~.^. X'.'.%X'.'.`.!.Q.K L G S F F G J K K K Q.Q.!.`.'.%X&X&X&X&X%X'.`.].^.^.(.K J J U H N v c O @ @ = * t e h 9 9 l c.m.M.c.M.M.M.M.M.M.M.] iX9X1XfXnXnXnXkX2X6X X|.].`.`.!.K K Q.Q.!.].|.|.].].!.Q.Q.Q.Q.!.%X%X%X%X%X'.'.'. X X|.].!.^.!.Q.J J K Q.!.`.`.'.`.!.Q.J D S S D !.'.%X-X:X'.`.!.K J J J D D D S S S S D J K Q.Q.Q.!.'.%X*X&X&X%X`.!.Q.Q.Q.!.!.!.!.!.!.].!.!.Q.K J J K /.(.{.{.}.{.(.Q.J D S S D !.'.%X%X&X>X>X,X>X&X;X-X`.^.K K _._./.J D N N M S D K (.{.}.}.'.'.'.'.'.`.`.`.].|.|.^.Q.K J D J K Q.Q.K ~.P .X.XJ K ^.`.-X%X&X%X`.Q.Q.K Q.Q.!.!.!.!.].].`.!.Q.K I H H N M v c o @ * t h ` ;.k l +.#.B.V.1.1.D.L.J.J.Z.P.iXeX0XfX,XsX,X,X>X>X&X%X6X7X{.(.K K J K '.%X%X%X%X'.'.`.`.`.!.!.Q.Q.Q.K P L P ~.].'.%X&X;X&X&X%X%X'.`.H -.z.UXh.s.LXLX",
"y.f.PXZXi.z.w.w A I !.`.`.!.~..X].'.'.'.`.`.`.`.'.'.`.`.`.`.'.`.Q.K Q.Q.Q.Q.K K K K K Q.Q.Q.Q.!.'.'.`.!.Q.K J J J K ~.^. X'.'.%X'.'.`.!.Q.K P L G D G D J J K K Q.Q.^.`.'.%X&X&X%X%X'.'.`.!.^.~.^.K J J J H N v c O @ @ = * 1 t h 9 9 g k M.c.k c.c.M.M.M.M.M.] iX9X1XfXnXnXzXdX1X-X|..X!.!.`.!.Q.K Q.Q.!.].].|.].].!.Q.Q.Q.Q.!.'.%X%X%X'.'.'.'.'.`.].!.^.Q.Q.K D F G J Q.!.`.`.`.!.Q.K J J J J !.'.'.'.'.`.!.!.K K J J J J J D S S D D J K K Q.Q.!.'.%X*X&X&X%X`.!.Q.Q.Q.Q.!.!.!.!.!.!.!.Q.Q.J D F G U /.(.{.{.{.!.Q.K J J J J !.'.'.%X&X>X>X>X>X&X%X-X`.^.K K /./.I J D S N N D J K (.{.{.'.'.'.'.'.'.`.`.`.].|.^.^.Q.K J J J Q.Q.Q.Q.K P P P J K ^.`.-X%X&X&X'.`.!.!.!.!.!.!.Q.!.^.^.Q.Q.K J U H H N M v c o @ % 1 h j k j d a O.V.1.1.2.2.L.J.F.G.P.X.eX7X,XsXsXsX,X>X&X%X'.;X}.{.(.K K K K '.%X%X%X%X'.'.`.`.`.!.!.Q.Q.K K P P P ^.].'.%X&X&X&X&X%X'.`.`.H -.z.KXh.f.PXLX",
"y.f.PXf.i.z.w.w A I !.`.`.!.~..X].'.'.'.`.`.`.`.'.'.`.`.`.`.'.`.Q.K Q.Q.Q.Q.K K K K K K Q.Q.~.^.'.'.'.`.!.K K J J K ~.^. X'.'.'.'.'.`.!.!.Q.K P P J J J J J J J K Q.^.].'.%X%X&X%X'.'.`.!.Q.Q.Q.^.K J J J H N v c O @ @ = * t t h 9 9 g k c.k l c.c.M.M.M.M.c.] iX9X1XfXnXnXkXfX%X`.^.~.!.`.'.`.!.Q.Q.!.!.!.!.!.].].!.Q.Q.Q.Q.!.'.%X%X'.'.'.'.`.`.].!.^.Q.Q.Q.J S N F G K Q.!.`.`.!.!.Q.K K K Q.!.`.`.`.`.!.!.!.Q.Q.K K K K K J D D D D J J K Q.Q.!.'.%X*X&X&X%X`.!.Q.Q.Q.Q.!.!.Q.!.!.!.!.Q.K J S N F G K /.(.`.`.!.!.Q.K K K Q.!.`.'.%X&X&X>X>X&X&X%X X].^.K J K K J J D D D S J J /.(.{.{.`.`.'.'.'.'.`.`.`.].^.^.Q.Q.K K K K !.!.Q.Q.K K P P J K ^.`.-X-X&X&X%X'.`.`.`.!.`.].Q.Q.Q.Q.K J J D U H H N M v c o @ = 1 r j j l d i O.#.1.1.1.2.A.F.F.C.&.X.qX:X,XsXsX,X,X>X&X%X'.%X'.!.Q.Q.K /./.'.%X%X%X%X'.'.`.`.`.!.!.Q.Q.K K K P Q.^.`.'.%X&X;X&X&X%X'.`.!.H -.z.KXHXf.LXLX",
"y.f.PXf.i.z.w.w A I !.`.!.!.~..X].'.'.'.`.`.`.`.'.'.`.`.`.'.'.`.Q.K Q.Q.Q.K K K K K K K Q.~.~.^.'.'.'.].^.Q.K J J K ~.^. X'.'.'.'.`.`.`.!.Q.Q.K K K K J J J J J K K Q.!.`.'.%X%X'.'.`.`.!.Q.Q.K ^.K J J J H N v c O @ @ $ * t t h 9 9 9 k k k g c.M.M.M.M.c.c.] iX9X1XfXzXnXzX,X`.Q.K ~.^.`.%X%X`.!.!.!.!.Q.Q.Q.].].!.Q.Q.Q.Q.!.'.'.'.'.'.'.`.`.].!.^.Q.Q.K K J B B N F J K Q.!.`.!.!.Q.Q.Q.Q.Q.`.`.!.!.!.!.!.!.!.!.!.Q.Q.Q.Q.Q.J G G D J J K K Q.`.'.%X*X&X&X%X`.!.!.Q.Q.Q.!.!.Q.Q.!.!.Q.Q.K D N B N F J K Q.!.`.!.!.Q.Q.Q.Q.Q.!.`.'.%X&X&X>X>X&X%X%X X].~.K J D D D J J J J U K K /.(.(.!.`.!.'.'.'.'.`.`.`.].Q.Q.Q.K Q.~.~.~.].].!.Q.K J D D J K ^.`.-X-X&X&X&X%X'.'.`.`.`.|.Q.K K K J J D S U H H N M v c o X = * r h l g d i a #.1.1.<.2.A.w.w.C.$.X.qX:X,XsXsX,X,X&X%X'.`.`.`.!.Q././.oX_.'.%X%X%X%X'.'.`.`.`.!.!.Q.Q.Q.K K K Q.!.'.%X&X&X;X&X%X%X'.`.!.H -.z.KXHXf.LXLX",
"y.f.PXf.i.z.w.w A I !.`.!.!.~..X].'.'.`.`.`.`.`.'.'.`.`.`.`.'.`.Q.K Q.Q.Q.Q.K K J K K K Q.~.~.^.'.-X'.].^.Q.K P J K ~.^. X'.'.'.`.`.`.`.!.!.!.Q.Q.Q.K K J J D D K K Q.^.`.'.%X%X'.`.`.!.Q.Q.K K ~.K J J J H N v c O @ @ $ * t t h g 9 9 k k l 9 c.c.M.M.M.c.c.] iX7X1XfXzXzXlX>XQ.K J P ^.'.&X%X'.].!.!.Q.Q.K K ].].!.Q.Q.Q.Q.!.'.'.'.'.'.`.`.].!.^.Q.Q.K K K G M b B F G K Q.!.!.!.!.!.Q.Q.Q.!.!.!.!.Q.Q.!.!.!.!.!.!.!.^.^.^.~.J H G D J J K K Q.`.'.%X%X&X&X%X`.!.!.Q.Q.Q.!.!.Q.Q.!.!.Q.Q.K D M b B S D K Q.!.!.!.!.!.Q.Q.Q.(.!.`.'.'.%X&X&X&X&X%X-X X^.~.J J S S D D J U I ).K /.(.(.(.!.!.!.'.'.'.'.`.`.`.].K K K K Q.~..X.X$X X].Q.K D D S J K ^.`.-X%X&X&X&X%X%X'.'.`.`.|.Q.K K K J D S S U H H N M v c o X = * r h l d y u a #.1.1.<.2.A.w.w.C.$.X.qX:X>XsXsX,X>X&X%X'.`.`.!.Q.Q././.#X@X'.%X%X%X%X'.'.`.`.`.!.!.Q.Q.Q.K Q.Q.^.`.'.%X&X&X;X&X%X'.`.!.Q.B -.z.KXh.f.LXLX",
"y.f.PXZXi.z.w.w v D Q.`.`.!.P P |. X X X X X X X X X'.'.`.`.!.!.Q.Q.Q.Q.K K K K D D J J K Q.~.^.'.'.'.!.Q.K J D P K K Q.!.`.`.`.`.`.`.`.`.`.`.!.!.!.^.^.~.K J D J D D K ]. X-X'.;X-X'.!.Q.K P P K K K U J S N M c O o X $ * t r e 9 d g l l h k k k c.m.m.m.M.] iX7X1XfXzXzX,X'.Q.J D D K `.;X1X'.].!.!.!.].].].Q.Q.Q.Q.!.!.].`.`.'.'.'.'.`.`.!.!.Q.Q.K J J D S B b B F G K Q.!.'.'.`.`.`.].].|.Q.K K K K Q.!.^.].].|.|.].!.!.K U U H G D J J K Q.!.'.%X=X&X&X%X`.!.!.!.!.!.!.!.!.!.!.!.!.Q.Q.J B b B S D K Q.!.{.}.}.}.{.{.{.{.`.`.'.'.%X%X&X&X;X:X:X X^.P J D S S N D U ).).K Q.Q.K K K Q.(.!.`.'.'.'.'.`.`.!.Q.Q.K K K K ~.^.^.!.^.Q.K J J J J K ^.`.-X%X&X&X'.%X&X;X:X'.`.Q.K J J J D G G G U H H N M v c o @ * 1 r s g z 7 u O.#.1.1.<.2.S.q.q.M.$.X.qX7X2XgXdXsX,X&X%X'.!.!.!.`.@X@X@XoX(.'.%X%X%X%X'.'.'. X X|.].^.Q.Q.Q.Q.Q.!.`.'.%X;X1X&X%X'.!.!.Q.K B -.l.KXh.f.PXLX",
"y.f.PXZXi.z.w.w n J !.`.`.!.P P ].'.'.'.'.'. X'. X X'.'.`.`.`.!.Q.Q.Q.Q.Q.K K Q.D D J J K Q.~.^.'.'.`.!.Q.K J J P K K Q.!.`.`.`.`.`.`.`.`.`.'.`.`.`.!.^.~.K J D J D D K ]. X'.'.:X X`.!.Q.K P P K K K U J S N M c O o @ $ * t r e 9 g g l l h k k k c.m.m.m.M.] iX7X1XfXzXfX>X`.K J F D K `.;X1X'.!.!.!.!.].].!.Q.Q.Q.Q.!.!.!.].`.`.'.'.`.].!.Q.Q.Q.K J J J D S B B N F J K Q.!.'.'.`.`.!.!.^.^.K K K J K Q.Q.^.].].|. X`.`.!.Q.I U H D J J J K Q.!.'.%X=X&X&X%X`.!.!.!.!.!.!.!.!.!.!.!.!.Q.Q.K N B N F J K Q.!.{.}.}.{.{.(.(.(.(.].`.'.%X%X%X%X%X-X X|.^.P G S S N N D U )././.Q.Q.Q.K K Q.Q.!.`.'.'.'.'.`.`.!.Q.Q.K K K Q.~.^.!.!.^.Q.K J J J J K ^.`.-X%X&X&X'.'.%X:X-X'.`.Q.K K K J J J J G U H H N M v c o @ * 1 r s g z 7 u O.#.<.] <.2.A.q.q.M.$.X.qX7X2XgXdXsX,X&X%X'.`.!.!.`.@X@X@XoX(.'.%X%X%X%X'.'.'. X X|.].^.!.Q.Q.Q.!.!.`.'.%X;X;X&X%X'.!.Q.K K B -.l.KXh.f.LXLX",
"y.f.PXZXi.z.w.w A J !.`.`.!.P P ].'.'.'.'.'.'.'.'.'.'.'.`.`.`.!.Q.K Q.Q.Q.Q.K Q.J J J K K Q.Q.^.'.'.`.!.Q.K J J P K Q.Q.!.`.`.`.`.`.`.'.'.'.'.'.'.`.`.!.Q.K J D J D D K ^. X'.`.:X'.`.Q.K J P P K Q.K U J S N M c O o @ $ * t r e 9 g g l l k k k k M.m.m.m.M...eX7X1XfXlXfX&X`.K D S F K `.>X1X'.].!.!.!.!.!.!.Q.Q.Q.!.!.!.!.!.!.`.`.|.|.].^.Q.Q.K K J J D D S N N F G K Q.!.`.'.`.`.!.Q.Q.~.~.J J J J K K Q.!.].`. X X'.`.`.Q.U H H D J J J K Q.!.'.%X=X&X&X%X!.!.!.!.!.!.!.!.!.!.!.!.!.Q.Q.K S N F G K /.(.{.{.{.{.(.(./././.(.!.`.`.'.%X%X%X%X'. X^.~.P D S S N N S U ).(.Q.!.!.Q.K K K K Q.`.'.'.'.'.`.`.!.Q.Q.K K K K ~.^.!.!.^.Q.K J J J J K ^.`.-X%X&X&X'.`.'.'.'.`.!.Q.Q.Q.K K K K K J U H S N M v c o @ % 1 r h g z 7 u a #.] _ <.<.A.q.q.M.$.X.qX0X2XgXdXsX,X&X%X'.`.`.`.`.{.@XoXoX(.'.%X%X%X%X'.'.'.'.`.`.].!.!.Q.Q.!.!.`.'.%X%X&X&X&X%X`.!.Q.K J A -.l.KXh.f.LXLX",
"y.f.PXZXi.z.w.w A I `.'.`.!.P P ].'.'.'.'.'.'.'.'.'.'.`.`.`.`.`.Q.K Q.Q.Q.Q.K K J J J K K K Q.Q.`.`.`.!.Q.K K J P K Q.Q.!.`.`.`.`.`.'.'.%X%X%X%X%X'.'.].Q.K J D G S D J ^.|.'.`.'.`.!.K K J L P K Q.K U J S N M c O o @ $ * t r e 9 g g l l k k k k M.m.m.m.M...eX7X1XfXlXfX%X!.J S N F K `.>X1X'.].!.!.!.!.].!.Q.Q.!.!.!.!.!.!.!.`.`.|.].^.Q.Q.K J J J J D D D F F G J Q.!.`.`.'.`.!.Q.K K P P J J J J J K Q.!.].`.'. X'.'.`.Q.J H G D J J K K Q.`.'.%X=X&X&X%X!.!.!.!.!.!.!.!.!.!.!.!.!.Q.Q.K D F G J /.(.{.{.{.{.(.(./.K U J ^.!.].`.'.'.%X%X'.'.`.^.~.J S N N M N S I _.(.(.{.`.!.Q.K K K K `.'.'.'.'.`.`.!.Q.Q.K K K K ~.^.!.!.^.Q.K J J J J K ^.`.-X%X&X&X`.!.!.`.!.!.!.!.!.!.Q.Q.Q.Q.Q.K U H S N M v c o @ * 1 r h g z 7 u a ' ] _ _ <.A.w.q.M.$.o.qX0X2XgXdXsX,X>X&X%X'.'.`.{.{._.oXoX(.'.%X%X%X%X'.'.'.`.`.].!.!.^.^.!.`.`.'.'.%X&X&X&X&X%X`.!.K K J A -.l.KXh.f.LXLX",
"y.f.PXZXi.z.w.w A I {.'.`.!.P P !.`.`.`.`.`.`.`.`.`.`.`.`.'.'.`.Q.K K K Q.Q.Q.K J J K K K K K Q.`.`.`.!.Q.Q.P P P K K Q.!.`.`.`.`.`.'.'.%X&X&X&X%X%X'.`.^.K J D G S S J ^.|. X`.'.`.Q.K J D G L K Q.K I J S N M c O o @ $ * t r e 9 d g l l l k k k M.m.m.m.M...eX7X1XfXlX8X%XQ.G N B F K `.>X2X'.].!.!.!.!.!.].!.!.!.!.!.!.Q.Q.!.!.].].].^.Q.Q.J J J J G G G G J J K Q.^.`.`.`.'.`.Q.K J D F G D D J J J K Q.^.].`.'. X'.'.`.!.J D D D J J K Q.Q.!.'.%X=X&X&X%X!.!.!.!.!.!.!.!.!.!.!.!.!.Q.Q.K J J K /.(.{.{.}.{.{.(.K J G F D ~.!.!.`.'.'.%X%X'.`.].^.K D S M B M M S I _.{.!.}.{.!.Q.K J J J !.'.'.'.'.`.`.!.Q.Q.K K K K ~.^.!.!.^.Q.K J J J J K ^.`.-X%X&X%X!.Q.Q.Q.Q.Q.Q.Q.].].`.!.!.!.!.Q.I H H N M v c o @ * 1 r h g z 7 u a ' ' _ _ <.A.w.q.M.$.o.qX7X2XsXdXsX,X>X&X%X'.%X}.{.(.(.).oX(.'.%X%X%X%X'.'.'.`.`.`.!.!.^.^.!.`.'.'.%X%X%X%X%X&X%X`.Q.K J L C -.l.KXh.j.PXLX",
"y.f.PXZXi.z.w.w ~ oX{.'.`.!.P P !.`.`.`.`.`.`.`.`.`.`.`.'.'.'.`.Q.K Q.Q.Q.Q.Q.Q.K K K K K K K Q.!.`.`.!.Q.~.P P P K K Q.!.`.`.`.`.`.'.%X&X&X>X>X&X%X'.`.^.K D S G S S J ~.|.|.`.`.!.Q.K J D D G K Q.K U J S N M c O o @ $ * t r e 9 g g l l l k k k M.m.m.m.M...eX0X1X8XlX8X%XK D B B F K `.>X2X'.].!.!.!.!.].].!.!.!.!.!.Q.Q.Q.!.!.].].^.^.~.Q.J D D D G G G L K K Q.!.`.`.'.'.'.].Q.J D S N N D D D D J K Q.^.].`.'.-X%X'.'.!.D S D D J K K Q.Q.!.'.%X=X&X&X%X!.!.!.!.!.!.!.!.!.!.!.!.!.Q.Q.Q.K K /.(.{.{.}.}.{.(./.K D S N N ~.^.!.].`.'.'.'.'.`.!.Q.K D N M B M M S I (.{.`.-X}.`.Q.K J D J !.'.'.'.'.`.`.!.Q.Q.K K K K ~.^.!.!.^.Q.K J J J J K ^.`.-X%X&X%XQ.K J J K K Q.!. X X`.`.`.`.`.Q.I H H N M v c o @ * 1 r h g z 7 7 a ' ` _ _ ,.b.w.w.M.$.X.qX7X2XsXsXsX,X,X>X&X%X;X}.{.(.Q./.oX(.'.%X%X%X%X'.'.'.`.!.!.!.!.^.^.|.'.%X%X%X%X%X%X%X&X%X`.Q.K J G Z >.l.KXh.j.PXLX",
"y.f.PXZXa.z.w.w ~ oX}.%X'.!.P K !.`.`.`.`.`.`.`.`.`.`.`.'.'. X XQ.Q.Q.Q.Q.Q.Q.Q.K K K K K K K K !.`.!.!.Q.~.~.~.P K K Q.!.`.`.`.'. X'.%X&X>X>X,X&X&X%X`.^.K D S G S S J ~.|.|.`.`.!.Q.J D D F D K K K U J S N v c O o @ * * t r e 9 9 g l l k k k k M.m.m.m.m...eX0X1X8XlX8X'.K F B B N K `.>X2X'.!.!.!.!.!.!.!.].!.!.!.Q.Q.Q.Q.!.!.^.].^.^.~.K D D D D G G L P K Q.!.`.`.'.'.'. X!.K J S M M M F D D D J K Q.^.].`.'.-X%X'.'.!.D S S D J K Q.Q.Q.!.'.%X=X&X&X%X!.!.!.!.!.!.!.!.!.!.!.!.!.Q.Q.Q.Q.Q.(.{.{.}.+X+X{.(./.J F B v M P ^.!.].`.'.'.'.`.`.!.Q.J S N v B v M S I (.{.`.5X}.`.Q.K D D J !.'.'.'.'.`.`.!.Q.Q.K K K K ~.^.!.!.^.Q.K J J J J K ^.`.-X%X&X%XQ.J D D D J Q.^. X X X'.'.'.`.!.I H H N M v c o @ % 1 r h g z 7 : y ( _ _ _ ,.c.w.q.M.$.o.qX7X,XsXsXsXsX,X>X&X&X7X7X{.(.Q././.(.'.%X%X%X%X'.'.'.!.!.!.!.^.].|.|. X%X%X%X%X%X%X%X&X%X`.Q.K J G Z >.j.KXh.s.PXLX",
"9.f.PXZXa.z.w.r { #X+X%X'.!.K K !.!.!.!.!.!.!.!.!.!.`.`.'.%X:X:XQ.K K K K K Q.Q.K K K K K K K K Q.Q.Q.Q.Q.~.~.~.K K Q.Q.!.!.!.!. X X-X-X;X;X1X1X%X%X'.`.^.K J D G S S J ^.|.|.`.`.!.Q.J D D D D K K K U J S N v c o o @ * * t r e 9 e g l l k k k k M.m.m.m.m...eX0X1X8XlX8X%XQ.J D S D K `.&X;X`.!.(.!.].].`.`.`.`.`.!.Q.Q.K K !.!.].].].^.~.K D D D D G G G L K Q.!.].`.'. X X X^.K D N M v M F D D D D J Q.Q.(.].|. X X`.`.Q.D S D J J K Q.!.Q.!.'.%X%X%X%X%X!.Q.Q.Q.Q.Q.Q.Q.(.^.^.Q.Q.Q.Q.K Q.(.{.{.}.-X5X5X}.{./.J S N v M ~.^.(.].`.`.`.`.!.!.Q.K J S N M B M M S I (.{.`.5X}.`.Q.J D S D !.`.'. X X'.`.!.!.Q.Q.K K Q.~..X(.(.Q.Q.K K J J K Q.!.'.-X&X&X%XQ.J D D D J Q.!.9X:X X'.'.'.`.!.I H H N M v c o @ * 1 r h g z 7 - u h _ _ s ,.q.q.w.n.$.o.qX7X2XsXsX,X,X>X>X;X;X7X7X{.!.Q.Q./.|.'.%X%X%X'.'.`.`.Q.!.!.^.(.|.|. X:X:X%X%X%X%X%X'.%X'.!.Q.K J L C -.j.KXh.s.LXLX",
"9.h.PXf.a.g.t.i / Y {.'.'.`.^.~.Q.Q.Q.Q.Q.Q.Q.Q.K Q.`.'.;X&X>X%X(.P K J J K /././.Q.Q.!.(.!.!.(.K J K K Q.(.(.(.(.(.Q.K J J J K `.}.}.-X-X-X}.'.}.{.{.(.Q.K J J P P P ~.^.|.'.'.'.`.!.Q.J D S S ~.K J J J H N v c O o @ $ * t r j d 9 9 k k l 9 k k M.m.m.m.M...pX0X1X8XlXlX8X;X!.Q.K K Q.Q.!.].Q.Q.(.(.{.}.}.-X-X}.`.!.Q.Q.K Q.!.`.'.`.|.^.Q.Q.J D D D G G G L P I /./.(.|.OX{.(.Q.J D N M B B G J U J K K K K ).~./.I K K K K J J K K /.(.{.@X{.{.'.'.'.%X%X'.K J J J J J J J J J K K I P )./.Q.(.{.}.}.-X5X5X5X}.(.K D S S S /.!.{.|.@X|.(.Q.Q./.K J D D S S M N S J K (.{.}.+X{.(.K J D S D K Q.Q.!.`.`.`.'.!.!.!.!.Q.K K J ).oXY I I K K K Q.!.'.%X&X&X&X%X!.Q.K K K Q.Q.!.+X+X+X+X{.`.!.Q.I H H N M v c o % * 1 t r d z 7 u a #.' _ _ ,.q.w.w.q.$.| #X'.&X2X2X8X3X;X;X%X-X X X|.].!.Q.Q.!.-X;X6X;X}.{.Q.K K K K K Q.!.OX7X-X%X%X'.'.'.`.`.`.!.!.Q.Q.K K B -.l.KXh.f.LXLX",
"9.h.PXf.a.g.t.y ! T (.'.'.'.!.^.Q.Q.Q.K K P P P K Q.`.'.;X>X>X&X(.U J J J K /./.Q.Q.(.!.!.!.`.(.J D J K Q.(.{.{.{.!.Q.K J D D J !.}.}.+X+X}.{.!.{.(.(.Q./.K J J K K Q.^.].'.'.-X%X'.`.!.Q.J D D ~.K J J J H N v c O o @ $ * t r h d 9 9 k k k g k k M.m.m.m.m...pX0X6X8XlXlX2X1X%X'.`.!.Q.Q.K P I /./.(.{.}.-X;X5X-X{.!.Q.K K Q.!.`.'.'.`.].^.Q.J D D D D G G G L U I ).(.(.OXOX(./.J D N B B B L U U U U U U U U U P U U J J J J J K /./.(.{.@X{.{.}.}.}.}.}.{.K J J J J J J J J J J U U U U ).Q.(.{.}.}.;X6X6X5X}.!.K J D S D Q.(.{.OXOX(./././.I J J J D D S N S D J Q.(.{.{.+X{.Q.K D D S S U K /.(.(.{.}.'.`.`.`.!.(./.K J Y Y Y Y Y I K Q.!.`.'.%X&X&X&X%X`.!.Q.Q.Q.Q.!.(.+X+X@X+X{.!.Q.K I H H N M v c o % * 1 t z z z 7 u u O.' ` j ;.w.w.w.q.#.| #X X%X8X7X1X6X;X:X-X'. X X|.].^.!.Q.!.;X;X6X5X}.(./.K J J J K Q.(.+X7X-X%X'.'.'.`.`.!.!.!.Q.Q.Q.Q.K B -.j.KXh.f.LXLX",
"9.h.PXf.i.g.t.y Z T (.'.'.'.!.^.!.!.Q.K K K P K J Q.`.'.;X>X>X&X(.U U J J K /././.Q.(.(.!.!.!.Q.J G J K Q.(.{.{.{.(.Q.K J D D J !.}.}.+X+X}.{.!.(.(.Q./.K K K J K K Q.!.`.'.%X%X;X:X'.`.!.Q.K J ~.Q.J J J H N v c O o X $ * t r h y 9 g k c.k l k c.M.m.m.m.m...pX0X6X8XlXlX2X1X&X%X'.`.!.Q.K J K K /.(.{.}.-X5X5X}.`.!.Q.K K K !.`.'.'.|.].^.Q.J J D D G G G G J U U /./.(.{.{.(./.J D N B B B L U U U U U U U P P U U J J J J J J K K /.(.{._.{.{.{.}.}.}.}.{.K J J J J J J J D D J J U P U I /.(.{.{.}.-X5X5X5X}.!.K J D S D Q.!.{.{.{.(.Q.K K K J J J D D S S S D J /.(.{.{.+X{.Q.K D D S S U K /.Q.!.{.'.'.`.`.`.(.(.K K D Y Y Y Y Y I /.Q.!.`.'.%X&X&X&X%X`.Q.Q.K Q.Q.!.(.+X@X@X@X{.(.Q.K U H H N M v c o % * 1 t e z 0 3 u u O.' ` j ;.w.w.w.q.$.| #X X%X7X7X6X;X;X-X'.'.'.`.`.].!.^.Q.!.;X;X6X5X}.(./.J J D J J Q.(.{.+X-X%X%X'.'.`.!.!.!.Q.Q.Q.Q.K K B -.l.KXh.f.PXLX",
"9.h.PXf.i.g.t.y Z H (.`.'.`.!.^.!.!.Q.Q.K J J J J K !.'.-X&X>X%X/.U J J J K /././.Q.Q.(.!.!.!.Q.J D U K Q.(.{.{.{.(.Q.K J D D J (.}.}.+X+X}.{.!.Q.Q.K K K K K K K Q.^.`.'.%X%X&X1X;X:X-X|.^.~.Q.^.Q.J J J H N v c O o X $ * t r h d 9 g k M.c.k ;.c.m.m.K.m.m.3.pX0X;X8XlXlX2X1X>X&X%X'.!.K J D J J K Q.{.}.-X5X5X}.`.!.Q.K K K !.`.`.|.|.^.^.Q.J J J D G G D G G J U I /.(.(.{.(./.J D N B B B L U U U U U U U P U J J J D D D J J K K /.(._._.{.{.{.}.}.}.}.{.K J J J J J J J D D D J J U U I /.(.(.{.}.-X5X5X5X}.(.K D S S D Q.(.(.(.(.(./.K K J J J J D D D D D J K /.(.{.{.+X{.Q.K D D S S U I /.Q.!.`.'.'.'.'.{.{.(.K J D Y Y Y Y Y I /./.!.`.'.%X&X&X&X%X!.Q.Q.K K Q.Q.(.@X@X@X@X{.(.Q.K U H H N M v c o % * 2 t 9 9 0 3 u u O.' ` j ;.w.w.w.q.$.| #X'.%X1X1X;X;X-X%X'.'.`.`.].!.!.^.^.`.;X;X6X5X{.(.K J D D D J K Q.{.}. X'.'.'.`.`.!.!.!.Q.Q.Q.K K K B -.l.KXh.f.PXLX",
"9.h.PXf.i.g.t.y V D Q.`.'.`.!.^.].!.^.Q.K J G J J K ^.`.-X&X&X'./.U J J J U I )././.Q.Q.(.(.!.Q.J G J K Q.(.{.{.{.!.Q.K D D D J !.}.}.+X+X{.{.(.K K K K J J J K Q.Q.!.`.'.%X&X;X1X1X;X:X X|.].^.^.Q.J J U H S v c O o X $ * t s h 9 9 g c.m.M.c.c.M.m.K.K.K.B.P.pX0X6X7XlXlXfX1X>X;X;X-X`.Q.J S D D J Q.!.{.}.5X5X}.`.!.K K J K !.`.`.|.].^.Q.Q.K J J J D G D D D D J K /.(.(.(.(./.J D N B b B L U U U U U U U U J J J D D D D J J J K /.(._._.{.{.{.{.}.}.}.{.J J J J J J J J D D D D J J J J /.Q.(.{.}.5X5X5X5X{.(.K D S S D K !.!.(.(.Q.Q.K J J J J J D D G G J U I /.(.{.{.+X{.Q.K D D S S U U K Q.!.`.`.'.}.}.}.{.(.K J D H H Y Y Y I /./.Q.!.'.%X&X&X&X%X!.Q.Q.K K K Q.Q.@X@X@X@X{.(.Q.K U H S N M v c o @ % * 2 t 0 0 3 u u O.' _ s ;.q.w.w.q.%.| #X X%X;X;X;X-X%X'.'.'.`.`.`.!.!.^.^.`.;X;X5X5X{.(.K J D D D D K Q.(.{. X'.'.'.`.`.!.!.Q.Q.Q.Q.K K K B -.l.KXh.f.LXLX",
"9.h.PXf.i.g.t.y m S Q.!.`.`.!.^.].].!.Q.K J D D J K ~.]. X%X%X'.).L L G J U I ).K /./.Q.Q.(.(./.J G J K Q.(.{.{.{.!.Q.K D D D J (.{.}.+X+X{.(.(.K J J J J J J J Q.!.`.'.%X&X&X1X1X1X;X-X-X X|.|.^.K J J U H S v c O o X $ * t s h 9 9 l M.m.m.M.M.m.m.K.K.K.K.U.pX0X6X7XlXlXfX1X>X&X;X:X XQ.J S S S J K (.{.+X5X+X}.`.Q.K J J K Q.!.].].].^.~.Q.K K K J J D D D D D J K /.Q.(.(.(./.J D N B b B L U U U U U U U J J J D D D D D D D J K /./._._.(.{.{.{.{.{.}.{.J J J J J J J J D D D D D J J J K Q.(.{.}.+X5X5X+X{.Q.J D S N S K Q.!.(.(.Q.K J J J J J J J J G U U U I /.(.{.{.+X{.Q.K D D S S U U K /.(.`.`.`.}.+X+XOX(.K J S H H H H Y I oX(.Q.!.'.'.%X%X%X%X!.Q.K K K K Q.Q.@X@X@X@X(.Q.Q.J U H H N M v c o @ % & 2 0 0 3 3 u u O.` _ s ;.q.w.w.q.%.| #X X%X;X;X%X%X%X'.'.`.`.!.!.!.!.^.^.|.-X;X5X+X{.(.K J S S S D J K (.{. X'.'.`.`.!.!.Q.Q.Q.Q.K K K K B -.l.KXh.f.LXLX",
"9.h.PXf.i.g.t.y O N K !.`.`.!.^.[.|.!.Q.K J D S G P ~.^. X'.'.`.I L G G G J U I K K /./.Q.Q.Q./.D G J K /.(.{.{.{.!.Q.K D D D J (.{.{.OXOX{.(./.J D D D D J J J Q.!.`.'.%X&X>X1X>X&X&X%X'.'.`.].^.K J J J H S v c O o @ $ * t s h 9 9 l M.K.K.m.M.m.m.K.K.K.K.U.pX0X;X8XlXlXfX>X&X&X;X:X X^.J D N S D J Q.{.+X5X+X}.!.Q.K J J J Q.^.^.^.^.^.~.Q.Q.K K J J J D D D D J J K Q.Q.(.(./.J D N B b B L U U U U U U U J J D D D D S S D D J J I )._._.(.(.{.{.{.{.{.{.J J J J J J J J S S D D D D J J K /.(.(.{.}.+X5X+X{.Q.J D S N S K Q.!.(.Q.Q.K J J J D J J J U L U U U ).(.(.{.{.+X{.Q.K D D S S L U K /.Q.!.`.`.5X5X@X_.).U D S H H H H Y Y oXoXQ.!.`.'.%X%X%X'.!.K K K K K K /._.@X@X_._.Q.K J U H H N M v c O @ = & 2 2 0 x - u a O.` _ j ;.w.w.w.q.%.| #X X%X;X&X%X%X%X'.`.`.!.!.!.!.!.].|. X-X;X5X+XOX).U J S N S S D K Q.(. X'.`.`.`.!.!.Q.Q.K K P P P P A -.l.KXh.f.LXLX",
"9.h.PXf.i.g.t.y O N K !.`.`.].^.[. X].Q.K D S S G L P ^.|.|.'.].U G G D D J U U U K K /././.Q.K D G J K /.(.{.{.{.!.Q.K D D D J (.{.{.OXOX(.(./.D D D D D D J J Q.!.`.'.%X&X>X1X&X&X%X%X'.'.`.].(.K J J J H N v c O o @ $ * t r h 9 9 l m.K.K.m.M.m.B.K.K.K.K.U.pX0X:X7XlXlXfX>X%X&X;X7X:X^.K D N N S J /.(.+X+X+X{.(.Q.K J J J K ~.^.^.^.^.~.Q.Q.Q.K K J J J D D D D J K Q.(.Q.(./.J S N B B B L U U U U U U U J J D D D D S S D D J U U ).).oX(.(.(.(.{.{.{.(.J J J J J J J J S S D D D D J J K /./.(.{.}.+X+X}.(./.J S N N S K Q.!.(.(.Q.K J J D D D J J U L U U U ).(.(.{.{.+X{.Q.K D D S S L U U K Q.(.!.`.7X+X@X@X).U D S S H H H Y Y oXoXK !.`.'.-X%X%X'.Q.K K J J K K K oX#X#X#X_./.K J U H H N M v c O @ = = 2 2 x x - u a O.` ` j ;.q.w.w.q.%.| #X X%X&X&X%X%X'.'.`.`.!.!.!.!.!.].|. X}.-X5X+X_.).U G N N N S D J /.(. X`.`.].!.!.Q.Q.K P P P P P P A -.l.KXh.s.LXLX",
"y.h.h.i.ZXGXt.7 C S Q.!.`.'.].XX`. X|.^.J D S G L L P P ~.!.].^.D N N N N S D D J J J K K K K K D G J K Q.(.{.{.{.(.Q.K J D D J Q.(.{._._.(././.J D D D D S S D K Q.!.'.%X;X1X2X2X1X&X'.`.!.!.^.K K K J D S M v c O o @ $ * t r e 9 0 g c.m.m.c.M.m.m.K.K.K.K.U.pX7X%X&X1X8X2X>X&X&X&X-X`.^.K J S S D J K Q.(.!.{.(.Q.K D D D D J K K K Q.Q.~.~.Q.Q.~.~.Q.Q.K J D D J J K Q.(.(.(./.J S N B B B D J J J J J J J J J U U U D D S S S D D J J K K J K Q.(.(.(.(.Q.K J D D D D J U S D D J U J J J J J K Q.(.{.{.{.{.(.K D S N B F /.!.!.(.(.Q././.J J J U U J D D S D J K /.(.{.+X{.!.Q.K J D D D D D D J K Q.Q.Q.{.{.(._.I J S N M M B N S D J J K Q.!.'.'.*X%X'.Q.K J J J J K K oXoX_.)./././.I U H H N M v c o @ = = 2 2 0 x - u +.#.' ' <.A.J.w.w.q.#.| #X`.'.1X;X;X;X%X'.'.'.:X:X X].!.^.^.|.`.'.`.!./.U U G N N S S D J K K !.!.!.!.!.^.^..X.X~.P J J G G C -.l.KXh.s.LXLX",
"y.h.h.i.ZXGXt.7 C S Q.!.`.'.].XX`. X X^.J D S G G G G J K K Q.K F N N N N N S D D J J J K K K J D G J K Q.(.{.{.{.!.Q.K J D D D /.(.(._._._./.K D D D D S S S D J K Q.!.`.'.&X&X&X%X'.!.Q.Q.Q.Q.K K K J D S M v c O o @ $ * t r e 9 9 g c.m.m.c.M.m.m.K.K.K.K.U.pX7X%X&X1X8X2X>X&X&X&X-X`.^.K J S S D J K Q.(.(.{.(.Q.J D S S D J J J K K Q.~.~.Q.Q.~.^.^.Q.K J D D J J K Q.(.(.(./.J S N B B B D J J J J J J J J J U U U J D S S S D D D J U U J K /.(.(.(.(.Q.K J D D D D J U J J U P P U J D J J K /.Q.(.{.{.(.Q.K D S N B S /.!.!.(.(.Q././.J J J U U D D S S D J K Q.(.{.+X{.!.Q.K J D D F F D D J K K Q.Q.{.{.(.).U G S M M M M B S S D J K Q.!.`.'.'.'.`.Q.K J J J J K K ).oX).).).I I U U H H N M v c o @ = = 2 2 0 3 - u +.#.' ' <.A.J.w.w.C.$.o.#X'.%X;X;X;X;X%X%X'.'. X`.`.!.Q.Q.Q.!.`.`.!.(.K U L G N N N S D J J K Q.!.!.^.^.^.^..X.XP P J G D G C >.l.KXh.s.LXLX",
"y.h.h.f.ZXGXt.7 C S Q.!.`.'.].XX`.'. X^.J S S F N N S S D D J D F B N M M N S D D D J J J J K J D D J K Q.(.{.{.{.!.Q.K J D D D K Q.(.(._./.I K D D D S S S S S S D J K Q.`.'.'.'.`.!.Q.K J J J J K K J D S M v c O o @ $ * t r e 9 9 g c.m.m.c.M.m.m.K.K.K.K.U.pX7X%X&X1X8X2X>X&X&X;X-X`.^.K J S S S D J K Q.(.(.(.K J D S S F D J J J K K Q.~.Q.Q.^.!.^.!.Q.K D D J J K Q.(.(.(./.J D N B b B D J J J J J J J J J U U J D D S S S S D G J U U J J K /.(.(.(./.K J D D D D J U U U ).).U U J D D J J K Q.(.(.(.(.Q.J D S B B S /.!.!.(.(.Q././.K I U P J D S N S S D K /.(.{.}.{.(.Q.K J D D F F F D D J K Q.Q.(.(.(.).U D N M M v M N N S D J J K !.].`.'.'.`.K J J D D J J U ).).U I U U U U H H S N M v c o @ = = 2 2 0 3 - u +.O.,.' <.A.J.r.r.C.$.o.qX X&X;X;X;X;X%X'.'.'.`.`.!.Q.K K K Q.`.`.(./.K J G G M M N S S D J K Q.Q.Q.Q.~.~.~.~..XP L D D F G C >.j.KXh.j.PXLX",
"y.h.h.f.ZXGXt.7 C S Q.!.`.'.].XX`.'. X^.J S S F N N N S D D D D S B M M M N S F D D D J J J J J D D J K Q.(.{.{.{.!.Q.K J D D D K /./.(.)./.K J D D S S S N N S N S D J Q.!.`.`.`.!.Q.K J D D D J K K J D S M v c O o X $ * t s e 9 0 g c.m.m.c.M.m.G.K.L.K.K.U.pX7X%X&X1X8X2X>X&X&X&X-X`.^.K J S N S D J K Q.Q.(./.K J D S S S S D D D J J K Q.Q.Q.^.!.!.!.Q.K D D J J K Q.(.(.(./.J D N B b B D J J J J J J J J J U U J D D S S S S F D G J U D J K /.(.(././.U J D D D D J U #X#X#X#XU P J D D D J K K Q.(.(.(./.J D N B B S /.!.!.(.(.Q./././.).I U J D S N S S D J Q.(.{.{.{.!.Q.K J D D F F F D D J K Q.Q.(.(./.I J S N v v v M M N S D D J K Q.!.].`.`.!.K J J D D D J U U U I U P U J J U H S N M v c o @ = = 2 2 0 x - u +.O.<.' <.A.J.Y.Y.C.V.X.qX9X;X1X;X;X;X-X'.'.'.`.`.!.Q.K K K Q.!.!.Q.K J J D F M M N N S D J K K K Q.Q.Q.~.~.P P L G D S S S V >.j.KXh.j.PXLX",
"y.h.h.i.ZXGXt.7 C S Q.!.`.'.].XX`.'. X^.J S S F F F F F G G L G N B M M M N N S D D D D J J J J D G J K Q.(.{.{.{.!.Q.K J D D D K K /././.I J J D S S S N N N N N S D J K ^.!.`.].!.Q.K D D D G J K K J D S M v c O o X $ * t r e 9 9 g c.m.m.c.M.m.S.K.K.K.K.U.pX7X-X&X1X8X2X>X>X&X&X-X`.^.K J N N S D J K /.Q.(.Q.K D S S N S S S S D D J K K Q.^.!.].`.!.!.K D D J J K Q.Q.(.(./.J D N M b B D J J J J J J J J J U U J J D S S N S F D G J U D J K /././././.U J D D D D J U #X#X#X#XU U J D S D D J K Q.Q.Q.(./.J D N M b N /.!.!.(.(.Q././././.I P J D S N N S D J K (.(.{.{.!.Q.K J D D F F F F D J K K Q.Q././.U G S M v v v M M N N S D D J K !.!.`.!.!.K J D D D D J U U U U U U J J D U H H N M v c o @ = = 2 2 x x - u a O.<.<.<.A.J.Y.Y.Y.Z.X.qX9X;X;X;X;X;X-X'.'.'. X`.`.!.Q.Q.Q.!.!.!.Q.K J D F S M M N N S D J J K K K K K P P P L L D S N N S V >.l.KXh.f.LXLX",
"y.h.h.i.ZXGXt.7 C S Q.!.`.`.].XX`.'. X^.J S S F F F F F G G G G N B M M M N N S F D D D D J J J D G J K Q.(.{.{.{.!.Q.K J D D D J K K /.I K J D D S S S N N N N M B S D P ~.^.^.^.Q.K J D F F G D K K J D S M v c O o X $ * t r e 9 9 g c.m.m.c.M.m.S.K.K.K.K.U.pX7X%X&X1X8X2X>X>X&X&X-X`.^.K J N B S D J K /.Q.(./.K D S S N N N S S S D J J K Q.^.!.].`.!.!.Q.D D J J K Q.Q.(.(./.J D N M b B D J J J J J J J J J U U J J D S N N N S F D J L D J K )././././.U J D D D D J U U U ).).U U J D S S D J K K Q.Q./.I J S N M b N K !.!.(.(.Q././.K K U P J D S N N N S J K Q.!.{.{.!.Q.K D D D F F F F D J K K K Q./.K U D N M v v v v M N N F D D J K Q.!.!.!.Q.K J D D D D J J U U U J J D D D H H H N M v c o @ = = 2 2 x x - u a O.<.<.<.A.J.J.r.C.$.o.yX X&X;X;X;X;X-X'.'.'. X`.`.!.Q.Q.Q.!.Q.Q.Q.K J D S N M M M N S D D J J K K K K K P P L G F S N N N m >.l.KXh.f.LXLX",
"y.h.h.i.ZXGXt.7 C S Q.!.`.`.].XX`.'. X^.J S S F B B B B N S F S B B M v M M N S F D D D D J J D D G J K Q.(.{.{.{.!.Q.K J D D D J K K K K J J D S S S N N N N B v v M N D J K Q.Q.K D S N M B N D K K J D S M v c O o X $ * t r e 9 0 g c.m.m.c.M.m.K.K.K.K.K.U.pX7X&X&X1X2X2X>X>X&X&X-X`.^.K J N B S D J K /././.Q.J D S N N N N N S S D D J K Q.^.!.].`.`.!.Q.J D J J K Q.Q.(.(./.J D N B b B D J J J J J J J J J U U U J D S N N N S F G G L D J U )./././.I U J D D D D J U J J U U P U J D S S S D J K K K /.I J S B B b N K !.(.(.(.Q././.J J J U U D D S N N S D K Q.(.`.{.!.Q.K J D D F F F F D J J K K K K K J D N v c v v v M N N F D S D K Q.!.!.!.Q.K G D S D D J J U L J G D D D S H H H N M v c o @ = & 2 2 0 x - u a #.<.<.<.A.J.r.w.C.$.o.#X'.%X;X;X;X;X%X%X'.'.`.`.!.Q.K K K Q.Q.Q.K J D S N B M M M N S D D J J J J K K J P P L G S N N N N + >.l.KXh.f.LXLX",
"y.h.h.f.ZXGXt.3 C B J Q.Q.^..X.X^.|.|.~.J S N F v v v v M M N M B B M v M M N S F F F D D D D D D G G U I /.(.(.(./.K J D S S D D J J U U J D S S N N N N N N M c c v M N S D D D D S M v v v M S D D D S N M c O O o + $ * ^ ^ e 9 9 g c.m.m.c.M.m.K.K.K.K.K.U.pX7X;X-X1X8X8X1X;X%X;X-X{.(.Q.J S N S D J K K /.)./.J D S S S S N N S S D D J J Q.Q.(.(.!.!.Q.K D D J J K /.Q.Q.(./.J D S N B N D J J J J J J J J J U U J J D S S N S F G G L L D J U U ).)./.I U J J D D J J U D D J J U J J D S S D D J J K K /.I J D S B B S I Q.Q.Q.Q././.I J J J J U J J D N N S D J K Q.(.(.(.Q.J J D D D F F D D J J K K K K J J D N M v M M M N N S D D S D J K Q.Q.Q.K U G D S S D G J J J G D D D D S H Y H B n c O @ X = & 2 0 3 3 - 7 a #.,.,.,.n.J.w.w.n.$.{ #X{.'.7X;X6X;X-X'.}.`.Q.Q.K D D D D D J J J D S S N N M M M N N S D D D D D J J J L G G F N N M M M + >.z.UXh.f.PXLX",
"y.j.f.s.d.DXe.6 . @ M N M M c c M N M M M M v v B M M B B B N B M M M M M M M M v v v v M M M M N N N N N S S S M M M M M M v v N N N N M M M M M v v v v v v v M M M M M M M M N N N M M v v v v v v v v v v c c O O O V Z | ..p l k k c.M.m.m.m.m.m.K.K.K.L.U.pXtX7X7X7X7X+X`.Q.Q.Q.K K K K J I H J J J J J I I I J J J J H H J J J J J J J J J J K K K K K K I J I I I I I I J J J J J H H H D D D D D D D D D D D S S S D S S S S S S S S S D D D D J J J J J J I J I J I J D D D D D D D D D D D D D D D D D D D D D S S S D J J J J D D D D S S S S S S S J J I I I I I I K K K I I I J J S S S S S S D D J J D D D D S S S S S S S D D D D D J J J J J J J D H H H H H H S S S S N N N M M v v c m @ @ X = = & x 0 3 3   h ' N.B.G.C.w.w.f d r ^ ~ Y oXoX5X6X7X5X{.Q././.J D S M M v M M S F H H H F B B v v v v v v M M M M M N N N N N N N N M M v v o 4 j.HXs.s.f.LX",
"y.j.JXs.d.DXe.4 x % A n v c + + c v v v v v v v M M M M M M M M v v v v v v v v v v v v v v v v M M M M M M M M v v v v v v v v v v v v M M M v v v v v v v v v v v v v v v v v M M v v v v c c c O O O O O O O O O O O m Z W | r l k k c.M.m.m.m.m.K.K.K.K.L.U.iXtX@X@X@X@XOX/.K K K K K K K K J D D D D D D D D D D D D D D D D D D D D D D D D D D D D D D D D D D D D D D D D D D D D D D D D S S S S S D S D D D D D D D D D D D D D D D D S S S S S S S S D D D D D D D D S S S S S S S D D D D D D D D D D D D D D D D D D D D D D D D D S S S S S S S S D D D D D D D D D D D D D D D D S S S S S S S S D D D D D D D D D D D D D D D D S S S S S S S S D S S S S S S S N N N N N M M M n A A m m % % = = =     3 3 -   _ ] <.B.F.w.w.q.+.l ' [ ~ ~ rXrX+X5X7XOX/.K I I D N M v c O c c M B B B B B B M v v v v v v v v c v v v v M M M M M M v v v c X 4 s.PXs.s.f.LX",
"y.j.JXs.d.ZXe.4 x % A A v b + + m v v v v v v v v c c c c c c c c c c c c c c c v v v v v v v v c c c c c c c c c c c c c c c c v v v v v v v v v v v v v v v v c c c c c c c c c c c c O O O O O O O O O O O O O o o o c V W / r l k k c.M.m.m.K.K.K.K.K.L.L.U.uXeXoXoX#X#XoXI K K K K K K K J S S S S S S S S S S S S S S S S S S S S S S S S S S S S S S S S S S S S S S S S S S S S S S S S N N N N N N N N S S S S S S S S S S S S S S S S N N N N N N N N S S S S S S S S N N N N N N N N S S S S S S S S S S S S S S S S S S S S S S S S N N N N N N N N S S S S S S S S S S S S S S S S N N N N N N N N S S S S S S S S S S S S S S S S N N N N N N N N N N N N N N N N M M M M v v v v A A A A A % % = = .             _ ] N.B.G.w.w.q.+.k ` [ ~ ~ rXrXoXOX@XoXI D D H S M v c O o o O c v n n n n v v v v v v v v v v O O c c c c v v v v c c c O O X 0.s.HXs.s.f.LX",
"y.j.JXs.d.ZXe.4 x = A n v m + + + O m m c c c c O O O O O O O O O O O O O O O O m m m O O c c c O O O O O O O O O O O O O O O O m m m m m m m m c O m m c c c c O O O O O O O O O O O o o o o o o o o o o o o o o o o o O V W / p l k k c.M.m.m.K.K.K.K.K.K.K.U.} #XY Y wXwXY H D D D D D D D S N M M M M M M M M M M M M M M M M M M M M M M M M M M M M M M M M M M M M M M M M M M M M M M M M M M M M M M M N N N N N N N N N N N N N N N N M M M M M M M M M M M M M M M M M M M M M M M M N N N N N N N N N N N N M M M M M N N N N M M N M M M M M M M M M M M M M M M M M M M M M M M M M M M M M M M M N N N N N M M M N N N N M M N N M M M v M M M v v v v v v v b b v v v c c c c O A A A m % % = = = .       - -   _ ] N.B.G.w.w.q.f l ' [ ~ ~ ~ rXY oX#XY H S N H B v c O o o + o O m V m m V m O m m m O O c c c o o O O O O m m m m O O O O o . 0.s.HXs.s.f.LX",
"y.j.JXd.d.ZXe.4   = % c c O # # + + + + + + + + + + + + + + + + + + + + + + + + + + + + + + + + + + + + + + + + + + + + + + + + $ $ $ $ $ $ $ $ + + + + + + + + + + + + + + + + + + + + o X X X + + + + + + + + + o o o + V Z / p l k k c.M.m.m.K.K.G.K.B.m.m.V.} ~ T T ~ ~ ~ H N N N N N N N M n n n n n n n n n n n n n n n n n n n n n n n n n n n n n n n n n n n n n n n n n n n n n n n n n n n n n n n n b b b b b b b b b b b b b b b b n n n n n n n n n n n n n n n n v v v c c c c c b b n n n n n n b b n n b n n n n n b b n n n n n n n n n n n n n n n n n n n n n n n n n n n n n n n n n n n n b b n n b n n n n n b b b n n n c c c c v c c c V m V V m m m m m m m @ O O O O % % % % % % = = = & & 0 3 3 3 3 _ ] N.B.G.w.q.q.f l _ [ [ ~ ~ Y Y ~ ~ Y H M M A A n + + + # # # + + $ V V $ + + + + + + + + + + + + + + + + $ $ $ $ + + + + + . 0.s.PXs.s.f.LX",
"y.j.JXs.d.ZXe.4 x = % A m + # # # # # # # # # # $ $ $ $ $ $ $ $ $ $ $ $ $ $ $ $ # # # # # # # # $ $ $ $ $ $ $ $ # # # # # # # # $ $ $ $ $ $ $ $ # # # # # # # # $ $ $ $ $ $ $ $ $ $ # # # # X X + + + + + + + + $ $ + + $ Z E / p l k k c.M.m.m.m.m.m.m.M.M.c.' ..{ { { }  .{ ~ n n n n n n n n C C C C C C C C C C C C C C C C C C C C C C C C C C C C C C C C C C C C C C C C C C C C C Z Z C Z Z Z Z Z Z Z Z m m m m V V V V V m m V m V V V Z Z Z Z Z Z Z Z C C C C C C C C m m m m m m m m m @ m m m m m m m m m m m m m m m m m m m m m m C C C C C V C C C C C C C C C C C C C C C C C C C C C C V V C C m m m m @ m m m m m m m @ m m m m m m m m m m $ Z * * * * * * * Z Z * $ $ $ $ $ % % % % % = = = & & 0 9 9 u 7 0 ' ] N.B.G.C.q.q.O.k ` [ [ { ~ ~ ~ ~ } ~ A n A Z Z Z $ $ # # # # $ $ * , , * $ $ # # # # # # # # # $ $ $ $ * * , * * * $ $ $ $   0.s.HXs.s.f.LX",
"y.j.JXs.d.ZXe.4 z 1 ! ! Z Z > < > > > > > > > > > > : : : : : : > > > > > > > > > > > > > > > > > > > > > > > > # # # # # # # # & & & & & & & & > > > > > > > > > > > > > > > > : : & & # # # # $ $ $ $ $ $ $ $ R Z * $ * R ^ ( h l k k c.M.m.m.M.M.c.k k k k h ..{ / { ......{ ! ! ! ! ! ! ! ! R R R R R R R R R R R R R R R R R R R R R R R R R R R R R R R R R R R R R R R R R R R R R R R R E E E E E ^ E E E E E E E E ^ ^ E E E E E E E E E E E E E ^ E E R R R R R R R R * * * * * * * * # # # $ $ $ $ # $ $ # $ $ $ $ $ $ $ # $ $ $ $ $ * * * * * * * * R R R R R R R R R R R R R R R R * * * * * * * * $ $ # $ $ $ $ $ $ $ $ $ $ $ $ $ * * * * * * * * , , , , , , , , , , , > > > > * ! ! ! ! ! 1 1 1 1 9 e g g d d d _ ' v.B.G.C.q.q.n.m.N.1.3.3.3. .{ { ..{ / Z Z ^ ^ E , > : : : : : > , , , > > > > > > > > > > > : : > > > > , , , , > > > > > 3 4 s.HXs.s.f.LX",
"y.j.JXs.d.ZXe.4 f _ [ / / ^ a a a a a a a a a a > > > > > > > > q q q q q q q q a a a a a a a a > > > > > > > > & & & &         : : : : : : : : a a a a a a a a q q q q q q q q > : : : : : & & * * * * * * * * ^ ^ * * * ^ ( ' h l k k c.M.m.m.c.k k k l l g e V.] / ] &.P...] ) ) ) ) ) ) ) ( ^ w w w w w w w w w w w w w w w w w w w w w w w w w w w w w w w w w w w w w w w w w w w w w w w ( ( ( ( ^ ^ ^ ^ ' ' ( ( ( ' ' ' ( ( ( ' ' ( ( ( ( ( ( ^ ^ ^ ^ ^ w w w w w w w w , , , , , , , , & & & & & & & & & & & & & & & & & & & & & & & & * * * * & * & * w w w w w w w w w w w w w w w w * * * * & * & * & & & & & & & & & & & & & & & & , , , , , , , , q q q q q q q q a a a q q q > q _ _ _ _ _ _ _ _ t e g l k l l l h ` v.B.G.n.q.q.L.K.D.D.U.3.3.3.] ....] ^ ^ ^ ( ( ^ q > : : 8 q > q a a a a q > a a a a a a a a > > > q a a a a a a a q q q > 3 0.s.HXs.s.f.LX",
"8.j.HXJXd.f.9.4 f t ! ! R , < < u q i i i i a a 8 : :       - - : 8 8 8 y i i i 8 y y i i a a l : 8 y 8 : - : 8     . . . . . . : : -     - : : 8 8 8 8 8 8 y y 8 8 8 8 y y y y 8 8 8 7 : : : : > > t t t t t t ^ w w w w ( ' ' e g l k c.M.m.m.K.m.c.k l l k ` ' ' V.V.V.V.' ' _ ' ' ( ' ' ' ( ( p p p p q q q q q q q q q q q : : : : : : > > q q q q t q q q q q q q t q t q q q q p p p p ( h h h h ( ( ( ( ( ( ( h h h h h ' ' h p p q q q q t q : q t r p q r p p p p e q q q p p e q : : : : : : & & : : : : > > q 8 8 8 & & : : : : : & # & & : q q p p q q q p p p h ( t t t t t t t t : &   . .   & : : : & & : : : : : : : 8 8 8 : : : : q r p p q q q 8 8 8 8 8 8 8 8 8 8 8 8 8 8 8 _ _ _ _ _ s s s g g g j k k q.c.<.<.` ` c.n.n.G.G.K.I.I.I.P.3.[ ] ] ] ' w & : q q q 8 8 8 8 8 8 8 y y i i a a h i i y y 8 8 : : 8 8 8 y y 8 8 8 8 8 8 8 8 8 y 5 9.s.HXPXf.d.d.",
"8.j.HXJXd.f.e.4 4 t ! R , > < ; u 8 y y y y y y 7 : -           7 7 7 y y y y i 7 7 7 y y y y i - 7 8 7 -   - 7 7 7 : - - - 3 7 - -         - - 7 7 7 7 7 7 7 7 7 7 7 7 7 7 7 7 7 7 7 - - - -   & & & & & & & & p r r r r _ ' ' h l k k c.M.m.m.m.c.k g i g l l ' #.v.B.B.v.' ' p p p p p p p i i i i e 9 8 8 7 9 9 9 9 e e e e 8 8 8 8 8 8 8 8 9 9 9 e 9 9 9 9 9 9 9 9 9 9 9 9 e i i i g g l h a a i i h h h g g g a a a a a a g g i i 8 8 7 0 i i 8 8 8 9 i g 8 9 i i i i 9 8 8 8 9 9 8 0 :                   : : : : : : : :                 .     : 0 8 9 9 7 8 8 9 e i i i 8 8 8 8 8 8 8 8 i 9 0 : : 0 9 i                 : : : : : : : :   : 0 8 9 9 8 8 7 7 7 7 7 7 7 7 7 7 7 u 7 7 7 7 e s r r r e e e e e d g l l k k c.,.,.c.c.M.m.G.G.K.L.I.I.V.1.] ' v.v.' e : 0 8 9 y y y y y y u 7 7 7 8 y y y y y y 9 7 7 7 : : 7 7 7 7 7 7 7 7 7 7 7 7 7 7 7 6 9.s.HXJXf.d.d.",
"8.j.HXJXd.ZXe.4 4 9 t ^ , < ; ; u y y y y y y y 7 - -           7 7 y y y y d d 7 7 u y y y y i - 7 y 7       -                 - -         - - 7 7 7 7 7 7 7 7 7 7 7 7 7 7 7 7 0 0 - - - -     & & & & & & & & h p e e p h ' ' h k k ` M.m.m.m.c.k l g g g l l #.#.M.M.m.M.c.#.i i i i i i i i i y y 9 8 7 7 0 y y y y y y y y 9 9 9 9 9 9 9 9 y y i i y y y y i y y y y y y y i i i g l l k k i i y y i i i i i i i i i i y y g i i y 9 8 8 8 l g i 9 9 y g g 8 9 y i i y 9 8 8 8 9 9 9 7 :                   - - - - - - - -                       - 0 7 8 9 0 7 7 8 9 y y i 7 7 7 7 7 7 7 7 0 -         : 0                 - - : : - - - :   - 0 8 9 8 7 7 7 3 3 3 3 3 3 3 3 3 3 3 3 3 3 0 9 e e e e e e e 9 9 d d g g l l c.v.M.M.M.m.m.m.m.m.K.K.S.B.N.<.c.M.M.` i 7 8 y y y y y y y y y 7 7 7 7 y y y y y y y 9 7 7 7 7 7 7 7 7 7 7 7 7 7 7 7 7 7 7 7 6 9.s.HXLXf.s.d.",
"y.j.HXf.d.ZXp.0.-.l _ ( p a +.@.O.k l l l g g g d 9 7 3 3 3 3 0 9 y y d g l l l d g g l l k k k 9 g l d 0 - 3 0       3 3 3 3 - 9 7 0 3 3 0 7 u d d g d d d d d d d y y 9 9 0 0 9 9 0 0 0 0 0 0 0 0 0 0 0 0 0 0 l l g g l k ,.c.k k c.c.M.m.m.m.c.c.k k k k k k c.c.M.M.M.M.M.c.k k k k l k k k k l l g g d 9 9 g d g d g d g g g d g d g d g g g d g d g d g d g d g d g d g d g g l l k k k k k l l l l l k l k l k l k l k l k l k l l l l g q.k l g g g l l g g k k k l l g g g l l l d 9 0 0 0 0 0 0 0 0 0 7 7 7 7 0 0 0 0 0 0 0 0 0 0 0 0 0 0 0 9 9 d g d 9 9 d d g g l l g d g d g d g d 0 0 0 0 0 0 7 7 0 0 0 0 0 0 0 0 7 7 7 7 0 0 0 0 0 7 9 d g d d y d f f f u f u f f f f f u u u d g l l l k k k k l j j j k k k k M.M.m.m.m.m.m.m.c.M.M.m.m.m.m.m.M.m.G.c.l 9 9 d g g g g g g g g y y y d g l l l k k l l g g d d d d d d d d d d d d g d d d d 5 9.s.HXLXf.s.d.",
"y.KXHXf.d.SXa.0.w.M.V.$.#.#.+.+.C.m.m.M.M.c.c.,.,.k j g g g g l d d g g l k k k c.c.c.M.M.m.m.m.c.M.m.c.g 9 d l k ,.M.m.S.S.m.m.k j g d g g l k ,.,.,.,.,.,.c.c.c.,.;.k k l g g k j j g g d d d g g g g g g g g k l l l l k q.M.c.c.c.M.M.m.m.m.m.m.m.m.m.m.m.m.M.M.c.c.c.c.M.M.M.M.M.M.M.M.M.M.M.M.c.c.;.;.k k l l l g l l l l l l l l l l l l l l l l l l l l l l l l l l l g l l k k k ;.;.q.M.M.M.M.M.M.M.M.M.M.M.M.M.M.M.M.M.M.M.M.M.M.m.m.m.c.;.k l l j k c.M.m.m.m.m.M.c.c.c.M.M.M.q.k l l l l l l l l l l g l g g g g g l l l l l l l g l l k k k k q.;.k k k ;.c.c.M.M.c.c.c.c.c.c.c.c.m.m.m.m.K.G.m.m.l g l g l l l l l l l g l g g g g g k ;.q.;.k k q.q.q.q.q.q.q.q.q.q.q.q.q.q.q.q.q.q.q.c.M.m.m.G.M.M.M.M.c.c.c.c.M.m.K.K.K.m.M.c.k k k q.q.M.C.m.m.G.K.n.k d g l l l l l h h h h k k k ,.c.c.M.M.S.m.m.m.M.M.c.c.,.c.c.,.c.c.c.c.,.,.c.,.c.c.,.w.y.s.HXPXf.s.d.",
"y.KXHXd.d.DXg.e.r.H.Z.Z.Z.C.t.w.L.L.L.K.S.m.b.b.m.b.,.,.j k ` ,.s s j j j k ,.,.m.S.S.S.S.L.L.L.S.L.L.S.,.g j ;.j ,.S.L.L.L.L.S.b.,.,.j j ,.,.b.m.m.m.N.m.m.m.m.S.m.b.b.,.` j j ,.,.,.,.j j j l ;.;.;.;.;.;.;.;.;.l l l l q.q.n.M.M.M.m.m.m.m.m.m.m.K.L.L.L.K.K.m.M.c.q.q.c.n.A.m.m.m.m.m.m.m.m.m.m.m.m.M.b.b.c.l j j l j j j j k k k k k ;.k k j j j j j j j j j j j j j j l l j j k ;.;.,.c.c.m.m.m.m.m.m.m.m.m.m.m.m.m.m.m.m.m.m.m.S.K.L.L.L.S.m.b.;.;.j k k m.S.K.L.L.L.S.m.m.m.S.K.S.m.b.,.,.,.,.,.,.,.,.,.;.;.;.;.;.;.;.;.,.,.,.,.,.;.;.;.b.b.M.M.M.M.M.M.c.c.b.M.m.m.m.m.m.m.m.m.m.m.m.m.S.K.L.L.L.L.K.S.;.;.;.;.,.,.,.,.;.;.;.;.;.;.;.;.j k ,.b.M.M.M.c.n.n.n.n.A.A.n.n.n.n.n.n.F.F.n.n.q.n.n.m.G.K.L.L.G.K.K.m.m.m.b.M.m.G.K.L.L.S.M.,.h l g l O.q.C.J.H.L.L.m.;.l j ;.j j j j j j j j <.b.b.b.m.m.S.S.L.L.L.L.L.S.S.S.B.m.S.m.m.m.m.m.m.m.m.N.m.m.m.w.y.s.HXPXf.s.d.",
"y.KXHXs.d.PXDXu.r.H.Z.Z.Z.C.t.r.L.R.L.D.S.N.b.<.N.b.,.,.` ` ,.,.h h j j ` ,.,.,.N.N.N.D.D.D.L.L.D.L.L.N.,.s h ` e s ,.S.D.D.m.<.<.<.,.` ` ,.,.<.N.N.N.N.N.N.N.N.N.N.b.<.,.j j h ,.,.,.,.j j h j k l l l l l ;.l q.;.l l ;.q.q.n.m.m.m.m.m.m.m.m.c.m.K.K.L.L.K.S.m.m.c.;.;.c.m.m.A.A.A.A.A.A.A.A.m.m.b.b.b.c.,.,.j j j j j j j j ,.,.,.,.,.,.,.,.j j j j j j j j j j j j j j j j j k ;.,.,.c.b.b.m.m.m.m.m.m.m.m.m.m.m.m.m.m.m.m.m.A.m.S.L.L.L.L.L.S.m.c.,.;.;.;.m.S.K.L.L.S.S.m.m.S.S.S.S.b.b.,.,.,.,.,.,.,.,.,.j j j j j j j j ,.,.,.,.,.,.,.,.b.b.b.b.b.b.b.b.,.,.c.b.b.b.m.m.m.m.m.m.m.m.m.m.,.b.m.S.S.S.b.,.,.,.,.,.,.,.,.,.j j j j j j j j g j ,.b.b.b.c.,.n.n.n.n.n.n.n.n.n.n.n.n.F.n.n.n.q.q.q.n.G.K.L.L.G.K.m.m.m.M.v.c.m.G.L.L.L.S.v.` e 9 9 y f q.w.H.G.L.T.G.c.k ;.,.j j ` ` ` ` ` ` <.,.<.<.b.b.N.N.R.R.I.L.D.D.D.D.N.N.N.N.N.N.N.N.N.N.N.N.N.N.N.w.y.s.HXPXf.s.d.",
"y.z.HXs.d.PXDXu.r.J.K.Z.Z.$.%.Z.I.I.D.B.N.<.<.' <.<.` h h h h j h _ ` ` ` ' <.<.1.N.N.N.D.D.D.D.V.D.D.b.j t r s j <.D.R.E.R.L.K.,.` ` h h j ` ,.b.b.b.b.b.b.b.b.N.b.<.` j s r t ` ` j h s s r r g f d f d f g f q.k k k k q.n.M.m.B.m.m.m.M.M.M.k ` m.K.L.K.B.m.S.b.,.k k ,.b.S.M.M.M.M.b.b.b.b.c.v.c.,.,.` ` ` j ` ` ` ` ` ` ` <.,.<.,.<.,.,.,.` ` ` ` ` ` ` ` ' ' ' ' ' ' k k k k k ;.q.c.c.M.M.v.N.N.2.b.b.n.n.q.q.M.c.v.$.$.' c.v.N.B.D.D.K.L.D.B.b.,.,.,.,.b.N.S.S.S.S.N.b.b.b.B.B.b.v.,.` j k k k k k k k h h h h h h h h k k k k k k j j c.,.,.,.,.,.` ` ` ` ` ,.<.<.<.v.b.b.b.b.b.b.b.b.S.D.I.R.R.I.D.S.` ` ` ` ` ` ` ` s _ s s _ s s h e s ' ' ' ' ' k M.M.M.M.M.M.M.M.M.M.M.M.M.M.M.n.O.O.q.n.m.K.L.L.m.m.m.M.c.' ` ' m.K.L.R.I.S.c.' e 9 8 9 f q.C.H.K.L.L.K.M.k ` <.` ` ` ` ` ` ` ` ` ` ' ' ] <.1.v.I.I.I.D.V.D.V.V.v.v.v.v.v.v.v.v.v.v.v.b.b.b.v.w.y.s.HXPXf.s.d.",
"0.z.UXh.f.HXHXj.l.r.L.P.&.X.X.X.P.P.P.P.P.P.P.P.$.$.' ' a a O.O.' ' ' ' ] ] ' ] V.V.V.V.V.V.V.V.L.L.Z.M.' ' r r ' ' v.B.K.K.K.K.v.<.' _ _ ' v.v.B.B.B.B.B.B.B.B.V.V.V.' ' ' h r ' ' ' ' ' ' ' ' h l h l h l h h i i g l h k #.#.B.B.B.B.B.B.V.B.Z.Z.Z.Z.Z.Z.Z.Z.B.B.B.B.B.B.B.B.B.B.B.B.B.B.B.B.` ` ` ' ' ' ' ' ' ' ' ' ' ' _ _ _ _ _ _ _ _ _ ' _ _ _ _ _ _ _ ( ) %.%.) ( ( ( a a a +.O.q.q.+.O.v.V.P.3.P.D.m.F.w.t.7.+.#.%.| | $.$.$.V.P.U.I.I.S.B.b.,.` j j j S.Z.Z.Z.Z.Z.Z.Z.' ' ' ' ' ' ' ' ' ' ' ' ` ` ` ' l l h h h h h h h h h h h h h h ' ' ' ' ` ` ` ' ' ] ' ' ] ] ] ] 1.1.1.1.1.1.1.1.Z.V.Z.V.Z.V.V.V.' ' ' ' ' ' ' ( ) / / ) ) ( ( ( ( ( ( ( ( ( ( ( B.B.B.B.B.B.B.B.B.B.B.B.B.B.B.B.Z.Z.Z.Z.Z.Z.Z.Z.Z.Z.Z.Z.Z.Z.Z.Z.B.B.Z.Z.Z.Z.Z.B.h h h h ' M.B.K.I.I.I.D.B.v.v.v.' ' ' ' ' ' ' ' ] ] ] ] ) ] ) ] P.P.P.P.P.P.P.&.&.$.$.$.%.%.$.$.$.M.V.Z.B.B.M.q.u.s.s.f.JXLXd.",
"0.a.UXh.f.HXHXj.z.x.L.P.3.iXiXiX*.*.*.*.*.*.*.*.X.| ) ) ( ( ( ( ) ] ..] ................3.3.3.3.P.V.V.$.] / / ^ / ) ] P.P.P.Z.P.] ] ) ( ( ) ] ] ........] ] ] ] P...] ] / ( ^ ^ ) ) ) / ) ) ) / ( ( ( ( ( ( ) ) ^ ^ ^ ( / ) ] ] ] ] ] ] ] ] ....P.P.P.P.P.P.P.P.] ] ....] ] ] ] ] ] ....] ] ] ] ] ] ] ] ] ] ] ] / / / / / / / / / / [ / [ / / / / / [ / / / / / | | | | W W W ( a a O.O.O.+.+.+.v.$.P.3.3.D.A.w.t.t.t.+.%.W Q Q | | *.*.*.U.U.U.P.3.1.] [ _ _ [ P.P.P.P.3.3.P.P.] ] ] ] ] ] ] ] ] ] ] ] ] ] ] ] ( ( ( ( ( ( ( ( / ( ( ( ( ( ( ( ] ] ] ] ] ] ] ] ] [ ..[ ..] ..] ................&.&.&.&.&.&.&.&./ / / / / / / / { Q Q Q { W W / W W W W W W W ) ] ] ....] ] ] ] ] ] ....] ] ] ] P.P.P.P.P.P.P.P.P.P.P.P.P.P.P.P...&.P.P.P.P.P.../ ^ ^ ( ) ] P.P.U.U.U.P.&.] ] ] / / / / ) ) ) / | | | | | | | | X.X.| X.*.*.X.*.*.*.*.*.) ) ) ) $.$.$.V.V.V.v.q.u.s.s.f.JXZXd.",
"0.a.UXh.f.HXHXj.l.x.L.P.X.iXiXiXiXiXiXiXiXiXiXiXiXyX} Q Q Q Q { } } } } } } } } uXuXuXuXuXuXuXuX .X.X. . .} } } ~ }  .uXuXuXuXX. . .{ { { {  . .} } } } } } } }  . . .} { { ~ ~ { { { { { { { { { { { { { { { { ~ ~ { { { { } } } } } } } } } }  . . . . . . . .} } } } } } } } } } } } } } } } { { { { { { { { { { { { } } ~ ~ } } } } } } } } } } } } } } } ~ yXqXyXQ Q Q { / / ( ( #.#.#.O.O.M.V.P.P.P.D.A.x.t.t.t.+.%.| Q qXqXiXiXiXiXiXiXiXuXuX . .~ ~  .~ uXuXuXuXuXuXuXuX} } } } } } } } } } } } } } } } { { { { { { { { { { { { { { { { } } } } } } } } } } } } } } } } uXuXuXuXuXuXuX . . . . . . . . .{ { { { { { { ~ #X#X#X#X#X#XQ Q Q Q Q Q Q Q Q Q } } } } } } } } } } } } } } } }  . . . . . . . . . . . . . . . .}  . .X.X. . .} { ~ ~ ~ { } X.uXuXuXX. .} } { { { { { { { { { { } Q Q Q Q Q Q Q yXyXyXyXyXyXyXyXyXQ Q Q Q Q Q { | | ..P.P.P.1.M.u.s.f.f.JXZXd.",
"0.a.UXh.f.HXHXj.z.x.L.U.X.iXpXaXpXtXtXtXtXpXtXpXpX9X$X$X$X#X$X$XeXeXeXeXeXeXeXeXtXtXtXtXeXtXtXeXeXeXeXeXeXeXeXeX$XeXeXpXpXpXpXpXeXeXeXwXwXeXwXeX#X#X#X#X#X#XwXwXeXeXeXwX#X#X#XoX#X#X#X#X#X#X#X#XwXwXwXwX#X#X#X#X#X#X#X#XwX#XwXwX#X#X#X#XwXwX#X#XwXwXwXwXwXwXwXwX#X#XwXwXwXwX#X#X#X#XwXwXwXwX#X#XwXwXwXwXwXwXwXwX#X#X#XwX#XwXwX#X$X$X$X$XeX$X$X$X$XeXeXeX$X$X$X$X9X9X$X$X#X#X~ ~ { { ) ] ] $.' #.C.Z.Z.V.D.D.S.x.t.t.t.O.%.| qXaXaXaXtXtXpXpXpXpXpXtXeXrXrXrXrXrXeXtXtXtXtXtXtXtXeXeXtXtXtXtXtXeXeXeXeXeXeXeXeXeXeXeXeXeXeXeXeXeXeXeXeXeXeXeXeXeXeXeXeXeXeXeXeXeXeXeXeXeXeXeXeXeXeXeXeXeXeXeXeXeXwX#XwX#XwX#XwX#X#X#X#X#X#X#X#X$X7X:X:X:X X$X$X$X$X$X$X#X#X#X#X#X#X#XwXwXwXwX#X#X#X#XwXwXwXwX#X#XwXwXwXwXwXwXwXwXwXwXwXwXwXwXwX#X#X#XwXeXeXwX#X#X#X#X#X#X#XwXeXeXeXeXeXwX#X#X#XoXwXwX#X#X#X#X#X#X$X$X$X$X$X$X$X$X$X$X$X$X$X$X$X$X$X$X$X#X).Y T T } } X.X.3.3.3.b.u.s.s.f.JXZXd.",
"0.a.UXh.s.HXHXj.z.J.L.U.uXiXpXaXzXzXzXzXzXzXzXxXxXlXfX2X1X<X3X8X8X8X8X8X8X8X8X8X8X8X8X8X8X8X8X8X8X8X8X8X8X8X8XlX8X8XlXmXmXmXlX8X7X8X8X9X8X8X8X0X6X6X6X6X6X6X6X6X7X7X6X6X6X;X:X;X6X6X6X6X6X6X6X6X7X7X7X7X7X7X7X7X7X7X7X6X6X6X6X6X6X6X6X6X;X;X;X;X;X;X;X;X6X;X6X:X6X6X6X6X6X6X6X6X6X6X6X6X6X6X6X6X6X6X6X6X6X6X6X6X6X6X6X6X7X6X7X6X1X8X8X8X8X8X8X8X8X8X8X8X8X8X8X8X8X8X8X6X5X@X@X#X~ { { ....] ] ' C.C.Z.S.D.D.J.J.r.t.t.#.&.yXaX0XxXzXzXzXzXzXzXmXmXmXlX8X8X8X8X8XlXlXlXlXlXlXlXlXlXlXlXlXlXlXlXlX8X8X8X8X8X8X8X8X8X8X8X8XlXlXlXlX8X8X8X8X8X8X8X8X8X8X8X8X8X8X8X8X8X8X8X8X8X8X8X8X8X8X8X8X8X8X8X8X6X6X6X;X6X;X6X;X6X7X6X7X6X6X6X8X2X2X2X2X2X,X2X<X1X<X;X;X:X:X:X:X:X6X6X6X6X6X6X6X6X6X6X6X6X6X6X6X;X;X;X;X6X;X6X:X;X;X;X;X;X;X;X;X-X;X6X7X6X6X;X-X6X6X;X;X;X6X7X8X6X6X6X6X;X;X;X-X7X6X7X7X6X6X6X7X;X>X>X>X1X>X1X>X>X>X>X>X>X&X&X>X1X1X6X;X}.{.(.oXwXwX . .3.3.3.N.u.s.f.f.f.f.d.",
"0.a.UXh.s.HXHXj.l.J.L.U.iXiXpXmXnXbXbXvXnXvXvXvXnXkXhXhXhXhXjXhXkXkXkXfXkXfXlXfXzXlXzXlXzXlXzXzXkXkXkXkXkXkXkXkXkXkXzXzXzXzXzXkXfXfXlXlXlXlXfX2X2X,X2X,X2X2X2X2X,X,X,X,X,X,X,X,X2X2XfX2X2X2X2X2XfXfXfXfXfXfXfXfXfXfXfXfX2X,X,X,X2X2X2X,X2X,X2X,X,X,X,X,X,X,X,X,X2X2X2X,X2X,X2X,X2X2X2X,X2X,X2X,X,X,X,X,X,X,X,X,X2X2X2X2X2X2X2X2XfXsXgXfXgXfXgXsXgXfXgXfXgXfXgXfXlXlXlX2X8X5X+XoXwX~ } ....] ] ' C.w.C.K.L.L.T.J.r.r.F.$.*.iXaXxXnXbXbXbXnXvXnXnXnXzXzXzXlXlXmXzXzXkXkXkXkXkXzXkXkXkXkXkXkXkXkXkXkXkXzXkXzXkXkXkXzXzXzXzXzXzXzXzXzXzXzXzXzXzXzXzXzXkXzXkXkXkXkXkXkXkXkXkXkXfXkXfXgXfXfXfXgXgXfXfX2X1X2X1X2X2X2X2X2X2X2X2X2X2X2XfXdXhXhXdXdXdXdXdXsXsX,X,X,X,X,X,X,X2X2X,X2X,X2X,X2X2X2X,X2X,X2X,X,X,X,X,X,X,X,X,X,X,X,X,X,X,X,X,X>X,X2X2X2X,X,X>X2X,X,X>X>X,X2X2X,X,X,X,X,X,X,X,X2X2X2X2X2X,X2XfX,XsXsXsXsXsXsXsXsXsXsXsXsXsXsXsXfXfX2X2X6X-XOX(.#XwX}  .3.3.3.N.k.s.f.f.JXf.d.",
"0.a.UXh.s.HXHXl.l.T.L.U.NXpXpXxXvXbXbXbXbXbXbXcXvXcXcXjXjXjXcXcXjXhXhXhXhXhXhXhXhXhXhXhXkXhXkXkXcXcXcXjXjXjXhXhXhXjXcXvXvXvXvXjXdXsXgXxXkXxXdXsXdXsXdXdXdXdXdXdX,X,X,X,XsXsXsXsXsXsXsXsXsXsXsXsXdXdXdXdXdXdXdXdXkXhXdXdXdXsXsXsXdXdXdXsXdXsXdXdXsXsXsXsXsXsXsXsXdXdXdXdXdXsXdXdXdXdXdXdXdXdXdXdXsXsXsXsXsXsXsXsXsXsXsXsXsX,XsXsXdXdXdXdXdXdXdXdXhXdXdXdXdXdXdXdXkXlXfX2X1X5XOXoX~ ~ { ..] ] ' O.r.t.H.H.L.T.T.J.J.J.C.&.X.pXtXzXbXbXbXbXbXbXbXbXvXvXkXkXzXzXzXnXvXvXvXvXvXvXvXvXvXbXbXbXvXvXvXvXcXcXcXcXcXcXcXcXvXvXvXvXvXvXvXvXvXvXvXvXvXvXvXvXcXcXcXcXcXcXcXjXhXhXhXhXhXhXhXhXhXdXdXdXdXdXdXdXfX,X,X,X,X,XfX,XfX2XfX,XfX,XfXsXhXjXjXhXhXdXdXdXdXsXsXsX,X,X,X,XsXdXdXdXdXsXdXdXdXdXdXdXdXdXdXdXsXsXsXsXsXsXsXsXsXsXsXsXsXsXsXsX,XsXsXdXdXsXsX,XsXsX,X,X,X,XsXsXsXsXsXsXsXsXsXsXsXsXsXsXsXsXsXsXsXsXsXsXsXsXsXsXsXsXsXsXsXsXsXdXkXzXfX2X8X6X+XoXoX~ }  ...3.1.b.u.s.f.f.JXf.d.",
"9.a.UXh.s.HXHXl.l.T.I.U.NXpXpXxXvXbXbXbXbXbXcXcXcXcXjXjXjXcXcXcXjXhXhXhXdXdXdXdXdXdXdXhXhXhXdXjXcXcXcXjXjXdXdXsXhXjXjXcXvXcXcXjXdXsXgXxXxXdXsX,XdXdXdXdXdXdXdXdX,X,X,X,X,X,X,X,XsXsXsXsXsXsXsXsXdXdXdXdXdXdXdXdXhXhXdXdXsXsXsXsXdXdXdXgXdXdXdXgXsXsXsXsXsXsXsXsXdXdXdXdXgXgXdXdXdXdXdXdXgXdXdXdXsXsXsXsXsX,X,X,XsX,X,X,X,X,X,X,XsXdXdXdXdXdXdXdXdXdXdXdXdXdXdXdXfXfX2X8X6X+XoXY ~ { | ] #.#.O.+.t.t.H.H.L.T.T.J.J.J.Z.P.iXpXmXnXbXbXbXbXbXbXbXcXvXcXjXhXkXkXzXnXvXbXbXbXbXbXbXbXcXcXcXcXcXcXcXcXcXjXjXcXcXcXcXcXvXvXvXvXvXvXvXvXvXvXvXvXvXvXvXvXjXjXcXcXcXcXcXjXhXhXhXhXhXdXdXdXdXdXdXdXdXdXdXsX,X,X,X,X,X,X,X,X,X,X,X,X,X,X2X,XdXhXdXdXdXdXsXsXsX,X,X,X,X,X<X,XdXdXdXdXgXdXdXdXdXdXdXdXdXdXdXdXsXsXsXsXsXsXsXsXsXsXsXsXsXsXsXsX,XsXsXsXsXsXsX,XsXsX,X>X>X,X,X,X,X,XsXsXsXsXsXsXsXsXsXsXsXsXsXsX,X,X,X,X,X,X,X,XsXsXsXsXsXsXsXdXkXlXlX2X8X5XOXoXY ~ { ] ] V.v.q.u.s.f.f.f.f.d.",
"9.a.UXh.f.HXKXl.x.T.R.BXNXpXpXmXcXbXbXbXjXdXsXdXsXsXdXdXhXjXcXjXsX,XsXsX,X,X>X>XsXsX,X,X,XgXxXkXcXcXjXhXsX,X>X>X>X,XdXhXjXcXcXjXgX3X<X<X<X<X3X3X&X&X<X<X>X&X%X%X%X%X%X%X&X&X&X&X>X&X&X%X%X%X%X&X&X>X>X>X,X,X,X,X,X,X,X,X,X>X>X&X&X&X&X&X&X>X<X<X>X&X&X%X%X%X%X%X&X>X<X<X<X<X>X&X%X%X%X%X%X&X&X,X,XsXsX,X,X,X,X<X<X<X=X*X*X=X4X<X&X>X>X>X>X,X,X,X,X,X3XsXsX,X,X>XlX8X8X5XOXoXT T n Z ^ #.O.O.+.@.@.+.w.C.n.A.A.T.J.J.K.U.iXpXmXvXbXbXbXbXcXcXjXjXnXnXzXxXgXfXfXgXhXjXjXcXcXjXjXjXjXjXjXjXjXjXjXjXjXhXhXdXdXdXdXsXsXdXdXdXdXhXhXhXhXhXhXhXhXhXhXhXdXdXhXhXhXhXjXkXgXgXgXgXsX,X,X,X>X>X>X>X>X,X,X,X0X4X:X=X=X=X*X*X'.'.'.'.%X=X0X0X,X,X,X>X>X&X&X&X<X=X=X=X=X4X4X4X%X&X&X&X&X>X<X<X&X&X&X&X&X%X%X'.&X&X>X>X&X&X&X&X%X%X%X%X&X&X&X&X&X&X&X&X&X&X&X&X&X&X>X<X<X<X<X<X<X<X>X>X&X&X&X&X&X&X&X&X&X&X>X>X&X&X&X&X&X%X%X'.>X&X&X&X&X&X<X<X>X2X8X6X{.Q.I T T / ) $.C.M.q.6.e.s.HXPXf.s.d.",
"9.a.UXh.f.HXKXl.x.T.R.BXNXpXmXzXcXbXbXcXsX>X&X=X*X*X&X,XsXsXhXdX<X<X<X<X<X=X&X%X=X=X%X%X%X=X<X3XdXhXdX,X&X%X'.`.'.*X&X,XsXdXhXsX<X=X*X'.'.'.*X=X*X*X=X=X=X'.'.`.`.`.'.'.'.'.'.*X=X*X'.`.`.`.'.'.%X&X&X&X&X&X>X<X&X&X<X<X>X&X%X'.'.'.'.'.*X*X=X=X=X*X'.`.`.`.'.'.*X=X4X4X4X4X=X*X'.'.`.`.`.'.*X=X,X,X,X,X<X=X=X=X*X[.].^.Q.^.^.].'.%X%X=X=X=X=X=X<X<X<X<X<X&X%X%X`.!.Q.K D N v O + # < +.+.@.@.@.@.+.w.C.b.A.A.T.J.J.L.U.iXpXmXvXcXbXbXcXjXjXhXdXsX,X&X%X'.`.`.'.,XdXdXdXdXdXdXsXsXsXsXsXsXsXsXsX,X,X,X>X>X>X>X>X>X>X>X>X>X,X,X,X,X,X,X,X,X,X,X,X>X>X>X>X,X,X,X,X<X<X<X=X=X=X=X&X%X%X%X&X=X=X=X=X[.].].].!.!.!.!.!.!.!.!.!.].XX4X=X=X=X*X*X'.'.'.`.!.!.^.^.Q.Q.^.!.`.`.`.'.'.'.'.'.'.*X*X'.'.`.`.'.'.'.'.'.'.'.'.`.`.'.'.'.'.'.*X'.'.'.'.'.'.'.'.'.'.'.'.*X*X*X=X*X*X*X'.'.'.'.'.'.'.'.'.'.'.'.'.'.'.[.[.'.`.`.!.!.!.!.!.!.`.'.*X%X;X5X{.K S N B + # : u u 6 6 6 e.s.HXPXf.s.d.",
"9.h.PXh.f.HXKXl.x.T.R.BXpXpXmXzXcXcXcXdX&X`.!.^.^.^.].'.=X>X,X,X=X*X4X4X4X[.'.`.`.!.!.!.!.`.`.*X,X,X>X%X`.!.K J K Q.].*X&X>X,X>X'.^.Q.Q.Q.Q.^.!.].XXXXXXXX].^.^.!.^.!.^.].].].].XX].].^.!.!.!.].'.'.%X*X*X*X=X=X*X*X=X=X*X*X'.`.].!.^.].].].XXXXXX].].^.!.^.!.^.].XXXXXXXXXXXX].^.!.^.!.^.].].[.=X&X&X=X*X*X[.XX^.~.K J D S S D ].'.'.[.[.*X*X*X4X4X4X4X*X[.`.!.K D S N v O o X X . - u @.@.@.6 @.+.C.C.m.N.S.T.J.H.Z.U.iXpXmXkXcXcXcXjXhXdX,X,X&X'.`.Q.K J J K =X<X<X3X3X<X<X,X&X&X&X&X&X&X&X&X%X%X'.'.'.'.'.'.'.'.'.'.'.%X%X%X%X%X%X%X%X%X%X%X`.`.`.'.'.'.'.'.*X[.[.[.`.`.`.`.`.'.'.[.[.*X*X[.K J J J J D D D J J J J J P .X|.[.[.[.].`.^.^.~.K K J J J J J J K Q.Q.Q.Q.!.^.^.].].].].].^.!.Q.!.!.^.^.^.^.!.!.!.^.^.^.].].].].].].^.^.^.^.^.^.Q.Q.!.^.!.^.].].].].^.!.^.!.Q.Q.^.^.!.!.^.^.^.^.^.^.^.^.^.^.Q.K D D D D J K Q.^.`. X{./.S v c O X .   ; ; ; ; ; e.s.HXPXf.s.d.",
"9.h.PXh.f.HXKXl.x.T.U.NXpXpXmXzXjXcXkX3X'.Q.J J P P ^.].*X=X>X>X*X[.[.*X[.[.].`.!.!.Q.Q.Q.!.`.'.>X,X&X'.!.K J D L P ~.].*X>X,X&X`.Q.K K K K Q.Q.XXXXXXXXXX^.^.Q.Q.Q.^.^.^.^.^.].XXXX^.Q.Q.Q.^.!.`.'.'.'.*X*X*X=X*X*X=X=X*X'.'.`.!.Q.^.^.^.^.XXXXXXXX^.Q.Q.Q.^.^.^.XXXXXXXXXXXX^.^.^.Q.Q.Q.^.XX[.*X=X=X*X*X[.[.XX.X~.P D S N M N ^.`.].[.[.[.[.[.4X4X4X4X[.].Q.K K G S N v c o X . . - u @.@.@.@.@.+.C.Z.N.2.S.T.J.H.L.U.iXpXmXzXjXjXjXhXdX,X<X<X4X[.^.Q.J J G K [.=X=X<X<X<X=X=X%X%X%X%X%X%X%X*X'.'.`.`.`.`.!.!.!.`.`.`.`.`.'.'.'.'.'.'.[.'.'.[.!.!.!.!.!.`.`.`.[.[.[.].].].].`.].`.].[.[.[.[.XXJ G D D D S S S D S S S D J U ).].].].^.^.Q.Q.K P P P L L L L L J K K Q.Q.Q.Q.^.^.^.].XX^.^.Q.Q.K K K Q.K K K K Q.Q.Q.^.^.^.^.].^.^.^.^.^.^.^.^.Q.Q.Q.Q.^.^.^.^.^.^.Q.Q.Q.Q.K K K K K K Q.K Q.K ~..X.X.X~.~.K J N N S S D J ~.^.|.|.@XI S c O o X # - 6 6 6 6 6 e.s.HXPXf.s.d.",
"9.i.PXf.f.HXKXl.x.T.U.NXpXpXmXzXkXcXkX3X'.K J G P P .XXX=X<X,X,X*X[.*X*X[.'.`.`.`.`.!.!.!.`.'.*X3X,X>X*X^.P G F G P .XXX=X3X,X>X'.!.!.Q.Q.!.!.].].].XXXXXX].!.!.!.!.!.!.].].].].XX].].!.!.!.!.].'.%X%X%X=X=X&X=X*X=X=X=X=X%X%X'.!.!.!.!.!.].].].XX].].!.!.!.!.!.!.].].XXXX].].!.!.!.!.!.!.].].*X&X&X&X&X%X'.'.].XX^.P J S S N S ^.'.'.'.[.*X*X*X4X4X4X4X[.`.!.K P L G S M v O + # # > a +.+.+.@.+.O.Z.Z.V.1.D.T.J.H.L.U.iXpXmXzXjXjXhXdXsX,X<X=X0XXX|.~.P L G P  X*X=X:X4X=X*X*X*X*X*X*X*X*X*X*X[.[.[.].].].`.!.`.`.].`.].[.[.[.[.[.[.[.[.[.[.[.!.!.!.!.`.].`.`.4X4X*X*X[.[.'.'.`.'.'.[.[.*X*X$XI U U J D D D D S S S S D J Y ).|.].|.(.(.Q.Q.K K K J J L L L J Q.Q.!.!.!.!.].].].].].].].!.!.Q.Q.Q.Q.Q.Q.Q.Q.Q.!.!.!.!.].].].].!.!.!.!.!.!.!.!.!.!.!.].].].].].!.!.!.!.Q.Q.Q.Q.Q.Q.Q.Q.Q.Q.Q.K ~.~..X.X.X~.K K S S D D J K .X_.@X$X$X/.S M c O + # : u u @.6 6 e.s.HXLXf.s.d.",
"9.i.PXf.f.HXKXl.x.D.3.NXpXmXmXzXvXvXzXgX'.Q.J L P P .XXX=X,XsX3X%X*X%X*X%X'.'.`.'.'.'.'.'.'.%X1XfXfX1X-X^.P G F G P .XXX:X1XfX2X%X`.`.`.`.`.'.[.[.[.:X X[.'.`.!.`.!.`.`.`.`.'.[.*X[.`.`.`.!.`.'.%X&X&X&X>X1X1X1X&X>X1X1X>X&X&X'.`.!.!.!.`.`.`.`.*X[.`.`.`.!.`.`.`.`.'. X[.'.`.`.`.`.`.!.`.`.[.:X&X>X>X&X&X%X%X'.[.].~.K J G G J ].'.%X*X%X*X:X:X:X:X:X:X%X'.`.Q.J D S N v c O o + $ R ( ' #.k l +.#.Z.V.1.1.D.T.J.H.L.U.iXpXmXzXkXjXjXhXdXsX2X;X:X|.Q.K D D F J `.%X:X:X:X:X%X%X&X;X%X%X%X%X%X*X*X[. X[.`.`.`.`.`.`.`.`.[. X[. X X X X X X X X X!.`.`.`.`.'.[.[.:X:X:X*X%X*X%X%X'.'.%X*X%X:X:X:XoXoXY Y Y Y Y I D D D D J Y oXoXOX{.{.{.(.(.Q./.J J J D D D D J Q.!.`.`.`.`.'.`.`.`.'. X'.`.!.!.!.!.!.!.!.!.!.!.`.!.`.`.`.`.'.[.`.`.`.`.`.`.`.`.`.`.`.`.'. X[. X'.`.`.`.`.!.!.!.!.Q.!.!.!.!.!.Q.(._._._._.(./.K J J J J K /._.@X|. X@X(.D N M v o + * > 8 u 7 6 9.s.HXLXf.d.d.",
"9.i.PXf.f.HXKXl.x.D.3.NXpXmXmXzXvXnXnXgX=X]..X.XL P ~.`.%X>XsX,X&X&X;X;X&X%X%X'.%X%X%X%X%X%X&X1XfXfX>X%X!.K D F G L ~. X;X1XfX,X&X'.'.'.'.'.%X%X-X:X:X:X;X%X'.'.'.'.'.'.%X%X%X%X;X-X%X'.'.'.'.%X&X>X>X,X2X2X2XfX2X2XfXfX2X,X>X&X'.`.`.`.'.'.'.'.;X-X%X'.'.'.'.'.'.'.%X%X%X%X'.'.'.'.'.'.'.'.-X1X>X,X,X,X>X&X%X%X'.`.!.Q.K K K Q.'.&X&X;X;X1X1X1X&X;X;X;X&X%X'.`.K D D S M v c O O m Z ^ / ( _ w #.#.V.P.3.1.D.T.J.J.K.U.iXpX0XxXkXcXcXkXkXfX2X1X:X}.(.K J D D J }.%X;X;X;X;X%X%X%X%X%X%X%X%X%X%X'.'.'.`.`.`.`.`.`.`.`.`.`.'.'.'.'.'.'.'.'.'.'.'.`.`.`.'.'.'.'.%X;X;X;X&X&X%X%X%X&X&X&X;X;X1X1X6XOXoXoXoXoXoXI I I I I I oXoXrXrX+X+X+X}.{.{.(.(.Q./.K K K J J K !.!.`.`.`.`.'.'.%X%X-X-X%X'.'.`.'.`.'.`.'.`.'.`.'.'.'.'.%X%X%X%X%X'.%X'.%X'.%X'.`.`.'.'.'.'.%X%X;X:X-X%X%X'.'.'.`.`.'.`.'.`.`.`.OXOX@X+XOXOX(.(.Q.Q.Q.Q.Q.(.(.{.`.`.{.!.J S N M c O m Z w t t 3 y.s.HXPXf.d.d.",
"9.a.PXCXd.HXKXx.T.D.U.NXNXtXmXnXnXnXnXzX2X&XXXXXK K Q.!.'.%X>X>X>X>X1X1X&X%X'.'.'.'.'.'.'.%X&X1X,X,X&X'.Q.J S N S D K ^.'.%X&X&X%X`.`.`.`.`.'.'.-X;X6X;X;X%X%X'.'.'.'.%X%X%X-X-X;X-X%X'.'.'.'.%X&X>X>X,X2X2X2X2X2X2X2X2X2X>X>X%X`.`.`.`.`.`.`.`.7X-X'.'.'.'.'.'.`.`.'.'. X'.'.'.'.'.'.'.%X%X;X1X>X>X>X&X&X&X%X'.`.!.Q.K K K K !.%X&X&X;X;X1X1X1X%X%X-X-X-X%X'.`.!.Q.K J D N M v O O m Z ^ ^ w > #.#.V.P.3.1.D.T.J.J.K.U.MXpX0XxXkXcXcXjXkXkXfXfX8X7X}.(./.I U /.}.&X;X;X;X;X-X%X'.'.`.`.`.`.`.`.`.`.`.!.!.Q.Q.Q.Q.Q.Q.!.!.`.`.`.`.`.`.`.`.`.`.`.!.`.`.`.`.'.'.%X%X%X%X%X'.'.`.`.%X%X%X;X;X1X1X6X(.oXoX/./.I I I /./././.oXOX@X7X+X+X}.}.{.(.(.Q.OXOXOXOXOXOXOX{.K Q.Q.Q.!.!.!.!.}.}.-X;X-X'.'.`.'.'.'.'.'.'.'.'.'.'.'.'.'.'. X-X%X%X%X%X%X'.'.'.!.!.!.!.`.`.`.'.7X;X;X;X-X%X%X%X'.'.'.'.'.'.'.`.}.+X+X5X+X}.{.(.Q.Q.K K K K /./.K Q.Q.K S N M M v m Z ^ ^ ^ w z y.s.HXHXf.d.d.",
"8.l.SXCXAXLXl.:.:.2.,.' { wXlXnXnXnXnXnXhX,X>X&X-X[. X`.`.`.`.'.&X>X>X&X%X'.`.!. X X X X-X-X-X;X1X8X;X}.{./.U L G D D D D J J J |.^.^.Q.!.!.`. X`.`.'.'.'.'.'.'.'.'.'.'.'.'.'.'.'.'.'.'.'.'.'.'.%X'.'.%X%X%X%X%X%X%X-X-X%X'.'.!.{.(.(.Q.J D S S J K (.{.+X5X-X}.K J D D J K Q.!. X-X-X%X%X%X%X'.`.(.Q.Q.Q.Q.K K K Q.Q.Q.(.(.(.{.%X&X;X;X;X:X'.'.!.Q.Q.K K Q.~.^.:X7X9X{.J S M v O @ * w a i u 7 i k v.1.1.2.D.T.T.Y.L.U.MXpX7X,XdXdXhXhXhXhXhXdXkXfX1X%X`.(._._.'.%X-X-X%X'.`.!.Q.Q.K K K ~..X|.`.'. X!.K J J J D J K Q.!.`.`.!.Q.K K K K K Q.!.`.`.`.'.'.'.'.'.'.'.`.!.Q.Q.K J K Q.!.`. X%X%X'.K J J J J J K Q.{.{.{.{.{.{.}.}.-X-X'.`.!.K K J J K Q._. X X}.}./.K J J J K Q.Q.(.{.{.{.{.{.{.{.Q.Q.!.`.%X;X6X6X;X-X`.!.Q.K P ^.'.%X%X%X'.`.^.Q.J J J K Q.!.`.'.%X%X%X%X%X'.'.'.'.'.`.!.Q.Q.!.!.'.%X%X%X%X'.`.!.!.Q./.I I U U U I I J D N M v O @ % 1 ^ h s z 4 9.s.PXPXf.d.d.",
"7.l.SXAXSXLXl.:.2.,.;.k ) yXmXnXnXnXnXnXkXdX,X2X;X-X'.`.`.`.!.`.&X>X>X&X%X'.!.Q..X.X].|.'.'.%X-X6X6X-X}.(./.U G G F F S S D D D ).~.~.K Q.Q.^.].].`.`.'.'.'.'.'.'.'.'.'.'.'.'.`.'.'.'.'.'.'.'.'.'.`.`.`.`.`.`.`.'.'.'. X'.`.!.Q.(././.J D S N N D U )._.+X+X-X{.P F S S D J K Q. X X%X%X%X%X&X'.Q.U J J J J J J K K K /.Q.(.(.|.'.%X;X;X:X X`.].Q.K K J J P P |.:X7X7X}.K S M v O $ > q i u 6 ; u O.V.1.1.2.D.T.T.Y.L.U.MXiX7X>XsXdXdXhXjXjXjXjXkXkX,X&X'.`.).|.'.%X-X-X'.`.!.Q.K K J J J P .X.X!. X|.^.J D D G S D P ~.^.!.!.!.Q.K J J J K Q.Q.].`.`.`.'.'.'.'.'.`.`.!.Q.J J D J K ~.^. X'.'.'.K J J D J J K Q.].`.`.`.'.'.'.'.%X'.'.!.Q.K J D D J Q.^. X X:X XK G D D D J K K _._.(.(.(.(.{.!.Q.Q.!.`.'.:X:X6X:X X].Q.K P L P '.%X%X'.`.^.~.P D D D J K Q.].'.'.%X%X%X%X'.'.'.'.`.!.Q.Q.Q.Q.!.'.%X%X%X*X'.`.!.Q.K K U J L H H H H H N M v c o @ % 1 r h g z 4 9.s.PXPXf.d.d.",
"7.l.SXAXSXLXl.:.:.:.;.k ] yXmXnXnXnXnXnXkXfX2X8X%X'.'.`.`.`.`.'.&X>X>X&X%X'.!.Q.^.^.^.].`.'.'.%X;X-X}.{./.K U G D D D D D J J J ~.~.K K K Q.^.^.].`.`.`.'.'.'.'.:X-X'.'.'.`.`.`.'.'.'.'.'.'.'.'.'.`.'.'.'.`.`.'.'.'.'. X'.`.`.!.(./.K J D S N N D U /.(.+X+X-X{.J F F S D J K Q.|.'.'.%X%X%X&X'.(.I U K J J J J K K K /.Q.(.(.(.`.'.'.:X X'.].!.K K K K K ~..X$X-X6X7X{.K S M v O $ > q i u 6 6 u O.V.V.1.2.D.T.T.W.L.U.MXpX7X>XsXdXdXhXjXjXjXhXhXdX>X&X'.`.(.^.'.%X%X-X'.`.!.Q.Q.K K J K P .X.X!.|.|.^.J D S G S D P ~.^.!.!.!.Q.J J J J K Q.Q.].`.`.`.'.'.'.'.'.`.`.!.Q.K J D J K ~.^. X'.'.'.K J J J J K K Q.].`.`.`.'.'.'.'.%X'.'.!.Q.K J D D J Q.^. X X:X XK G D D D J K K #X@X_.(.(.(.!.!.Q.Q.!.`.'.-X;X;X:X'.`.Q.K L G P '.%X%X'.`.^.~.P D D D J K Q.]. X'.%X%X%X%X'.'.'.'.`.!.Q.Q.Q.Q.!.'.%X%X%X*X'.`.!.Q.K K J J G H H H H H N M v c o @ % 1 r h g z 4 9.s.HXPXf.d.d.",
"7.l.SXAXSXLXl.:.:.:.f k ] yXmXnXnXnXnXnXkX,X1X7X'.`.`.`.`.'.'.'.&X>X>X&X%X'.!.Q.^.^.^.!.`.`.'.'.}.}.{.(./.J G G F D D J J K K K ~.P K K K Q.^.!.!.`.`.`.'.'.'.'.:X:X X'.`.`.`.!.'.'.'.'.'.'.'.'.`.`.'.'.`.`.`.`.'.'.'. X'.`.!.!.(./.K J D S S S D U /.(.+X+X-X{.J G F S D J K Q.].`.'.%X%X%X&X'.(.I /.I K K K K K K K /././.Q.(.!.`.`. X X`.!.!.K K K K Q.^.|.$X'.-X+X(.J N M v O $ > q i u 6 6 +.#.V.V.1.2.D.R.T.W.L.U.MXpX7X,XsXdXdXdXhXhXhXdXdXsX>X%X`.!.(.(.'.%X%X-X'.`.!.Q.Q.K K K K P .X.X!. X|.^.J D S G S D P ~.^.!.`.!.Q.J J J J K Q.Q.].`.`.`.'.'.'.'.'.'.`.!.Q.K J J J K ~.^. X'.'.'.Q.J J J J K Q.Q.].`.`.`.'.'.'.'.%X'.'.!.Q.K J D D J Q.^. X X:X XK G D D D J K K $X@X_.(.(.(.!.Q.Q.Q.!.`.'.%X-X:X%X'.!.Q.J J G K '.%X%X'.`.^.~.P J D D J K ^.|. X'.%X%X%X%X'.'.'.'.`.!.Q.Q.Q.Q.!.'.%X%X%X*X'.`.!.Q.K J J D G G G H H H N M v c o @ * 1 r h g z 4 9.s.PXPXf.d.d.",
"7.l.LXSXSXLXl.:.2.,.;.k ] yXmXnXnXnXmXzX2X&X:X:X`.!.`.`.'.'.'.%X&X&X&X&X'.`.^.Q.~.~.~.^.!.`.'.`.{.(./.K J J D S D D J K Q.!.`.!.Q.K K K K Q.Q.!.].`.`.`.'.'.'.'.-X X'.'.`.`.`.`.`.`.`.`.`.`.`.`.`.'.'.'.'.'.'.'.'.'.'. X'.`.`.!.Q.K K J D D S S G U )._.+X+X-X}.K G D D D J K Q.!.`.'.'.%X%X&X%X(.)././.K K K K /././././.K K K Q.^.^.^.^.!.!.Q.Q.Q.Q.Q.!.`. X:X`.}.{.Q.D N v v o # > q i u 6 6 +.#.V.P.V.2.D.R.T.W.Y.U.MXpX7X,XdXdXdXdXdXdXdXdXsX,X&X'.`.!.!.!.'.'.'. X'.`.!.Q.Q.K K K K ~..X|.!. X|.^.J S S G S D P P ^.!.`.!.Q.K J J J K Q.Q.].`.`.`.'.'.'.'.'.'.`.!.Q.K J J J K ~.^. X'.'.'.Q.K J J J K Q.Q.].`.`.`.'.'.'.'.%X'.'.!.Q.K J D D J Q.^. X X:X XK G D D D J K K oX_._.(.(.(.!.!.!.!.`.`.'.%X%X%X%X'.!.K J D G J '.%X%X'.`.^.~.P J J J K Q.^.|.:X%X%X%X%X%X'.'.'.'.`.!.Q.Q.Q.Q.!.'.%X%X%X*X'.`.!.K K J J D D D D H H H S N v c o @ % 1 r h g z 4 9.s.PXPXJXd.d.",
"7.l.LXSXSXLXl.:.2.2.;.O.) yXlXzXlXlXlX8X%X`.].|.!.!.!.`.'.%X%X&X&X&X&X%X'.`.^.Q.Q.Q.Q.Q.!.!.`.`.(./.I U D D S S D D K Q.(.`.'.`.Q.K K J K K Q.!.].`.`.`.'.'.'.'.`.`.`.`.`.`.`.`.`.`.`.`.`.`.`.`.`.`.'.'.'.'.'.'.'.'.'. X'.`.`.!.Q.K K J D D F F G U )._.+X+X-X}.K G D D J J K Q.!.`.`.'.%X%X&X%X{._.(./././.K K /././.I K K K J K K ~.~.~.Q.Q.Q.!.!.!.!.!.`.'.'.!.!.(.Q.D M v v o # > q i u 6 ; +.#.V.P.D.D.D.R.T.W.L.U.MXpX7X,XdXdXdXdXdXdXsXsX,X>X%X'.!.!.Q.!.`.'.'. X`.`.!.Q.Q.K K K K ~.^.|.`. X|.^.J S S G S D P P ^.!.`.!.Q.K J J J K Q.Q.].`.`.`.'.'.'.'.%X'.'.`.!.K K J J K ~.^. X'.'.'.Q.K K K K K Q.!.].`.`.`.'.'.'.'.%X'.'.!.Q.K J D D J Q.^. X X:X XK G D D D J K K ).(.(.(.{.{.{.|.!.^.`.`.'.'.%X%X'.`.!.K J D D J '.&X%X'.`.^.~.P J J J K Q.^. X:X%X%X%X%X%X'.'.'.'.`.!.Q.Q.Q.Q.!.'.%X%X%X%X'.`.!.K J J D D D S S H H H S M v c o @ % 1 r h g z 4 9.s.PXPXJXd.d.",
"7.l.LXSXAXLXl.:.4.2.q.O.) #X8XlX2X8X0X:X!.Q.Q.~.K Q.!.`.'.%X;X1X&X&X&X%X'.].Q.K K K K Q.Q.!.!.!./.K U J D F S S D J K Q.`.}.-X-XQ.K J J J K Q.Q.].`.`.`.'.'.'.'.!.!.!.`.`. X X X`.`.`.`.`.`.`.`.`.`.`.`.`.`.'.'.'.'. X X'.`.`.!.K K J J D D D D G U )._.+X+X-X}.K J J D J J K Q.!.!.`.'.'.%X%X:XOX_.(.(.(././.K ).)./.I K J J J J P P P ~.Q.Q.Q.|.`.`.`.`.`.'.`.Q.Q.Q.J S M v m o # > q i u 6 ; +.#.Z.U.D.D.R.E.T.Y.L.U.MXpX7X,XdXdXdXdXdXsXsX,X>X&X'.`.!.Q.Q.!.`.`.'. X`.`.!.Q.Q.K K K Q.Q.^.|.`. X|.^.J D S G S D P ~.^.!.`.!.Q.K J J J K Q.Q.].`.`.`.'.'.'.'.%X'.'.].^.Q.K J J K ~.^. X'.'.'.Q.K K K K Q.Q.^.].`.`.`.'.'.'.'.-X'.'.!.Q.K J D D J Q.^. X X:X XK G D D D J K K K Q.Q.(.{.@X+X@X(.!.].`.'.'.'.'.'.`.!.K J D F J '.%X%X'.`.^.~.P P P J K Q.^.|.:X%X%X%X%X'.'.'.'.'.`.!.Q.Q.Q.Q.!.'.%X%X%X%X'.`.!.K J J D D S S S H H H S M v c o @ % 1 r h g z 4 9.s.PXPXf.d.d.",
"7.l.LXSXAXLXl.:.D.D.n.#./ ~ 8XfX&X:X9X|.Q.J J P K K Q.`.'.%X;X1X%X%X%X%X'.^.Q.K P P K K Q.Q.!.Q.K U J G F S N S D J K (.{.-X;X-XQ.K J J J K Q.Q.].`.`.`.'.'.'.'.Q.Q.Q.!.]. X$X9X].].].].].].].].`.`.`.`.`.`.`.`.'.'.'. X'.`.`.!.K K J J D G D G G U ).(.+X+X-X}.Q.J J J J K Q.Q.Q.!.`.`.'.-X:X-X+X@X{.{.(.(.Q./.).).).I U J D D G G L P P P Q.Q. X'.'.`.`.`.`.`.K K I D N v c m + $ > q i u u ; +.#.Z.U.U.D.R.E.T.Y.L.U.MXpX7X,XdXhXdXdXsX,X,X>X&X%X'.`.!.Q.Q.!.].].|.|.].!.!.Q.Q.K K Q.Q.^.].|.`. X|.^.J D S G S D P ~.^.!.`.!.Q.K J J J K Q.Q.].`.`.`.'.'.'.'.%X%X'.].^.Q.K P J K ~.^. X'.'.'.^.P K K K Q.Q.!.].`.`.`.'.'.'.'.-X'.'.!.Q.K J D D J Q.^. X X:X XK G D D D J K K J K Q.(.{.@X7X9X|.^.].`.'.'.'.'.'.`.Q.K D D F J '.&X%X'.`.^.~.P P P J K Q.].|.:X%X%X%X%X'.'.'.'.'.`.!.Q.Q.Q.Q.!.'.%X%X%X%X'.`.!.K J J D D S S S H H H S M v c o @ * 1 r h g z 4 9.s.PXPXf.d.d.",
"6.l.CXCXCXLXKX4.4.2.n.M...yXlXfX0X$X|.^.P J D D D K ^. X:X;X&X&X&X&X%X-X`.^.K J J J D J J K Q.Q.K U U L S M N S S J /.{.5X6X8X6XQ.K J J J K Q.Q.].`.'. X'.'.`.!.Q.Q.Q.Q.!.!.!.^.!.!.!.!.!.!.!.].`.'.'.'.'.'.`.`.:X X'.`.!.!.Q.K K J J J J G G L L U /.(.{.}.5X-X!.K J J J K Q.!.!.!.!.`.`.'.-X:X+X+XOX{.(.(.Q././.I J D D S D D G G D D D J K Q.].`.'.-X%X%X'.`.K D S N M v c O + # > q i u u 3 +.#.Z.I.U.D.R.R.W.W.E.E.BXpX0XxXsXhXhXdX,X>X>X3X0X=X'.!.!.!.!.].Q.!.].|.|.].!.Q.Q.Q.Q.Q.!.!.].`. X`.!.Q.K J S S G L P .X^.|.`.].Q.K J J J K Q.!.!.!.`.`.'.'.%X%X%X'.'.!.Q.K J D J K ~.^. X'.%X'.^.P K K K Q.Q.!. X X'.'.`.`.`.`.`.`.`.Q.K J J D S D K Q.`.'.%X`.K G D D D J K K J J K Q.(.{.+X+X|.|.|.`.'.'.'.`.'.`.Q.K D D F J '.&X%X'.`.^.~.P P P P K Q.^.|. X%X%X%X-X-X:X-X:X'.`.`.!.Q.Q.K Q.'.%X&X%X*X'.`.!.K J J D D S S S H H H N M v c o @ * 1 r s g z 4 9.s.PXPXf.d.d.",
"7.l.CXCXCXLXKX4.4.4.n.M.&.yXlXfX0X9X|.^.P J D D J K ^. X:X;X&X&X&X%X%X X].~.K J G D D D J K Q.^.K I U U S N N S S J /.{.+X6X6X5XQ.K J J J K Q.Q.].`.'. X'.'.`.!.Q.K Q.Q.Q.^.^.^.^.^.^.^.^.^.^.!.`.`.'.'.`.'.`.`. X'.'.`.!.!.Q.Q.K J J J D G G G L U /.(.{.}.5X-X!.Q.K J J K Q.!.!.!.!.!.!.`. X X+X+X}.{.{.(.Q././.I J D S S S F L J J J J K K Q.].`.'.-X%X'.'.!.J D S N M v O o # # > q i u u 3 +.#.Z.I.U.D.R.R.W.W.E.E.BXpX0XgXsXjXhXdX,X&X&X=X4X*X`.!.!.!.`.].Q.Q.^.|.|.^.!.Q.Q.Q.!.!.!.`.`.`. X`.!.Q.K J S S D G P ~.^.].`.].Q.K J J J K Q.!.!.!.`.`.'.'.'.%X%X'.'.!.Q.K J D J K ~.^. X'.'.`.Q.K K K K Q.Q.^.|. X'.'.`.`.`.`.'.`.`.!.Q.J J D S D K Q.`.'.%X`.K G D D D J K K J K K Q.(.{.+X@X|.|.|.`.'.'.'.'.'.`.!.K J D F J '.&X%X'.`.^.Q.P P P K K Q.^.|. X%X&X%X-X-X-X-X-X`.`.`.!.Q.Q.K Q.'.%X&X%X*X'.`.!.K J J D D S S S H H H N M v c o @ * 1 e s g z 4 9.s.PXPXf.d.d.",
"-.l.CXCXCXLXKXx.4.4.n.M.&.yX8XfX0X:X$X].~.K J J J Q.^.'.-X%X&X&X&X%X-X X].~.J G D D D D J K Q.^.Q./.).U S N N S S D K (.OX+X5X}.Q.K K J K K Q.!.].`.'. X'.'.`.!.Q.K Q.Q.Q.Q.Q.^.Q.Q.Q.Q.Q.Q.Q.^.`.`.`.`.`.`.`.`.'.'.`.`.!.!.!.Q.K K J J D G G G G U K /.{.}.-X-X!.Q.Q.K K Q.Q.!.!.!.!.Q.!.!.|. X+X+X+X{.{.(.Q././.U J D S S S D J K K K K K Q.Q.!.].`.'.'.`.`.Q.D S N M v c O + # # : q i u u 3 +.#.Z.I.U.D.R.R.W.W.E.E.BXpX0XgXdXjXhXdX>X%X%X=X[.[.].!.!.!.`.].Q.Q.~.^.^.^.Q.Q.Q.!.!.!.`.`.`.`. X`.!.Q.K J D S D G P ~.^.].].!.Q.K K J J K Q.!.!.!.!.`.`.'.'.'.-X'.'.!.Q.K J D J K Q.^.`.'.'.`.Q.K K K K K Q.!.|.`.`.'.'.`.`.`.'.`.`.!.Q.K J D D J K Q.`.'.'.`.K G D D D J K K J K Q.Q.(.{.{.{.|.].`.`.'.'.'.'.'.`.!.K J D F J '.&X%X'.`.^.~.P P P J K Q.^.|. X%X&X%X%X%X%X'.'.`.`.!.!.Q.Q.Q.Q.'.%X&X%X*X'.`.!.K J J D D D S S H H S N M v c o @ * 1 e h g z 4 9.s.HXPXf.d.d.",
"-.l.CXCXCXLXKXx.4.2.n.M.&.yX8XlX8X7X:X X^.Q.K K Q.Q.!.`.'.%X%X&X%X%X-X X^.~.P G S S S D J K Q.^.Q.(.(.K D S N S S D U /.(.{.}.`.Q.K K K K Q.Q.!.].`.'. X'.'.`.!.Q.K K Q.Q.Q.Q.Q.Q.Q.Q.Q.Q.Q.Q.Q.`.`.`.`.`.`.`.`.'.`.`.`.!.!.!.Q.K K J J D D D D G J K Q.(.}.-X}.!.!.Q.Q.Q.Q.!.!.!.Q.Q.Q.Q.!.^.|.+X5X+X}.{.(.(././.U D S N N N F K Q.Q.Q.!.Q.Q.Q.!.!.].].`.!.Q.K S N M M v c O + # # : q i u u 7 +.#.Z.I.U.D.R.R.W.W.W.I.MXpX0XgXdXjXhXsX&X'.'.].].^.!.^.!.`.`.`.K K Q.Q.Q.Q.Q.Q.Q.!.!.`.`.`.`.`.'.`.!.Q.K J D S S D P ~.^.!.`.!.Q.K K K K Q.Q.Q.Q.!.!.`.`.'.'.'.-X'.'.!.Q.K J D D J K ^.`.`.'.`.Q.K J J J K Q.Q.].`.`.`.'.'.'.'.'.'.`.!.Q.K J J D J K ^.`.`.'.`.K G D D D J K K K K Q.Q.(.(.{.|.(.^.].`.'.'.'.'.%X'.!.K J G G J '.&X%X'.`.^.~.P P P J K K ^.]. X%X&X%X%X%X'.'.`.`.!.!.!.Q.Q.Q.!.'.%X&X%X*X'.`.!.K K J J D D D D H H S N M v c o @ * 1 e h g z 4 9.s.PXPXf.d.d.",
"-.l.AXCXCXLXKXx.4.4.n.M.&.yX8XzXfX8X1X:X'.`.^.Q.^.^.!.`.'.'.%X%X%X%X'. X^.~.L D N N S S J K ~.|.!.}.{.Q.J S S S S D J I /.(.(.Q.~.P K K K Q.^.!.].`.'. X'.'.`.!.Q.Q.Q.K K K K K K K K K K K K Q.`.`.`.`.`.`.`.`.`.`.`.`.`.!.!.!.Q.K K J D D F S D D K /.!.{.}.'.!.!.!.!.!.!.!.!.Q.Q.Q.K Q.Q.^.].5X5X-X}.}.(.(./.).P G S N B B D K !.`.`.`.`.!.Q.Q.Q.^.^.Q.Q.K J N M M v c O o + # # : q i u u 7 +.#.D.I.U.D.R.R.W.W.W.I.MXpX0XfXdXjXhXsX&X`.!.!.Q.~.^.^.].`.`.`.K P K K K K Q.Q.!.!.`.`.`.`.`.`.'.`.].Q.K J D S S D J P Q.!.!.!.Q.K P ~.Q.Q.Q.Q.Q.Q.!.!.`.`.`.'.-X'.'.!.Q.K J D D J K Q.`.`.'.`.Q.J J J J K Q.Q.!.`.`.`.'.'.'.'.'.'.`.!.Q.K J J D J K ^.`.`.'.!.K G D D D J K K K Q.Q.Q.(.(.{.!.!.^.`.`.'.'.%X%X%X'.!.Q.J J G P '.%X%X'.|.^.~.P J J J J K Q.].'.%X&X%X%X'.`.`.`.!.!.!.!.Q.Q.Q.!.'.%X%X%X*X'.`.!.Q.K J J D G G H H H H N M v c o @ % 1 r h g z 4 9.s.PXPXJXd.d.",
"7.l.AXCXCXLXKXx.4.4.n.M.&.yX8XzXfXfX2X1X;X'.|.].|.|.].!.`.'.%X%X%X'.'.|.^.P L G N N N S D P ^.|.`.-X}.!.K D S S S F G U U K K K ~.~.K K K Q.^.^.].`.'. X'.'.`.!.^.~.~.K K K K K K K K K K K K K ].'.`.`.`.`.`.`.`.`.`.`.`.`.`.!.Q./.K J D S S S D D J Q.(.`.'.'.!.!.`.`.`.`.!.Q.Q.Q.K K K Q.Q.].5X6X;X}.}.{.(./.).U G S N B B F Q.`.'.-X X`.!.Q.Q.Q.Q.Q.K J J S B b v v c O o + X # : q i u u 7 a #.D.I.U.D.R.R.W.W.W.U.MXpX0XfXdXjXhXsX%X!.Q.Q.K K ~.^.|. X}.`.P P J J J K Q.!.!.`.`.`.`.`.`.`.'.`.].Q.K J D S S D J K Q.!.!.Q.K P ~.^.^.^.Q.Q.Q.Q.Q.!.`.`.`.`.%X'.'.!.Q.K J D D J K Q.!.`.`.!.K J J J J K K Q.!.!.`.`.'.'.'.-X%X'.'.`.!.K K J J K Q.^.`.`.`.!.K G D D D J K K K /.Q.Q.(.(.!.(.!.!.!.`.'.%X%X%X:X'.`.Q.K L G P '.%X%X'.|.^.~.P J J J J K Q.!.`.:X&X%X'.'.`.!.!.!.!.!.!.!.^.^.].'.%X&X%X*X'.`.!.Q.K K J J G H H H H H N M v c o @ % 1 r h g z 4 9.s.PXPXJXd.d.",
"7.l.AXCXCXLXKXx.4.4.n.M...yX8XzXzXfXfX2X1X:X X X$X X].!.`.'.'.%X%X'.'.|.^.P L G M M N S J P .X$X'.;X-X{.K D S S F F G L J J J J ).~.~.K Q.Q.^.].].`.'. X'.'.`.!.^.~.~.K K K J J J K J J J J J K ].'.'.'.`.'.`.`.!.`.`.`.`.`.`.!.(./.K J D S S S S D J K !.`.'.'.`.`.'. X X`.!.Q.Q.K K K K K Q.!.;X;X;X-X}.{.(./.).P D S N B B F Q.'.%X:X:X'.!.Q.Q.K K K J J D S B b v c O O + X X # : q i u u 7 +.#.D.I.D.D.R.R.T.W.L.U.MXpX7X,XhXjXhX,X%X!.K K J J ~..X|. X}.`.P L D D D J Q.^.].`.`.`.`.`.`.`. X|.!.Q.K J D S S S J K Q.!.!.Q.K P ~.|.|.^.Q.Q.K Q.Q.!.!.`.`.`.%X'.'.!.Q.K J D D D K Q.!.`.`.!.K J J D J J K Q.!.!.`.`.'.'.-X-X%X'.'.].^.Q.K J J K Q.^.`.`.`.!.K G D D D J K K /.Q.Q.Q.(.(.!.!.Q.Q.!.`.'.%X-X:X:X X`.Q.K P L P '.%X%X'.`.^.~.P J D D J K Q.!.`.-X&X%X'.'.`.!.Q.!.Q.!.Q.!.^.^.].'.%X%X%X*X'.`.!.Q.K K U J L H H H H H S M v c o @ % 1 r h g z 4 9.s.PXPXf.d.d.",
"8.u.CXCXCXLXKXx.A.A.n.B...yX8XfXfXfXfX2X1X;X:X X9X|.].Q.!.!.`.'.%X%X X X^.P L F M M M N D L .X$X'.-X;X{.K D D D D D G J U J J J .X~.~.K Q.~.^.|.].`. X X}.'.`.!.~.P P P K K K J K K K J J J J K ].'.'.'.'.'.`.`.!.!.!.!.!.!.!.!.Q.I K J D S S S D D J K Q.!.`.`.`.`. X X|.].!.Q.K K K J K Q.Q.`.;X;X;X}.{.(./.U U L D S N N N D Q.'.-X7X:X X!.K Q.K K K J J D S N N M v c O O o X # > q a y u 7 +.#.D.I.U.D.R.R.T.Y.L.U.MXpX7X,XdXjXhX,X%X!.Q.Q.J K ~.|.$X+X{.!.~.J J D J J Q.!.].`.`.`.`.`.`.!. X`.(.Q.K D S S N S J K Q.Q.!.Q.Q.Q..X|.|.].!.Q.Q.Q.Q.!.!.`.`.`.-X%X'.!.Q.K J D D D K Q.!.`.`.!.K J D D D J K K Q.Q.!.!.]. X X X X X{.].Q.P P P J P Q.^.`.`.`.!.U G D D D J K /.(.(.(.(.(.Q.Q.Q.Q.Q.!.`.'.-X;X;X:X X].Q.K L G P '.&X%X%X'.`.^.Q.J J J J K Q.Q.`.-X-X'.`.`.!.Q.K K K K Q.Q.~.~.^.`.'.%X'.'.'.`.!.Q.Q.K U U U U H H H H S M v c o @ * 1 r h g z 4 9.s.PXPXf.d.d.",
"0.a.IXSXd.PXKXl.x.w.b.1. .#X+X&X>X>X>X&X%X'.'.`.!.^./.I K K J Q.`.1X8X{.(.oXU N M v v M N S G I 5X6X}.{.Q.K J D S S J K Q.Q.Q.Q./.P J J J K Q.(._.@X@X+X{.`.!.K ).T T U K K K K Q.K J J D D G P !.'.'.%X'.'.`.!.!.Q.Q.Q.Q.Q.Q.Q.U P U J D D D D J K Q.Q.(.{.{.{.`.`.{.(.(.K J D D D J J K !.{.}.6X;X-X{.Q.K D S G G G G D D J J (.(.(.(.(.(.(.(.K K K K J J J J J K P D N v c m o $ > q a y u 7 O.#.I.I.D.D.D.T.J.H.L.U.MXpX0XfXsXdXsX>X&X'.`.!.Q.Q.Q.(.(._._.(.^.Q.K J J K Q.!.].].`.].`.`.`.`.!.!.Q.K J D S S S F J P /.(.!.!.(.(.(.!.!.Q.Q.Q.Q.Q.Q.Q.!.`.+X7X}.;X5X{.Q.J J J D J K Q.!.`.`.!.K D D S S D J J I K I K K K K Q.+X}.|.).).U L G D J K (.{.'.%X`.U F S S D J Q.(.(.!.{.(.(./.K K (.Q.Q.!.5X7X6X-X7X}.(.K D S N D '.&X&X&X%X%X'.`.Q.Q.Q.Q.Q.Q.^.^. X}.{.|.(.Q.I P P U U U U U P K |.|.|.|.|.|.@X@X/././.I K K K J U H H N M v c o @ % 1 r h g z 4 9.s.PXPXf.d.d.",
"9.i.PXf.d.HXHXj.8.x.m.3.uX#X@X'.&X&X&X=X*X'.'.].^.Q.I U J G G J `.8X8X}.(.#XU M M v v v M B F U +X5X}.{.Q.K J D D D K Q.!.`.`.!./.P J J J K /./._.@X@X+X{.!.!.K U T L L U K Q.Q.Q.Q.J D D F F P !.'.'.%X'.'.`.!.!.!.Q.Q.Q.Q.Q.K U L J J J D J J K K Q.Q.(.(.{.{.`.{.{.(./.K D D D D D J K (.{.-X6X;X}.{./.J S N G F G G J K K K (./././././././.K K K K K K K K K Q.Q.J S M v v O $ , w a y u : O.#.Z.I.D.D.D.T.J.H.L.U.MXpX0XfXsXsXsX,X>X&X%X'.`.!.!.!.(./././.!.Q.Q.K K Q.Q.!.].!.!.!.!.!.!.!.!.!.Q.K J D S S S D U I (.(.{.!.{.{.{.!.!.!.!.Q.Q.Q.Q.Q.!.{.+X7X}.5X5X{.Q.J J K D J K (.!.`.`.!.K D D S S D D J U U U U U U U K (.{.(./.P G G F S D I (.}.}.%X`.U F S S D J Q.{.`.`.{.{.(./.K J Q.Q.Q.!.5X7X5X}.7XOX/.J D N B D '.&X>X&X&X%X'.'.!.!.Q.Q.Q.^.^.^._.{.(.(.).U U L D G G D D G G J )._._._.).).).)./.)././.K K K J U H H N M v c o @ % 1 r h g z 4 9.s.PXPXf.d.d.",
"9.i.PXf.d.HXHXj.u.x.N.3.uX#X@X'.&X>X&X%X%X'.`.!.!.Q.K U J D D J `.8X8X}.(.#XU M M v v v M N F U +X-X}.{.Q.K J J J J /.(.{.}.}.`./.U J J J J K /._.@X@X@X{.!.!.K G F G L I /.(.(.Q.Q.K D D F F J !.'.'.'.'.'.`.!.!.!.Q.Q.Q.K K K J G J J J J J J K /.Q.(.(.(.{.{.`.{.{.(./.U D S S S D J K (.{.-X6X;X}.{./.J S S F G G G J J K K /./././././././.K K K K K K K K Q.Q./.K S M v v O $ * w p y u : +.#.Z.I.U.3.D.T.J.H.L.U.MXpX0XfXxXgXgXsX,X>X&X%X'.`.`.(././.I K !.!.Q.Q.Q.Q.!.!.!.!.!.!.!.!.!.`.`.`.!.Q.K J D D D J U )._.{.{.{.{.(.(.(.(.Q.Q.Q.Q.Q.Q.Q.!.(.OX+X}.5X5X{.Q.J J J D J K Q.{.{.'.`.K D D S S D D J J J J J J J J K Q.Q./.K D D S S S D K (.{.}.-X`.U F N S D J Q.!.`.{.{.{.(./.J J /.K K !.+X7X5X}.+X{./.J S N B D `.&X&X&X&X%X'.`.`.!.!.!.^.^.^.^.(.(.(././.U U J S S S S S S S D I /././././././././././.K K K J U H H N M v c o @ % 1 r h g z 4 9.s.HXPXf.d.d.",
"9.i.PXf.d.HXHXj.u.x.S.3.uXwX$X*X&X>X&X%X'.`.!.!.Q.Q.K J D D S J `.8X8X}.(.#XU M M v v v M N F U {.}.{.!.Q.K J J J K /.(.+X+X-X{.K J D D D J K K _.@X@X@X{.!.Q.K S N F G I )._._.(.Q.K D D S S G !.'.'.'.'.'.`.!.!.^.Q.Q.K K K J J G J D J J J J K /.Q.(.{.{.{.+X`.{.(.(./.U D S S S D J K (.{.}.5X;X}.(./.J D S F F D D J K K K /./././././././.K K K K K /././.Q.(._.U S M v v O $ * w a y u : +.#.Z.U.P.2.D.T.J.H.L.U.MXpX0XfXxXkXxXgXsX2X>X;X:X}.{.(.Q.K K K Q.!.Q.Q.Q.Q.!.!.Q.Q.!.!.!.!.!.`.{.}.{.(./.K J J J U /._.OX+X}.}.{.(.(.(.(.Q.Q.Q.Q.Q.Q.Q.Q.(.@X+X}.5X5X{.K J J J D J K (.{.{.}.`.K D D S S D D J J J J J J J J J K K K J D S N N S D K (.{.}.;X{.L N N N S J Q.!.{.{.{.{.(.K J J K K K Q.{.7X5X}.+X{./.J S N M S `.%X&X&X%X%X'.`.`.`.!.^.^.^.^.^.(.(././.K K J J S S N N N N N N J K K K K K K K /././././.K K J U H H N M v c o @ * 1 r h g z 4 9.s.PXPXf.d.d.",
"9.i.PXf.d.HXHXj.l.x.D.3.uXwX$X:X=X>X=X%X'.`.!.Q.Q.K K J D S S D !.6X7X{.(.#XU M M v v v N S G I {.}.{.!.Q.K J J J U )._.@X+X5X{.K G D D D J J K _.@X@X@X{.(.Q.K S N S G I _.@X@X(./.K J D S S D !.'.'.'.'.`.`.!.!.^.Q.Q.K J J J D D D D J J J K /./.(.(.{.{.+X+X!.{.(.(.).U D S S S D D K Q.{.+X5X-X}.(./.K D S D F D D J K K K K K K K K K K K K K K K /./.)._.(.|.@XI D M v v O $ * w a y u 7 +.#.Z.P.V.1.D.L.H.H.L.U.MXpX9XlXxXkXxXgXgX2X2X7X7X7X{.Q.K J J K Q.!.!.!.!.!.!.!.Q.Q.Q.Q.!.!.!.`.}.}.}.{.(./.K J K K (._.+X5X5X}.{.(.(.(.(.Q.Q.Q.Q.Q.Q.Q.Q.(.@X$X}.5X+X{.K J D J D J K (.{.{.}.{.K D D S S D D J J J J J J J J J J J J D S S N N N D K /.{.}.-X{.G N N N S J Q.!.}.+X+X{.(.K J D J J J K {.@X+X{.{.(.K D S N M S !.%X%X%X%X'.'.`.'.`.].!.^.^.^.^././././.K K J J S S N N N M M N J J J K K K K K /./././.K K K J U H S N M v c o @ % 1 r h g z 4 9.s.PXPXJXd.d.",
"9.i.PXf.d.HXHXj.l.x.D.U.uXeX$X:X<X>X&X%X`.!.Q.K Q.K J J D S S D !.6X7X{./.#XT M M v v M N S G I !.`.`.(./.K U U J U )._.@X+X}.{.J D S S S D J J oX#X@X@X(.(.Q.K S N S G I _._.@X{.(.K J S N N S !.`.'.'.'.`.!.!.].^.~.Q.K J J D D S D D J J K K /./.(.(.{.@X@X+X!.(.(.).I J D S S S S D J Q.{.+X5X}.{.(.Q.K J D D S D D J K K K K K K K K K K K K K K /./._._.@X|.$X$X).D M v v O $ * w a y u 7 a #.V.P.1.1.D.S.H.H.L.U.MXpX9XlXgXgXgXgXgX2X2X7X0X7X`.Q.K J K K Q.!.!.].].!.!.Q.K K Q.Q.Q.!.!.`.-X;X}.{.(.Q./.K K /.(.+X5X5X6X5X{.(.(.Q.Q.Q.Q.Q.Q.K K K Q.(._.@X{.+X+X{.K D D J D J /.(.OX}.}.{.K D D S S D D J D D D D D D D D J J D D S S S S N D J Q.{.+X+X@XD B N N S J K !.+X+X+X{.Q.K D S J D D K (.OX{.(.{.(.K D S N M S !.'.'.%X'.'.`.`. X X|.].^.!.^.Q././.K K K K J J D S S N N M M N J K K K K K K K /./././.K K K J U H H N M v c o @ % 1 r h g z 4 9.s.PXPXJXd.d.",
"9.i.PXf.d.HXHXj.l.x.D.U.uXeX$X:X<X>X&X%X`.!.Q.K Q.K J D D S S D Q.5X9X{./.#XT M M M M M N S L ).(.`.!.Q./.I U U D J I ).(.{.{.(.J S S S S D D J oX#X#X@X(.Q.Q.J S S D J I /.(.{._.(.K J S N N S Q.`.`.`.|.].^.Q.|.^.~.P J J D D S S D D J K I /./.(.(._.@X+X+X+X!.(.(./.U L F S N S S D J /.(.OX+X}.{.(.Q.K J D D D D J J U U I K K K K K K K K K K K /.).oX$X$X@X$X$X).D M v c O $ * w a y u 7 a O.V.V.1.2.N.S.H.H.L.U.MXpX0XfXsXsXsXsX3X3X3X1X7X-X!.K J K I /.Q.!.].|.|.].!.Q.J K K Q.Q.!.!.`.5X6X-X}.{.(./.K /./.OX+X7X6X6X5X{.(./.Q./.Q.K K K K K K Q./._.@X{.+X@X(.K D D J D J I _._.OX}.{.J D D S S D D J D D D D D D D D J G D D D S S S N S J /.(.@X+X@XS N M M S D K Q.+X+X+X{.Q.K D S D S S J /.{.(.(.(.Q.K D S N M N !.`.'.'.'.`.`.!. X$X X|.].!.!.Q.K K K K K K J J J D S S N N M N U K K K K K K K /./././.K K K J U H H N M v c O @ % 1 r h g z 4 9.s.PXPXJXd.d.",
"9.i.PXf.d.HXHXj.l.J.L.U.uXiX9X:X<X>X&X%X`.!.K J K K J D S S N S Q.5X9X(.).#XT M M M M M S D U /.(.!.(.Q.K U U U S D U /.(.(.{.Q.D S N N N S D J ).oX#X#X_.Q.K J D F G L I /.(.(.@X(./.J S N N S Q.`.`.|.|.^.^.Q.|..X~.P J D D S S S D D J U I /.).(._._.@X@X$X$X(.(./.).U G S N N N S D J /.(.OX+X{.{.!.Q.K K J D D D D J U U U K K K K K K K K K K K /._.#X$X$X$X$X$X).D M v c O $ , w a y u : i O.V.V.1.1.2.A.H.H.L.U.MXpX9XfX,XsXsX,X,X2X1X1X7X}.!.K J K /.oXQ.!.].|. X].!.Q.J J K Q.Q.!.!.`.5X6X;X}.{.(./././.(._.+X7X6X6X5X(./././.K K K K K K K K K /.oX@X{.+X@X(.J D D G G J I oX_.@X{.{.J D D S S D D J D D D D D D D D L G G D D D D D N S J /._.@X@X#XF N M M S D K Q.7X+X+X{.Q.K D S S N N D I _.(.Q.(.Q.K D S N M N Q.`.`.|.|.].!.!.$X X$X|.].!.!.Q.U U K K K K K K K J D S N B B B U /././././././././././.K K K J U H H N M v c O @ * 1 r h g z 4 9.s.PXPXf.d.d.",
"9.p.f.p.s.PXHXy.8.x.N.3.uXeX9X:X&X>X&X=X*X'.`.].^.Q.J D S S S J (.!.(./.K L G F F F F F D J J K Q.Q.K J D S S N D G J K /.(.{.(.D N N N N S D D J J J K K K K J S N S D J K Q.(.(.Q.K D D S S D Q.!.].].].^.Q.Q.K J J D D G G D S S D D J J K /.).(.(.(.{.{.{.{.Q./.K U L G G F B N S D J K /.Q.{.{.{.{.(.(.(././.I J D D S D D J J K K K K J J ).).).).).).).(.@X|./.K D N v c O $ * w a y u 7 u a ( _ _ _ 2.L.J.J.G.P.X.eX7X3XgXdXsXsX,X>X&X&X%X}.!.Q.Q.K I /.Q.Q.!.!.!.!.Q.Q.K K K Q.Q.Q.!.!.-X-X}.`.(.Q.K K K K Q.(.`.}.-X}.Q.K K K K K K K K K K K K K K K (.(.Q.K J D S S S D U I _.(.(.(.K J D D D D J U J J U U U J D S G N N S G U J D I K K K K /./.).S N S S J K (.{.{.}.}.{./.K J S N M N S D J K Q.K K J D S S N S ~.^.Q.Q.^.^.|.$X|.|. X|.].!.Q.K D D J K K Q.Q.Q.(./.J S M v c v D J K K K K J J K K K K K K K J U H H N M v c o @ * 1 r s g z 4 9.s.PXPXf.d.d.",
"9.p.f.p.s.PXHXy.u.x.N.3.uXeX9X:X&X>X&X=X*X'.`.].^.Q.J D D S S J Q.(.Q.K U G G F F F F D D J K K Q.Q.K J D S N N F D G U K /.(./.D N N N N N S D D J J J K K K J S N S D J K Q.(.(.Q.K J D S S D Q.!.^.].^.^.Q.K J J D G G D D D S D D D J J K /.K /.Q.Q.(.(.(.(.Q.K K U G G F F M B S D J K /.Q.(.(.(.(.(.{.{.(.(./.K D D S S D J K K /./.K K K K K K K K K K Q.|._./.J D N v c O $ * w a y u : u a ( _ _ <.2.L.J.J.G.P.X.qX0X3XsXdXsXsX,X>X&X%X%X}.!.Q.Q.K I /.Q.Q.!.!.!.!.!.Q.K K Q.Q.Q.Q.!.!.}.}.{.!.Q.K J J J J K Q.!.{.}.}.K J J J J J J J J J J J J J J K Q.(.Q.K J D S N S F L I ).(.(.Q.K J J D D D J U J J U U U J D S N M M N G U U J )./.K J J J U U S N S S J K (.{.{.}.}.{./.K J S M v M N S J K K K K J J D S S S J J J J J K Q.^.].|.|.|.].!.Q.K S S D J Q.(.!.{.{.Q.J S M v c v D K K /./.K K K K K K K K K K J U H H N M v c o @ * 1 e s g z 4 9.s.PXPXf.d.d.",
"9.p.f.p.s.PXHXy.8.x.N.3.uXeX9X:X&X>X&X=X*X'.`.].^.Q.J D D S D D /.Q.Q.K J G F F F F F D J K K Q.Q.Q.K J D S N N S F D J K /.(./.F B N M M N S D D D J J J J K J S N S D J K Q.Q.(.Q.K D D S S F K Q.^.^.^.~.K K J D G D D D F D S S D D J J K /.J K K K Q.Q.Q.Q.Q.K K J G F F F M B N F D J K /.K K /.(.(.{.+X+X(.Q.K D D S S F K /./.).)././.K J J J J J J J K (.(./.J D N v c O $ * w a y u 7 u a ( _ _ _ 2.L.J.J.G.P.iXeX0X3XsXsXsX,X,X>X&X%X-X}.!.Q.Q.K I /.Q.Q.!.!.!.!.Q.Q.K K Q.Q.Q.Q.!.!.{.{.!.Q.K J D D D D J K Q.!.{.{.K J J J J J J J J J J J J J J K Q.Q.Q.J D S S N S F G U )./.(.Q.K J D D D D J U J J U U J D D N M c v M G T U I oX).I J D D D F S N S S J K (.{.{.}.}.{.(.K J S v v M N S D J K K K K K J G G G S S S S S D J K ^.].].].].!.Q.J N N S J Q.(.}.}.{.(.K S M v c v J /./.).)././.K K K K K K K K J U H S N M v c o @ * 1 e h g z 4 9.s.HXPXf.d.d.",
"9.p.f.p.s.PXHXy.8.x.N.3.uXeX9X:X&X>X&X=X*X'.`.].!.Q.J D D S D D K Q.K J D D F F F F D D J K K Q.Q.K J J S N N M N S S D J K Q.I F B M M M N S F D D D J J J J J S N S D J K Q.Q.(.Q.K D D S S F K Q.Q.^.~.~.K J J G D D F F F F S S D D J J K /.J K K K Q.Q.Q.Q.K J J G F F B B b B N F D J K K J J K Q.{.{.+X+X{.(.K J S S N F I /._.oXoX_././.K J J J K K K K (.Q.K J D N v c O $ * w a y u 7 7 a ( _ _ <.2.L.J.J.G.P.iXeX0X3XsXsXsX,X>X>X&X%X%X}.!.Q.Q.K I /.Q.Q.!.!.!.!.!.Q.K K Q.Q.Q.Q.!.!.!.(./.K J D F S S F D J K /.(.Q.J J J J J J J J J J J J J J J J /.Q.K J D S N N N S G U )./.(.Q.K J D D D D J U J J U U J D D N v O c M T T ).).#X_.I J D S N N N N S S J K (.{.{.}.}.{.(.K J S v c v M N D J K /././.I U L G G N N N N N S D J ^.^.^.].!.!.Q.J M M S D /.{.5X5X}.!.K S M c O c U /._.oXoX_././.K K K K K K K J U H S N M v c o @ * 1 e h g z 4 9.s.PXPXf.d.d.",
"9.p.f.s.s.PXHXy.8.x.N.3.uXeX9X:X=X>X&X=X*X'.`.].^.Q.J D D S S D J K J J D F S N F F D D J K Q.Q.Q.K J D S N M M N N S D J K K K S B M M M N S F D D D D J J J D N N S D J K Q.Q.(.Q.K D S S S F J K Q.Q.~.P J J D G D D F F F F S S D D J J K K K K Q.Q.Q.Q.!.Q.K J J D S N B B M B N F D J U I D D J Q.!.}.+X5X{.!.K J S N B S U /._.oXoX_././.K K K K K K K Q.Q.Q.K J S N v c O $ * w a y u 7 7 a ( _ _ <.2.L.J.J.Z.P.iXeX7X2XsXsX,X,X>X&X&X%X%X}.!.Q.Q.K I /.Q.Q.!.!.!.!.Q.Q.K K Q.Q.Q.Q.!.Q.Q.K K D D N B M M B N S J K K K J D J J J D J J J D J D J D J J /./.K J D S N N N F G U U /././.K J D D D D J U J J U U J D D N c O O M T T ).)._.).K J S N M M N N S S J K (.{.{.{.}.{.(.K J S c O m M B S J J /./.I U U L L G N N N N S D D J ~.^.^.!.!.Q.Q.J M v N D Q.{.5X6X}.`.K D M c + c U /._.oXoX_././.K K K K K K K J U H H N M v c o @ % 1 r h g z 4 9.s.PXPXf.d.d.",
"9.p.f.s.s.PXHXy.8.x.N.3.uXeX9X:X=X>X&X=X*X'.`.].^.Q.J D D S S D J J J D S S N N F F D J K K Q.Q.Q.K J D S N M M M N N S D J K J S B M M M N N S F D D D D J J D N N S D J K Q.Q.(.Q.K D S S S F J K K Q.P K J D G D D F F F F F S S D D J J K K K Q.Q.Q.(.(.(.Q.J J D S N B B b b b B S D J U U D D J Q.(.{.}.}.}.!.Q.J S N B N U /./.).)././.K K K K K K K K /.K K J D S N v c O $ * w a y u 7 7 a h _ _ _ 2.L.J.J.Z.P.iXeX7X2X,XsX,X,X>X&X%X%X-X}.!.Q.Q.K I /.Q.Q.!.!.!.!.Q.Q.K K Q.Q.Q.Q.!.Q.K J D S N M v v v v M N D D J J J D J D J D J D D D D D D D D J /./.K J D S N B B F G U U )././.U J D D D D J U J J U U J D D N m O O v T T )./././.K D S N M M N N S S J K (.{.{.{.}.{.(.K J S c + m b B S D J K K K K J G G G N N N N S D J K Q.Q.^.!.!.Q.Q.J M M N J Q.{.-X;X}.`.K D M c + c G /./.).)././.K K K K K K K K J U H H N M v c o @ % 1 r h g z 4 9.s.PXPXf.d.d.",
"9.p.f.s.s.PXHXy.8.x.N.3.uXeX9X:X=X>X&X=X*X'.`.].^.Q.K D D S S D J J D D S N N B S F D J K Q.Q.Q.Q.K J D S N M M M M N S D J K J S B M v M M N S F D D D D J J D N N S D J K Q.Q.(.Q.K D D S S F J K K K K J J D G D F F F F F F S S D D J J K K J K K K Q.Q.Q.K J D D S N M b b b b B F D J U U J J K K !.!.`.`.}.`.Q.J S N B N D K K /./.K K K J J J J J J J K K J J D S N v c O $ * w a y u 7 u a h _ _ _ 2.S.J.J.Z.P.X.qX7X2X,X,X,X>X&X&X%X'.%X}.!.Q.Q.K I /.Q.Q.!.!.!.!.Q.Q.K K Q.Q.Q.Q.!.Q.J D D N M v v m c c v M S D D D D D D D D D D D D D D D D D D J K /.K J D S B M B F G U U )././.U J D D D D J U J J U U U J D N b + c b F U I K K K J D S N B B N N S S J K (.{.{.{.}.{.(.K J N c + m b M S D J J J J J D D S S N N N N S S J K Q.Q.^.!.!.Q.K D N M S D Q.`.'.-X-X`.K D M c + c D K K /./.K K K K K K K K K K J U H H N M v c o @ * 1 r h g z 4 9.s.PXPXf.d.d.",
"9.s.f.s.s.PXh.y.7.w.N.3.uXeX$X:X1X>X>X&X%X'.'.`.(./.J D D S S D D J D D S S N N F D D J K K Q.Q.K K J D S N N M M N N S D J K J F B M M M N S F D D D D D J J D S S D D J K /./.(./.K D D S S D D J K K K J J D D D D D F D F D S S D D J J I I D D D J J J J J D S S N N M M b b b B N F G L U G D J J K K Q.Q.(./.K D S N B N S J J J J J J D D D D D S S S D D D D S N M v O o $ > q a y u 7 8 a ( _ s j c.J.J.J.Z.P.uXiX9X8X>X,X,X>X&X%X'.'.}.{.(.K K K I I K Q.Q.(.(.!.Q.Q.K K K K Q.Q.Q.Q.J D S S N M v v v v M N S S D D D D D D D D D D D D D D D D D J I K K J D S N N N S G U U )././.U J J D D D J U J J U U J J D N B b v B G U K J J J D S S S N F S S S D J K /.(.{.OXOX(./.K J S v c v M B S D J D J D D D D S S N N M M N S D J K Q.Q.Q.Q.K K D S B S D K Q.(.!.{.(.J S M c O c S J K K K K J J K K K K K K K J Y Y H B n c O @ X * 1 e g g z 4 9.s.PXPXf.d.d.",
"9.s.f.s.s.PXg.9.t.F.V.3. .wXoX{.8X8X8X8X6X5X+XOX@X_./.I J H H U J I I J J J J J J J J I I I I K I I I J J J D H H H J J I I I I J D D H H H J J J J J J J J J J J J J J I I I I K J J I J J J J J J J J J J J J J J J J J J J D U L U H D D D D S S S S S S D S M M M v v v v v M M M M M M M N M M N N N S S S N M M M M v v v M N N N N N N N N N N N N N N N M n v v c O @ @ X X & 0 u u u y e _ ' ` l f q.w.F.G.D.U.NXuXrXtX6X8X8X8X}.`.!.{./.K I J G G G G J K K K K K K K K K K K K K K J I J J J D D G H H H H D J J J J J J J J J J J J D D D D D D D D D D D D D D D D S S D D D D D D D D D D D D D D J J I J I J I J N N N S S S S D D D D S S S S S D D D D D J J J J J J J D D D D S S S S S D D D J J J D D D D D D D D D D D D D J J J K K K K J F B F F F G D D N N M M v v c v H J J J J J J I I I I I I J J H H A A A A % @ X X X & 2 9 d u 5 9.s.PXPXf.d.d.",
"y.s.JXs.s.g.a.0.w.F.V.3. .wXoXOX8X8X8X6X5X5X+XOXoXoXI H D S H H D D D D D D D D D D D D D D D D D D D D D D D D D D D D D D D D D D D D D D D D D D D D D D D D D D D D D D D D D D D D D D D D D D D D D D D D D D D D D D D D H H H F S S S N N N N N N N N M M v v v v v v v M M M M M M M M M M M M M M M M v v v v v v v v v v v v v v v v v v v v v v v v n A A A m % % = X .   0 u u u d r [ ] ` f f +.w.J.K.I.U.NXNXrXrX5X8X8X5X{.Q.Q./.J J D S S N B N D D D D D D D D D D D D D D D D D D D D D D D D D D D D D D D D D D D D D D D D D D D D D D D D D D D D D D D D D D D D D D D D D D D D D D D D D D D D D D D D D D D D D D D D D D D D D D D D S S S S S S S S D D D D D D D D D D D D D D D D S S S S S S S S S S S S S S D S D D D D D D D D N B B B B B B B v v v v v v v M D D D D D D D D J J J H D D D S A A A m % % = = X .   0 u z u 5 9.s.PXPXf.d.d.",
"y.s.JXs.j.g.z.7.w.C.V... .~ oXoX5X6X5X5X+XOX(.oXoXI H S N N B B N S S S S S S S S S S S S S S S S S S S S S S S S S S S S S S S S S S S S S S S S S S S S S S S S S S S S S S S S S S S S S S S S S S S S S S S S S S S S S S N S N N N N M M M M v M M M M M v v v v v v v v v b b n n n n n n b b n n n n n n v v v v v v v v c c c c c c c c c c c c c c c c A A A A A % % = = = & 0 u z u d ^ _ <.` l +.q.w.H.L.I.U.NXuXrXrXOX5X5XOX/.K J I D S N N M M b M N S S S S S S S S S S S S S S S S S S S S S S S S S S S S S S S S S S S S S S S S S S S S S S S S S S S S S S S S S S S S S S S S S S S S S S S S S S S S S S S S S S S S S S S S S S S S S S S N N N N N N N N S S S S S S S S S S S S S S S S N N N N N N N N N N N N N N N N S S S S S S S N M b b b b b b b v v v v v v v M N S S S S S S S S S S S S N N N A A A m % % = X = = & 0 9 y u 5 9.s.PXPXJXd.d.",
"y.s.JXs.j.g.z.7.w.n.V... .~ #XoXOX+XOXOXoXoXI Y Y H S N M b n n M M M M M M M M M M M M M M M M M M M M M M M M M M M M M M M M M M M M M M M M M M M M M M M M M M M M M M M M M M M M M M M M M M M M M M M M M M M M M M M M B n M b v v v c c c c c c c c c c O m m m c c c V V V V V V V V V V V V V V V V O O m m m c c c O O O O O O O O O O O O O O O O m A A m % % = = = & 2 9 9 d u y _ ` <.c.l +.q.w.Y.L.I.U.3.uXrXrXoXOX@XoXI D D H N M M b b m m m M M M M M M M M M M M M M M M M M M M M M M M M M M M M M M M M M M M M M M M M N N N N N N N N M M N N M M M M N N N N M M N N N N N M N N N N M M M M M M M M N N N N N N N N N N N N N N N N M v M M M M M M N N M M M M N N N N M M M M N N M v M M M M M M M v M M M M M M M M M M M M M M v m m m m m m m O O c c m m c c M M M M M M M M B B B M M M M v A A m % % = = X = = 2 0 9 d u 4 9.s.PXPXJXd.d.",
"y.s.JXs.s.g.z.7.w.q.v.....} ~ oX#XoXoXoXY Y Y T T A A n m b V V m n n n n n n n n n n n n n n n n n n n n n n n n n n n n n n n n n n n n n n n n n n n n n n n n n n n n n n n n n n n n n n n n n n n n n n n n n n n n n n m V V V V m @ O O O O O O m O m O + + + + + + + + + + + + + + + + + + + + + + + + + + + + + + + + + + + + + + + + + + + + + + + @ % % % % % = = = & 2 0 9 d d z 9 _ ] N.c.O.+.q.w.H.L.I.U.3.3.uXrXY #XwXY H S N B n n m m m $ $ $ m n n n n n n n n n n n n n n n n n n n n n n n n n n n n n n n n n n n n n n n n m n n n n n n b b n n b b m n b b b b b b n n b b n n n n n n n n n n n n n n b b b b b b b b b b b b b b b b c c c c c c c v n b b b n n n n n b b b n n n n c c c c c v v c c c c c c c c c n n n n n n n b m $ $ $ $ $ $ $ + + + + + + + o m n n n n n n n A A n n b b v c A A A % % = = = & 2 0 9 d d u 4 9.s.PXPXf.d.d.",
"y.s.JXs.s.g.z.7.w.q.v.] ..} ~ ~ wXwX~ ~ ~ ~ ~ ~ { ! Z Z C C Z Z C C C C C C C C C C C C C C C C C C C C C C C C C C C C C C C C C C C C C C C C C C C C C C C C C C C C C C C C C C C C C C C C C C C C C C C C C C C Z C C C C Z Z Z * * $ $ $ $ $ $ $ $ $ $ $ # # # # # # # # $ $ $ $ $ $ $ $ $ $ $ $ $ $ $ $ # # # # # # # # $ $ $ $ $ $ $ $ $ $ $ $ $ $ $ * % % % % % = = = 2 2 9 d d d d 9 _ <.N.M.O.+.q.F.G.K.D.U.3.3.3. .~ ~ } ~ A A A Z C C C * * * * * C C C C C C C C C C C C C C C C C C C C C C C C C C C C C C C C C C C C C C C C m m m m m m m m m m m m @ @ m m m m m m m m m m m @ m m m m m @ C C C C C C C C m m m V V V V V V V V V m m V m m m m m m m m m m @ @ @ m m m m m @ @ @ m m m m m m m m m m m m m m m m m m m m C C C Z C C Z C * * * * * * * * # # # # # # # + C Z C C C C C C Z Z Z Z C C m V ! ! ! ! 1 * * = 2 2 9 d d d y 4 9.s.PXPXf.d.d.",
"y.d.JXs.s.g.z.7.w.q.c.] ..{ { { } } } { { { { / / / ^ R R R R E R R R R R R R R R R R R R R R R R R R R R R R R R R R R R R R R R R R R R R R R R R R R R R R R R R R R R R R R R R R R R R R R R R R R R R R R R R R R R R R , E , , , > > > > > > > , > , , , > > > > > > > > , , , , , , , , , , , , , , , , > > > > > > > > > > > > > > > > > > > > > > > , ! ! ! ! ! 1 1 t 2 t 9 d g d y 9 ` <.N.b.q.O.q.F.n.m.B.P.3.3.3.3.{ o.o.{ ! Z Z ^ R R , , > > > , , R R R R R R R R R R R R R R R R R R R R R R R R R R R R R R R R R R R R R R R # # # $ $ $ $ # $ $ $ $ $ $ $ $ $ $ $ $ $ $ $ $ $ # # # $ $ $ $ R R R R R R R R E E E E E E E E E E ^ E E E E E * * * * * * * * $ $ $ $ $ $ $ $ $ $ # $ $ $ $ $ * * * * * * * * * * * * * * * * R R R R R R R , , > > > > > > > > > > > > > > > , R R R R R R R E E E R R * * * ! ! ! ! ! 1 1 1 2 t 9 d g d y 4 9.s.PXPXf.d.d.",
"y.d.JXs.j.g.z.7.6.q.#.] ] | { { ........[ / ) ) ] ( ( w w w w ^ w w w w w w w w w w w w w w w w w w w w w w w w w w w w w w w w w w w w w w w w w w w w w w w w w w w w w w w w w w w w w w w w w w w w w w w w w w w w w w w w p a a q q 8 > > q q q q q q q q a a a a a a a a p ( ( p p p k p p ( ( ( p p p p a a a a a a a a q q q q q q q q q q q q q q q w _ _ _ _ _ _ _ _ t 9 9 g g d y 9 ` <.N.m.q.O.q.G.q.M.N.D.3.3.3.3.......] ^ ^ ^ ( w w q q q q q q w w w w w w w w w w w w w w w w w w w w w w w w w w w w w w w w w w w w w w w w & & & & & & & & & & & & & & & & & & & & & & & & & & & & & & & & w w w w w w w w ( ( ' ' ' ' ( ( ' ' ' ' ( ( ( ( , , , , , , , , & & & & & & & & & & & & & & & & , , , , , , , , , , , , , , , , w w w w w w w w q q q q q q q q a a a a a a a p w w w w w w w w ^ ^ ^ w w w , t _ _ _ _ _ t t t t 9 e g g d 9 4 9.s.PXPXf.d.d.",
"y.JXIXHXj.z.z.r.w.q.c.$.] ] ....U.P.P.] ] ) ( ( t w t t q q q q q t t t t t t t t t q q t t t t q q q t t q q q p p p p p p r r t q q q q q q q q q q q t t t t q q q q t q q q q q q q t t q t q q q q q q q q q q q q q t t q y 8 8 8 8 8 8 8 8 8 8 8 8 8 8 8 8 8 8 8 8 8 8 8 h h h h l l l l l l l l a h h h i i i y 8 8 : : y y y y y y y y 8 8 8 y y y y q r _ r r r r r e e e e 9 9 9 9 9 ` <.b.m.c.O.M.G.n.m.b.N.1.1.1.] 1.$.' ' ( r q q q 8 q 8 8 8 u 8 a q q q 8 q q p ' p p q q e p p q r p p p p p p : : q q q q p p p r q q q q q : : : : : & & : : : : : : : : : : : : : : : : : : & & & & : : : : p q q t q p ' ' ' ( ( ' ' ' h p ' ' ' ' p p p p p p q q q q q : & : : : : : : & : : : : : : : : : : q r p p q q q q t t t t t t t t q p p p p l q q y y 8 8 8 8 l a i y y y i a q t t q q t t t t t q q q t t t _ _ _ _ _ s s s t 9 e g g d 9 4 9.s.HXPXf.s.d.",
"y.LXIXJXj.z.z.r.w.n.M.#.$.$.$.] V.V.v.' ' ( h p 8 8 8 8 8 8 8 8 8 8 8 8 8 8 8 8 8 8 7 7 8 8 8 8 0 0 0 7 7 8 8 8 e e e 9 9 9 8 8 9 9 9 9 9 9 e e e 9 9 9 9 9 9 9 8 8 8 7 0 0 0 0 7 7 7 7 8 8 8 8 g g g g g g g g i a i a g g g l 7 7 7 7 7 u 7 7 7 7 7 7 7 7 7 7 7 7 7 7 7 7 7 7 i y i i a a d d l l l l l l l l d y y y y 8 7 7 y y y y y y y y y y y y y y y 9 e r r r r e e e e e 9 9 9 9 9 9 j <.b.m.c.O.M.G.m.m.b.v.<.<.1.] v.M.#.k h i y y 7 7 7 7 7 7 7 7 9 8 7 0 0 8 8 9 a i 9 8 8 8 9 i 9 9 9 9 e e i e : 0 0 7 8 8 9 e 9 9 8 8 7 0 : :                                                           : : : 9 8 8 8 8 i g l g g a a a a a a l h h g i i e 9 e 9 8 8 7 0 : :                                   : 0 9 9 9 8 7 8 8 8 8 8 8 8 8 8 8 8 9 i i i a 8 8 7 7 7 7 : 7 y y y 8 7 8 y y 8 8 8 8 8 8 8 8 8 8 8 8 8 8 8 8 r r r r r e e e 0 0 0 9 9 9 7 6 9.s.HXPXf.s.d.",
"y.LXIXJXh.z.z.r.w.n.M.#.#.$.$.$.v.M.c.` h h h h 8 8 8 8 9 8 8 8 8 8 8 8 9 9 8 9 7 7 7 7 7 7 7 7 0 0 0 0 0 0 0 0 8 8 8 8 9 9 9 9 y y y y y i i i y y y y y y y y 0 0 0 0 0 0 0 0 8 8 8 8 9 9 9 9 0 0 : : : : : : 0 0 0 0 : : : - 7 7 7 7 u u u u u u u u u u u u 7 7 7 7 7 7 7 7 y y y y y y y y O.O.O.O.O.O.k k l d d g y y y y y y y y y y y y y y y y y y y y d r r r g g d d d e e e g d g g j ,.m.m.c.q.M.G.m.m.m.b.v.v.<.<.c.c.O.O.l d y y 7 3 3 3 7 3 3 7 7 8 8 8 8 8 8 8 y 9 8 0 7 8 9 i y y 9 9 9 9 9 9 0 0 7 8 9 9 y y 9 9 9 8 7 0 : :                                                           - - : 9 8 8 7 8 y g l g g g g g i i g l l g i y 9 9 9 y 9 8 8 7 0 : :                                   - 7 9 9 9 8 8 8 7 8 7 7 7 7 7 7 8 8 9 y i i g y y y 7 7 7 - - y y y 9 y y y y 7 7 7 7 7 7 7 7 7 7 7 7 7 7 7 8 e e e e e e e e 0 0 0 0 0 0 0 6 9.s.HXPXf.s.d.",
"y.LXIXHXh.z.z.x.w.n.M.M.#.%.%.#.m.m.m.M.c.c.O.k l l l l l l h l l l l l l l l l g d g d g d g d g d y 9 9 9 9 0 y d g d g g l l g d g d g g g d g d g d g d g d 9 0 9 9 9 d d d l l l l l l l l 9 9 9 9 9 9 9 9 g d y 9 9 9 9 0 f f f f f f f f f f f f f f f f d d d d d d d d l l l l l l l l O.O.O.O.O.O.O.O.k k l l l g d d d d d d d d d d d d d d d d d g g g g g g g g g g g g g g g g g j c.m.m.c.c.M.K.S.B.m.m.m.M.M.M.q.q.q.q.O.l f f f f f f f f d d g g l l k l g g g d y 9 d g l k k k k l l g g g g d g g l l k k l l l g g y 9 9 0 0 0 0 0 0 0 0 0 0 0 0 0 0 0 0 0 0 0 0 0 0 0 0 3 3 0 0 0 0 9 9 l g g d g l k q.k k k k k k k k O.O.k l l g g d l l l g g y 9 9 0 0 0 0 0 0 0 0 0 0 0 0 0 0 0 0 0 9 g g l l l g g d g d g d g d g g l l k k k k k l l g y 9 u 0 d g l l k k l l d d g d g d g d g d g d g d g g l l l l j k k k g g 9 9 9 9 9 5 9.s.HXPXf.s.d.",
"e.LXIXJXj.z.z.x.w.n.C.C.#.#.#.%.H.H.K.G.G.G.m.m.M.M.m.M.M.M.M.M.m.M.m.M.M.M.M.M.c.c.c.c.c.c.c.c.c.q.k k k l l g k k k ;.c.c.M.M.l l l l l l l l l l l l l l l l g g l k k ;.,.c.M.M.M.M.M.M.M.M.R.R.L.L.R.R.R.R.E.E.R.R.L.L.L.L.n.q.n.q.q.q.n.q.q.q.q.q.n.q.n.n.q.c.c.c.c.c.c.c.M.M.M.M.M.M.M.M.c.c.c.c.c.c.c.c.c.c.,.k k j j l l l l g l l l l g l l l l l l l g l g g g g l l g l l l l l h h k c.m.m.c.c.m.K.K.K.G.m.m.n.n.q.q.q.q.q.q.q.q.O.q.q.q.q.q.q.q.q.q.M.m.m.m.m.M.c.k k k k k c.m.m.m.m.m.M.M.c.c.;.c.c.M.M.m.m.m.m.M.M.M.c.,.;.k k l l l l l l l l l l l l l l l g l l l l l l l l d d g g l k k k M.c.c.c.c.M.m.K.m.m.m.m.m.m.m.m.m.m.m.M.M.c.c.q.M.M.c.c.,.;.k k l l l l l l l g l l l l l l l l l k q.c.M.M.M.c.c.c.c.c.c.c.c.c.c.c.M.M.m.m.m.m.m.m.M.c.,.k l g k ;.M.m.S.m.m.m.c.c.c.c.c.c.c.c.c.c.c.c.c.c.c.c.q.q.q.M.M.m.m.m.M.c.k l g h h 6.e.s.HXPXf.d.d.",
"e.LXIXJXj.z.z.x.J.F.C.C.C.%.#.C.H.L.L.L.L.L.L.L.L.L.L.L.L.K.L.L.K.K.L.L.L.L.L.L.m.m.m.m.m.m.m.m.m.m.M.c.,.;.j j ;.,.c.M.m.m.S.K.j j j j j j j j j j j j j l j j j k ;.,.b.M.m.m.L.L.L.L.L.L.L.L.E.E.E.E.E.E.E.E.E.E.E.E.E.R.R.R.H.H.H.H.H.H.H.H.H.J.H.H.H.H.H.L.m.m.m.m.m.m.m.m.S.S.S.S.S.S.S.S.c.c.c.c.c.c.c.c.b.b.b.,.,.,.,.j j j j j j j j j j j j j j j j l l f l l l l l l l l l l h h h h k c.m.m.c.c.m.K.K.K.K.G.n.n.q.q.w.q.q.q.q.q.q.q.C.C.C.n.n.n.n.m.m.S.L.R.R.L.S.m.c.c.,.c.b.m.K.L.L.L.L.K.S.m.b.M.S.S.K.L.L.L.L.L.S.S.S.m.m.b.M.b.,.,.,.,.,.,.,.,.,.,.,.,.,.,.;.;.,.,.,.,.,.,.;.;.k k k ;.,.c.b.M.S.m.m.m.m.K.L.L.L.L.L.L.L.L.L.L.K.K.K.m.m.m.m.b.S.S.m.m.m.b.M.M.,.;.,.,.,.,.;.;.,.,.,.,.,.,.,.,.,.b.m.m.K.S.S.m.m.m.m.m.m.m.m.m.m.m.m.S.K.L.L.L.R.L.L.S.m.,.,.k ,.b.S.L.R.L.L.K.m.m.m.m.m.m.m.m.m.m.m.m.m.m.m.m.n.n.C.C.G.K.L.L.K.m.c.k l j ` w.9.s.HXPXf.d.d.",
"e.LXIXJXj.z.z.r.J.G.C.C.C.%.%.C.J.H.H.L.L.L.L.L.L.L.L.L.L.L.L.L.L.L.L.L.L.L.L.L.m.m.m.m.A.A.A.m.m.m.M.,.,.j g g j k ,.b.b.m.S.K.j j j j j j j j j j j j k j j k g j j ,.,.b.m.m.L.L.L.L.L.L.L.L.L.L.L.L.L.L.L.L.E.R.R.L.L.S.m.b.L.L.H.H.H.H.L.L.L.H.H.H.H.H.H.L.m.N.N.N.N.N.N.N.N.N.N.N.N.N.N.N.b.b.<.b.<.<.b.<.b.b.b.<.<.,.,.,.j j ` ` ` ` ` ` ` ` ` ` j j ` k l +.f f l l l l l k k k k k j j l q.m.m.c.,.b.K.L.K.K.G.C.w.w.w.q.w.q.q.q.q.q.q.n.n.n.n.n.n.n.m.b.S.R.R.E.R.S.m.,.;.;.,.c.m.K.L.R.R.L.L.S.m.b.b.S.S.L.L.L.L.L.R.S.S.m.m.b.b.b.b.,.,.,.,.,.,.,.,.,.,.,.,.,.,.,.,.,.,.,.,.,.,.,.,.j j k ;.,.b.b.b.S.S.m.m.S.S.L.R.L.L.L.L.L.L.L.L.S.S.S.m.m.m.M.M.S.S.S.m.m.b.b.b.,.,.,.,.,.,.,.,.,.,.,.,.,.,.,.,.,.b.m.S.S.S.S.m.m.A.m.m.m.m.m.m.m.m.S.S.S.L.L.L.R.I.L.S.b.,.,.j j ,.D.R.R.R.L.S.m.m.m.m.m.m.A.m.m.m.m.m.m.m.m.m.q.q.q.C.H.H.L.L.L.m.c.l d h k q.9.s.HXPXf.d.d.",
"y.JXIXf.j.z.W.J.K.Z.Z.$.%.%.%.%.C.m.G.K.K.K.K.K.D.D.D.D.D.D.D.D.D.K.K.K.S.S.S.S.M.M.M.M.b.b.b.b.b.M.c.` j g d e s h j ,.c.b.m.B.k h h k j ` ` ` ` k k k k k l k z z g j ,.c.M.b.K.K.K.S.S.S.S.K.R.R.R.R.R.R.R.R.E.E.E.R.I.I.D.S.K.K.K.K.K.K.K.K.K.K.K.K.K.K.K.K.N.1.1.1.1.1.1.1.1.1.1.1.<.1.1.1.1.v.1.1.1.1.<.<.V.V.V.N.1.<.] ] ` ` ` ` ` ` ` ` ` ` ` ` ` ` ` ' k l l l k l l l h h ' ' ' ' ' ' h ' v.v.<.' N.D.D.D.K.K.G.n.n.n.q.q.q.q.M.M.M.M.c.M.M.M.M.M.M.M.v.B.L.R.R.L.B.v.j j j j ` b.B.D.I.L.K.S.m.v.,.,.B.S.S.S.K.K.L.L.V.V.v.N.c.c.c.,.k k k k j ;.,.` ` ` ` j k k k k k k k ' ' ( ( ( _ s _ _ ` ` ` ' B.b.v.v.v.B.K.D.D.D.D.D.D.S.Z.Z.B.N.v.N.1.1.] ] B.b.b.M.c.c.' ' ` k ` k ` h ` ` ` ` ` ` ` ` ` ` ` ' 1.V.V.V.V.N.N.v.v.v.v.v.v.v.v.v.N.N.B.D.D.S.I.L.D.N.<.` h s r ` N.I.I.I.D.B.b.b.b.b.b.b.b.b.b.b.b.b.b.b.b.M.O.O.q.n.m.K.L.L.K.m.k e 8 9 h f 9.j.h.h.f.d.d.",
"9.j.HXj.a.z.r.l P.*.MXMX*.*.=.%.$.Z.Z.P.P.Z.Z.P.V.V.V.P.P.P.P.Z.Z.Z.Z.Z.Z.Z.Z.Z.B.B.B.B.B.B.B.B.B.B.v.#.' h h e ' ' ' ' ' ' ' #.a a a a ( ( ( ' ' ' l f f f @.+.d l k k c.M.m.m.c.M.m.S.S.S.m.M.W.W.W.E.E.E.E.R.BXBXBXBXBXR.I.I.I.Z.Z.Z.Z.Z.Z.Z.Z.Z.Z.Z.Z.Z.Z.Z.$.&.&.&.&.&.&.&.] ] ] ] ] ] ] ] &.$.$.$.] ] ) ) ) ) ) ) ) ) ) ] ' ' ' ' ' ' ' ' ' ' ' ' ' ' ' ' ( ( ( ( ( ( ( ( ( ( ( ( ( ( ( ( ] ] ] ] ] ] ] ] P.P.P.Z.Z.Z.Z.Z.v.$.$.$.$.$.&.&.&.&.$.$.$.$.$.$.V.Z.D.I.D.D.Z.B.h h h _ ' v.B.Z.Z.Z.Z.Z.Z.Z.Z.Z.Z.Z.Z.Z.Z.Z.Z.P.U.U.&.$.$.#.#.#.l l l k j j j _ [ _ ' j k l f f q.#.%.E E W F W | ] ] ] $.$.$.$.$.$.$.$.$.#.#.$.U.U.U.U.U.U.U.U.$.$.$.&.&.......$.#.#.#.#.#.#.#.#.#.( ( ( #.#.( ) ) ) ) ) ) ) ) ] ] ] ] ] ] ] ] &.$.$.$.$.$.$.$.P.P.P.P.P.P.P.P.I.I.D.Z.V.v.' ' ' v.B.D.I.I.I.I.V.V.B.B.B.B.B.B.B.B.B.B.B.B.B.B.Z.Z.Z.Z.Z.Z.Z.Z.Z.B.v.' ' h h f 7.u.g.g.f.p.d.",
"y.j.HXj.a.z.r.l ..iXiXiXqXQ =.=.*.&.3.P.3.3.3.3.3.3.3.3.3.3.3.P.P.P.P.P.P.P.P.P.] ] ] ] ] ] ] ] P.] ] ] / ( ^ ^ ] ] ] ] ] ] ] ) ( E W W ) ) ) ) ) ( _ g f f +.+.l k k k k c.c.M.c.M.m.m.K.B.m.M.L.L.I.I.U.U.BXBXBXBXBXBXBXBXBXU.&.&.&.&.&.&.&.&.&.&.&.&.&.&.&.*.o.X.X.X.o.o.o.X.o.o.o.o.o.o.o.o.X.| | | | | | | | | | | | | | | / / / / ) ) ) / / / / ) / / / / / W W W W W W W W W W W W W W { { { ............3.3.3.3.3.3.3.&.| | | | | o.o.o.o.o.o.| | | | ....&.P.P.P.P.&...( ^ ^ ( ) ] P.P.P.P.P.P.P.P.P.P.P.P.P.P.P.P.P...*.X.| | ) %.#.#.O.O.O.k ;.,.,.' ] [ ' ` ;.q.q.q.q.#.( W W T T T Q o.o.o.o.| | | *.&.&.&.$.$.$.&.iXiXiXiX*.*.*.*.&.*.| o.X. .iXX.| ) ) ) ) %.$.$.) ) ) ) ) ) ) ) | { { { { { { { o.o.o.o.o.o.o.o.o.| | | | | | | X.X.*.*.*.*.X.X.P.P.P.&.] ] ) / / ] ] P.U.U.U.U.] ] ] ] ] ..] ] ] ] ] ] ..] ....P.P.P.P.P.P.P.P.P.P.] ) ( ^ ^ h 7.u.g.g.i.p.CX",
"y.j.HXj.a.z.J.' ..yXwXqXqXQ Q Q } uXuXuXuXuXuXuXuXuXuXuXuXuXuX . . . . . . . . .} } } } } } } } X.X. .} { { { { { { { { { { { { Q Q Q Q Q Q Q { { { / / ^ ' ' ' c.c.c.c.k k k k c.M.m.m.K.K.B.B.P.P.U.MXiXiXNXNXNXNXNXNXNXNXiXiXuXyXiXyXiXiXiXiXyXiXyXyXiXiXiXiXiXiXiXiXiXiXiXiXyXyXyXyXyXyXyXyXiXiXyXyXyXyX} Q Q Q Q Q Q Q Q } { { { { { { { { { { { { { { { { Q Q Q Q Q Q Q Q Q Q Q Q Q Q Q ~ wXwXwXwXwX} } } uXuXuX . . . . .} } } yXyXyXyXyXyXyXyXyX} } } } }  . .X.X. . .} { ~ ~ ~ { } X.uX . . . . . . . . . . . . . . . . .} { { / ( ( ' #.#.O.c.M.b.b.1.1.] v.M.n.q.w.q.C.%.) W T P .X.XqXyXyXyXyXyXyXyXiXiXyXyXo.o.o.iXiXpXpXiXiXiXiXyXyXiXiXiXiXiXpXiXyX} } } } } } } Q Q Q Q Q Q Q } yXyXyXyXyXqXqXqXyXyXyXyXyXyXyXyXyXyXyXyXyXyXyXyXyXyXyXyXyXyXyXyXuXX. . .} { { ~ ~ { }  . .uX .X.} } } } } } } } } } } } } } } }  . . . . . . . .uXX.} { ~ ~ ~ / w.u.g.g.i.p.CX",
"9.h.HXj.a.z.J.' { wX$X$XXX.XQ Q #X$X$X$XeXeXeXeXeXeXeXeXeXeXeXeXwX#XwXwXwXwXwXwX#X#XwXwXwX#X#X#XeXwXeXwX#X#X#XoXwXwXwXwXwXwXwX#X#X.X.X.X#X$X$X$X#X#X~ ~ { { | ] B.m.M.c.k h l g k c.m.m.K.K.K.P.X.uXiXiXpXtXtXtXtXtXtXtXtXtXtXeX$X$X$X$X$X$X$X$X$X$X$X$X$X$X$X$X9X9X9X9X9X9X9X9X9X9X9X9X9X9X9X9X9X9X9X$X$X$X$X$X$X$X$X$X$X$X$X$X#X#X#X#X#X#X#X#XwX#X#X#X#XwX#X#X$X$X$X$X$X$X$X$X$X$X$X$X$X$X$X$X$XeXeXeXeXeXeXeX$XeXeXeXeXeXeX$X$X$X$X$X$X$X$X$X$X$X$X$X$X$X$X$X#X#XwXeXeXwX#X#X#X#X#X#X#XwXeXeXwXwXwXwXwXwXwXwXwXwXwXwXwXwXwXwXwX~ T T W ^ ( ( #.M.M.m.m.m.S.S.P.P.V.B.G.F.F.G.Z.$.| Q P .XXX=X0X0XtXtXtX9X9X9X9X9X9XaXaXaXeX9X9X0X9X9X9X$X$X$XaXaXaX9X9X0X8X0X9X$X$X$X$X$X$X$X$X$X$X$X$X$X$X$X9X9X9X9X9X9X9X9X9X9X9X9X9X9X9X9X$X$X$X$X$X$X$X$X$X$X$X$X$X$X$X$XeXeXwXwX#X#XoXoXoXoX#XeXeXeXeXwX#X#X#X#X#XwXwXwX#X#X#X#XwXwX#X#XwXwXwXwXwXwXwXwXeXeXwX#X#X#X#X{ w.u.g.g.i.p.d.",
"9.j.HXa.a.z.J.( ~ #X+X:X[.XX.X.X-X1X1X1X1X1X1X;X1X1X1X1X1X1X1X;X;X;X;X;X;X;X;X;X6X6X6X6X6X6X6X6X7X7X7X6X7X;X;X;X6X6X6X6X6X6X6X;X:X:X:X:X;X6X;X7X5X+X@XoX~ }  ...V.m.m.c.k l g g k k M.m.K.K.K.P.yX$X9X9X8XlXlXlXzXzXlXlXlX8X8X8X1X2X2X2X3X3X2X3X2X2X2X2X2X2X2X2XlXlXlXlXlXlXlXlXfXfXfXfXfXfXfX2X8X8X0X2X8X1X1X>X1X>X1X>X1X>X1X;X7X7X7X6X6X6X6X6X6X6X6X6X7X7X6X7X1X1X1X1X1X1X1X1X1X1X1X<X1X1X1X1X1X1X1X1X1X1X1X1X1X;X;X;X1X1X1X1X1X>X>X>X>X>X&X>X>X>X>X>X>X>X>X1X-X;X6X7X7X6X;X-X6X6X;X;X;X6X0X8X;X;X;X;X6X;X6X:X;X;X;X;X;X;X;X5X@XoXY T T ! / ( #.M.M.m.m.K.L.K.Z.P.Z.K.L.H.H.K.V.&.o.qXXX*X<X,XkXzXzXzXzXzXlXlXlXlXlXlX8X0X8XlXfXkXfXfX2X3X1X:X0X0X8XlXlXlXzXzXfX3X2X2X2X2X2X2X2X2X2X2X2X3X2X2X2XfXfXfXfXfXfXfXfXfXfXfX2X2XfX2X>X>X>X>X>X>X1X>X>X>X>X>X&X&X&X&X6X6X6X6X;X:X;X;X%X-X:X6X7X6X6X;X6X6X6X6X6X6X6X6X6X6X6X6X6X6X;X;X;X;X;X;X;X;X;X;X8X0X6X;X-X;X;X#Xq.u.g.g.i.p.CX",
"9.j.HXa.a.z.J.) ~ @X6X1X>X=X[.[.>XfXsXfXsXfXsXsXsXfXsXfXsXfXsXsX,X,X,X,X,X,X,X,XfX2XfXfXfXfXfXfX,X,X,X,X,X,X,X,X,X,X,X,X,X,X,X,X,X,X,X,XsXfXfX2X1X;X}.@X#X#XyXX.V.m.M.c.k k h g l k c.m.K.K.L.U.$X:X2XfXfXkXkXkXnXnXzXkXkXfXfXfXdXdXdXdXhXhXdXdXdXdXdXdXdXdXdXdXkXkXkXkXkXkXkXkXdXdXdXdXhXhXhXdXgXgXdXdXsXsXsXsXsXsXsXsXsXsXsX,XfX2XfX2X2X2X2X2X2X2X2X2X2X2XfXfXsXsXsXsXsXsXsXsXsXdXsXsXsXsXsXsX,X,X,X,X,X,X,X,XfXfXfXfXfXsXsXsXdXdXsXsXsXsXsX,X,X,XsXsXsXsXdXsX,X,X2X2X2X,X,X>X2X,X,X>X>X,X2XfX,X,X,X,X,X,X,X,X,X,X,X,X,X,X,X1X+XOXoXY T { / / ' #.c.m.m.K.L.L.Z.Z.L.K.L.L.L.L.P.X.yX$X4X,XsXjXvXnXnXvXvXvXvXvXkXkXkXkXkXkXkXkXjXjXjXhXdXsXsX,XgXgXgXkXkXkXcXcXjXhXdXdXdXdXdXdXhXhXhXhXhXhXhXhXhXhXhXhXhXhXhXhXhXhXhXdXdXdXdXdXsXsXsXsXsXsXsXsXsXsXsXsXsXsXsX,XfX2X2X,X2X,X,X,X>X>X,X2XfX,X,X>X2X,X2X,X2X,X2X2X2X,X2X,X2X,X2X,X,X,X,X,X,X,X,X,XfX,X,X>X>X>X,X$Xn.u.g.g.i.p.d.",
"9.j.PXi.a.z.H./ wX7X8XfXfX,X=X&XsXdXdXdXdXdXdXdXdXdXdXdXdXdXdXdXdXdXdXdXdXdXdXdXdXdXdXdXdXdXdXdXsXsXsXsXsXsXsXsXsXsXsXsXsXsXsXsXsXsXsXsXdXdXsXfX>X&X'.{.#X#XyXX.$.M.M.c.k k k l l k c.m.K.L.L.U.$X3XsXdXhXjXcXvXvXvXcXjXhXdXsXsXjXjXjXjXjXjXjXjXjXjXjXjXjXjXjXjXjXjXjXjXjXjXjXjXhXhXhXhXhXhXhXhXhXdXdXdXdXsXsXsXsXsXsXsXsXsXsXsXsXsXsXsXsXsXsXsXsXsXsXsXsXsXsXsXdXdXdXdXdXdXdXdXdXdXdXdXdXdXdXdX,X,X,X,X,XsXsXsXsXdXdXdXdXdXdXdXjXjXhXdXdXsXsXsXsXsXsXdXdXhXjXhXsXsXsXdXdXsXsX,XsXsXsX,X,X,XsXsXsXsXsXsXsXsXsXsXsXsXsXsXsXsXsX,X;X+XOXoXY ~ { ) ( ' ` M.n.G.G.K.Z.Z.K.K.L.S.L.I.U.NXiX9X3XdXjXcXbXbXbXbXbXbXbXbXcXcXcXjXjXjXjXjXcXcXjXjXhXdXsXsXdXdXdXjXjXcXcXcXjXjXjXjXjXjXjXjXjXjXjXjXjXjXjXjXjXjXjXjXjXjXjXjXhXhXhXhXhXhXhXhXhXdXdXdXdXdXdXdXsXsXsXdXsXsXsXsXsXsXdXdXdXgXdXgXsXsXsXdXdXsXsX,XdXsXdXdXdXdXdXdXdXdXdXdXdXdXdXdXsXsXsXsXsXsXsXsXsXsX,X,X,X,XsX$XM.u.g.g.i.p.d.",
"9.s.DXi.a.z.K.[ wX7XlXkXdXdX,X,XsXdXdXdXdXdXdXdXdXdXdXdXdXdXdXdXdXdXdXdXdXdXdXdXdXdXdXdXdXdXdXdXsXsXsXsXsXsXsXsXsXsXsXsXsXsXsXsXsX,XsXsXsXsXsX,X&X%X`.^..XqXyXX.$.M.c.c.k k k k g k c.m.K.L.L.U.$XgXsXdXhXjXjXcXvXcXjXjXdXsXsXsXhXjXjXjXjXjXjXjXjXjXjXjXjXjXjXjXhXhXhXhXhXhXhXhXdXdXdXdXdXdXdXdXdXsXsXsXsX,X,X,X,X,X,X,X,X,X,X,XsXsXsXsXsXsXsXsXsXsXsXsXsXsXsXsXsXsXsXsXsXsXsXsXsXsXsXsXsXsXsXsX>X>X>X>X>X>X,X,XsXsXdXdXdXdXdXdXjXjXhXdXdXsX3X<X<X3XsXdXdXhXjXhXsXsXsXsXsXsXsX,XsXsX,X>X>X,X,X,XsXsXsXsXsXsXsXsXsXsXsXsXsXsXsX,X;X5X+XoXoX~ { ..( ' ' c.M.m.G.K.Z.Z.Z.Z.G.K.S.D.U.NXpX9XfXjXcXbXbXbXbXbXbXbXcXcXcXjXjXjXjXjXjXjXcXcXjXjXdXgXdXgXsXsXdXdXjXjXjXjXjXhXhXhXhXhXhXhXjXjXjXjXjXjXjXjXhXhXhXhXhXhXhXhXdXdXdXdXdXdXdXdXdXdXdXdXdXdXdXdXsXsXsXsXsXsXsXsXsXsXsXsXgXgXgXgXsXsXsXsXsXsX,X,XdXdXdXdXdXdXdXdXgXdXdXdXgXgXdXdXsXsXsXsXsXsXsXsX,X,X>X>X>X,XsX$XM.u.g.g.i.p.d.",
"9.f.PXi.a.z.L./ wX6XfXkXdXsX,X>X,X,X,X,X,X,X,X,X>X>X>X>X>X>X>X>X,X,X>X>X>X>X,X,XsXsXsX,X,X,X,X,X,X,X,X,X,X,X,X,X,X,X,X,X,X,X,X,X3X<X>X<X3X3X&X'.'.^.K L T Q | *.' c.c.c.k k k k m.m.m.M.m.m.K.U.$X3XgXxXgXdXdXdXsXsXsXsX3X<X=X=XsXsXdXgXgXgXdXdXxXxXdXdXsXsXdXdX,X,X,X,X,X,X,X,X,X,XgXxXxXgXgX3X&X&X&X&X&X&X>X>X<X<X>X&X&X&X&X%X&X&X&X&X&X&X&X&X&X>X<X<X>X&X%X%X%X&X&X&X&X>X<X<X<X<X>X&X&X&X&X%X=X=X*X*X=X=X<X3X&X>X>X>X,X,X,X,XdXsX,X>X*X'.`.!.`.`.*X=X,X,X,X,X,X<X>X&X&X&X&X&X&X&X&X&X&X>X<X<X<X<X>X&X&X&X&X&X'.%X%X&X&X&X&X&XmX5X{.oX#XT { U.] ' ' O.c.n.G.L.M.M.m.G.K.L.L.U.U.NXpXtXfXjXcXbXbXcXjXjXvXcXjXdXhXdXsXsXsXgXxXxXkXkXgXgX3X<X=X*X=X=X<XgXgXkXhXhXsXsXdXdXsXsX,X,XsXsXsXsXdXgXxXxXxXxXgXgXsX3X,X,XxXxXxXxXxXxXxXxX<X<X<X&X&X<X<X<X&X>X<X<X>X&X%X%X&X>X>X<X<X<X<X<X<X<X<X<X<X>X&X&X%X%X&X&X&X&X%X%X&X&X&X&X&X&X<X<X<X<X<X<X<X>X&X&X&X&X<X<X3X<X<X.Xc.u.g.g.i.p.d.",
"y.f.PXi.a.z.L.[ wX6XfXkXhXsX,X>X>X=X=X=X<X=X=X=X=X=X=X=X=X=X=X=X>X&X&X%X&X&X>X>X<X<X<X<X<X>X&X&X&X&X&X&X&X&X&X&X<X<X<X<X<X<X<X=X=X[.'.*X=X=X`.Q.K D N b V Z W %.#.c.,.,.k k k k c.k k l l l k ) qX4X0X3XgXsX,X,X>X>X>X=X*X[.].].'.%X%X&X&X<X<X<X&X%X%X'.'.'.'.'.=X=X=X=X=X=X=X=X*X*X=X=X=X*X%X'.`.`.`.`.'.[.*X*X*X*X[.[.[.'.`.'.[.*X*X*X*X*X*X*X*X*X=X=X=X'.'.`.`.`.`.`.`.'.'.'.*X*X[.[.[.'.`.].Q.K K K Q.^.].[.*X*X*X=X&X&X&X>X>X>X%X'.!.Q.K J P ~.^.[.=X&X>X&X=X=X*X*X'.'.'.'.'.'.'.`.'.'.*X=X=X=X*X*X'.'.'.'.!.`.'.'.*X*X'.'.-XQ.J J S v n / ( ' h k q.n.m.K.M.M.m.G.K.L.L.U.U.NXpXtXgXjXcXcXjXdXsXsXsXsX,X&X>X&X&X%X%X=X=X<X3X3X<X&X*X`.].!.!.].[.*X<X,X>X>X&X&X&X&X&X%X%X'.'.`.`.'.'.%X&X=X=X=X=X*X*X%X%X%X%X'.'.'.%X%X%X'.[.'.`.`.`.`.'.[.[.[.*X*X*X[.`.`.'.'.*X*X=X=X=X4X=X*X*X*X'.'.'.'.`.'.'.'.'.'.'.`.'.'.'.'.'.*X=X4X4X=X=X*X*X[.'.'.`.'.'.*X=X=X*XT q.u.g.g.i.p.d.",
"9.f.PXi.a.z.K.[ wX5XfXkXdXsX>X&X*X*X*X*X*X*X*X*X[.[.[.[.[.[.[.[.=X*X*X'.'.*X*X=X=X=X=X=X=X=X*X*X*X*X*X*X*X*X*X*X=X=X=X=X=X=X=X4X].!.!.!.].].Q.D N M c + # # < a k k k k c.c.c.c.M.c.k g 9 9 g ^ qX4X4X0X<X<X<X&X%X%X'.].^.K J J J K Q.!.!.].].[.!.Q.Q.K K K K K XX[.XXXX[.[.[.[.].].].].!.Q.Q.K K J K Q.~.^.XXXXXXXX^.^.^.^.~.^.].].XX].].].].].].].XXXXXX].^.Q.K K K K Q.Q.Q.Q.XXXX^.^.^.^.~.~.D F F S D J P ~.XX].[.[.*X*X*X*X%X'.`.Q.K D N B F G P .XXX[.%X%X[.XX].].].^.^.^.!.Q.Q.Q.Q.^.].].XXXXXX].].^.!.!.Q.!.^.].].].].].Q.D N N v o o ^ ( h g l k c.n.m.M.M.m.G.G.L.L.I.U.NXpX9XfXjXcXcXsX&X'.%X%X%X'.`.`.!.!.Q.Q.!.^.].*X%X'.`.Q.K J D J J Q.!.`.'.'.`.`.].].].].!.Q.Q.K J J K K Q.!.!.].].!.!.!.Q.Q.Q.Q.Q.Q.Q.Q.Q.Q.Q.Q.K K K K K K Q.^.^.XXXXXX^.~.Q.^.^.!.!.].].].].].].^.!.^.!.Q.Q.^.^.].].].].!.^.].^.!.!.^.].XXXXXX].].].!.^.^.!.Q.Q.^.^.].].^.G q.u.g.g.i.p.d.",
"9.f.PXi.a.z.H./ wX5X2XfXsX,X&X*X[.[.[.[.[.[.[.[.[.[.[.[.[.[.[.[.*X*X'.'.'.'.*X=X4X4X4X=X=X*X*X*X*X*X*X*X*X*X*X*X=X=X=X=X=X=X=X*X].^.Q.^.].^.K D M c o X X # < u k k k k c.c.c.c.K.m.M.k k l l ^ qX4X4X0X0X<X=X&X=X*X[.].~.P S S S D J J K ~..X.X~.~.K K J J K K XXXX].XX].XX].].!.^.!.^.Q.K J D S S D J K ~..X.X.X.X.X~.~.~.Q.Q.^.XXXXXXXXXXXXXX^.].XXXX].^.Q.K J J K K K K ~.P .X.X.X~.~.~.K P G F F F G L P .X.XXX].[.[.*X*X*X%X'.`.Q.J S B b B F L .X].[.%X'.].XX^.^.^.^.Q.Q.K K K K K Q.Q.^.XXXX^.^.^.^.Q.Q.K Q.^.^.XX].^.^./.D M M v o @ ^ r i i g l ;.b.b.B.M.m.G.G.L.L.I.U.NXiX9X2XhXcXjX>X'.`.`.`.`.!.Q.Q.K K J J K P ^.`.'.`.Q.K J D S S D J Q.!.!.`.!.^.~.~.^.~.Q.K K J J J J K Q.~.^.Q.Q.Q.Q.Q.K K K !.Q.^.^.^.^.!.Q.K J J D J J J J ~..X.X.X.X~.K K K Q.Q.Q.Q.^.^.^.^.^.^.^.Q.Q.Q.Q.Q.^.^.^.^.^.^.Q.^.^.Q.Q.^.^.XXXX^.^.^.Q.Q.Q.Q.Q.K Q.Q.^.^.^.^.F q.u.g.g.i.p.d.",
"9.s.PXi.a.z.H./ ~ +X1X2X,X&X*X[.[.[.'.'.'.'.[.[.[.[.[.[.[.[.[.*X=X=X%X%X%X%X=X=X0X0X0X=X=X=X=X&X%X*X*X*X%X%X%X&X=X=X=X=X=X=X=X=X X`.`.`.@X@X/.J N v O o # : u a l k k k c.c.M.M.K.m.M.k l l l / qX0X0X0X0X3X<X&X<X=X:X[.^.P G D S D J K ~._.#X$X_.~.P K J K K Q._.|.|.|.|.|.|.|.|.|.|._.!.Q.K J S S D J K Q..X_..X~./.~.Q.K K K ].].].].].].].].!.].].].].!.Q.Q.K K K Q./.~./.)..X~./.~.Q.K K J F F B F G L P .X^.].[.[.*X*X%X&X;X;X}.(.J F B b B F G P |. X-X%X[.].].!.!.!.!.!.Q.K K K K Q.!.!.].].].!.!.!.!.!.Q.Q.!.].].].].^.U N v v m + * ' a i y g l ;.b.N.B.B.B.G.G.L.L.I.U.3.iX$X0XsXjXhX1X X`.`.|.|.!.Q.Q.K K J J P )._. X-X}.!.Q.K J D D J Q.(.|.`.'.`..X.X.X.X.X~.K K J J J J K ~..X$X(.(.!.!.!.Q.Q.Q.|.^.|.^.|._.|._.Q.K K J J K K K Q.~..X.X/.Q.K K K Q.Q.Q.!.!.!.!.].].].].].!.!.!.!.!.].].].].!.!.!.^.!.!.!.!.].XX!.!.!.!.Q.Q.Q.Q.Q.!.].].].].].T q.u.g.g.i.p.d.",
"9.j.HXi.a.z.J./ ~ @X6X1X&X*X[.].'.'.%X'.%X'.%X'.%X*X%X*X*X%X%X%X1X>X&X&X&X&X>X>X2X2X2X1X1X>X>X>X&X&X&X&X&X&X&X>X1X1X1X1X1X1X1X1X7X}.}.+X7X@X(.I H M c @ & 8 i O.g l k k c.M.M.m.M.,.k g e i g ^ $X0X0X0XlX2X2X>X>X>X:X:X].~.P J J J K U oX#X#X#XI I J J D D J K (.{.{.{.OXOXOXOXOX@X@X@XOX(.(.Q.J J J K /./.(.oX_._.(././././.Q. X[.[.[.[.[.[.[.`.`.`.`.`.!.!.Q.Q./././.).(.oX_._._.(././././.K N M M N N D J K ].[.[.*X&X&X&X1X8X8X5X{.I G N B B B G ).OX-X;X-X'.`.`.`.`.!.!.!.!.Q.Q.Q.Q.!.`.`.'.`.`.`.`.!.!.!.!.!.`.`.[.[.'.^.G c o O o X # a a d g g k ,.N.V.v.B.B.G.G.H.L.L.U.P.uXeX4X<XdXdX0X7XOXOX@X$XOX/.(././.I U ).#X$X7X6X5X+X(./.K K K K (.OX@X5X5X}._.).#X#X#X).I I D D D D J U ).oX@XOXOXOX{.{.(.(.!.!.!.!.!.(.(.(.(././.K K /./.(./.(.(.oX(./.K K Q.!.!.!.`.`.`.`.[.[.[.[.'.`.`.`.`.`.'.'.'.`.`.!.`.!.!.!.!.`.'. X`.`.`.!.!.!.!.!.!.`.'. X[. X[.T q.u.g.g.i.p.CX",
"9.j.HXi.a.z.J./ ~ @X5X;X%X[.^.].'.%X&X%X&X%X&X%X;X;X;X;X;X;X;X1X2X2X,X>X>X,X2X2XlXlXfXfX2X2X2X2X2X2X2X2X2X2X2X2XfXfXfXfXfXfXfX8X6X}.}.+X5X5XOXI H N n @ % t h k g l l k c.M.m.m.c.k k l l k k ) $XlXlXlXzXlXfXfX&X&X%X'.`.!.K K K I /.oXoXoXoXoXoXI K J J J J K OX+X+X+X+X+X+X+X{.+X+X+X+X+X{.{.Q.Q.Q.(.(.(.OXOXOXOXOX(.(.(.(.(.-X-X-X:X-X-X-X-X'.'.%X'.'.`.`.!.Q.Q.Q.(.(.(.(.OXOXOXOX(.(.(.(./.D S S S D J Q.!. X-X;X;X1X1X2X2X8X8X;X{.K D N M N F U oX+X6X1X;X%X'.'.'.'.`.`.`.`.`.`.`.`.`.'.%X'.'.'.'.'.`.`.`.`.`.'.%X-X%X%X].F o X X X . . a +.O.l k ,.b.S.D.V.V.B.G.G.H.L.L.U.P.iXqX4X<XsXsX8X5X+XOX@X@XOX(.(././.I I ).oX$X7X6X6X+XOX(././././.OX+X5X6X6X5XOXoXoXoXoXI I J J D D D J I oXoX+X+X+X+X+X{.{.{.{.{.{.{.{.{.{.{.OX(.(.(./.(.(.OX(.OXOXOXOX(.Q.Q.`.`.'.'.'.'.%X%X%X'.'.'.'.`.`.`.'.'.%X%X%X%X'.'.'.`.`.`.`.'.%X-X%X'.%X'.'.'.'.`.`.`.'.'.%X'.'.U q.u.g.g.i.p.CX",
"9.j.HXi.a.z.J./ ~ @X5X;X*X[..X^.'.%X%X%X%X%X%X%X;X;X;X;X1X1X1X1X2X2X1X>X>X>X2X2XlXfXlX2X2X2X2X1X1X1X1X1X1X1X1X1X8X8X8X2X8X2X8X8X}.`.`.`.OXOXI D S M c @ = 2 r j g l l k c.M.m.m.m.m.m.M.m.m.K.U.$XlXlXzXzXzXfX2X'.`.`.!.!.Q.Q.K (.(.(./././.I I oXoX/.I I I /.(.+X+X+X+X+X+X+X+X!.{.{.+X+XOX{.{.(.(.{.{.{.{.OXOX+X{.{.(.(././.Q.-X:X:X:X-X-X-X-X'.'.'.'.'.`.`.!.Q.K K Q.Q.Q././.OX{.{.{.{.{.`.!.~.P P P Q.^. X:X-X;X;X1X1X2X2X2X&X-X'.!.K D N N S D I (.+X5X;X;X%X'.'.`.`.`.`.`.'.'.`.`.'.'.%X&X%X%X%X'.`.`.!.!.!.!.'.%X-X&X&X}.T c o + # X & a O.O.O.O.c.m.D.D.B.M.m.G.G.H.L.L.U.P.uXqX4X<XsXdX8X6X}.}.5X+XOXQ././.K K I /.oX@X5X6X5X}.{.Q.K K K /.(.OX5X5X;X}.(././././.K K J K K K K I oXoX$XOX+X}.}.{.{.{.{.+X+X+X+X+X+X+X+X{.(.(.Q.Q.Q.(.(.{.{.OXOX{.(.(.Q.'.'.'.'.'.%X-X-X'.`.`.`.`.!.!.!.'.'.%X%X-X%X'.'.`.`.`.`.`.`.'.%X-X%X-X'.'.'.'.'.Q.!.!.`.`.`.!.F q.u.g.g.i.p.CX",
"9.j.h.i.a.z.J./ ~ oX5X;X%X`.Q.K Q.!.!.!.`.`.'.'.'.%X%X%X%X%X%X%X-X-X-X-X-X-X-X-X%X%X-X-X%X'.'.`.!.!.`.`.`.'.'.'.'.'.'.'.'.'.'.'.{.Q.K K K I D N M c O @ % * t e g 9 9 g c.m.m.c.M.m.m.m.K.K.L.U.aX0X,XsXkXkX,X'.Q.J D S D K (.+X;X;X-X}.!./.K P P P K K Q.Q.!.`.`.'.}.}.}.}.`.!.!.!.!.!.Q.Q.Q.Q.|. X}.}.'.'.'.`.'.`.Q.K J D D J Q.`.`.'.'.`.`.!.!.!.!.!.!.!.!.!.!.!.Q.Q.Q.Q.Q./.J K !.`.'.'.%X'.`.!.Q.Q.!.!.`.'.-X&X&X&X&X&X&X%X%X'.`.!.Q.J J D J K Q.|. X7X7X:X!.Q.K K K Q.!.!.`.`.`.'.'.%X%X%X1X>X%X`.Q.K D S D L ~.].-X&X>X-XoXM c v c o # ( a i g l ;.b.S.L.K.Z.G.C.J.F.m.S.U.3.iX9X2XdXjXjXkX2X>X&X;X-X`.K D D S D D J K (.-X-X'.`.!.K J J J K (.|.}.-X-X-X'.'.`.`.!.!.!.Q.J J D D J K )._. X-X}.}.'.`.`.`.`.`.`.'.}.}.}.}.`.!.!.Q.Q.!.!.!.!.!.!.!.!.!.!.!.Q.!.!.!.!.`.`.`.'.`.!.!.!.!.!.!.`.'.'.'.'.'.`.!.!.!.!.Q.Q.Q.Q.!. X X X`.`.!.!.Q.^.Q.K J J J J B f l.KXh.s.PXLX",
"9.j.h.a.a.z.J./ ~ oX5X;X%X`.Q.K K Q.Q.Q.!.!.`.`.'.'.'.%X%X%X%X%X'.'. X X X X'.'.'.'.'. X'.`.`.!.Q.Q.Q.!.!.!.!.!.!.!.].].].].].!.(.K J J J H N v c O @ @ $ * t e e 9 0 g c.m.m.c.m.m.m.K.K.K.L.U.qX4X,XsXkXkX>X`.K S N N S I OX5X1X>X&X'.`.Q.P L L L P K Q.!.`.`.`.'.'.'.'.`.`.!.Q.Q.Q.K Q.Q.P Q.|. X'.'.'.'.'.'.'.`.Q.J D S N F Q.!.].].].].!.!.!.!.!.!.!.!.!.!.!.!.Q.Q.K P P P D K Q.`.'.%X%X%X'.`.!.!.!.`.'.'.%X&X&X&X&X&X%X'.`.!.!.Q.Q.K K J K Q.!.].|. X X|.K K J J J K Q.Q.!.!.`.`.'.'.'.%X1X>X%X`.K G N B B F L ^.[.&X>X&X(.S M M v o $ ( p i g l ;.b.S.L.Z.Z.C.F.J.H.G.D.U.NXiX9XfXjXcXcXkXdX,X>X&X%X`.K D D S S D J K ^.'.'.'.!.Q.K J D J K ~.^. X X'.%X%X%X'.'.`.!.!.Q.K J J D J P P .X|. X'.'.`.`.`.`.`.`.`.`.'.'.'.'.`.!.Q.Q.Q.Q.!.!.!.!.!.!.!.!.!.!.Q.Q.Q.!.!.!.!.!.].].!.Q.Q.Q.Q.!.`.'.'.'.'.`.`.!.Q.Q.Q.Q.K K K Q.|. X|.].!.!.Q.K ~.K J D D D D V -.l.KXh.f.LXLX",
"9.j.HXa.a.z.J./ ~ oX5X;X%X`.Q.K K Q.Q.Q.!.!.`.`.'.'.'.%X%X%X%X%X'.'.'.'.'.'.'.'.`.'. X X'.`.`.!.Q.Q.Q.Q.!.!.!.!.!.!.!.!.!.!.!.!.(.K J J J H N v c O @ @ = * 1 t e 9 0 g c.m.m.c.m.K.K.K.K.K.L.U.qX4X,XsXkXkX>X`.K S N N S I OX5X1X>X&X'.`.Q.P P L L P K Q.!.!.`.`.'.'.'.'.`.`.!.K K K K Q.~.~.^.].'.'.'.'.'.'.'.'.`.Q.J D S N F Q.!.].].].].!.!.!.!.!.!.!.!.!.!.!.!.Q.Q.K K P P J K Q.`.'.%X%X'.'.^.!.!.!.`.'.'.-X%X%X%X%X%X%X'.`.!.!.Q.Q.Q.K K Q.Q.!.].|.|.|.].K K J J J K Q.Q.!.!.`.`.'.'.'.%X1X>X%X`.K G N B B F P ^. X&X>X&X(.S v M c o $ ( p i g l ;.b.S.K.Z.Z.C.H.J.H.L.D.U.NXiX9XfXjXcXcXjXsX>X&X&X%X`.K D D S D J K Q.!.'.'.'.!.Q.K J D J K ~.^. X'.'.'.'.'.'.`.`.!.!.Q.K K J J J P P .X|.'.'.'.`.`.`.`.`.`.`.`.'.'.'.'.`.!.Q.Q.Q.Q.!.!.!.!.!.!.!.!.!.!.Q.Q.Q.Q.!.!.!.!.].].!.Q.Q.Q.Q.!.`.'.'.'.'.`.`.!.Q.Q.Q.Q.K K K Q.|.`.`.].!.^.Q.Q.~.K J D D D D V -.l.KXh.f.LXLX",
"9.j.HXi.a.z.J./ ~ oX5X;X%X`.Q.K K Q.Q.Q.!.!.`.`.'.'.'.%X%X%X%X%X'.'.'.'.'.'.'.'.`.'. X X'.`.`.!.Q.Q.Q.!.!.!.!.!.!.!.!.!.!.!.!.!.(.K J J J H N v c O @ @ = * 1 t e 9 0 g c.m.m.c.K.K.K.K.K.K.K.U.qX=X,XsXkXkX>X`.K S N N D I OX5X;X&X%X'.`.^.K P L P P K Q.Q.!.`.`.'.'.'.'.`.`.!.K K K K Q.~.~.^.^.].`.'.'.'.'.'.'.`.Q.K D S S D Q.!.].].].].!.!.!.!.!.!.!.!.!.!.!.!.!.Q.K J J J J K Q.`.'.%X%X'.|.^.^.Q.^.!.]. X'.'.'.'.'.'.'.`.`.!.!.!.Q.Q.Q.Q.Q.Q.!.].|.|.].^.K K J J J K Q.Q.!.!.`.`.'.'.'.%X>X>X%X`.Q.D S B F G P ^. X%X&X%X(.S v M v o $ ( p i g l ;.M.S.K.C.C.C.H.J.L.L.I.U.NXiX9XfXjXcXcXhXsX>X&X&X%X!.K J D D D J K Q.].'.'.'.!.Q.K J D J K ~.^. X'.'.'.'.'.'.`.`.!.!.Q.Q.K K J J P ~..X].'.'.`.`.`.`.`.`.`.`.`.'.'.'.'.`.!.Q.Q.Q.Q.!.!.!.!.!.!.!.!.!.!.Q.Q.Q.Q.!.!.!.!.].].!.Q.Q.Q.Q.!.`.'.'.'.'.`.`.!.Q.Q.Q.Q.K K K Q.].].].!.!.^.Q.~.~.K J D D D D V -.l.KXh.f.PXLX",
"9.j.HXa.a.z.J./ ~ oX5X;X%X'.Q.K K Q.Q.Q.!.!.`.`.'.'.'.%X%X%X%X%X'.`.`.`.`.`.`.`.'.'.'. X'.`.`.!.Q.Q.Q.!.!.!.!.!.!.!.!.!.!.!.!.!.(.K J J U H S v c O @ @ $ * 1 t e 9 0 g c.m.m.c.K.K.K.K.m.m.m.&.qX=X,XsXkXkX>X`.K S N N D I OX5X;X&X%X'.`.^.Q.K P P K K Q.Q.!.!.`.'.'.'.'.`.`.!.Q.K K K Q.~.~.~.Q.^.`.`.'.'.%X%X'.`.Q.K D D F D Q.!.].].].].!.!.!.!.!.!.!.!.!.!.].].^.Q.K J J D D J Q.`.'.%X%X'.^.P P K P ~.~.^.].].].`.`.`.`.!.`.!.!.!.!.!.Q.Q.Q.!.!.].|.].].^.K K J J J K Q.Q.!.!.`.`.'.'.'.%X&X&X%X`.Q.J S N F G P ^. X-X&X%XoXS v M v o $ ( p i g l ;.M.S.K.C.C.H.H.H.T.T.R.U.NXiX9XfXjXcXcXhXfX>X&X&X'.!.K J J D J K Q.^.|.'.'.'.!.Q.K J D J K ~.^. X'.'.'.'.'.`.`.`.!.Q.Q.!.Q.K K K K ~.^.`.`.`.`.`.'.'.'.`.`.`.`.'.'.'. X`.!.Q.Q.Q.Q.!.!.!.!.!.!.!.!.!.!.Q.Q.Q.!.!.!.!.!.].].!.Q.Q.Q.Q.!.`.'.'.'.'.`.`.!.Q.Q.Q.Q.K K K Q.!.`.`.!.!.^.^.~.~.K J D D D D V -.l.KXh.f.LXLX",
"9.h.HXa.a.z.J.[ ~ oX5X;X%X'.Q.K K Q.Q.Q.!.!.`.`.'.'.'.%X%X%X%X%X`.`.`.`.`.`.`.`.'.'.'. X'.`.`.!.Q.Q.Q.!.!.!.!.!.!.!.!.!.!.!.].!.(.K J J U H S v c O @ @ $ * 1 t e 9 0 g c.m.m.c.m.m.m.M.M.c.c.] qX=X,XsXkXkX>X`.K S N N D I OX5X;X&X%X'.`.!.Q.K K K K K Q.Q.Q.!.`.'.'.'.'.`.`.!.!.Q.Q.Q.K K K K Q.Q.^.`.'.'.%X%X'.`.!.K J D D D Q.!.].].].].!.!.!.!.!.!.!.!.!.!.|.].!.Q.K J D D D J Q.`.'.%X%X'.~.L G G G J P P .X^.^.^.!.!.!.!.!.!.!.!.!.!.!.!.!.!.].].|.].!.!.K K J J J K Q.Q.!.!.`.`.'.'.'.%X&X&X'.`.Q.J S S G L P ^. X-X&X%XoXS v M v o $ ( p i g l ;.M.S.K.m.C.H.H.W.W.E.E.U.NXiX9XfXjXcXcXhX,X>X%X%X'.!.K J J J J K Q.]. X-X'.'.!.Q.K J D J K ~.^. X'.%X'.'.`.`.`.!.!.Q.Q.!.^.Q.Q.K Q.~.^.!.`.`.`.'.'.'.'.`.`.`.`.'.'.'. X`.!.Q.Q.Q.Q.!.!.!.!.!.!.!.!.!.!.Q.Q.Q.!.!.!.!.!.].].!.Q.Q.Q.Q.!.`.'.'.'.'.`.`.!.Q.Q.Q.Q.K K K Q.!.!.!.!.].^.^.^.~.K J D D D D V -.l.KXh.f.LXLX",
"9.j.HXi.a.z.J./ ~ oX5X&X%X'.Q.K K Q.Q.Q.!.!.`.`.'.'.'.'.%X%X%X%X`.`.`.`.`.`.`.`.'.'.'. X'.`.`.!.Q.Q.Q.!.!.!.!.!.!.!.!.!.].].].!.^.K J J J H S v c O @ @ $ * 1 e e 9 7 g c.m.m.c.M.M.c.k k k k / qX4X,XsXkXkX>X`.K S N N D I OX+X-X%X%X'.`.!.Q.Q.K K K K K Q.Q.Q.`.'.'.'.'.`.`.!.].^.^.Q.K K J J K Q.Q.!.`.'.-X:X'.`.!.K J D D J Q.!.].].].].!.!.!.!.!.!.!.!.!.!. X|.^.Q.K J D D D J Q.`.'.%X%X'.J F S N S S G J .X.X~.~.~.Q.Q.Q.!.!.!.!.!.!.!.].!.!.].|.].].!.Q.K K J J J K Q.Q.!.!.`.`.'.'.'.%X&X%X'.!.Q.J D S G P ~.^. X%X%X'.oXS M M b o $ ( p i g l ;.M.S.K.m.C.H.Y.W.W.E.E.U.NXiX9XfXjXcXcXkX,X&X%X%X'.!.K K J J K Q.!.'.:X-X'.'.!.Q.K J D J K ~.^. X X'.'.`.`.`.!.!.!.Q.Q.].^.^.Q.Q.Q.^.^.!.`.`.`.'.'. X X`.`.`.`.`.'.'. X`.!.!.Q.Q.!.!.!.!.!.!.!.!.!.!.!.Q.Q.Q.!.!.!.!.!.|.].!.Q.Q.Q.Q.!.`.'.'.'.'.`.`.!.!.Q.Q.Q.K K K Q.!.!.!.!.].]..X|.~.P J D D D D n -.l.KXh.s.LXLX",
"9.j.HXi.a.z.J./ ~ oX;X&X%X'.Q.K K Q.Q.Q.!.!.`.`.'.'.'.%X%X%X%X%X`.`.`.`.`.`.`.`.'.'.'. X'.`.`.!.Q.Q.Q.!.!.!.!.!.!.!.].].].].].!.^.K J J J H S v c O @ @ $ * t e e 9 0 g c.m.m.c.c.k k k l h g ^ qX4X,XsXkXkX>X`.K S N N D I OX+X-X%X'.'.`.`.!.Q.Q.Q.K K K K K Q.`.'.'.'.'.`.`.!.$X|.^.Q.K J D D K K Q.^.`.'.:X;X'.`.!.Q.J J D J Q.!.].].].].!.!.!.!.!.!.!.!.!.!. X|.^.Q.K J D D D J Q.`.'.%X%X`.D B M M M N S D P P .X~.~.P K Q.^.!.!.!.].].].].!.!.].|.].!.!.Q.K K J J J K Q.Q.!.!.`.`.'.'.'.%X%X%X'.!.Q.K D D J K ~.^. X X%X'.oXS M M v o $ ( p i g l ;.M.S.K.m.C.H.Y.W.W.E.E.U.NXiX9XfXjXcXcXkX>X&X%X%X'.!.K K K K K Q.`.'.:X-X'.'.!.Q.K J D J K ~.^. X'.'.'.`.!.!.!.!.Q.Q.Q.|.].!.!.Q.!.^.].!.!.`.`.'.'. X X`.`.`.`.`.'.'. X`.!.!.Q.Q.Q.!.!.!.!.!.!.!.!.!.!.Q.Q.Q.!.!.!.!.!.|.].!.Q.Q.Q.Q.!.`.'.'.'.'.`.`.!.!.Q.Q.Q.K K K Q.Q.!.!.!.].].|.|.~.K J D D D D n -.l.KXh.f.LXLX",
"y.h.PXi.a.z.F.^ T (.}.%X'.`.K K K K Q.Q.!.`.`.'.:X-X%X%X'.'.'.'.`.!.!.Q.Q.!.!.`.'.'.'.'.`.`.`.!.Q.Q.Q.Q.!.!.].].|.|.|.|.|.|.|.|.(.K J J J H N v c O o X # * t _ e 0 0 g c.m.m.M.K.m.c.l l h k ] qX4X>XsXkXkX,X'.Q.J N B D I @X7X-X:X-X X'.'.`.`.].^.Q.K K J J K !.'.'.'.'.`.`.!.!.^..X|.^.~.K J J J K Q.]. X:X:X%X'.`.!.Q.K K K |.|.|.|.|.|.|.|.Q.!.!.!.].|.|.|. X|.^.Q.K J D D D J Q.`.-X;X1X:XL v c M M v M G L L P P P K K K Q.!.!.!.].|.|.|.].].!.!.Q.Q.Q.K K J K K K K K Q.!.!.`.`.'.'.-X-X:X-X'.].^.Q.K K P ~.~.]. X:X:X:XoXS M M c o $ ( p i g l ;.M.S.K.Z.Z.H.Y.W.W.E.E.BXBXiX9XgXkXcXcXkX2X;X%X'.`.].^.K K Q.Q.!.`.'.'.%X'.'.!.Q.K J D J K ~.^. X'.'.'.|.^.^.Q.!.^.^.].!.!.!.!.].].].`.!.`.`.`.'.'. X X X X X X X X X X`.!.Q.K K Q.!.].].].!.!.Q.Q.Q.Q.K K K Q.Q.Q.!.!.!.!.!.!.!.!.!.].'.'.'.'.`.`.`.].!.^.Q.Q.K K J K Q.!.!.!.].].|.|.~.~.P P J G D m -.l.KXh.f.PXLX",
"y.h.PXa.a.z.F.^ ~ (.}.%X'.!.K K K K Q.Q.!.`.`.`.-X-X%X%X'.'.'.'.`.!.!.Q.Q.!.!.`.'.'.'.'.`.`.`.!.Q.Q.Q.Q.!.!.!.].|.|.|.|.|.|.|.|.(.K J J J H N v c O o X # * w _ e 9 9 g c.m.m.M.m.c.k g g g l ) qX4X>XsXkXkX,X'.Q.J N N D I @X7X X X X X'.'.'.'.'.].Q.K K J J K !.'.'.'.'.`.`.!.!.^.^..X^.~.K J J J K ~.!.'.-X;X%X'.`.!.Q.Q.K K ].|.|.|.].].|.|.Q.!.!.!.!.].|.|. X|.^.Q.K J D D D J Q.`.-X;X1X-XL v c M M v M G L L P P P P K K Q.!.!.!.!.].|.|.].!.!.!.Q.Q.Q.K K J K K K K Q.Q.!.!.`.`.'.'.'.'.-X X'.].^.Q.Q.K ~.~.^.^.|. X:X XoXS v M c o $ ( p i g l ;.M.S.K.Z.Z.H.Y.W.W.E.E.BXBXiX9XgXjXcXcXgX2X;X%X'.`.^.^.K K Q.!.`.'.'.%X%X'.'.!.Q.K J D J K ~.^. X'.'.'.].^.Q.Q.Q.^.!.].!.!.].].`.`.`.`.`.`.`.`.'.'. X X'.'.'.'. X X'.'.`.!.Q.Q.Q.Q.!.].].!.!.!.Q.Q.Q.Q.K K Q.Q.Q.!.!.!.!.!.!.!.!.!.!.`.'.'.'.'.`.`.`.].!.^.Q.Q.K K J K Q.!.!.!.!.^.^.|.~.~.P P P J G V -.l.KXh.s.PXLX",
"y.h.PXa.a.z.F.^ ~ oX-X%X'.`.Q.K K Q.Q.Q.!.!.`.`.'.'.'.%X%X'.'.'.`.!.!.!.!.!.!.`.'.'.'.'.`.`.`.!.Q.Q.Q.!.!.!.!.!.].].].].].].].].(.K J J J H N v c O o X # * t _ h 9 9 g M.m.m.M.c.k k g g g l / qX4X>XsXkXkX,X'.Q.L F F G I OX+X{.].`.'.'.'.'.'.'.`.!.K J J G K !.'.'.'.'.`.`.!.^.^.^.^.~.Q.K J D D J K !.`.-X:X%X%X`.!.Q.Q.Q.Q.].].].].].].].].!.!.!.!.!.!.].].|.].!.Q.K J D D J K !.`.-X;X1X-XL M v M N v N L L L P P P P P Q.Q.!.!.!.!.!.].].!.!.!.!.!.Q.Q.Q.K K K K K K Q.Q.!.!.!.`.`.'.'.'.'.`.`.].!.^.Q.Q.^.^.^.^.|. X X|.oXS v M c o $ ( p i g l ;.b.S.K.C.Z.H.Y.W.W.E.E.BXBXiX9XgXjXcXcXfX1X%X'.`.!.^.^.K Q.Q.!.`.'.%X%X%X'.'.!.Q.K J D J K ~.^. X'.'.'.^.~.Q.K Q.Q.^.^.!.].`.`.`.`.'.'.`.`.`.`.'.'.'.'.'.'.'.'.'.'.'.`.`.!.!.Q.Q.!.!.].!.!.!.!.!.Q.Q.Q.Q.Q.Q.Q.Q.!.!.!.].!.!.!.!.!.!.].'.'.'.'.`.`.`.].!.^.Q.Q.K K J K !.!.!.!.!.!.^.^.~.~.P P P J J V >.j.KXh.j.PXLX",
"y.h.PXa.a.z.F.^ ~ oX;X&X'.`.Q.K Q.Q.Q.Q.!.!.!.`.'.'.'.%X%X%X%X'.`.`.!.!.!.!.`.`. X'.'.'.`.`.`.!.!.Q.!.!.!.!.!.!.].].].].].].].!.(.K J J J H N v c O o X # * w _ h g 9 l M.m.m.M.c.c.k k k k k ) qX4X>XsXkXkX,X'.Q.L F F G I (.{.!.^.`.`.'.%X%X%X%X'.!.K J J G P !.'.'.'.'.`.`.!.!.^.^.~.~.K J D S F G K Q.].'.-X%X%X'.`.!.Q.Q.Q.].].].].!.].].].!.!.!.!.!.!.!.!.].].^.Q.K J J J J K ^.`.-X;X&X'.P M v N N M N L P P ~.~.~.~.~.Q.Q.!.!.!.!.!.!.!.!.!.!.!.!.!.Q.Q.K K K K K Q.Q.Q.Q.!.!.`.`.'.'.'.`.].].!.!.!.!.^.!.!.!.!.].].]._.oXS M M c o $ ( p i g l ;.b.S.L.C.Z.H.Y.W.W.E.E.BXBXiX9XgXjXcXjXfX;X%X`.!.!.Q.^.K Q.!.`.'.%X&X&X%X'.'.!.Q.K J D J K ~.^. X'.'.'.^.P K K K Q.^.!.].].`.`.'.'.'.'.'.`.`.`.`.'.'.'.'.'.`.'.'.'.'.`.].!.!.!.!.!.!.].!.!.!.!.!.!.Q.Q.Q.Q.Q.Q.!.!.!.!.].!.!.!.!.!.!.].'.'.'.'.`.`.`.].!.^.Q.Q.K K J K !.!.!.!.!.!.Q.Q.Q.K P P P L L C >.j.KXh.j.PXLX",
"y.h.PXa.a.z.F.^ ~ @X5X&X%X`.Q.K Q.Q.Q.Q.!.!.!.!.`.'.'.'.%X%X%X%X'.`.`.!.!.`.`.`. X'.'.'.`.`.`.!.!.!.!.!.!.!.Q.Q.!.!.!.!.!.!.!.!.^.K J J J H N v c O o X # * t _ ` l g k M.m.m.c.M.m.m.m.m.m.m.&.qX=X>XsXkXkX,X'.Q.P G G L I (.!.Q.Q.!.`.'.%X;X;X%X'.!.Q.J G G L !.'.'.'.'.`.`.!.Q.Q.Q.~.Q.K J D S N D J Q.!.'.%X%X%X'.`.!.!.Q.!.!.!.!.!.!.!.!.!.!.!.!.!.Q.Q.Q.Q.`.!.!.Q.K J J J J K !.`.-X%X&X'.~.N M S S N S ~.~.~.~.^.^.^.!.!.!.!.!.!.Q.Q.Q.Q.Q.Q.!.!.!.!.!.!.Q.K K Q.Q.Q.Q.!.Q.Q.!.!.`.`.'.`.!.^.!.!.!.].].].].].!.!.!.^.^.Q.).S v M v o $ ( p i g l ;.M.S.L.C.C.H.Y.W.W.E.E.BXBXiX9XlXkXcXjX,X%X'.`.!.Q.Q.~.Q.Q.!.`.%X&X;X;X%X'.'.!.Q.K J D J K ~.^. X'.'.`.Q.P K J K K Q.^.].`.`.'.'.'.'.'.'.'.'.`.`.`.`.`.`.`.`.`.`.`.`.`.`.].].].].].!.!.Q.Q.!.!.!.!.!.!.!.!.!.!.!.!.!.!.].].!.!.!.!.].].'.'.'.'.`.`.`.!.!.^.Q.Q.K K J K !.!.!.!.Q.Q.K K K K K P P P P Z -.j.KXh.f.LXLX",
"y.h.PXa.a.z.F.^ ~ @X5X&X%X'.~.~.^.^.^.!.!.!.!.!.`.`.'.'.%X%X&X%X'.`.`.`.`.`.`.'. X'.'.'.`.`.`.!.`.!.!.!.!.Q.Q.Q.!.!.!.!.!.!.!.!.^.K J J J H N v c O o X = * t _ c.k l k m.m.m.c.m.m.K.K.L.L.K.P.qX=X>XsXkXkX,X'.Q.P T T U I Q.Q.K K Q.!.'.%X;X;X%X'.!.Q.J D F L !.'.'.'.'.`.`.!.Q.Q.Q.Q.K K J D N B F J K !.`.'.%X%X'.`.!.!.!.!.!.!.!.!.!.!.!.!.!.!.Q.Q.Q.Q.Q.Q.!.!.Q.Q.K K P P K ~.^.`.-X%X%X'.^.S N D D S D .X^.^.^.^.^.].].].!.!.!.Q.Q.Q.Q.Q.Q.Q.Q.!.!.!.!.^.Q.P ~.~.Q.Q.^.^.Q.Q.Q.!.`.`.`.`.!.Q.^.!.].`.`. X`.`.`.!.!.Q.Q.K ).S v M v o $ ( p i g l ;.b.S.K.C.Z.H.Y.W.W.E.E.BXBXiX9XlXkXbXjX>X%X`.!.Q.Q.Q.Q.Q.^.].'.%X;X1X1X%X'.'.!.Q.K J D J K ~.^. X'.'.`.Q.J J J J K Q.Q.].`.`.'.'.'.%X'.'.'.'.'.`.`.`.`.`.`.`.`.`.`.`.`.`.].|. X|.|.].!.Q.Q.Q.!.!.!.!.!.].].!.!.!.!.!.!.].].!.!.!.!.].].'.'.'.'.`.`.`.].!.^.Q.Q.K K J K !.!.!.Q.Q.K K J K J J P P L L W -.l.KXh.f.LXLX",
"y.h.PXa.a.z.F.^ ~ $X6X;X%X'.^.~.^.^.^.!.Q.!.Q.!.`.`.'.'.%X%X;X;X'.'.`.`.`.`.'.'. X'.'.'.`.`.`.!.].!.!.!.Q.Q.Q.Q.!.!.!.!.!.!.!.!.^.Q.J J J H N v c O o X # * t _ M.c.k k m.m.m.c.c.M.K.K.L.L.K.P.qX=X>XsXkXkX,X'.Q.L T T U I Q.K J J Q.!.'.%X;X;X&X'.`.Q.J D F G !.'.'.'.'.`.`.!.Q.Q.Q.Q.K K J S N N S D K !.`.'.%X%X'.`.!.!.!.!.!.!.!.!.!.!.!.!.!.!.Q.Q.Q.Q.K K !.!.Q.Q.K P P P P ~.^. X%X%X%X'.|.D S J J S J .X^.].].|.|.|.|. X!.!.!.Q.Q.Q.K K Q.Q.Q.Q.!.!.!.!.~.~.~.~.~.^.^.!.K Q.Q.!.`.`.`.`.Q.Q.Q.^.].|. X X'.`.`.!.Q.Q.K K ).S M M v o $ ( p i g l ;.M.S.K.Z.Z.H.Y.W.W.E.E.BXBXiX9XlXkXcXjX>X'.`.!.Q.Q.Q.Q.~.!.`.'.;X;X1X1X%X'.'.!.Q.K J D J K ~.^. X'.'.`.K J J D J K Q.Q.].`.'.'.'.%X%X%X-X X'.'.`.`.`.`.`.`.`.`.`.`.`.!.!.].|. X X|.].!.Q.Q.Q.Q.!.!.!.].|.|.].!.!.!.!.Q.].].].!.!.!.!.].'.'.'.'.'.`.`.].!.^.Q.Q.K K J K !.!.!.Q.Q.K K J J J J J P L P W -.l.KXh.f.LXLX",
"y.h.PXi.a.z.F.^ ~ $X6X1X&X%X].^.^.^.^.Q.Q.Q.Q.Q.!.`.`.'.%X%X;X;X'.'.`.`.`.`.'.'.'.'.'.'.'.`.`.`.`.].`.!.!.Q.Q.Q.!.!.!.!.!.!.!.!.(.Q.J J U H N v c O o X = * t h b.c.k c.m.m.m.c.k #.m.K.K.K.m.&.qX=X>XsXkXkX,X'.Q.L T T T K Q.K K K Q.!.`.%X-X;X-X`.!.K J D F G !.'.'.'.'.`.`.!.Q.Q.Q.Q.K J D S N N S D K Q.`.'.-X'.'.`.!.Q.Q.Q.!.!.!.!.!.!.!.!.!.Q.Q.Q.K K K K !.!.!.Q.Q.K P P P ~._.|.}.%X%X`..XD S D J S J |..X.X|.|.|. X X X!.!.Q.Q.K K J J K K Q.Q.!.`.`.`.!.^.^.^.!.!.!.!.K K Q.Q.Q.!.!.!.Q.!.!.`.]. X X X`.`.`.!.!.Q.Q.K Y N v v c + $ ( a i g l ;.M.S.K.Z.Z.H.Y.W.W.E.E.BXBXiX9XlXkXcXjX>X%X'.`.Q.Q.Q.Q.^.!.].'.:X;X1X1X%X'.`.!.Q.K J J K K ^.]. X'.'.`.Q.K J J J K Q.!.`.`.'.'.'.'.%X'.-X-X'.`.`.!.!.Q.!.!.!.!.`.`.`.`.!.].|.$X$X|.].!.Q.Q.Q.Q.!.!.].].|.|.|.`.`.!.!.!.`.`.`.`.].].].].'.'.'.'.`.`.`.].!.^.Q.Q.K K J K !.!.!.!.Q.K K J J K J K P P P W -.l.KXh.f.LXLX",
"y.d.PXi.a.z.J./ ~ @X6X>X>X%X`.!.Q.Q.Q.Q.Q.Q.Q.!.!.!.`.'.-X%X'.'.%X'.'.`.`.'.'.'.'.'.'.'.'.`.`.`.'.'.'.`.`.!.!.!.`.`.`.`.`.`.`.!.(.K J J J H N v c O o X # * w h h l k k c.M.m.m.K.K.K.K.K.K.K.U.pX0XfXzXnXzXfX%X!.P T T L K K K Q.Q.!.`.`.'. X@X|.).I J H H H U !.'.'.'.'.`.`.!.Q.Q.Q.Q.K J D S S S D J K Q.!.`.`.`.!.(./.K U K !.`.`.`.!.!.!.!.^.^.^.Q.K K K K `.`.!.!.Q.Q.I I K /.(.(.}.-X5X}.U G S S S D J J ).)._.).(.(.(.(.(.Q./.K J D S S S D K Q.!.`.`.`.-X'.'.'.`.`.!.!.Q.Q.K K K K ~.^.`.'.'.'.`.].].].^.].`.`.`.`.`.Q.U M c c + X # ( a l l l k b.N.S.Z.K.K.L.W.E.E.E.U.BXiX9X0XhXcXcX,X&X&X'.`.!.Q.K ^.^.].|. X:X6X:X X X`.!.Q.K K J K Q.^.|.$X X`.`.!.!.Q.K K Q.!.`. X X X X X-X-X-X'.'.`.!.!.Q.K K K K Q.!.!.`.'.'.!.!.]. X X].!.Q.!.!.!.!.!.].].].^.^.`.`.'.'.%X%X'.'.'.`.`.!.Q.!.`.'.'.'.'.`.`.!.Q.Q.Q.Q.Q.K K Q.Q.!.!.!.!.Q.Q.Q.Q.Q.K K K K ~.T -.l.KXh.f.PXLX",
"9.d.LXp.i.z.J./ ~ @X1X,X>X&X'.!.Q.P K Q.Q.Q.Q.Q.Q.!.`.'. X'.'.'.'.'.'.`.`.'.'.'.-X'.'.'.'.'.`.`.'.'.'.`.`.`.!.!.`.`.`.`.`.`.`.`.(.K J J U H N v c O o X # * w _ h l k k c.M.m.m.K.K.G.B.K.K.K.P.pX8XfXzXnXzXfX%XQ.P G T L K Q.Q.!.!.`.`.`.`.|._.oXY U H H H H H (.'.'.'.'.`.`.!.Q.Q.Q.Q.K K J D S S D J K Q.!.`.`.!.(./.K U L K !.`.`.`.`.!.!.!.!.^.Q.Q.K K J K `.'.`.!.(.Q.K I K K /.(.{.}.5X+XU F S S S D G J U ).)./././././.(./.K J D S N N S D K /.(.`.`.'.-X%X%X'.'.`.!.!.Q.Q.K J J P P ^.'.%X%X'.`.].!.^.^.^.`.`.`.'.'.!.Y v O c + X & p a l d l k b.N.D.B.V.K.L.L.T.R.R.U.BXiX9X3XdXcXcX,X>X&X%X'.!.Q.Q.^.^.^.]. X:X:X:X X|.].!.Q.Q.K K K Q.!.|.|.|.].!.`.!.!.Q.Q.!.!.`. X'. X'.'.'.'.'.'.'.`.!.Q.K J J J J K Q.!.`.'.'.!.!.].|.|.].!.Q.!.!.!.!.!.].].!.^.!.].`.'.%X%X&X%X%X'.'.`.!.Q.!.`.'.'.'.'.`.`.!.Q.Q.Q.Q.Q.K K Q.!.`.!.!.!.!.!.Q.!.Q.Q.K K K ~.T -.l.KXh.f.PXLX",
"9.s.LXp.i.z.J./ ~ @X;X,X>X&X'.!.Q.P K K Q.Q.Q.Q.Q.!.`.'.-X-X'.'.'.'.`.`.`.`.'.'.'.'.'.'.'.`.`.`.'.'.`.`.`.`.`.!.`.`.`.`.`.`.`.`.(.K J J U H N v c O o X # * w _ h l k k c.M.m.m.G.m.m.m.m.m.m.P.pX0XlXzXnXzXfX%XK D F G L P !.`.`.`.`.`.`.!.!./.oXY H H H H H H (.'.'.'.'.`.`.!.Q.Q.Q.Q.K K J D S S D J K Q.!.`.`.!.(./.I U L K !.`.`.`.`.`.!.!.!.^.Q.Q.K K J Q.`.}.`.!.Q./.K K K K /.(.{.}.-X{.J F S N S S D J U I I /././././.(./.K J D S N N S D K Q.(.{.'.'.-X%X%X'.'.`.!.!.Q.Q.K J J P P ^.%X&X%X'.`.!.^.^.^.!.`.`.'.'.%X`.Y v O O + X & p l l d l k b.N.S.v.#.M.G.L.L.R.R.U.BXiX9X3XdXjXcXsX>X&X%X'.!.!.Q.Q.Q.^.].'. X-X:X X|.].!.!.Q.Q.Q.Q.Q.!.].].].!.!.`.`.!.!.Q.!.`.`.'.'.'.'.'.'.'.'.'.'.`.!.Q.K J J J K K Q.`.`.'.'.!.!.!.].].!.!.Q.].!.!.!.!.!.!.!.^.^.!.`.'.%X%X%X%X%X'.`.`.!.Q.Q.`.'.'.'.'.`.`.!.Q.Q.Q.Q.K K K Q.!.`.`.!.!.!.!.Q.!.Q.Q.K K K K A -.l.KXh.f.PXLX",
"9.s.LXp.i.z.J./ ~ @X;X>X>X%X`.!.Q.P K K Q.Q.Q.Q.Q.!.`.'.-X-X'.'.'.`.`.!.!.`.`.'.'.'.'.'.'.`.`.`.`.`.`.`.`.`.`.`.'.'.'.'.'.'.'.`.(.K J J U H N v c O o X # * w _ h l k k c.M.m.m.m.m.m.m.m.m.m.3.pX0XfXzXzXzX2X%XK D F F L ~.].[.'.'.'.`.!.!.Q.K ).U J H S N N H (.'.'.'.'.`.`.!.Q.Q.Q.~.Q.K J D S S D J K Q.!.`.`.!.(./.I U L K `.'.'.'.`.`.`.!.!.Q.Q.Q.K K K Q.{.}.{.!.Q.K K J J K K Q.(.{.}.{.J S N N N S D D J K K K /././.(.(./.K J D S N N S D K /.{.}.'.'.-X%X%X'.'.`.!.!.Q.Q.K K K P ~.^.%X&X%X'.`.!.Q.Q.^.!.!.`.'.'.%X`.Y v O O + X & p l l l l ;.b.N.S.' #.M.m.m.S.L.I.U.NXiX$X:XsXjXcXsX>X>X%X'.`.!.Q.Q.Q.Q.!.`.'.-X-X X|.].!.!.!.Q.Q.Q.!.!.!.!.!.!.!.`.`.!.!.!.!.`.`.'.`.'.'.'.'.'.'.'.'.`.!.Q.K J J J K Q.^.`.'.%X'.!.!.!.!.!.!.!.!.].].].].!.!.!.!.Q.Q.!.`.'.'.%X%X%X%X'.`.`.!.Q.Q.`.'.'.'.'.`.`.!.Q.Q.Q.Q.K K K Q.!.`.`.`.`.!.!.!.^.^.Q.K K K K A -.l.KXh.s.PXLX",
"9.s.LXi.i.z.J./ ~ @X;X>X&X%X`.Q.K K K K Q.Q.Q.Q.Q.!.`.'. X'.'.'.`.`.!.!.!.!.`.`.'.'.'.'.`.`.`.`.!.!.`.`.`.`.`.`.'.'.'.'.'.'.'.`.(.K J J J H N v c O o X = * t _ h l k k c.M.m.m.m.m.m.m.m.m.m...iX9X8XlXzXzX2X'.J S N B G ~. X:X%X%X'.`.!.Q.K K /.U D S N N N H (.'.'.'.'.`.`.!.!.^.^.~.~.K J J S D D J K Q.!.`.!.!.(./.I U L K ].'.'.'.'.`.`.].Q.Q.Q.Q.K K P Q.}.}.{.!./.K J J J J K /.!.{.}.{.D N N N N S S D D J J K /./.(.(.(./.K J D S N N D D K (.{.}.}.'.-X'.'.'.`.`.!.!.Q.Q.K K K K ~.^.:X&X%X'.`.!.Q.K ~.~.!.`.'.%X%X'.Y v O O + X # a l l d l k v.N.S.' #.#.M.m.S.L.D.U.NXiX$X;XsXjXjXsX>X>X%X'.`.!.Q.K K Q.^.].`.'.'.|.].].].!.!.!.!.!.!.!.Q.Q.Q.Q.!.!.`.`.`.`.`.`.`.`.`.`.`.`.`.`.`.'.'.`.!.Q.K J J P P ~.^.`.'.-X-X!.!.Q.Q.Q.Q.!.!.|.|.].].!.!.!.Q.K K Q.!.`.'.%X%X%X'.'.`.!.Q.Q.Q.`.'.'.'.'.`.`.!.Q.Q.Q.Q.K K K Q.`.`.`.`.`.!.!.!.|.^.Q.K K K K A -.l.KXh.f.LXLX",
"9.s.PXi.i.z.J.( ~ oX;X&X%X'.!.Q.K K K K Q.Q.Q.Q.Q.!.`.'. X'.'.'.`.!.!.Q.Q.!.!.!. X'.'.`.`.`.!.!.!.!.!.!.!.`.`.`.`.`.`.`.`.`.`.`.(.K J J J H N v c O o X = * t _ h l k k c.M.m.m.m.m.M.M.M.M.M.] iX9X8XlXzXzX2X'.K S N N G ~. X:X%X%X'.`.!.Q.Q.K I I D S N N B S (.'.'.'.'.`.`.!.^.^.^.^.~.~.K J S D D J K Q.!.`.`.!.(./.I U L K {.'.'.'.'.`.`.].Q.Q.Q.K Q.~.~.^.+X+X{.(./.J D D D J J K (.`.`.(.D N N N N S S D D D J K K /.(.(.(./.K J D S N N D J /.(.{.}.-X'.-X'.'.`.`.`.!.!.Q.Q.K K K Q.~.].:X;X-X'.`.Q.K K ~.~.!.`.'.%X;X XU v O O + X # p a l d l k b.N.S.' #.#.M.m.K.L.I.U.3.yX$X&XsXjXjXsX2X;X%X'.].^.~.K K K Q.!.`.`.`.|.].].].].].].].!.!.Q.Q.K Q.Q.Q.!.`.`.'.'.`.`.!.`.`.`.`.`.`.`.`.'.'.`.!.Q.K J J P P ~.^.`. X:X:X!.!.Q.Q.Q.Q.!.!.|.|.|.].!.!.Q.Q.J J K Q.`.'.%X%X'.'.'.`.!.Q.Q.Q.`.'.'.'.'.`.`.!.Q.Q.Q.Q.K K P Q.`.'.`.`.`.`.`.!.|.].Q.K K J J B -.l.KXh.f.LXLX",
"9.s.PXi.i.z.r.( ~ oX-X&X%X`.Q.K K K K Q.Q.Q.Q.Q.Q.!.`.'. X'.'.'.!.!.Q.Q.Q.Q.!.!. X|.`.`.`.`.!.!.Q.Q.!.!.!.`.`.`. X X X X X X X|.(.Q.J J J H N v c O o X = * t _ h l k k c.M.m.m.M.M.M.M.M.M.M.] iX9X0XlXzXzX1X'.Q.G N N D ~. X:X'.'.'.`.!.!.Q.K I I D S N M B S !.'.'.'.'.`.`.!.!.^.^.^.^.~.K J S D D J K Q.!.`.`.!.(./.I U L K |.-X'.'.'.'. X|.Q.K K K Q.~.~.^.+X+X{.(.K J D S D D J K Q.(.`.(.D N N M N N S D S D J J K /.(.(.(./.K J D S N N D J /._.+X+X-X-X X'.`.`.`.!.!.!.Q.Q.Q.K K Q.^.].:X:X-X'.!.Q.K J ~.~.^.]. X:X:X:XT v O O + X & p a l d l k b.N.S.#.#.v.m.K.L.L.I.U.X.yX$X&XsXjXjXfX1X;X-X'.].^.~.J J K K !.!.`.`.].].].|.|.|.|.|.].!.Q.K K K Q.Q.!.`.'. X X'.`.!.`.`.`.`.`.`.`.`.'.'.`.!.Q.K J J P ~.~.^. X X:X:X`.Q.Q.K K Q.!.!. X$X|.].!.!.Q.K D D J Q.!.`.'.%X'.'.`.`.!.Q.K Q.!.'.'.'.'.`.`.!.Q.Q.Q.Q.Q.K K Q.`.'.'.'.`.`.`.!.$X|.^.K K J J b -.j.KXh.f.LXLX",
"y.d.PXi.i.z.r.' ~ oX}.%X'.`.~.P K K K Q.Q.Q.Q.Q.Q.!.`.'. X'.'.'.!.Q.Q.K K Q.Q.!.|.|.].].!.!.!.!.Q.Q.Q.!.!.!.].].|.|.|.|.|.|.|.|.^.Q.J J J H N v c O o X = * t _ h l k k c.M.m.m.M.M.M.M.M.M.M.] iX9X7X8XlXlX1X`.~.G B N D K '.:X'.'.`.`.`.!.Q./.K J D S N M M S !.'.'.'.'.`.`.!.!.^.^.|.^.~.K J S D D J K Q.!.`.!.!.(./.I U L K  X-X-X X X X X|.K K K K Q.~.~.^.+X+X{.(.K J D S S D D J Q.Q.!.Q.S N M M M N S D S D D J K /.(._.(./.K J D S N N G U )._.+X+X-X}. X|.].].!.!.!.!.Q.Q.Q.Q.Q.Q.^.|.7X:X:X`.^.K J J P ~.~.]. X:X:X9XT v O O + X # p l l d l k v.N.S.V.#.M.G.L.L.R.R.U.3.yX@X&X,XjXjXfX1X;X:X'.].~.~.J J K K Q.!.`.].].].].|.|.|.|. X|.!.Q.K K K Q.Q.!.`.'.:X:X'.`.!.`.`.`.`.`.`.`.`.'.'.`.!.Q.K J J P ~.^.]. X:X:X:X`.Q.K K K K !.!.$X X|.].!.Q.Q.K D D J K !.`.'.%X'.`.`.!.Q.Q.K Q.!.'.'.'.'.`.`.!.Q.Q.Q.Q.Q.K P Q.`.'.'.'.`.`.`.].$X|.^.K J J J b -.j.KXh.f.LXLX",
"y.f.ZXi.g.z.w.t ~ oX{.'.`.^.P P J J K K Q.Q.^.!.].`.`.`.'.'.'.`.`.!.Q.Q.Q.Q.!.!.!.^.].].|.|.$X$X].].].!.!.!.!.Q.!.!.!.!.!.!.!.!.K K K J D S M v c O o X # * w _ h l k k c.M.m.m.M.M.M.M.M.M.M.] } $X'.%X2X2X%X!.J S M B D K `.%X'.`.`.`.!.!.Q./.oXY H H N B B S !.'.'.'.'.`.`.!.Q.Q.Q.Q.K K K P S D J K /.(.{.+X}.{.(.K J J G K ].'.:X:X:X X`.].Q.Q.K K K K ~.^.(.OX@X_.J S S D N S D K /.Q.!.Q.J F S S S D G U U K K K K /././././.K J D S S S G U )._.+X+X-X}.`.!.Q.Q.Q.Q.!.!.!.!.!.!.!.!.!.!.'.'.`.!.Q.K D D P P ~.^.].'.-X|.D c O O + X # q 8 8 8 9 d j ,.<.#.#.v.m.m.S.S.D.P.X.yX$X>XsXjXhXfX&X'.`.`.^.~.J D D D D J Q.!.|.|.|.].].!.!.!.!.K K Q.Q.!.Q.Q.Q.`.`.'.'.'.'.'.'.!.!.!.`.`.`.`.'.'.'.`.!.Q.K J J P K ~.^.].'.%X'.`.!.!.Q.Q.Q.!.!.].].|.|.].!.!.Q.J J K Q.!.`.'.'.'.`.!.Q.J J J J !.'.'.'.'.`.`.!.Q.Q.K K K K ~.^.`.'.'.'.`.`.`.!.^.Q.K J J J J n -.j.KXh.f.LXLX",
"y.f.ZXi.g.z.w.t A I Q.!.Q.K G G J J K K Q.Q.^.!.!.`.`.`.'.'.'.`.!.Q.Q.K K Q.Q.^.Q.Q.Q.Q.^.^.^.^.].^.^.^.^.Q.Q.Q.Q.Q.Q.Q.Q.Q.Q.Q.K K K J D S M v c O o X # * w _ h l k k c.M.m.m.M.M.M.M.M.M.c.] } .X].'.&X>X'.Q.J N M B D K `.%X'.'.'.`.`.!.(./.oXY H H N B B S (.'.'.'.'.`.`.!.Q.Q.Q.K K K K K S D J K /.{.{.+X+X{.(.K J J G K `.'.-X:X:X X`.!.Q.Q.K K K K ~.^.(.@X@X).J S S F N S D U K Q.Q.K L F S S S D G U U I I /././././././.K J D S S S G J /._.+X+X-X}.!.Q.Q.K K Q.Q.^.!.!.!.!.`.`.`.`.'.'.`.!.Q.J D D D J J K !.!.`.!.D c O O + X # q 8 8 7 9 g j ,.<.#.#.v.m.m.S.S.D.P.X.yX$X>XsXjXjX,X&X'.`.].^.P D D S S D J Q.^.].|.].].!.!.!.!.!.K K Q.!.!.!.!.!.`.`.'.`.'.'.'.'.!.!.!.`.`.`.`.'.%X'.'.`.^.K K J P K ~.^.`.'.%X'.`.!.Q.Q.Q.Q.!.!.].].|.|.].!.!.K J J K Q.!.`.'.'.'.`.!.K J J D J !.'.'.'.'.`.`.!.Q.Q.K K K K ~.^.'.'.'.'.'.`.`.].^.Q.K J J J J n -.j.KXh.f.LXLX",
"y.f.f.i.g.GXw.q n S K Q.K J S S D J K K K Q.Q.!.!.`.`.`.`.`.'.`.!.Q.K K K K Q.Q.K K K K Q.Q.Q.Q.^.^.^.Q.Q.Q.Q.Q.K K K K K K K K K K J J D S M v c O o X # * t _ h l k k c.M.m.m.c.c.c.c.M.M.c.] Q P Q.`.%X&X`.K D N M B D Q.'.%X%X%X%X'.'.`.|._.oXY H H N B B S (.'.'.'.'.`.`.!.Q.Q.Q.K K K K J S D J K /.(.{.+X+X{.(.K J J G K `.'.'.-X X'.`.!.Q.Q.K K K K ~.~.(._.@X).D S S F N N D J I /.Q.K L F S S S D G U ).).)._._._._._././.K J D S S S D J /.(.OX}.-X'.!.K K K K K Q.!.].`.`.`.'.'.'.'.'.'.].!.K J D S S S D J K Q.!.Q.D c o O + X # q 8 9 8 9 g j ,.<.#.#.v.m.m.m.S.D.P.X.yX$X>XsXjXhX,X%X'.`.]..XP D S S S D J K ^.].].].!.!.!.!.!.Q.Q.Q.!.!.].].!.!.`.`.`.`.`.`.`.`.!.!.!.`.`.`.`.'.:X-X X|.^.~.P P P K Q.^.`.'.%X'.`.!.Q.Q.Q.Q.!.!.].].|.|.].!.!.K J G J K Q.!.`.'.`.`.Q.K J D D J !.`.'.'.'.`.!.!.Q.Q.K K K K ~.^. X-X-X X X X X|.^.Q.K J J J J n -.l.KXh.f.PXLX",
"y.f.ZXi.ZXGXw.q n S K K J D N N D J J K K Q.Q.!.!.!.!.`.`.`.`.`.Q.K K J J K K Q.K K K K K Q.Q.Q.~.~.~.Q.Q.K K K J J J J J J J K K K K J D S M v c O o X # * t _ h l k k c.M.m.m.c.M.c.c.M.M.c.] Q L K !.'.%X!.J D N M B D Q.'.%X%X*X*X-X[. X|._.oXY H H N B B S (.'.'.'.'.`.`.!.Q.Q.K K K K J J S D J K /.(.{.+X+X{.(.K J J G K !.'.'. X X`.`.!.Q.K K J J K P ~.(._.#X).D N N F M N F J U K Q.K G F S S S D G U ).).oXoX_._._._././.K J D S S S D D K (.{.}.}.`.Q.K J J J K Q.Q.|. X X X X-X-X X'.`.!.Q.K J D S S S D J K Q.!.Q.G c o O + X # q 8 9 8 9 g j ,.<.#.#.v.m.m.m.S.D.P.X.yX$X>XsXjXhX,X%X`.!.^..XP D S S S D J K ~.^.!.!.!.!.!.Q.Q.Q.Q.!.!.].|.|.].].`.`.`.`.`.`.`.`.!.!.!.`.`.`.`.'.:X:X:X X].^.~.P P K Q.^.`.'.%X'.`.!.Q.Q.Q.Q.!.!.].].|.|.].!.!.K J G J K Q.!.`.`.`.!.Q.K J D D J !.`.`.'.`.`.!.Q.Q.Q.K K K K ~.^. X-X:X:X X X X X!.Q.K J J J J n -.l.KXh.f.PXLX",
"y.f.f.f.FXGXt.q A H K Q.K G F F S J J J K K Q.Q.!.!.!.`.`.`.`.!.Q.K J J J J K K K K K Q.~.~.~.~.~.Q.Q.K K K K K K K K K K K K K J K K J D S M v c O o X = * t _ h l k k c.M.m.m.M.M.M.c.M.M.M.$.W G J Q.`.'.!.J D N M B D Q.'.&X%X*X-X-X X X|._.oXY U H N N B S (.'.'.'.'.`.`.!.Q.K K K K J J J S D J K /.(.{.+X+X{.(.K J J G K !.'.'.'.'.`.`.!.K K J J J K K Q.(._.#X).D N N F M N F J U K Q.K G F S S S D G U ).).oXoX_._._._././.K J D S S S S D K /.{.}.'.`.Q.J J J J J K Q.|. X[. X-X-X-X-X'.`.!.Q.K D S S F D J K Q.Q.!.Q.G c o O + X # q 8 y u 9 g j ,.<.#.#.M.m.m.A.S.D.P.X.yX$X;XsXjXhX,X%X`.!.^..XL D S S S S D K ~.^.^.!.!.!.Q.Q.Q.Q.Q.!.!.].|.|.].].`.`.`.`.`.`.`.`.!.!.!.`.`.`.`.'.:X:X:X X].~.~.P P K Q.^.`.'.%X X`.!.Q.Q.Q.Q.!.!.].].|.|.].!.!.K G G J K Q.!.`.`.`.!.Q.K D D D J Q.`.`.`.`.!.!.Q.Q.Q.K K K K ~.^.'.-X'.'.'.'. X|.!.Q.K J J J J B -.l.KXh.f.PXLX",
"y.h.f.f.ZXGXt.8 Z H K K J G F F S D J J K K Q.Q.Q.!.!.!.!.`.`.!.K J J J J J J K K K K Q.~.~.~.~.Q.K K K K J J J K K K K K K K K J K K J D S M v c O o X = * t _ h l k k c.M.m.m.M.M.M.c.M.M.M.$.W T P Q.'.'.!.J D N M N D Q.'.&X%X%X%X'.'.{._._.oXY U H N N B S (.'.'.'.'.`.`.!.K K K J J J J D S D J K /.(.{.+X+X{.(.K J J G K !.`.'.'.'.`.!.!.K K J J J J K K /._.#XU D N N F M N F G U K K K L F S S S D G U ).).).oX_._._._././.K J D S S S S D K Q.(.{.'.`.K J D D J J K Q.].`.'.'.%X%X%X%X'.`.^.Q.J D S S F F G J K Q.!.Q.G c o O + X # q 8 y 7 9 g j ,.<.#.#.M.m.m.A.S.D.P.X.yX$X;XsXjXdX2X%X`.!.^..XL F N N S S D K ~.^.!.!.!.Q.Q.Q.Q.Q.Q.Q.!.!.].].!.!.`.`.`.`.`.`.'.`.!.!.!.`.`.`.`.'.:X-X X|.^.~.P P P K Q.^.`.'.%X X`.!.Q.Q.Q.Q.!.!.].].].|.].!.!.K G G L K Q.^.`.`.`.!.Q.J D D S J Q.!.`.`.`.!.Q.Q.Q.Q.K K K K ~.^.`.'.'.'.`.`.`.].!.Q.K J J J J B -.l.KXh.f.PXLX",
"y.h.f.i.ZXGXt.8 V S J J D S B B S D J J J K K Q.Q.!.!.!.!.!.`.!.K J D D D D J J J J J K K K P P K K K K J J J J J J J J J J J J J K K J D S M v c O o X X * t h h l k k c.M.m.m.M.M.M.M.c.c.M.$.| Q P ^.'.%X`.K D N M B D Q.'.&X'.'.'.`.`.!.!./.oXY U H N N B S (.'.'.'.'.`.`.!.K K K J J J J D S D J K /.(.{.+X+X{.(.K J J G K !.`.`.'.`.`.!.Q.K J J D J J K K /._.#XU D N B B M N F G U K K K L F S S S D G U U I /./././././././.K J D S S S S D K /.!.`.`.!.K D D D D J K Q.!.`.`.'.'.'.'.'. X].^.Q.J G S S N S D D J K Q.K F c o O + X # q y u 7 9 g j ,.<.#.#.v.m.m.A.S.D.P.X.yX$X;XsXjXdX1X'.`.!.^..XL F N N N S D J ~.^.Q.!.Q.Q.Q.Q.K K K K Q.!.!.!.!.!.`.`.`.`.'.'.'.'.!.!.!.`.`.`.`.'.%X'.'.`.^.K K J P P Q.^.`.'.%X X`.!.Q.Q.Q.Q.!.!.!.].].|.].!.Q.K G G J K Q.^.!.`.`.!.Q.J D S S J Q.!.`.`.`.!.Q.Q.Q.Q.K K K K ~.^.!.`.`.`.!.!.!.!.!.Q.K J J J J n -.l.KXh.f.LXLX",
"y.j.h.i.ZXGXt.7 @ v S S N M m m N S D D D J J J K K K Q.Q.Q.Q.K J D D S S S D D S S D D D D D D P P J J J D D D S S S S S S S S D J J D D N M v v c O o @ * ^ _ h l k k c.M.m.m.M.c.M.M.M.M.M.$.o.Q .X|. X-X`.Q.D S N S J Q.'.-X`.`.!.!.!.Q./.K oXY U D S N N D (.`.{.{.|.|.(.Q.K J J J J J D D D D J K /.(.OXOXOX{./.K J J J U Q.!.!.`.`.!.Q.Q.K J D D D J K K /.oX#XU D N N F N N S J U I K J J G S S S D J U U U I I I I /././.K K J D D S S S D J K (.(.!.Q.J D D S D J J K Q.!.!.!.`.`.`.!.|..X).P L D S N M M N S S D J D S c o O + X # w q 9 9 9 g j ,.c.v.v.M.m.m.G.K.Z.P.X.yX$X>XsXjXhX1X{.!.Q..X.XL D S S S S D J ~..XQ.Q.Q.Q.K K K K J K K Q.Q.Q.Q.Q.|.`.`.`.`.`.`.`.Q.Q.!.!.!.!.`.`.`.`.!.Q.K K J J K P /.~.(.{.}. X(.!.Q.Q.Q.Q.Q.(.(.^._.|._.^.Q.K G G J J K Q.(.(.(.Q.K J D D D J K Q.!.!.!.Q.K K Q.K K K K K )..XK Q.Q.Q.K K K K Q.K J D D D D n >.j.UXh.s.PXLX",
"9.j.i.p.i.FXe.6 = % n n v c O O v M M M M M M M N N N N N N N N M M M M M M M M N M N M N M N M N M N M N M N M N M N M N M N N M M M M M v v v v v v v n A { / w 9 0 g c.m.m.c.M.M.M.M.M.M.M.] yX@X(.{.OX+X(.K K K J K K Q.Q.Q.K J J J J J D D D D D D D D D D J J J J J J J J K J J J J J J J D D D J J J J J D D D D D D S S D D D D D D D D J J J J J J D D D D D D D D S S S S D D D D D D D D D D D D D D S S D D D D D D J J J D D D D D D D J J J J J J J J J J J J J J J J J J J J J J D D F F F F F N v v M M M M M M c c n @ o X = 1 t t 9 9 d l q.q.b.b.b.n.q.q.#.%.*.o.qX*X,XdXjXdX'./.K J J D J J J J J J J J J J J K K K K K K K D D D D D D D D J J J J J J J J J J J J J J J J J J J J J J D D J J J K K K K K J J J J J J J J J J J J J J J D D D D D J J J J K K J J J J J J K K K K K K K K K J J J J J J J D G G D G D G D N N N N N N N @ 4 j.HXs.s.f.LX",
"9.j.i.p.VXDXe.6 x % A A A m % @ c v v v v v v v v v v v v v v v v v v v v v v v v v v v v v v v v v v v v v v v v v v v v v v v v v v v v v v v v v v v B B T { w 9 0 g c.m.m.c.M.M.M.M.M.M.M.] wX@XOXOXOXOX/.K K K K K Q.K K K D D D D D D D D D D D D D D D D D D D D D D D D D D D D D D D D S S D D D D S S D D D D D D D D D D D D D D D D S S S S S S S S D D D D D D D D D D D D D D D D D D D D D D D D S S S S S S S S S S D D S S S S S S S S S S S S D D D D D D D D S S S S S S S S N B B B B B B B v v v v v v v v c A A m % % % 1 ^ r e 9 d l q.q.A.2.A.n.q.O.#.%.*.Q .X[.>XsXhXsX`.U D D S D D D D D D D D D D D D D D D D D D D D D D D D D D D H H H H J J H H D D D D D D D D S S S S D D S S D D D D D D D D D D D D D D D D D D D D D D D D D D D D D D D D D D D D D D D D D D D D D D D D D D D D D D D D N B B B B B B B v v v v v v v X 4 s.PXs.s.f.LX",
"9.j.i.p.VXDXe.6 x % A A A A % % m v v v v v v v c c c c c c c c v v v v v v v v c c c c c c c c c c c c c c c c c c c c c c c c v v v v v v v v c c c c v B A W w 9 9 g c.m.m.c.M.M.M.M.m.m.m.1.} oX/./.oXoXI J K K I I K K K J S S S S S S S S S S S S S S S S S S S S S S S S S S S S S S S S N N N N N N N N S S S S S S S S S S S S S S S S N N N N N N N N S S S S S S S S S S S S S S S S S S S S S S S S N N N N S N N N N N N N N N N N N N N N N N N N S S S S S S S S N N N N N N N M M b b b b b b b v v v v v v v b c A A A % % % ! _ r e 9 g l q.n.2.2.b.M.q.O.#.%.=.Q T ^.%X>XsX>XQ.H S N N N N S S S S S S S S S S S S S S S S S S S S S S S S S H H H H H H H H S S S S S S S S N N N N N N N N S S S S S S S S S S S S S S S S S S S S S S S S S S S S S S S S S S S S S S S S S S S S S S S S S S S S S S S N M n n n b b b b c c c c c c c X 4 s.PXs.s.f.LX",
"9.j.i.p.VXDXe.6 x = A A A m % @ O c c O c c c c O O O O O O O O c c c c c c c c O O O O O O O O O O O O O O O O O O O O O O O O c c c c c c c c O O O O m n Z E r 9 9 g c.m.m.c.m.m.m.m.m.m.m.V.} oXY Y Y Y H S J H H H J J J H N N N N N N N N M M N N M M M M M N N N N M M M M M M M M M M M M M M M M M M M N N N N N N N N N N N N N N N N M M M M M M M M M N N N N M N N N N N M N N N N M M N N M M M M M M M M N M M M M M M M M M M M M M M M M M M M M M M M M M M M M M M M M M M v v m m m m m m m c c c c c c c m O m A m % % % 1 _ s g g g O.q.n.2.2.b.n.q.O.O.#.( W T P !.%X>X%XJ B M M M M M M M M M M M M M M M M M M M M M M N N N N N N N N H B B B F F F H M M M N M M M M M M M M M M M M M M M M M M M M N N N N M M M M N N N N M M M M B B B B B B B B M M M M M M M M M M M M M M M M M M M M M M M M b m m m m m m m O O O O O O O X 0.s.PXs.s.f.SX",
"9.j.i.p.VXDXe.6   = % m m % = X + + + + + + + + + + + + + + + + + + + + + + + + + + + + + + + + + + + + + + + + + + + + + + + + + + + + + + + + + + + + + $ Z R e 9 0 g c.m.m.c.m.m.m.m.m.m.m.V. .~ T T ~ T H N H H H H H H H B M n n n n n n n b b n n m n n n n n b b n n n n n n n n n n n n n n n n n n n n b b b b b b b b b b b b b b b b c c c c c c c c n n b b n n n n n b n n n n n n b b n n b n n n n n n n n n n n c c c c c c v v c c c c v c c c n n n n n n n n c v c c c c v c m $ $ $ $ $ $ $ + + + + + + + @ o % m % X = = 1 _ s h l l O.q.m.2.2.b.M.q.q.O.O.O.W W T P ^.[.].H A n b c c b n n n n n n n n n n n n n n n n n b b b b b b b b n n n n n n n n b b b b b b b b n n n n n n n n n n n n n n n n b b n n b b m n n n b b n n b b A A A A A A A A n n n n n n n n n n n n n n n n n n n n n n n m m $ $ $ $ $ $ $ + + + + + + +   0.s.HXs.s.f.LX",
"9.j.i.p.p.DXe.6 x = A A m % = & # # # # # # # # $ $ $ $ $ $ $ $ # # # # # # # # $ $ $ $ $ $ $ $ $ $ $ $ $ $ $ $ $ $ $ $ $ $ $ $ # # # # # # # # $ $ $ $ $ * , w e 9 8 g c.m.m.c.m.m.m.m.m.m.m.V...} ~ { { { { A A A A A A A A A m @ m m m m m m m m m m @ @ m m m m m m m m m m C C C C C C C C Z Z Z Z Z Z Z Z V V V V V V V C V V V V m m V m m m m m m m m m m m m m m m m m m @ m m m m m m m m m m @ m m m C V V V C C C C m m m m m m m m m m m m m m m m C C C C C C C C m m m m m m m $ * * * * * * * * # # # # # # # $ @ % C % = = 1 t ' h h l l q.n.m.2.2.b.M.q.q.O.O.+.%.W W T T .XqXA Z Z V m m C C C C C C C C C C C C C C C C C C V V V V V V V V Z Z Z Z Z Z Z Z Z Z Z Z Z Z Z Z Z Z Z Z Z Z Z Z C C C C C C C C m m m m @ @ m m m m m m m m m @ Z Z Z Z Z Z Z Z C C C C C C C C C C C C Z C C C Z Z C C C C C C * * * * * * * * $ $ $ $ $ $ $ - 0.s.HXs.s.f.LX",
"0.u.i.p.p.DXe.6 z 1 ! ! ! ! t 8 > > > > > > > > > > > > > > > > > > > > > > > > > > > > > > > > > > > > > > > > > > > > > > > > > > > > > > > > > > > > > > , p e 9 0 g c.m.m.c.m.m.S.K.K.K.K.Z.U...| { ..../ ! Z Z Z Z Z Z Z Z $ # # $ $ $ $ $ $ $ $ $ $ $ $ $ $ $ $ $ $ # $ $ R R R R R R R R ^ ^ E E E E E E E E E E E E E E E E ^ E E E E E * * * * * * * * $ $ # $ $ $ $ $ # # $ # $ $ $ $ $ $ # $ $ $ $ $ * * * * * * * * * * * * * * * * * * * * * * * * R R R R R R R R * * * * * * * * , > > > > > > > > > > > > > > , * ! ! ! 1 1 t ` ` h h k k q.n.m.<.2.b.M.q.q.O.O.O.O.%.W W Q Q o.W ^ R * * * * R R R R R R R R R R R R R R R R R E E E E E E E E ^ ^ ^ ^ ^ ^ ^ ^ ) ) ) ) ) ) ) ) E E ^ ^ E E E E R R R R R R R R $ $ $ $ $ $ $ $ $ # $ $ $ $ $ # * Z Z Z * * * * R R R R R R R R R R R R R R R R R R R R R R R , , > > > > > > > > > > > > > > 3 0.s.HXs.s.f.LX",
"0.u.a.p.p.DXe.6 f _ [ [ [ _ p a a a a a a a a a q q q q q q q q a a a a a a a a q q q q q q q q q q q q q q q q q q q q q q q q a a a a a a a a a q > > < q a p e 9 7 g c.m.m.c.K.K.K.K.K.K.K.B.U.P.] ] ....) ^ Z Z Z Z Z Z * * & & & & & & & & & & & & & & & & & & & & & & & & w w w w w w w w ^ ^ ^ ^ ^ ^ ^ ^ ( ( ( ( ( ( ( ( ' ' ' ' ( ( ( ( , , , , , , , , & & & & & & & & & & & & & & & & & & & & & & & & * * * * * * & & , , , , , , , , , , , , , , , , w w w w w w w w , , , , , , , , q q q q q q q q a a a a a a a p ^ _ [ _ _ t ` <.` j h k k c.n.m.<.1.<.c.c.q.O.+.O.O.O.%.%.%.&.&.( ^ w , , , , w w w w w w w w w w w w w w w w w ( ( ( ' ( ( ( ( ] ] ] ] ' ' ' ' V.V.V.V.V.V.V.V.^ ^ ^ ^ ^ ^ ^ ^ w w w w w w w w & & & & & & & & & & & & & & & & > > > > > > > > w w w w w w w w w w w w w w w w w w w w w w w w q q q q q q q q q q q q q q q u 0.s.HXs.s.f.LX",
"0.u.g.i.p.i.e.6 f h _ ! ^ t 7 7 a a i i i i i i : 8 y y i i y 8 y i a a a a i y y y y y 8 8 8 8 a a a i i i i y 8 8 8 8 8 8 8 8 y y y y 8 8 8 8 y y y 8 y y y y 9 9 g l k c.M.M.M.m.K.K.K.K.K.K.V.$.' $.V.V.' ^ ( ^ w w > & & & q 8 8 q : : : : : : : : & & & & & & & & & & : : t t t q q t t t p p p p ' ' ' ' p p p p ' ' ' ' ' ' ' ' ' h r q ' ' p q q : & & & & & & : : : : 8 8 8 q : : : : q : & & & & & : . . .   & & & : t t t q q t t t q q t t t t t t p p r q q r p p q q q > : : : : 8 8 8 8 y y y y y i a a a i y q _ _ t 1 t r r s t e h l k q.c.M.N.N.b.M.c.O.O.+.C.#.#.%.%.%.%.%.#.' p q q q r p ' h p q q q p p q r p p p p p p q p p ' ' ' ' ' p p p p ' ' ' ' v.v.V.V.#.' ( p ( p p p p q q q t q q q t t t t : : : : & & & & 8 : & & & & & : & & & : 8 q q e : : q q q q p p t t t t t t q q : > q r p r q 8 a a i i i a a a - : : 8 8 8 : 6 9.s.HXPXf.s.d.",
"0.a.g.i.p.VXe.6 5 r _ ! 1 t 7 - u y y y y y 9 y - 7 7 7 7 7 7 7 7 8 y y y y y 7 y y y y y y y y y y y y y y 8 7 7 7 7 7 7 7 7 7 y y y y y y y y y y y y y y y y 9 9 g l k c.c.M.M.m.G.K.K.K.K.Z.B.M.#.M.B.B.' p h p e q 8 & &   : : : : : : : :     &                       &   8 8 8 8 8 8 8 8 9 e i i g h h l i i i a g h l l a h l l h i 9 8 g a i 8 0 :                   & : : : : : : : : : :           : : 0 0 8 8 e i i 8 8 8 7 8 8 8 8 8 8 8 8 8 8 8 8 i i 9 8 8 9 i i 8 8 8 8 8 7 7 7 7 7 7 7 7 7 7 7 7 8 y y y y 7 7 s s r t t e g h e e h j k c.M.M.N.N.b.M.M.c.q.O.C.C.C.#.#.#.#.#.k g 9 7 0 7 8 i i i 9 8 8 8 9 i 9 9 9 9 9 9 i i 8 9 i h h h h g i i i a g h l k M.M.M.M.#.k a i g i i i 9 8 8 8 8 8 8 7 8 8 8 8 : : : &         : :           :     & : 0 8 8 8 : 0 0 7 8 8 9 e 8 8 8 8 8 8 7 7 : 0 8 8 9 8 7 0 8 7 8 8 y y y y 7 7 7 8 9 8 7 6 9.s.HXPXf.s.d.",
"0.u.g.i.p.VXe.4 5 g s t t 0 3 3 u y y y y y y y 7 7 7 7 7 7 7 0 7 7 y y y y 7 7 y y y y y y y y 7 7 7 7 9 9 9 9 7 7 7 7 7 7 7 7 y y y y y y y y y y y y y y y y 9 g g l k k c.M.M.m.m.K.K.K.K.B.m.c.#.c.m.m.#.g g i i 9 8 0 : : - - : - - : - -       - - - - - - - -   - - - - 7 7 7 7 7 7 7 7 9 9 9 y i g g l 9 y i i g l l l g l l l l i 9 8 i i y 8 0 : -                   - - : - - : - - -           - :         - - 0 0 7 7 7 7 7 7 7 7 7 7 8 7 7 7 7 7 9 9 9 9 9 9 9 9 9 9 9 9 9 9 9 y 7 7 7 7 7 0 0 0 7 7 y y y y 7 7 h s e e 9 e h h h g l k k c.M.M.v.v.v.m.M.M.M.n.C.C.C.C.C.q.O.O.l g y 8 7 8 8 9 y 9 8 7 7 8 9 i y y 9 9 9 9 9 9 8 9 i l l l l g i i i g l l k k c.c.M.M.#.k i y g g i 9 9 8 8 7 7 7 7 7 7 7 7 7 0 : : -         -           - : - : : 0 0 0 8 8 0 0 7 8 9 9 y y 7 7 7 7 7 7 7 7 0 7 8 9 9 8 0 : 0 7 7 7 9 y y y y y y y 9 9 9 4 9.s.HXPXf.d.d.",
"8.u.g.i.p.ZXp.0.6.;.` ` h i u 5 f g g l l l k k g d y 9 0 0 9 9 9 d g l l g d 9 d d d d d d d d y d d d g g g l d d d d d d d d d d d d d d d d d d d d d d d g g g l k k k c.c.c.M.m.K.K.K.m.m.m.M.c.M.m.m.q.g g g g 9 9 0 0 0 0 0 0 0 0 7 0 0 7 0 9 0 9 9 9 d 9 9 9 9 9 9 9 9 g d g d g d g d g g l l k k k k l l k k O.q.c.c.k O.c.c.c.k l g k l l g d 9 9 9 9 0 0 7 0 0 0 3 0 0 0 0 0 7 0 0 0 0 0 3 0 0 9 9 0 0 0 0 0 0 0 0 g d g d g d g d g g g g g d g d l l k k k l l g 9 9 y d g g g g d y y y 9 9 9 0 u 9 g l l l g g l g d 9 9 g l l l j k k ,.c.c.c.M.M.b.m.m.m.m.m.G.C.C.C.n.q.q.q.O.k k l l g g g g d y 9 y g k k k k k l l g g g g l k q.c.c.q.k k k O.q.c.c.M.M.G.G.K.G.m.c.k l k k k l l g g d g d g d g d g g d 9 9 9 9 0 0 0 7 0 0 3 0 0 9 y y y d d g d g d g d g g l l k k g d g g g d g d g g l l l d 9 0 0 9 y d g l k k l g d y 9 9 9 5 9.s.HXPXf.d.d.",
"8.l.g.i.p.DXa.0.w.m.N.V.v.q.+.+.q.c.c.M.M.m.m.m.M.c.k g g g l k k ;.c.M.M.c.;.k l l l l l l l g k k k ;.c.c.M.M.c.c.c.c.,.,.,.c.l l l l g l l l l l l g l l l l l l l k k k k k c.c.m.m.K.m.m.m.m.M.c.M.m.m.q.g g g g d d 9 9 9 g g g g l g l g l l j k ;.c.c.c.k k k k k k k k c.c.c.c.c.c.c.c.c.c.c.M.M.m.m.m.M.M.m.m.m.G.K.K.m.K.K.K.K.m.M.c.M.M.c.c.c.;.;.k k k k l g g d d g g g g l g l g g d d d g l ;.c.K.m.m.m.m.m.m.m.c.c.c.c.c.c.c.c.c.c.c.c.c.c.c.c.c.c.m.m.m.m.M.;.d d g l j k k k c.,.;.k k l g g l k ;.c.M.M.c.c.l l d d d d l k k k k c.c.c.c.c.c.M.M.m.B.S.K.K.S.S.m.m.m.n.n.n.A.m.m.m.M.M.c.q.k k k k k c.m.m.m.m.m.M.M.c.c.q.c.M.m.K.K.K.K.m.m.m.K.K.K.L.L.L.R.R.R.R.L.K.m.m.m.m.m.M.M.c.c.c.c.c.c.c.c.c.c.c.c.q.c.;.k k k l g d d d g l ;.c.c.c.c.c.c.c.c.c.c.c.M.M.m.m.m.m.c.c.c.c.c.c.c.c.M.M.M.M.M.;.k l g l k k c.M.m.m.c.;.j g d d g -.y.s.HXPXf.s.d.",
"8.l.g.p.p.DXg.e.r.L.I.I.K.C.t.t.n.b.m.S.S.L.L.R.L.S.<.j j j ,.,.,.b.m.S.S.m.b.,.j j j j j j j j ,.,.,.b.m.S.S.S.m.m.m.m.m.m.m.A.j j j j j j j j j j j j j j j j k k k k k k k k k c.M.m.m.m.m.m.m.M.c.M.m.m.q.l g g g g g g g z ;.;.;.;.;.;.;.;.;.,.b.M.m.m.K.K.b.b.b.b.b.b.b.b.m.m.m.m.m.m.m.m.b.m.m.m.m.S.K.L.K.K.L.L.L.L.L.R.L.L.L.L.L.L.S.m.m.m.m.m.m.m.m.m.m.b.M.c.;.k l l ;.;.;.;.;.;.;.;.k j j j ;.c.m.m.L.L.L.L.K.K.S.S.m.m.m.m.m.m.m.m.m.m.m.m.m.m.m.m.b.m.L.T.L.L.m.M.g g g j ;.c.c.M.m.m.M.b.,.,.j j j ,.b.m.S.S.S.m.k l f d d g l k q.c.c.c.c.c.c.c.c.c.M.m.S.K.I.I.D.D.D.N.A.A.A.n.S.K.L.L.L.S.m.M.c.c.,.c.M.m.K.L.L.L.L.K.S.m.b.M.m.S.L.L.R.R.L.L.L.L.R.R.R.E.E.E.E.E.E.E.E.R.L.K.L.L.L.K.S.S.m.m.m.m.m.m.m.m.m.m.m.m.m.m.b.M.b.c.k j j j ;.c.m.m.K.K.K.S.m.m.m.m.S.S.K.L.L.L.L.L.m.m.m.m.m.m.m.m.S.K.K.K.S.M.,.;.j j ,.b.m.S.L.L.S.M.,.g z s j -.y.s.HXPXf.s.d.",
"8.l.g.p.p.DXFXu.r.L.I.D.K.C.t.t.c.b.m.S.D.L.R.R.I.D.<.h s h ` ,.,.<.b.N.N.b.<.,.` ` ` ` ` ` ` ` j ` ,.<.N.N.D.D.N.N.N.N.N.N.N.N.` ` ` ` ` ` ` ` j j ` ` ` ` ` j k k k k k k k k k k M.m.m.m.m.M.m.M.c.M.m.A.;.g g g g g g g g g j j j j j j j j ,.,.b.b.m.S.L.L.m.m.m.m.m.m.m.m.m.m.m.m.m.m.m.m.M.M.b.m.S.S.S.S.S.S.L.L.L.L.R.R.L.L.L.R.R.L.S.m.m.m.m.m.m.m.m.m.m.m.b.,.;.j g g j j j j j j j j j j g j ;.b.m.S.S.S.m.m.b.b.b.,.m.m.m.m.m.m.A.A.A.A.m.m.m.m.m.m.b.m.L.R.R.L.m.b.s g j ;.,.M.m.S.S.N.b.<.,.j h h h j ,.b.N.S.S.S.q.O.f f f f l O.c.M.M.M.c.c.c.c.c.c.M.m.K.I.I.R.D.D.D.D.N.N.A.N.S.K.L.L.L.S.b.b.,.;.;.,.c.m.K.L.R.R.L.L.S.m.b.b.m.S.L.L.R.R.L.L.R.R.R.R.E.E.E.E.E.E.E.E.E.R.L.K.L.L.L.S.S.S.m.m.m.m.m.m.m.m.m.m.S.S.m.m.m.b.b.b.j j g j ;.b.m.S.L.L.L.S.S.m.m.b.S.S.L.L.L.L.L.R.A.A.m.m.m.m.A.A.S.L.L.K.S.b.,.j j j ,.<.N.D.L.L.L.S.,.h s s j q.y.s.HXPXf.s.d.",
"8.z.g.j.i.DXGXu.r.J.L.S.Z.M.C.M.' ,.v.b.S.D.L.I.I.V.` r t t h ` ` ' <.<.<.<.' ` ` ` ` ' ` ` ` ` s s ' ' <.N.V.D.N.N.N.v.v.v.v.v.` ` ` ` ` ` ` ` ` ` ` ` ` ` ` ` ` k k h h h h h k ' c.M.m.m.v.M.B.v.<.v.B.B.' h e e s h h h h h h h h h h s h s ` ` ,.v.m.S.K.K.b.b.b.b.b.b.b.b.b.b.b.b.b.b.b.b.,.' <.c.v.N.N.N.B.B.D.D.D.I.I.I.D.D.D.D.D.D.N.v.<.<.v.v.v.v.v.N.b.b.<.,.j s r e h h h h h h h h d e d s j <.N.B.R.R.R.I.L.K.K.S.v.v.v.M.M.M.M.M.M.M.M.b.b.b.b.b.,.n.S.T.L.J.q.k g s ' ' ] V.V.V.v.v.<.' h s r t e s ` <.N.V.V.v.k O.l f d d k O.M.M.M.M.#.#.#.#.O.#.M.M.Z.I.I.I.D.D.D.D.N.N.b.b.N.V.S.D.D.B.<.' h h h ' ' v.B.K.I.L.K.B.v.1.] ' V.V.D.D.D.L.K.K.L.L.L.I.R.R.E.R.E.E.E.E.R.I.D.B.Z.D.B.B.N.N.v.v.v.v.v.v.v.v.v.v.N.N.N.v.v.<.' ' r e e s ' ' v.B.K.K.S.S.N.b.b.<.B.S.S.S.K.K.L.L.v.v.v.v.v.v.v.v.B.B.B.B.v.' ' p q e h ' <.V.V.U.I.D.<.h r s k w.y.s.HXPXf.s.d.",
"8.l.z.l.h.HXj.9.z.r.T.L.U.U.*.*.] c.v.v.B.Z.S.D.D.V.1.' _ _ _ _ ( ( ( ( ( ( ( ( ( ( ( ( ( ( ( ( ^ ^ ( ) ] $.$.$.$.$.$.$.#.#.#.#.( ' ' ' ' ' ' ' ' ' ' ' ' ' ' ' ' ' ' ' ' ' ' ' ' ' ' ' ' ' ' ' $.$.$.$.$.$.$.$.( ( ( ( ( ( ( ( ' h ' ' ' ' ' _ ] ] ' ' ' ' ' ' B.B.B.B.B.B.B.B.B.B.B.B.B.B.B.V.$.$.$.$.$.$.$.$.P.P.P.P.P.P.P.P.P.P.P.P.P.P.P.P.$.$.$.$.$.$.$.V.V.v.V.' ' ' h r ' ' ' ' ' ' ' ' k l l ' _ ( _ / U.U.U.P.Z.Z.M.M.$.$.$.$.#.#.M.M.O.q.C.G.S.S.N.N.D.S.J.r.r.t.t.q.q ^ / ) | =.%.%.%.%.#.#.( ( ( ( ( ( ( ( ) ] ) ( ( #.#.#.#.#.#.#.%.%.%.%.#.#.%.%.%.Z.Z.$.Z.V.V.P.$.$.$.$.$.#.#.#.$.P.P.U.U.P.P.$.^ ^ ( ( ] $.$.$.Z.Z.V.P.P.P.P.P.P.P.P.P.P.V.Z.Z.I.I.I.I.I.I.I.I.E.E.E.I.U.U.P.P.P.P.P.P.P.P.P.P.$.$.$.$.$.$.$.$.$.$.$.$.$.$.$.$.^ ^ ( ) ] $.$.V.Z.Z.Z.Z.Z.Z.Z.Z.Z.Z.Z.Z.Z.Z.Z.V.P.P.P.P.P.P.P.P.U.U.U.U.P.$.] ( < a O.%.$.&.P.U.U.P.] ( i y f 6.u.s.s.f.f.f.d.",
"8.l.z.z.j.KXj.9.l.r.J.Z.P.*.iXiX..] ] ] P.P.U.U.U.P...[ / / / / | | ) ) ) ) | | W W W W W W W W W W W | | | | *.| | | | | ) ) ) ) / / / / / / / ) ) ) ) / / / / / / ) ) ) / / / ] ] ] ] ] ] ] ] | | | | | | | | W W W W W W W / ) ( ( ) / / / / ..] ] ] ] ] ] ] ] ] ] ] ..] ....] ] ] ] ] ] ] ..| | | | | | | | X.X.X.X.X.X.X.X.X.*.*.*.*.X.*.*.| | | | | | | | &...] ] ) ( ^ ^ ) ) ) ) / / / ( ( ( ( ) / / { { 3.3.3.&.&.$.$.$.] $.$.%.%.#.#.O.+.O.C.G.K.D.D.D.2.A.J.t.t.t.w.#.E W Q Q Q Q =.=.) ) ) ) ) / / W ) | | | | | | | ) ) ) ) ) ) ) ) $.$.) $.) $.) ) $.$.$.&.&.*.*.*.*.&.&.&.$.$.$.$.| X.*.*.*.*.X.| W W W | | | | *.&.&.*.*.X.X.X.uXiXX.X.X.*.*.&.$.U.U.U.U.U.U.U.U.BXBXBXU.U.P.X.X.X.X.*.*.*.*.X.X.| | | | | | | | | | | | | | | | W W W | | | | X.&.P.P.P.P.P.P.P.P.P.P.P.P.P.P.&.X.X.X.X.*.*.*.*.*.*.*.*.*.| | W E E W W | | X.X.*.X.] ) p a +.6.u.s.f.f.f.f.d.",
"0.l.z.z.h.KXj.9.u.x.n.V...X.iXiX . . .uXuXuXuXuXuXuXuXwX~ ~ ~ ~ yXyX} } } } } yXQ Q Q Q Q Q Q Q T T #XyXyXyXiXiXyXyXyXyXyX} } } { { { { { { { { { { { { { { { { { { { { { { { { { { { { { { { } } yXyXyXyXyXyXyXQ Q Q Q Q Q Q Q { { { { { { { { } } } } { { { { } } } } } } } } } } } } } } } } } Q Q } } } } } yXyXyXyXyXyXyXyXyXyXyXyXyXyXyXyXyXyXyXyXyXyXyX}  . . .} { { ~ ~ { { { { { { { { { { { { ~ ~ wXwXiXuXuXuXo.{ { { | | ) ) ( ( O.+.O.O.n.G.S.D.D.D.2.2.b.q.q.q.O.] { Q #X$XaXqXqXyXyXyXyX} } Q Q Q Q yXyXyXyXyXyXyXQ Q Q Q Q Q Q Q } } } } } } } } o.o.o.} } yXyXyXiXiXiXyXiXo.o.o.} yXyXiXiXiXyXyXT T Q Q } yXyXyX} } } yXyXyXwXeXeXwXyXyXyX} } o.X.X.X.X.X.X.uXuXNXNXiXiXiXuXuXyXyXyXyXyXyXyXyXyXyXyXyXyXyXyXyXyXyXyXyXyXyXyXyXyXT T Q Q } yXyXyX . . . . . . . . . . . . . . . .yXyXyXyXyXyXyXyXiXiXiXiXyXyXQ T Q W Q Q Q Q ~ ~ uX .{ / ( ' ' q.u.s.s.f.JXZXd.",
"0.a.g.h.j.HXj.9.8.7.q.] o.yXqXaXeXtXtXtXtXtXtXtXpXtXtX9X@X@XeXeX9X9X9X9X9X9X9X9X9X9X9X9X9X9X9X9X X X7X9X9X9X9X9X9X9X9X9X9X9X9X$X#X#XwX#X#XwXwXwX#X#X#X#XwX#X#X#X#XwXwXwX#X#X#X#XwXwXwXwXwXwXwX#X$X$X$X$X$X$X$X$X$X$X$X$X$X$X$X$X#X#X#X#X#X#X#X#XwXwXwXwXwXwXwXwX#X#X#X#XwXwX#X#X#X#XwXwX#X#X#X#X$X$X$X$X$X$X$X$X$X$X$X$X$X$X$X$X$X$X$X$X$X$X$X$X$X$X$X$X$X$X$X$XeXeXeXwX#X#X#XoX#X#X#X#XwX#X#X#X#X#X#X#X#X$X$X$XtXeXeX$X#X#X~ ~ Q Q W W E ^ p a O.O.n.m.K.S.D.D.1.1.<.j l h / { wX$X8X8X0X0XaXaX9X9X9X9X9X$X$X$X9X9X9X9X9X9X9X9X$X$X$X$X$X$X$X$X$X$X$X$X$X$X$X$X$X$X$X$X$X$X$X$XaXaXaXaXaXaXaXaX$X$X$X9X9X$X$X$X|.|.|.|.$X$X$X$X#X#X$X$X$X9X7X7X7X:X:X$X$X#X#X#XyXyXyXyXyXwXeXeXpXpXeXeXtX$X$X$X$X$X$X$X$X$X$X$X$X$X$X$X$X$X$X$X$X$X$X$X$X$X$X$X|.|.$X$X$X$X$X$X#XwXwXwXwXwXwXwXwXwXwXwXwXwXwX#X$X$X$X$X$X$X$X$X$X$X$X$X$X$X|./.#X#X#XoXoXoXoXoXwXwX} { ..] 1.q.u.s.s.f.JXZXd.",
"9.j.h.f.f.HXj.9.0.-.;.[ } yX$X9XlXlXlXlXlXlXlXlXmXlXlXfXfXlXlXlXfXfXfXfXfXfXfXfXlXfXlXfXlXlXlXfXfXfXfXfXfXlXlXlXfXfXfXfXfXfXfX2X8X6X6X6X7X6X6X6X6X6X6X6X6X6X6X6X6X6X6X6X7X7X6X7X6X6X6X6X6X6X6X;X;X>X>X>X>X>X>X>X1X1X1X1X1X<X1X1X7X7X7X7X7X7X7X7X6X6X6X6X6X6X6X6X6X6X6X6X6X6X6X6X6X6X6X6X6X6X6X;X;X>X>X>X>X>X>X>X>X>X>X>X>X&X&X&X>X>X>X>X>X>X>X>X>X>X>X>X>X>X>X;X6X7X7X6X6X:X;X;X6X6X6X6X6X6X6X7X X$X7X7X6X1X8X8X8X8X8X7X5X}.{._.T T T { W E , q l O.c.m.K.L.L.D.3.1.[ _ r ^ { yXtXlXzXnXzXzXxXxXlXlXlXlXfXfXfX,XfXfXfXfXfXfXfXfX2X3X2X3X2X2X2X2X2X3X2X3X2X3X2X3X2X3X2X2X2X2X2X2XlXlXlXlXlXlXlXlX1X3X0X0X8X0X1X>X&X>X>X>X1X1X1X:X*X*X%X&X>X>X,XfXfX,X,X>X;X*X*X X:X7X7X7X7X:X7X6X8X8X8X8X8X8X8X1X1X>X>X>X>X&X&X&X>X>X>X>X>X>X>X>X>X>X>X>X>X>X>X>X&X&X>X>X1X<X1X1X;X6X;X;X;X;X6X6X;X;X;X;X;X;X;X;X;X>X>X>X>X>X>X>X>X>X1X3X1X>X&X%X7X7X6X;X5X}.{.OX@XwXwX .....3.b.u.s.f.f.JXLXd.",
"9.p.SXd.d.JXf.9.>.-.j [ } eX9XlXzXnXnXnXnXkXkXkXnXvXkXkXkXkXzXnXkXjXjXjXjXjXjXjXcXcXcXcXcXkXcXkXjXhXjXjXjXjXjXjXjXjXjXjXjXjXjXhXsX2XfX2X2X2X2X2XfX2X2X2X2X2X2X,X2X2XfX2X2X2X2X2X,X,X,X,X,X,X,X,XsXsXsXsXsXsXsXsXsXdXsXsXsXsXsXsXfXfXfX2X2X,X2X,X>X>X>X,X,X,X,X,X2X,X2X,X2X,X2X,X2X,X2X2X2X,X2XfXsXdXsXsXsXsXsXsXsX,X,X,X,X,X,X,X,XsXsXsXsXsXsXsXsXsXsXsXsXsXsXsX,X,X,X,X,X,X,X,X2X2X2X2X2X,X2X2X1X;X1X2X2XfXfXfXkXfXfX2X1X&X%X'._.Y Y T { W ^ w p k c.m.K.L.L.I.1.[ _ _ ^ ^ { eXmXmXnXnXnXnXnXnXcXcXvXjXjXjXjXjXjXjXjXjXjXjXhXhXhXhXhXhXhXhXhXhXhXhXhXdXdXdXdXhXhXhXhXhXhXdXdXdXkXkXkXkXjXkXkXhXdXdXgXxXxXgXdXsXsXsXsXsXsXsXsX,X>X>X>X,XsXdXdXdXhXhXdXsX,X>X>X&X;X;X;X;X1X1X1X2X2X2XfXfXfXfXfXsXsXsXsXsXsXsXsXsXsXsXsXsXsXsXsXsXsXsXsXsXsXsXsXsXsXsXsXsXsXsXsXsX,X,X,X,X,X,X,X,X,X,X,X,X,X,X,X,X,XsXsXsXsXsXsXsX,XsXsXsXsXsX,X,XfXfX2X2X1X6X5X+X@XrXuX .......c.u.s.f.f.JXLXd.",
"e.p.SXd.d.LXf.9.>.-.` { uXtXtXzXnXbXbXvXvXcXcXcXvXvXvXcXcXvXvXnXcXcXcXcXcXcXcXcXbXvXbXvXbXvXvXvXcXcXcXcXcXcXcXcXcXcXcXcXcXcXcXjXdXsXsXsXsXsXsXsXsXsXsXsXsXsXsXsXsXsXsXsXsXsXsXsXsX,XsX,XsX,XsX,XdXdXdXdXdXdXdXdXdXdXdXdXdXdXdXdXdXdXdXdXsX,X,X,X>X,X,X,XsXsXdXsXdXdXdXdXdXdXdXdXdXdXdXdXdXsXdXdXhXhXhXhXhXdXdXdXsXsXsXsXsXsXsXsXsXsXsXsXsXsXsXsXdXdXdXdXdXdXdXdX,X,X,X,XsXsXsXsXsXsXsXsXsXsXsXsX1X<X2X,XfXdXkXhXkXkXkXfX,X>X&X%XOXoXoXY ~ / ^ ^ p h c.m.K.L.L.I.1.] _ t w ^ } eXmXnXnXnXnXnXvXvXbXbXbXcXcXcXcXcXcXcXcXcXjXjXjXjXjXjXjXjXjXjXjXjXjXjXjXjXjXjXjXjXvXvXvXvXjXjXjXkXhXjXjXjXjXcXcXjXjXhXkXkXkXkXhXdXsXsXsXsXsXsXsX,X,X,X,XsXdXdXjXjXjXjXhXdXsX,X,X,X>X>X<X<X,X,X2X,X,XfXsXsXdXdXkXdXdXsXsXdXsXsXsXsXdXdXdXdXdXdXdXdXdXdXdXdXdXdXdXdXsXsXsXsXsXsXsXsXsXsXsXsXsXsXsXsXsXsXsXsXsXsXsXsXsXsXsXsXsXsXsXsXsXsXdXdXdXdXsXsXkXlXlXfX8X6X5X+XrXwX .X...] ] O.u.s.s.f.JXZXd.",
"e.VXAXCXd.LXf.9.>.-.`  .uXtXmXmXnXbXbXbXbXcXcXcXcXcXcXjXjXcXvXvXcXcXcXcXcXcXcXcXcXcXcXcXcXcXvXvXjXjXjXjXjXjXjXjXjXjXjXcXcXcXcXjXdXsXsXsXsXsXsXsXsXsXsXsXsXsXsXsXsXsXsXsXsXsXsXsX,X,X,X,X,X,X,X,XdXdXdXdXdXdXdXdXsXsXsXsXsXsXsXsXdXdXdXsXsX,X,X<X&X>X>X,X,XsXsXsXdXdXdXdXdXsXdXdXdXgXdXdXdXgXgXdXhXhXhXhXhXdXdXdXsX,X,X,X,X,X,X,XsXsXsXsXsXsXsXsXdXdXdXdXgXgXgXgX,X,X,X,X,X,X,X,XsXsXsXsXsXsXsX,X=X=X<X<X,XfXdXdXkXkXgXfX<X&X=X-X+X@XoX#X~ { / ^ ^ h #.m.K.L.T.L.N.,.g 8 q ^ o.pXmXnXnXnXnXnXvXvXbXbXbXcXcXcXcXjXcXjXjXjXjXjXjXjXjXjXjXjXjXjXjXjXhXhXhXhXhXhXhXjXcXbXcXcXjXjXkXgXdXdXhXjXjXjXcXjXhXgXgXkXkXxXdXgXsX,X,X,X,X,X,X>X<X<X,X,XsXdXhXhXhXhXdXsX,X,X<X<X=X=X<X<X<X<X2X2X,X,X,XfXsXsXdXdXsXsXsXsXsXsXsXsXdXdXdXdXdXdXgXgXdXdXdXdXdXdXdXdX,X,X,X,X,X,X,X,XsXsXsXsXsXsXsXsXsXsXsXsXsXsXsXsXsXsXsXsXsXsXsXsX,XsXsXdXdXsXsXsXkXlXlXlX8X7X@XrX~ }  ...V.#.' +.u.s.f.f.JXZXd.",
"e.CXIXSXCXLXPXj.8.w.1.3.iXtXmXzXvXcXcXcXjXjXdXdXjXjXhXdXdXsXsXsXhXjXhXhXhXhXhXhXjXjXjXjXhXdXsX,X>X>X,X,XsXdXhXkXhXjXjXjXjXjXcXjX,X>X&X&X&X&X>X<X&X&X&X&X&X&X&X&X<X<X>X&X&X&X&X&X%X%X&X>X<X<X>X&X<X<X<X&X&X<X<X<X%X%X%X%X&X&X&X>XgXdXdX<X=X*X'.[.`.'.*X=X,X,XsX,X,X>X&X&X&X&X>X<X<X<X>X&X&X&X&X&X>X>X,X,X>X>X,X<X3X<X=X*X*X*X*X=X'.%X&X&X&X&X%X%X%X%X%X%X&X<X3X3X&X&X&X&X&X&X&X&X<X&X&X%X%X%X%X%X4XXX4X*X=X>X2XgX,X2X>X=X'.!.Q.K {./.I Y }  ...) ' ' #.M.m.m.m.n.f +.+.+.+.( W ).mXzXnXnXvXjXdXsXjXcXjXjXjXjXjXhXkXkXdXsXsXsXsXdX,XsXsXdXdXsXsX,X,X,X,X,XsXdXgXkXjXjXkXdX,X&X&X&X%X&X3XgXkXkXcXjXsX<X>X&X&X<X<X<X3X3X3X3X<X&X&X'.'.`.`.%X<XgXdXsXdXgX,X>X=X*X*X*X[.XX].].'.'.*X=X=X=X<X>X<X<X<X,X<X<X>X&X&X&X&X&X%X%X&X>X<X<X>X&X&X&X&X&X&X&X&X&X&X&X&X&X&X>X<X<X<X<X>X&X&X&X&X&X%X&X&X&X&X>X<X<X<X<X<X>X>X<X<X<X&X&X>X<X<X<X<X3XfXlXmX8X}./.I T A / ) $.M.M.q.7.e.s.HXHXf.s.d.",
"e.CXIXSXCXLXPXj.8.x.3.3.pXtXmXlXkXcXjXjXhXdXsX,XsX,X,X>X&X&X%X%X>X>X>X>X>X>X>X>X,X,X,X,X>X>X&X'.`.`.`.'.%X&X>X,X,X,XsXsXsXsXdXsX=X'.'.'.'.'.'.*X*X*X*X*X[.[.*X*X=X=X*X*X'.'.'.'.`.'.'.=X=X=X*X[.[.'.`.`.`.`.'.[.`.`.`.`.'.'.[.*X,X,X>X*X`.Q.K K P ~.].[.=X<X>X>X%X'.`.`.`.`.'.'.=X=X*X*X'.'.'.'.%X&X&X&X=X=X=X=X*X[.].^.~.~.~.^.!.`.'.[.[.'.`.`.`.`.`.`.`.[.*X4X*X*X*X*X*X*X*X*X*X'.'.`.`.`.`.`..X~.~.Q.!.`.'.%X:X:X*X[.^.K J D K J D H ~ { ) ( ' ' c.m.m.m.n.q.w.t.t.t.+.%.| qXtXzXnXnXvXhX,X>XsXdXsXsXsXsX,X,X>X&X%X'.`.`.`.`.%X%X&X&X&X&X%X%X'.'.'.'.%X&X<X<X,XsXsX>X'.!.Q.^.Q.!.'.=X<XsXsXsX*X'.`.`.`.`.'.[.4X4X4X4X*X'.`.!.^.Q.Q.!.*X<X<X&X<X&X*X'.].^.^..XK K J J J K Q.Q.].`.`.'.'.'.'.'.*X[.[.'.'.`.`.`.`.`.[.*X*X*X[.[.`.`.`.`.`.`.`.`.`.`.`.'.[.[.[.*X=X=X*X*X'.'.'.'.'.'.'.'.*X*X=X=X'.`.`.!.!.`.`.`.`.`.'.'.[.[.[.*X&X8X6X}.K S M n + # : u u 6 6 6 e.s.HXHXf.d.d.",
"e.CXIXSXd.LXPXj.l.T.I.NXNXtX8XfXkXhXdXdXsX,X>X&X&X%X'.'.`.!.!.!.`.`.`.`.`.`.`.`.'.'.'.'.`.`.!.K J D J K Q.!.`.'.'.%X%X&X&X>X>X&X`.^.!.Q.Q.!.^.^.].].].].].].].].XXXX].].].^.!.!.!.!.].XXXXXX].].Q.K K K K K K Q.Q.Q.Q.^.^.^.^.].%X%X'.!.K D S N G L ~.XX[.*X&X&X`.Q.Q.Q.Q.Q.Q.^.XXXX].].].^.!.].'.'.'.'.'.[.[.XX~.P J D S F F D P ~.^.^.^.^.^.Q.K K K K Q.^.^.XX].].].].].].].].].!.Q.Q.Q.Q.Q.K G G D D J K Q.!.|.|.|..XP G S N N N M M A / ) ( ' ' c.m.m.m.b.q.t.t.t.t.C.%.*.iXaXxXnXvXjXsX=X*X&X>X>X&X&X%X%X'.`.Q.K J J D D J Q.!.].].].].!.!.K K K K Q.!.].'.'.%X%X`.K S S F N S K ^.`.%X&X%X!.K K K K K K Q.XXXXXXXX^.Q.K J P D D K ^.[.[.'.[.'.!.Q.K P L L D F S N S S D J P Q.Q.Q.Q.!.!.!.^.^.~.Q.Q.Q.K K Q.~.^.XXXXXX^.^.K K K K Q.Q.K K K Q.Q.Q.~.^.^.^.XXXXXX].].^.!.!.!.!.^.].].].XXXXQ.K K K K K K Q.Q.Q.Q.Q.~.^.^.].`.'.{.Q.S c o + . . . ; ; ; ; ; e.s.HXHXf.d.d.",
"e.CXIXAXd.LXPXj.z.T.R.BXNXpX8XfXxXxXgXsX,X>X&X%X'.'.].!.Q.Q.K K Q.Q.Q.Q.Q.Q.Q.Q.!.!.!.!.!.Q.K D S N S D J K Q.Q.].'.'.%X%X&X&X%X!.Q.K K K K Q.Q.^.^.^.^.^.^.^.^.XXXX^.^.^.^.Q.Q.Q.Q.^.].XXXX^.^.K J J D J J J J K P ~.~.~..X.X].'.'.`.Q.J S M v F G P .X[.*X&X%X!.Q.Q.K K Q.Q.Q.XXXX^.^.^.^.Q.!.`.`.'.`.`.].].^.P J D S N M B N P ~.~..X^.~.~.K J D J D J K ~.^.^.XXXXXXXXXXXXXX^.Q.K K K K K J F N N S D J K Q.@X_.oX).L F M M v v c v W ) ( ' k O.c.M.m.m.b.n.+.+.t.t.+.%.| qX0XzXvXvXhX3X*X[.%X&X&X%X%X'.'.].^.~.K J D D G G K Q.~.~.~.~.Q.K D D D D J K Q.!.`.'.`.Q.D M v b v M F P ^.`.'.'.Q.J J D J J J J ~.~.~.~.~.K J D S N S D Q.^.!.!. X].^.K J L G G G F F S S F G L P P P P /./././.K K K J J J J J K K ~..X.X.X^.~.K K K K K K K K J J K K K P ~.~.XXXX^.^.^.^.Q.Q.Q.Q.^.^.^.^.XXXX~.P K K K K ~.~.K K K P ~.~.~.^.!.`.(.J M O X X . . ; 6 6 6 6 6 e.s.HXHXf.s.d.",
"9.d.IXSXd.LXHXj.z.W.R.BXNXpXtX8XlXgXgXfX,X>X%X%X*X[.].^.~.~.P ~.Q.Q.Q.Q.Q.Q.Q.Q._..X.X.X(.Q.K D N N S F G L P ~.@X X+X:X;X;X;X;X!.Q.K K K K Q.Q.!.!.!.!.!.!.!.!.].].].!.!.!.!.!.Q.Q.!.].].].].^.Q.K K J J K K K K K /.~./.)..X|.&X&X'.!.K D N M F G P ^.[.%X&X%X'.!.!.Q.Q.!.!.].].].].!.!.!.!.!.`.'.'.'.`.`._..X).P G F N B B F P ~./..X.X~.Q.K J D D D J K /.^.].].].].].].].].!.!.Q.K K K K J G H S D J K /./.@XoXoX).L S M v v O O m E ) #.#.l O.c.M.m.m.N.M.O.+.O.%.%.&.yXaXlXzXvXbXjX,X*X`.&X;X6X;X:X X X|..X).U L G G G G U ~..X_._..X~.P J D D J J K )._.`.%X XQ.D M v B b B F U .X X-X'.!.K K J J K K K ~.~.~.~.K K J D S N N D Q.(.`.!.7X X|.Q.P P L T G F S N S S D J ).).oXoXoXoXoXoXK K K J J J J J K K /.~..X.X/.~./.Q./.Q.Q.~.Q.~.K K K K K Q./.~.].].].!.!.!.!.!.!.!.!.!.!.].].^.Q.K K K K K Q.Q.Q.~.~.~..X.X_.|.`.'.{.K N c o X #   : u a u u 6 y.s.HXPXf.s.d.",
"9.i.IXSXd.PXHXj.l.J.D.U.iXpX9X0XlXzXfXfX,X>X&X%X*X[.].^.~.~.P ~.).oX_.oX(.oXoXoX@X@X$X$X_./.Q.J S N F H L U ).oX@X@X5X7X6X6X8X6X`.!.!.Q.Q.Q.!.!.`.`.`.`.`.!.`.`.'.`.`.`.`.!.!.!.!.!.`.`.`.`.`.!.(././.K K /./.(./././.(.(._._.}.>X,X&X'.Q.J F S F G P !.'.&X>X&X%X`.`.!.!.`.`.`.'.`.`.`.`.!.!.`.'.%X'.}.}.{.{._.oX).U G F F F H I /.oX_._.oX(./.J J J J K /.(.(. X[.[.[.[. X[.[.`.`.!.Q.!.Q.!.Q.Y Y Y Y I oXoXOXOXOXoXoXY S M v c o + $ ^ #.#.+.+.O.q.M.m.N.N.v.Z.Z.Y.Z.U.MXiXpXlXvXbXbXjXsX*X`.;X6X6X6X5X5X+X@X/.I D S N N N S U ).oX#X#X).).U J J J J K U #X$X}.5X+X_.D N b n b B T T @X+X6X5X{././.K K /./.(.(._._.(./.K J J D S S J Q.{.}.`.7X7X+X(.).U U T S N N N N S S D oXoXoXoXoXoX@XoX/././.K K K K J K K /.(.oX(.(././././.).(.(.).)././././.).(.oX_.`.`.`.`.`.!.!.!.!.!.!.!.`.`.`.].K K J J J J K K /.(.(._._.@X@X@X-X;X5X(.D v O + X # & > q q q 3 e.s.HXPXf.s.d.",
"9.i.PXf.s.PXHXj.8.x.N.3.uXiX9X8XzXzXzXlXfX2X&X%X%X'.`.!.Q.K K K (.OXOX(.OX(.OXOX@X@X@X@XOX/./.J S N F H U Y oXoXOX+X+X5X6X6X8X6X'.`.`.`.`.`.'.'.'.'.'.'.'.'.'.'.%X'.'.'.'.`.`.`.`.`.'.'.%X'.'.`.{.(.(.Q.Q.(.(.OX(.(.OXOXOXOX@X5X2XfX>X%X!.K D S S J Q.`.%X>X,X,X%X`.`.!.`.`.'.'.'.'.'.'.'.`.`.'.%X-X-X;X;X5X+XOX@XoXI J D D H U /.OXOX@XOXOXOX(.Q.Q.Q.Q.(.(.OX+X-X-X-X-X-X-X-X-X-X%X'.`.'.`.'.`.).Y Y Y /.oXOXOX+X+XOXoXI H S v O # X # < a a u +.O.q.M.m.N.N.1.V.P.P.U.*.MXpXmXkXvXbXbXjXsX&X'.;X8X6X6X5X+X+XOX(.I J S S N N S I I oXoXoXoXI I K J J J I oXoX@X+X6X5XOXD M M B b B H Y @X5X6X6XOX(.(././.(.(.OX@X@X+X@XOX(.Q.K K J J /.OX5X5X-X6X5X+X(././.I I H H D S D D H I oXoXoXoXOXOXOXOXOX(.(.(.(.Q.Q.Q.Q.Q.(.OXOXOXOX(.(.(.(.(.(.(.(.(.OXOXOXOX@X+X+X+X'.'.'.'.'.`.`.`.`.`.`.`.'.'.'.'.(.Q.Q.K K Q.Q.(.(.(.(.(.OXOXOX+X;X1X;X`.J M c O X X $ * ^ R ! 2 y.s.HXPXf.s.d.",
"0.a.PXCXd.LXHXl.7.q.b.V.X.iX9XlXzXzXzXfXfX,X&X%X`.!.Q.Q.K J J J /.(.(.(.(.(.(.(.OX@X@X_.(./.K J S S S J I /.(.OXOX{.+X}.}.}.-X}.%X'.`.`.`.`.'.'.'.'.'.'.`.`.'.'.'.'.'.`.`.`.!.!.Q.!.`.`.'.'.'.`.(././.K K /.(.(.{.{.OX+X+X5X5X6X>X>X&X'.Q.J D S D J Q.`.&X>X,X>X`.Q.K K K Q.Q.!.'.'.'.'.'.'.'.'.%X-X-X-X5X+X+XOXoX/.I J D D D J (.}.+X+X+X+X+X{.!.!.(.(.(.OX+X7X;X;X;X;X;X-X-X-X:X-X%X'.%X%X%X}./.Y Y I I /.OXOX+XOXOXoXY H N v O X X X : : 7 ; +.+.q.n.m.N.N.<.' ] $.$.| yX$X2XkXbXbXbXjXsX%X'.'.}.}.}.}.}.{.{.@XoX/.I G H H U J K /././.I K J J J J D J I oX@X{.+XOX/.S M v b v M H I OX+X6X5X(././.K K /.(.(.@X+X@X+X+X{.(.Q.I J J /.OX7X5X+X+X{.(./.J J D H oXoXY Y Y oXoXoX/.oXoXoX(.(.(.(.+X+X+X{.{.(.(.Q.K /.(.(.OXOX(.(.Q.K K Q.Q.Q.Q.Q.OX+X+X+X+X7X7X7X`.`.`.`.`.`.`.`.`.`.'.'.'.'.%X%X5X+X+X{.{.OXOX+XK K Q.Q.(.(.(.`.%X&X-X!.D M c O + $ * ^ ^ ^ ^ e y.s.HXPXf.s.d.",
"6.u.VXVXCXPXz.x.A.A.M.#.| yX8XkXkXkXkXsX,X>X%X'.`.!.K J D D D J (.`.}. X X{.`.!.!.Q.Q.K K J J J J J K Q.(.{.}.}.-X}.}.{.{.(.Q.Q.!.`.`.'.'.`.`.!.!.!.!.!.!.!.`.'. X`.].!.Q.K D D J J K Q.Q.!.`.!.D S S S D J K Q.}.}.-X-X%X%X%X%X%X'.`.!.Q.K J J D J Q.`.-X1X2X;XJ N N N N S D J K Q.!.`.`.'.-X-X5X5X+X+X{.(.(./.)./.J D D D D J `.%X-X;X;X-X'.'.'.`.`.`.`.{. X:X;X>X&X%X'.`.`.!.`.`. X:X;X1X1X;X).U I I /./.(.OXOXoXoX).U H B v c @ @ % t s i u u f l q.q.M.M.b.,.b.M.v.$.| qX9XgXjXvXcXhX>X'.!.!.!.`.'.}.-X;X;X-X'.!.K D S N S Q.!.(.Q.Q.Q.K K D D D D S S S D J J D S N M v v M N D K (.+X5X5XoXJ D S S J I oX@X@XOX{.}.{.{.{.K K I )._.@X@X$X@XoXI D N M v M J I /.oX/./.I K K K K K K /./.{.8X8X1X-X`.!.Q.K J J K ~.~.(.Q.Q.Q.K K K K K Q.!.|.{.}.}.}.'.`.!.^.~.~.Q.Q.Q.Q.Q.Q.!.`.`.'.%X%X%X;X6X6X7X+X|.(.Q.J J J J K Q.!.`.'.'.{.Q.S v O o X # > w ^ w t z 9.s.PXPXf.d.d.",
"6.k.VXVXVXSXz.A.D.N.M.#.) qXlXkXkXkXgXsX,X&X%X'.`.Q.K D D S S D !.'.'.'.'.`.`.!.!.Q.Q.K K J J D J J Q.(.{.}.;X;X;X-X}.{.(.Q.K K Q.!.].].].].!.!.!.Q.Q.Q.Q.!.].|. X].^.Q.J G S N F G J K Q.^.!.^.S N N N S D K Q.|.'.%X%X%X&X&X%X'.].^.Q.K J D D D J Q.`.-X;X1X:XF b b v M N S D K /.Q.!.{.}.}.}.+X+XOX{.(.(./.K /.I J D D D D K '.%X&X&X&X%X'.'.'.`.`.!.!.].|. X&X&X%X%X'.!.!.Q.Q.!.'.:X:X;X1X-X/.U J K K Q.(.(.(.).).U G B b v A m % % 1 s h u d f O.q.n.n.M.n.q.q.n.M.$.| qXXXgXhXvXcXdX>X'.Q.Q.Q.!.`.'.%X&X&X&X'.!.K D S N S Q.!.!.!.Q.Q.Q.K D D D S S F F F D D S N M M v v N N D K (.{.+X+XU G N N N D J /._._.{.{.{.{.`.!.K J K /._._.@X@X_.I G N v c m v D K ).oXoX).K K J J J J K K /.{.8X2X;X%X`.Q.K J D D P P ~.~.Q.Q.K K J J J K Q.Q.].`.'. X'.'.`.!.~.P P P K K K K Q.!.!.`.'.'.%X%X;X1X;X:X X^.~.P J D D J J Q.!.`.`.'.{.K N c O + X # > q p p e 3 9.s.PXPXf.d.d.",
"6.k.VXVXVXSXz.w.D.N.M.#.) qXlXkXkXkXgXsX,X&X%X'.`.Q.K D D S S D !.'.'.'.'.`.`.!.Q.Q.Q.K K J J J D D J Q.(.}.5X6X5X5X+X{.(./.I I Q.!.].].].].!.!.!.Q.Q.Q.Q.!.].|. X`.!.Q.J G S S F G J K Q.^.`.^.D S S S D J K Q.|.'.'.%X%X%X%X'. X|.^.Q.K J D D J K !.`.-X;X1X XD B B M N N D D I /.(.(.{.{.+X+X+XOX{.{.(.(./././.I J D D D D J `.%X%X%X%X%X'.`.`.!.!.Q.Q.^.^. X%X%X%X'.`.!.Q.Q.Q.Q.]. X:X;X;X%X/.U J K K Q.(.(.(./.).U G N v c A m % % 1 s g u f +.q.q.n.m.m.m.;.q.n.M.$.| qXXXgXjXvXcXdX>X'.!.Q.Q.!.`.'.%X%X&X%X'.!.K D S N S K Q.Q.Q.Q.Q.K K J D D D D D G G J J D S N M M M N N D J /.(.{.{.U D S N S D J K _._.(.(.(.!.!.Q.J D J I (._.@X@X(.K J S M v v M D /._.$X$X_./.K J J J J K /.oX@X;X;X%X'.!.Q.K J D J K ~.~.^.!.!.K K J J J K Q.Q.].`. X X'.'.`.!.~.P P P K K K Q.Q.!.!.`.'.'.'.%X&X;X;X:X X^.Q.K J D D J J Q.!.`.`.'.{.K N c O + X # > q p p t 3 9.s.PXPXJXd.d.",
"6.k.VXVXVXSXz.w.D.N.M.#.) qXlXkXkXkXgXsX,X&X%X'.`.Q.K D D S S D !.'.'.'.'.`.`.!.Q.Q.K K K J J J S S J K (.{.+X7X5X+XOX_.).).U P Q.!.].].].].!.!.!.Q.Q.Q.Q.!.].|. X`.!.Q.K D S S F G J K Q.!.`.!.J D D D J K Q.^.|.`.'.'.'.'.'.`.:X|.^.Q.K J D S J K ^.`.-X;X&X'.J F N N N S G J I I /.(._._.@X@X{.{.{.(.(.(./././.I J D D D D J `.'.'.'.'.'.`.!.!.Q.Q.K K Q.~.].'.'.'.`.!.Q.K J K K ^.|. X-X%X'./.U J K K Q.(.(.(./.I U G B v c A m % % 1 s g u f +.q.q.n.G.G.S.;.q.n.M.$.| qXXXgXjXvXcXdX>X'.!.Q.Q.!.`.'.%X%X%X%X'.!.K D S S S K K K K K K K K J J J J J J K K K K J D S N N N N N S D K /.(.(.K J D S D D J K ).(././.Q./.Q.K D D J K /.{.OX+X(.Q.J D S N N N J /.#X$X$X#X/.J J J J K K ).#X$X'.%X'.`.!.K J J D J K Q.!.`.`.!.Q.K J J J K Q.Q.].`. X X'.'.`.!.Q.P K K K K Q.Q.!.!.!.`.`.'.'.'.&X&X&X-X X!.Q.J J D D J J Q.!.`.`.'.{.K N c O + X # > q p p t 3 9.s.PXPXJXd.d.",
"6.k.VXVXVXSXz.w.D.N.M.#.) qXlXkXkXkXgXsX,X&X%X'.`.Q.K D D S S D !.'.'.'.'.`.`.!.K K K K K K J J S S D J /.(.OX+X+XOX_.).I U G P Q.!.].].].].!.!.!.Q.Q.Q.Q.!.].|. X`.!.Q.K J D S D G J K Q.!.`.`.K K K J K Q.!.!.|.|.`.`.`.`.`.`. X|.^.Q.K J D D J K !.`.-X%X&X'.I G D S D D J U U U I )./.).oX_.(.{.{.(.(.(.(.)./.I J D D D D J !.`.'.'.`.`.!.Q.Q.K K J J K P ^.`.`.`.!.Q.K J G D J P ^.].'.'.`.).U U K K Q.(.(.Q./.I L F M v c A m % % 1 h h u f +.q.q.C.n.m.m.;.q.n.m.$.| yXXXgXjXvXcXdX>X'.!.Q.!.!.`.'.%X%X%X%X'.!.K D S S S J J J J J K K K J K K K Q./.Q.(.(.(./.K J D S N N N S D J J K Q.K K K J J J K J /././.I K J J J S S D J Q.(.}.+X`.!.Q.K J D D D J /.oX$X$XoX/.K K K K K K ).#X$X`.`.!.Q.K K J J D J Q.!.`.'.'.`.Q.K J J J K Q.Q.].`.'. X'.'.`.!.Q.K K K K Q.Q.!.!.!.!.`.`.`.`.'.%X&X%X'.`.^.K J J D D J K Q.!.`.`.'.(.K N c O + # # > q p p e 3 9.s.PXPXf.d.d.",
"6.k.VXVXVXSXz.w.D.N.M.#.) qXlXkXkXkXgXsX,X&X%X'.`.Q.K D D S S D !.'.'.'.'.`.`.!.K K K K K K K J F F G L U /.(.(.(.(./.U J G F D Q.!.].].].].!.!.!.Q.Q.Q.Q.!.].|. X'.].!.K J D S D G J K Q.!.`.`.!.Q.Q.Q.Q.!.!.^.|.].].!.!.!.!.!.!.!.!.Q.K J J J K ~.^.`.-X%X%X'.Q.U J J J J U U J J J J U U U ).(.(.{.(.{.(._.oX/.I J D D D D J Q.`.`.].].^.Q.Q.K J J D D L L ~.!.!.!.Q.J J D F D G P ~.^.].`.!.).U J K K Q.(.(.Q.K K J S M c c A m % % ! h g u u f +.q.q.M.c.n.q.q.A.m.$.| yX$XgXjXvXcXdX>X'.!.!.!.`.`.'.'.'.-X'.`.Q.K D D S S D D D D J J J K K K Q.Q.(.!.(.{.}.{.!.Q.K J D S N N S S D D J J Q.Q.Q.Q.Q.Q.K K /.I U U J D D S N S D J /.(.}.}.'.`.`.!.Q.Q.Q.Q.K K /./././.K K /./.K K K /._._.Q.Q.Q.K K J J J J J Q.`.'.%X%X'.Q.K J J J K Q.Q.].`.'. X'.'.`.!.Q.K K K Q.Q.^.!.!.`.`.!.!.!.!.`.%X&X%X'.`.Q.K J J D D J K Q.!.`.`.`.(.K N c O + # # > q p p e 3 9.s.HXPXf.d.d.",
"6.k.VXVXVXSXz.w.D.N.M.#.) qXlXkXkXkXgXsX,X&X%X'.`.Q.K D D S S D !.'.'.'.'.`.`.!.K K K K K K K P T T T G U K K K /.K J D S N N N Q.!.].].].].!.!.!.Q.Q.Q.Q.!.!.|.'.'.`.!.Q.J D D G J K Q.!.`.'.'.!.!.!.Q.!.!.].].].].^.^.~.Q.Q.Q.Q.Q.Q.Q.K P P P P ~.^. X'.%X%X'.(.I K K J K U I D D D D D D G U Q.!.(.(.{._._._./.I J D D D D J Q.^.^.^.^.^.~.K J D D S S G G P Q.!.Q.K J D S N S F L P ~.^.!.Q.I U J K K Q.(.(.Q.K K G S M c O n m % % ! h g u 3 3 f +.O.q.O.;.q.q.A.m.$.| yX$XgXjXvXcXdX>X'.!.!.!.`.`.'.'.'.'.'.!.Q.K J D D S F F F D D J J K K Q.Q.(.`.{.}.}.-X-X}.`.Q.K D D S N N S S S D J !.`.{.{.{.(.(./.K K U G D F S N N N S J Q.!.}.-X-X-X%X'.'.'.}.{.Q.K J J J J K K #XoX)./.K /././.K K K J J J J J J K !.`.%X&X&X%X!.K J J J K Q.Q.].`.'. X'.'.`.!.Q.K K Q.Q.^.!.^.].].`.!.!.!.!.!.%X%X%X'.`.Q.K D J D D J K Q.!.`.`.'.{.K N c O + # # > q p p e 3 9.s.HXPXf.d.d.",
"6.k.VXVXVXSXz.w.D.N.M.#.) qXlXkXkXkXgXsX,X&X%X'.`.Q.K D D S S D !.'.'.'.'.`.`.!.K J K K K K K P T T T G J J J J K J D S N M v M Q.!.].].].].!.!.!.Q.Q.Q.Q.!.!.`.'.'.`.!.Q.K D D J J K Q.!.`.'.'.`.`.!.!.!.!.].].].^.^.~.~.Q.K Q.K Q.Q.Q.Q.P .X.XP ~.^. X'.%X%X'.{.Q.K K K K I I S S S S S S S D Q.(.(.(.{._.@X#X/.I J D D D D J Q.^.^.^.^.~.~.P J D S S S F G L Q.Q.K J D F S N N F G L ~.~.^.Q.I U J K K Q.(.(.Q.K J G S M c O A m % % ! h h u 3 3 u f l k l k q.q.A.m.$.| yX$XgXjXvXcXdX>X'.!.`.`.`.`.'.'.'.|.].^.Q.J J D D D F F F F D D J K K Q.!.!.`.}.}.-X;X;X}.`.(.K J D S S S S S S S D {.}.}.+X+X{.(./.K U J G F S N N M N S J Q.!.}.-X;X;X;X%X-X-X5X5X(.K D S S D K /.$X$XoX/.K K K K J J J J D G J J J K !.'.%X&X>X%X!.K J J J K Q.Q.].`.'. X'.'.`.!.Q.K Q.Q.!.!.!.^.].].!.!.!.Q.Q.!.'.%X%X'.`.Q.K D J D D J K Q.!.`.`.'.{.K N c O + # # > q p p e 3 9.s.PXPXJXd.d.",
"6.k.AXVXAXSXl.:.D.N.n.#.) qX2XhXdXdXgXsX>X%X'.'.`.Q.K D D S S D !.'.'.'.'.`.`.!.K J K K K K K P T F F G J J K K K K J D F F B F J !.|.$X$X|.!.Q.K K K K Q.!.]. X-X%X'.`.^.Q.K K P K K Q.Q.!.!.!.'.`.`.!.!.!.!.!.$X|.|.^.Q.K K K K K K K ~..X.X.X.X~.^.`.'.%X%X'.Q.K /._._.).J D S S S S S S F D Q.!.!.(.{._.@X$X#X).J S N N N S K Q.Q.Q.~.Q.K J D S S N N S F L ^.!.Q.K D S N M G G L P K Q.Q.Q.U U U K /.Q.(.(.Q.K J D S M c O A m % % ! s g u 3 u f f l l l l q.q.q.n.$.| qXXXgXhXvXcXdX>X'.!.`.'.'.'.'.`.].].].~.K J D D J J S N N S S D D J /.(.!.!.{.}.5X6X8X8X6X}.{./.K D G F N N N S D K !.}.+X5X+XOX(.K K J U L G S N M M N S J Q.(.}.;X%X%X%X-X;X5X5X5XQ.K D D D J K K /._.#X$X#X/.K J J J J J J G J J J Q.].'.;X>X,X&XQ.J K K K K K Q. X X'.'.`.`.`.`.Q.Q.Q.!.!.!.].].^.!.Q.K K K K Q.'.%X'.'.`.Q.K J J D D J K Q.!.`.'.}.@X/.S v c + # # > q p p e 3 9.s.HXPXf.d.d.",
"6.k.AXVXAXSXl.:.D.N.n.#.) qX2XhXdXdXgXsX>X%X'.'.`.Q.K D D S S D !.'.'.'.'.`.`.!.K K K K K K K P G F G G U K K /.K K J J D F N F J !.].$X$X].!.Q.K K K K Q.!.]. X%X%X'.`.!.Q.Q.K P K Q.Q.!.!.!.!.'.`.!.!.Q.!.!.!.$X|.|.^.Q.Q.K K K K K K ~..X.X.X~.~.^.`.'.%X%X%XQ.K /.).).I J D S S S S S D D J Q.(.!.(.{._._.#XoX).J S S N S S K Q.^.^.^.Q.K K D D S S S S G P ^.!.Q.K D S N M G G L P K Q.!.Q.U U U K /.Q.(.(.Q.K J G S M c O A m % % 1 s h u 3 u f f l l l l q.q.q.M.$.| qXXXgXhXvXcXdX>X'.!.'.'.'.'.`.].!.^.^.~.K J J J K K S S S S S D D J /.(.(.!.`.}.5X6X8X8X6X}.{./.K D G D S S S D J Q.!.{.}.+X+X{.(.K K J U L G F N N M N S J Q.!.}.-X-X-X;X6X5X5X7X7XQ.K J D D J K K /._._.#XoX/.K K K K K J J J J J J K !.'.%X&X>X%XQ.J K K K K Q.Q.|. X'.'.`.`.`.`.!.!.!.!.!.`.].].!.Q.Q.K J K K Q.'.%X'.'.`.^.K J J D D J K Q.!.`.'.}.@X/.S v c + # # > q p p e 3 9.s.HXPXf.d.d.",
"6.k.AXVXAXSXl.:.4.2.M.#.) qX2XjXdXdXgXsX>X%X'.'.`.(.K J D S F J !.'.'.'.'.`.`.!.K K K K K K K J G F G U U K /./.Q.Q.K J J G F G K !.].|.|.].!.Q.Q.K K K Q.!.].'.%X%X%X'.].^.Q.K K Q.Q.!.!.`.`.`.`.!.Q.Q.Q.Q.!.!. X|.|.^.^.Q.Q.Q.Q.Q.K K ~.P P .XP ~.^.`.'.%X&X%XK J U U U U J D D D D D D J J K Q.!.!.(.(.(.(.)./.I J D S S S D Q.!.`.].^.^.Q.K J D D D D D J P !.`.!.Q.J D S S L L P P Q.!.`.!.U U U K /.Q.(.(.Q.K J G S M c O A m % % 1 s g u 3 u f f l l l l q.q.n.M.$.*.qXXXgXhXvXjXdX>X'.`.'.%X'.'.`.!.Q.~.~.P K J J K Q.Q.D D D D D J J J /.Q.Q.Q.(.{.OX5X6X6X5X}.!.Q.J D D D D D J K K Q.(.!.{.{.{.(.Q.K K K I U U D D S N N D J K !.{.}.5X5X5X5X+X$X$X$XK K J J J J K K /./._.oX_./.K K Q.Q.Q.K K J J J J K !.`.%X%X&X'.Q.K K K K K Q.Q.|.`.`.'.'.`.`.`.!.!.!.!.!.`.`.!.!.Q.K K J J J Q.'.%X%X'.`.^.K J J J J J K Q.!.`.'.}.@X/.S v O + # # > q p p e 3 9.s.PXPXJXd.d.",
"6.k.AXVXAXSXl.:.2.<.q.O.) qX2XjXdXdXgXsX>X%X'.'.`.(.K J D D H J !.'.'.'.'.`.`.!.K K K K K K J J G G J U /./.(.{.!.(.Q.K U J G P K Q.!.].].!.!.Q.Q.Q.Q.Q.Q.!.].'.%X&X%X'.`.^.Q.Q.Q.Q.Q.!.`.'.'.`.!.K K K K K Q.Q.|.|.|.`.`.`.`.!.!.Q.Q.Q.K P P P P ~.^.`.'.%X&X%XJ D G G G J D J D D J J K K K /.(.(.(.(.(.Q./.K K K J D D D D J !.`.`.'.`.].!.Q.K K J J J J K Q.`.'.`.!.K J J D P P ~.~.!.`.'.`.K U U K /.Q.(.(.Q.K J G S M c O A m % % 1 s g u 3 u f f l l g l q.q.q.M.$.*.qXXXgXhXvXjXdX>X'.`.%X%X'.`.!.Q.K K P P K K K Q.Q.Q.K J J J J J J K /./.K K /./.(.@X5X5X}.{.Q.K J D D D J K Q.Q.!.!.(.Q./././././.K K I /.).I K J D S S D J K (.`.`.}.}.{.(.(.).).).K K K J J K K K /./././././.K Q.`.`.!.Q.Q.K J J J J Q.!.`.'.'.`.Q.K K K K Q.Q.Q.].`.`.`.'.'.'.'.`.`.`.`.`.!.!.!.!.Q.K J J J J K '.%X%X'.`.^.Q.K J J J J K Q.!.`.'.}.@X/.S v O + X # > q p p e 3 9.s.PXPXf.d.d.",
"6.k.AXVXVXSXl.:.2.<.O.+.) qXlXkXdXdXgXsX&X%X'.'. X_./.J D G H U !.'.'.'.'.`.`.!.Q.Q.K K K J J J D D J K Q.{.{.}.`.`.!.Q./.U U P K Q.!.!.!.!.Q.Q.!.!.Q.Q.Q.!.!.'.%X&X%X'.`.!.Q.Q.Q.Q.!.`.`.'.%X'.Q.J D D J J K Q.|.`.'.'.'.'.'.'.`.!.!.Q.K J J J J K Q.`.'.%X;X-XJ F N N S S D J D J K K Q.Q.(.(.{.{.{.(.Q.Q.K J J J J J U J J K `.'.%X-X-X'.`.!.Q.Q.K K K K Q.!.'.'.'.`.!.Q.K K ~.~.^.].`.'.%X'.K U U K /.Q.(.(.Q.K J D S M c O n m % % 1 h h u 3 u f f l l l l q.A.n.m.$.| qXXXgXjXvXcXdX>X'.`.%X&X%X`.!.Q.J D L P P P Q.!.!.!.Q.Q.Q.K K K K K K K K J J U )._.+X}.{.(.K J J D D J K Q.!.`.'.{./.K K K K K K K /./.).(.(.Q.K J D D J J K Q.!.(.Q.Q.K J D D S F J K K K K K K K K K K K K K /.(.'.%X'.`.!.K J J D J K Q.^.`.`.!.Q.K K Q.Q.Q.Q.!.!.`.`.`.'.'.'.'.'.'.'.`.`.!.!.!.^.Q.K J J D J K '.&X%X-X X^.~.P P J J K K ^.]. X'.}.@X/.S v O + X # > q p p t 3 9.s.PXPXf.d.d.",
"6.k.AXVXVXSXl.:.,.` l +.) qXlXkXdXdXgXsX&X%X'.'. X|./.U J H T U !.'.'.'.'.`.`.!.Q.Q.Q.K K J J D D J K Q.(.{.-X5X}.}.{.(.(./.I I Q.Q.Q.Q.Q.Q.Q.Q.].!.!.Q.!.!.!.'.&X&X%X'.`.!.Q.Q.Q.Q.!.`.'.%X&X'.J F S S D J K Q.].`.'.%X%X%X%X%X'.].^.Q.K J D D J K Q.`.'.;X1X:XG B M M M N D J J K K Q.(.(.{.{.+X{.{.(.Q.K J D D D J P U U U /.'.%X%X;X:X%X'.`.!.!.Q.Q.Q.Q.^.`.'.%X'.`.`.!.^.Q.^.^.].`.'.%X&X%XK U U K /.Q.(.(.Q.K J D S M c O n A % % 1 h h u 3 u f f l l l l q.A.A.m.$.| qXXXgXjXvXcXdX>X'.`.&X&X%X`.Q.K D S D G P ~.^.].`.`.!.!.!.Q.Q.Q.Q.K K J J D D J U ).(.{.(./.K J D D D J Q.`.}.-X;X}./.L D D D J U /./.(.(.{.{.(.!.Q.J D J K K Q.Q.Q.K J D S N M v M D K /././.K K K K K K J J K /.{.;X;X%X'.!.Q.K J D D J K Q.Q.!.Q.Q.P ~.Q.~.Q.^.^.!.!.`.`.'.'.'.%X'.'.'.'.`.!.!.Q.^.Q.K J D D D K '.&X-X-X X].~.P P P J K Q.^.|. X'.}.@X/.S v O + # # > q p r t 3 9.s.PXPXf.d.d.",
"6.k.AXVXVXSXl.:.:.h f a W qX8XkXdXdXgXsX&X%X'.'. X|./.U J L T U !.'.'.'.'.`.`.!.!.Q.Q.K K J J D D J K Q.{.}.5X6X-X-X}.{.(.(././.Q.Q.Q.Q.Q.Q.Q.Q.|.].!.!.!.!.].'.&X&X%X'.`.!.!.Q.Q.Q.!.`.'.%X&X-XJ N N N S D J K `.`.'.%X&X&X>X&X:X|.^.Q.K J D D J K Q.`.'.;X1X:XF b b v v N F J J K Q.(.`.{.}.}.+X+X{.(.Q.J D S D D J U ).Y U /.'.&X;X1X;X;X%X'.`.!.!.Q.!.!.].'.%X%X%X'.'.`.!.^.|.|. X'.%X&X>X-X/.U U K /.Q.(.(.Q.K J D S M c O n m % % 1 h g u 3 u f f l l l l ;.q.A.m.$.| yX$XgXjXvXcXdX>X'.`.&X&X%X`.Q.J D N S G P .X|.|.'.'.`.`.`.!.!.(.Q./.K J D S S G G U ).(.Q.K J D D D D J !.}.6X1X1X-XI G S S S D U /.(.(.OX+X}.{.`.!.K J J K K K K K K J D N M c O c D K /.).)./.K J K K J J J K /.{.8X2X;X%X`.Q.K J S D D J K K K K ~.~.~.~.~.~.^.!.!.!.`.`.'.'.-X:X%X%X'.'.`.!.!.Q.^.Q.K J D D D K %X&X;X:X X|.^.P P P K K Q.^.|. X'.}.@X/.S v O + # # > q p p t 3 9.s.PXPXf.d.d.",
"6.k.AXVXVXSXl.:.:.h f a W qX2XkXdXdXgXsX&X%X'.'. X|./.U U L T U !.'.'.'.'.`.`.!.!.Q.Q.K J J D D D D J Q.{.-X6X8X;X;X}.{.(.).U U Q.Q.Q.K K Q.Q.Q.|.].!.!.!.!.!.'.&X&X%X'.`.!.Q.Q.Q.Q.!.`.'.%X;X:XJ N N N S D J K !.`.'.%X%X&X&X&X:X|._.Q.K D S S J J Q.!.}.;X8X7XG b v v v N D J K Q.Q.!.{.}.}.-X5X+X{.(.Q.J D S S D J U ).).).).'.%X;X:X:X:X'.'.`.!.!.Q.Q.!.].'.%X%X%X'.'.`.^.^.|.|. X X-X;X;X-XQ.U U U I K Q.(.Q.Q.Q.K D M c O n m @ % 1 s h u 3 5 f f l l l l ,.2.A.m.$.| yX$XgXjXvXcXdX>X'.`.&X&X%X`.Q.J S N S G L .X_.|.{.'.`.'.`.`.!.Q./.K J D D S S D G U )./.K J D D S S S J !.}.6X1X1X-XU F N N S D K /.(.{.+X+X+X}.`.!.K J J J K K K K /.U J F B b m v D K /._._./.K J J J D D J K (.}.8X2X1X%X`.Q.K J S D J J K Q.Q.K ~.~.~.~.~.~.^.^.Q.!.!.`.'.'.-X:X'.'.'.`.`.!.Q.Q.^.Q.K J J J J K '.&X:X:X X|..X~.P P P K Q.^.|.|.`. X@X/.S v c + + # > q p p q 6 9.s.PXPXf.d.d.",
"6.k.VXVXVXSXz.w.s s y a W T >XdXkXkXgXsX,X&X%X'. X|./.U U L T U |.-X-X X X X X|.!.^.^.^.Q.K J S F B S J {.6X6X;X8X6X}.(.K L T T ~.!.Q.Q.Q.Q.!.!.|.].!.!.!.!.!.`.%X%X'.`.Q.K J J J K ^.]. X-X%X'.J D D D D J K K !.!.`.'.%X%X%X'.|._._.I J D S S D J /.(.+X6X6X+XJ N N N S S D J /.Q.!.`.`.`.'.}.6X6X5X}.!.Q.K J J J K ).oX_./.Q.!.!.].|.|.^.^.!.Q.Q.Q.K Q.Q.^.].'.'.'.`.].^.~.~.K Q.Q.!.`.'.%X-X(.K J S S D K Q.!.`.`.!.K S c O c c m % * r i l 3 3 f f ;.;.:.:.:.;.n.Z.V.| yXXX,XjXcXcXhX,X'.'.%X;X6X}.K D S F S F G U _.@X$X9X'.}.}.+XOX_.I U D D S S D J I ).oX).U U G D S S D J Q.{.5X6X8X5XT M M F J D K @X{.{.}.{.{.!.K J G D G J J K K K /.K J S N M M N J Q.Q./.K J D D D D D J K Q.(.`.-X%X%X'.!.Q.K K J K ~.^.|. X'.].~.P P P P ~.~.~.K Q.Q.!.!.`.`.`.`.`.`.!.!.!.Q.Q.Q.Q.Q.K K K K Q.`.`.}.}.@X(././.I K U K U K U K (.|.@XI S M v c o $ > w a i 9 6 9.s.PXPXf.d.d.",
"6.k.VXVXVXSXz.w.:._ l +.) Q ,XhXkXkXgXsX,X&X%X'. X|./.U J L T U |.-X'.'.'.'. X|.!.^.^.^.Q.K J S B b N J (.6X6X;X8X6X}.(.U G F T ~.!.!.Q.Q.!.!.!.|.].!.!.!.!.!.`.-X'.'.!.Q.K J D J K ~.^. X'.'.'.K J J D J J K Q.!.!.`.'.'.'.'.`._._.).I J D S S S D I (.+X5X6X+XJ S S S S D J K Q.(.!.`.`.`.{.}.6X;X-X}.`.!.Q.K J K /.(._.(.(.Q.Q.Q.~.^.^.~.Q.Q.K K K K K Q.~.^.`.'.`.`.^.~.~.P J K Q.^.`.'.%X-X!.Q.J S N S J Q.`.%X%X'.Q.S v O c c O % * t i d 3 3 f -.;.;.:.:.:.,.A.B.V.| yXXX,XjXcXvXhX,X-X'.-X6X5X{.K D S F N N D L I _.@X+X'.}.}.OX_.).U L S S S D J K /./.oX).I U G F S S D J /.{.5X6X6X+XT B M F J D K +X}.}.}.{.(.Q.K D D F D D J K K K Q.Q.J D S N N S K Q.Q./.K U D S D D D J K Q.!.`.-X'.'.].^.Q.K J J K ~.^. X X%X`.~.L P P P P ~.~.K K Q.Q.!.!.`.`.!.!.!.!.!.Q.Q.Q.Q.Q.Q.Q.Q.Q.Q.Q.!.(.{.OXOX(././.K K U U U J J U /._._.I S M v c O $ * w a y u 6 9.s.HXPXJXd.d.",
"6.k.VXVXVXSXz.w.2.<.q.#.) qX2XhXkXkXgXsX,X&X%X'. X|./.U J H T U |.'.'.'.'.`.`.].!.^.^.~.Q.K J S B M N J (.5X6X;X8X6X}.Q.J G F G Q.!.!.!.!.!.!.!.].!.!.Q.!.!.!.`.-X'.'.!.Q.K J D J K ~.^. X X'.'.K J J J J K K Q.!.`.`.'.'.'.'.`.(.(./.U D D S S S D I (.+X5X5X+XJ S S S S D J K Q.Q.!.!.`.`.`.`.}.}.'.`.`.!.(.Q.K K /./.(.(./.Q.Q.Q.~.^.^.~.Q.K K K K K K K ~.^.`.'.`.!.!.Q.P P J K K Q.`.'.'.'.!.Q.J S N S J Q.`.%X%X'.Q.S v O c c m % * t e y 3 3 f -.;.;.:.:.:.A.A.K.V.*.qXXX,XjXcXcXhX,X'.`.}.6X5X{.K D S F N N S D K /.(.{.}.}.}.OX_.).U L F S S D J K /./.).).I U G S S N D J /.{.+X6X6X+XT M M D J D K +X}.}.}.{.(.Q.K D S S D D J K Q.Q.Q.Q.J D S N N S K Q.Q.Q.I U G D D D D J K Q.!.`.-X'.'.`.!.K K J J K ~.^. X X'.`.P L P P P P P Q.K K Q.Q.!.!.`.`.!.!.!.!.!.Q.Q.Q.Q.Q.Q.Q.Q.Q.Q.Q.(.!.{.{.{.(.Q.K K K J J J J J J /.(._.U S M v v O $ * w p y u 6 9.s.HXPXJXd.d.",
"6.k.VXVXVXSXz.w.4.N.C.%.&.yXlXkXkXkXgXsX,X&X%X'. X_./.J D G H U ].'.'.'.'.`.`.].!.^.^.~.Q.K J S F M N J (.5X6X-X6X;X{.Q.J D B F Q.!.!.].].!.!.!.!.!.Q.Q.Q.!.!.`.-X'.'.!.Q.K J D J K ~.^. X'.'.'.Q.J J J J K Q.Q.!.`.'.'.'.'.`.!.(./.K J D S S S S D I (.+X5X5X+XJ S S S S D J K /.Q.(.!.!.`.`.`.`.`.`.`.`.{.{.{.Q.Q./././././.K K K Q.~.~.Q.K K K K J J K K Q.!.'.'.`.!.Q.K K J J J K Q.!.`.'.'.!.Q.J S N S J Q.'.%X%X'.Q.D v O c c O @ * > 8 u 3 3 f -.;.;.:.:.;.A.A.K.V.*.yX$X,XjXcXcXhX,X'.`.}.5X5X{.K D D D N N N S D K K !.}.}.}.OX_.).U L S S S D J K /./.).).I J D S N N D J I (.+X5X6X+XT M M D J D K +X}.}.}.{.(.Q.J D S N S D J K Q.Q.Q.Q.J D S N N S Q.!.(./.I P G D D D D J K Q.!.`.'.'.`.!.Q.K J J J K ~.^. X'.'.`.P L P P P P K Q.K K Q.Q.!.!.`.`.!.!.!.!.!.Q.Q.Q.!.!.!.!.!.!.!.!.!.(.(.(.(.(./.K K J J J J D D J K Q./.J S M v v O $ * w p y u 6 9.s.PXPXJXd.d.",
"6.k.VXVXVXSXz.A.D.L.H.Z.&.iXlXkXkXkXgXsX,X&X%X'.`.(.K J D D H J !.'.'.'.`.`.`.!.!.^.^.~.Q.K J S F B S J (.+X5X-X;X}.`.Q.J D F G K !.].|. X|.!.!.Q.Q.Q.Q.Q.!.]. X'.'.'.!.Q.K J D J K ~.^. X'.'.'.Q.K J J J K Q.Q.].`. X X'.'.`.!.Q.K K J D S S S S J /._.+X5X5X+XJ D S S S D J J /./.Q.Q.(.!.!.!.!.!.!.!.{.{.{.OX(././.K K K U K K K Q.Q.Q.Q.K K K J J J J K K ^.'.'.`.!.Q.K J D J J K Q.!.`.'.'.!.Q.J S N S J Q.}.;X;X-XQ.D M c c c O % $ & : 3 3 3 f -.;.;.:.:.A.A.G.K.Z.*.yX9X,XhXcXcXdX>X'.].'.5X5X{.K J D G N N S S D J J K {.}.}.OX_.).U L F S S D D K /./././.K J D S N N S D I (.+X5X6X+XT B N D J J K +X{.}.{.{.(.K J S S N S D J K Q.(.Q.K J D S N N S Q.!.(.(.).U L G D D D J K Q.(.{.'.'.`.!.Q.K J J J K ~.^. X'.'.`.K L P P J K K K K K Q.Q.!.!.`.`.!.!.!.!.!.Q.Q.Q.!.!.!.!.!.!.!.!.Q.!.!.(.(.Q./.K K J J J J D D J K Q./.J S M v v O $ * w p y u 6 9.s.PXPXf.d.d.",
"6.k.VXVXVXSXz.A.R.I.H.Z.&.iXlXkXkXkXgXsX,X&X%X'.`.(.K J D S F J !.`.`.`.`.`.!.!.!.^.^.~.Q.K J S F N S J (.@X5X}.-X}.!.K J S F G K !.|. X X|.!.!.K K K K Q.!.]. X'.'.'.!.Q.K J D J K ~.^. X'.'.'.Q.K K K K K Q.!.|. X X X'.`.`.!.K K J J D S S S S J /._.+X5X5X+XJ D S S S D J J K /././.Q.Q.Q.(.Q.Q.!.!.{.{.{.{.OX(./.K J J J K J K K Q.Q.K K K J J J J J K K Q.'.'.`.!.Q.J D D D J K Q.!.`.'.`.!.Q.J S N S J Q.}.;X;X-X(.D M c c c O @ # & & - 3 3 f -.;.;.:.:.A.J.J.H.Z.*.yXaX,XhXcXjXdX>X'.].`.5X+X{.K J J J S S S D D D J K {.}.}.OX_.).U L F S S D J K /.(.(.Q.K J D S N N S D I _.@X+X5X+XT N N D J J K +X{.}.{.{.Q.K J S N N S D J /.(.(.Q.Q.J D S N N S Q.!.(._.).U L G D D D J K Q.(.{.'.`.`.!.Q.K J D J K ~.^. X'.'.`.K G J J J J K K K K Q.Q.!.!.`.`.!.!.!.!.!.Q.Q.Q.!.!.!.!.!.!.!.!.Q.Q.!.(.(.Q.K K J J J D D D D D J K K J S M v v O $ * w p y u 6 9.s.PXPXf.d.d.",
"6.k.VXVXVXSXz.x.R.I.H.Z.&.qXlXhXkXkXgXsX,X&X%X'.`.Q.K D D S S D !.`.`.`.`.!.!.!.!.^.^.~.Q.K J S G S S J (.@X+X}.}.`.!.K J D S D K !.|.9X9X$X!.Q.K K K K Q.!.]. X'.'.'.!.Q.K J D J K ~.^. X'.'.'.Q.K K K K Q.Q.!. X X X X'.`.!.Q.K J J D D S S S S D I _.+X5X5X+XK D S S S D D J K K K K /./././.Q.Q.(.(.!.(.{.{.@X{./.J D D G L J K K K K K K J J J J D J J K Q.'.'.`.!.K J D S D J K K !.!.`.`.!.Q.J S N S J Q.-X;X;X-X(.D M c c c O @ # &     3 3 f -.q.;.:.:.A.J.J.Y.Z.*.iXaX,XdXjXjXdX>X[.!.`.+X+X{.K J J J J D D D D D D K {.}.}.OX_.).I L S S S D J K /.(.(.Q.K J D S N N S D U _._.+X5X@X).S N J K J Q.+X{.{.{.(./.K D S M M S D K /.(.(.Q.Q.J D S N N S Q.{.{._.oXU U L D D D J K Q.(.{.`.`.`.!.Q.J J D J K ~.^. X'.'.`.J G J J J J K K K K Q.Q.!.!.`.`.!.!.!.!.!.Q.Q.Q.!.!.!.!.!.!.!.!.Q.Q.!.(.(.Q.K J J J D D D D D D D K K D N M v v O $ * w a y u 6 9.s.PXPXf.d.d.",
"6.k.VXVXVXSXz.x.R.I.H.%.&.qX2XhXkXkXgXsX,X&X%X'.`.Q.K D D S S D !.`.`.`.`.!.!.!.!.^.^.~.Q.K J D G S S J (.@X+X{.{.!.Q.K J D D D Q.!.$X9X9X X!.Q.K K K K Q.!.]. X'.'.'.!.Q.K J D J K ~.^. X'.'.'.^.P K K K Q.!.!. X X X X'.`.!.Q.K J J D D S S S S D I _.+X5X5X+XK D D S S D D J U U U U K K K K K /.Q.(.!.!.`.`.7X@X/.J D S F G D K K K K K K J J J D D J J K Q.'.'.`.!.K J D S D J J K !.!.`.`.!.Q.J S N S J Q.-X;X;X;X(.J B c c c O @ # &     3 3 f -.;.;.:.:.A.J.H.Y.Z.&.iXaX,XdXjXjXdX;X].^.`.+X@X{.Q.J J K K J J J J D D J `.}.}.+X_.).U L F S S D D K /.(.(.!.Q.K D S N M S G P ).@X@X+X@X).S S J K J Q.+X{.{.{.(./.J D S M M S D K /.(.(.Q.Q.J D S N N S Q.{.{._.oXU U L D D D J K Q.!.`.`.`.`.Q.K J J D J K ~.^. X'.'.`.J G G G J J J K K K Q.Q.!.!.`.`.!.!.!.!.!.Q.Q.Q.].].!.!.!.!.!.].Q.Q.!.(.(.Q.K J J J D D D D D D D J K D N M v v O $ * w a y u 6 9.s.PXPXf.d.d.",
"6.k.CXVXAXSXz.:.R.L.C.#.&.qXlXkXdXsXsX,X>X&X%X'.`.Q.K D D S S D !.'.'.'.'.`.`.!.Q.Q.Q.K Q.~.~.P S S D J K Q.!.{.!.!.Q./.I U U U Q.!.].].].].!.!.!.Q.Q.Q.Q.!.].`.`.`.!.Q.K J D D P ~.~.^.`.`.'.`.K J J K K K K Q.].`.`.`.`.`.!.!.Q.K J D S N N N G U )._.+X+X-X}.K J J J J J J D D D D D D D D D J K K (.{.+X5X7X+X{./.J S N M N D J K K K K J J K J J J J K Q.^.`.`.!.Q.K J D D D J K ^.`.`.'.`.!.Q.J S N S J Q.-X6X1X6X(.D v O c c O @ * & 0 0 3 3 f -.;.;.:.:.q.T.W.C.%.*.MXXX<XdXhXhX,X%XQ.K (.(.(.(.(.Q./.Q./.I J D D S D J !.'.{.{.(.I J D S S S S J K /._.!.{.{.Q.J S S S N S D K /.Q.!.Q.J J U /.(.(.!.!.`.{.(.(.I U D S M N S D J /.(.(.(.Q.K D S S S D Q.{.{._.oXU U L S S D D K Q.{.}.'.'.`.Q.K J D S P ~.^.|. X:X:X XK G D D D J K K ~.Q.^.Q.Q.Q.Q.Q.!.!.!.!.].].|.|.|.].!.Q.Q.Q.Q.!.Q.!.!.(.(.Q./.K K J D D D G U I J Q./.J S M v v O $ , w a y u 6 9.s.f.PXLXf.d.",
"6.k.AXVXAXSXz.:.2.<.O.+.W Q 2XhXdXsXsX,X>X&X%X'.`.Q.K D D S S D !.'.'.'.'.`.`.!.Q.K K K K Q.~.~.D D J J K Q.Q.Q.(.Q.Q./.K K U K Q.!.].].].].!.!.!.Q.Q.Q.Q.!.].`.`.`.`.!.Q.K J J P ~.~.^.`.`.'.`.Q.K K K K Q.Q.Q.].`.`.`.`.`.`.!.Q.K K J D S S S G J /._.+X+X-X}.K J J J J J D D D D D D F F F F D J K /.(.+X5X5X}.{./.J S M v M D K K Q.Q.K K K K J J J J K Q.^.`.`.`.!.Q.K J J J J Q.^.`.'.'.'.!.Q.J S N S J Q.-X6X1X6X(.D v O c c O @ * & 0 0 3 3 f -.;.;.:.:.q.J.W.F.%.&.MXqX=XsXhXhX,X%XQ.K Q.Q.Q.(.(.(.(.(.(./.K D D S S J !.'.{.{.(.I J D S S S S J K /._.!.}.{.(.J S S S N S D U K /.Q.Q.K U )._.(.{.`.!.`.(.(./.U G S N M N S D J /.(.(.(.Q.K D S S S D Q.{.{._.oXU U L S S D D K Q.{.}.'.'.`.!.Q.J D D P P ^.|. X:X:X XK G D D D J K K ^.^.^.^.!.!.!.!.!.!.!.!.!.].].|.].!.!.Q.Q.Q.Q.!.!.!.{.{.{.(.Q.K K J D D D G U I K (._.K S M v v O $ , w a y u 6 9.s.f.PXLXf.SX",
"6.k.AXVXVXSXl.:.:.s d a W T 2XjXdXsXsX,X>X&X%X'.`.Q.K D D S S D !.'.'.'.'.`.`.!.K K K K K K P P K K K K K K K K Q./././.K K K K Q.!.].].].].!.!.!.Q.Q.Q.Q.!.].`.'.'.'.`.!.K K J P P Q.^.`.`.'.`.Q.P ~.Q.Q.Q.^.!. X X X'.'.'.'.`.(./.K J J D S S D J /.(.{.}.-X}.K J J J J D D D D S S S S S N S S F J I (.+X5X5X}.{.K D N v c v J Q.~.~.~.~.Q.K K J J J J K Q.^.'.'.'.`.!.K K J J P ~.|. X X%X'.!.Q.J S N S J Q.-X6X1X6X(.D v O c c O % * & 0 0 3 3 f -.;.;.:.:.w.J.W.F.%.&.MXqX=XsXhXdX,X'.Q.J J K Q.Q.(.{.{.{.(.Q.K D D S S D !.'.{.{.(.I U G S S S S J K /.OX`.}.}.(.J D S S N S D U K K Q.K ).).oX@X@XOX}.{.!.(.(./.U D N N M N S D J K (.(.(.Q.K D D S S D Q.!.(._.).U L G S S D D K Q.{.}.:X-X'.`.Q.K J J J P ~.|. X X-X'.K G D D D J K K |.|.|.].].!.`.!.!.!.!.!.!.!.].].].!.!.Q.Q.Q.Q.Q.{.{.OX@X@X_.(./.K J D D D G U I _.$X$X).D M v v O $ * w p y u 6 9.s.HXPXJXf.d.",
"6.k.AXVXVXSXl.:.,.` l O.) qXlXnXdXsXsX,X>X&X%X'.`.Q.K D D S S D !.'.'.'.'.`.`.!.K K K K K K K K /./.K K K J J J /././.K /.K K Q.Q.!.].].].].!.!.!.Q.Q.Q.Q.!.].`.-X-X'.`.^.Q.P P P K Q.Q.!.`.'.`.^.~.~.~.~.^.^.!. X X X X'.'.'.'.(././.U L G D D D D K (.{.}.}.{.K J J J J D D D S N N B B B B B B S D K (.{.5X5X}.!.K D M c O c P ~.^.^..X^.~.Q.K J J J J K Q.^. X-X'.`.!.Q.P P P ~.^.|. X:X:X-X!.Q.J S N S J Q.-X6X8X6X(.D v O c c O @ * & 0 0 3 3 f -.;.;.:.:.w.x.W.w.C.&.MXqX=XsXhXdX>X'.Q.J D J K /.(.{.+X+X{.(.K J S S N D !.'.{.{.(.I U G S S S S J K /.OX`.-X}.!.K D S S N S D J U K K K ).oX$X$X$X+X+X}.!.(./.I L F B M M N S D J /.(.(.(.Q.K D D S S D Q.!.(.(.).U L G S S D D K Q.{.}.7X:X-X`.^.K K J J K ~.]. X X%X`.K G D D D J K K |.$X|.|.|.].`.].Q.Q.Q.!.!.!.!.].!.!.Q.Q.K K Q.Q.{.OX@X@X@X@X_._.K J D D D G U I $X$X$X).D M v c O $ * w a y u 6 9.s.HXPXJXf.d.",
"6.k.AXVXVXSXl.:.,.` l O.) qXlXnXdXdXsX,X>X&X%X'.`.Q.K D D S S D !.'.'.'.'.`.`.!.K K K K K K K K /././.K J J J D K K K K /././.Q.!.!.].].].].!.!.!.Q.Q.Q.Q.!.].`.-X-X'.`.^.Q.P P J K K Q.!.`.`.`.^.~.~.~.~.^.^.!. X X X X'.'.'.'.(././.I U G D D S D K /.{.}.}.`.K J J J J D D D N N M M M M M M M B S J /.{.}.5X}.!.K S M c + c L ~.^.^.^.^.~.Q.K J J J J K Q.^. X-X'.`.^.Q.P P P ~.^.|. X:X:X-X!.Q.J S N S J Q.-X6X8X6X(.D v O c c O @ * & 0 0 3 3 f -.;.;.:.;.w.x.W.w.C.U.MXqX=XsXdXdX>X'.K J D J K Q.(.}.5X5X{.!.K J S N B D !.'.{.{.(.I U G S S S S D K /.OX'.-X}.{.K D S S N S D J U K K K _._.@X@X$X+X+X}.Q.Q./.U G S M v M N S D J K (.(.(.Q.K D D S S D Q.(.(./.I P G D S S D D K Q.{.}.7X:X-X`.^.K K J J K ~.^.`.'.'.`.K G D D D J K K |.|.|.|.|.].`.].Q.Q.Q.Q.!.!.!.!.!.!.Q.K K K K Q.{.OX@X@X@X@X_._.K J D D D D U I $X$X$X).D M v c O $ * w a y u 6 9.s.f.PXPXf.f.",
"6.k.AXVXVXSXl.:.,.h d a W T 2XjXdXsXsX,X>X&X%X'.`.!.K D D S S D !.'.'.'.'.`.`.!.K J J J J K J K Q.Q.K K K J J J K K I K /././.Q.!.!.].].].].!.!.!.Q.Q.Q.Q.!.].`.'.'.'.`.!.K K J J J K Q.!.!.`.!.Q.P Q.Q.Q.Q.^.!. X X X'.'.'.'.`.(./.K J J D S S S D K Q.(.{.'.`.Q.K J J J D D F N M M M v v v b v M S J Q.{.}.-X'.!.K S v O + O G Q.~.~.~.~.Q.K K J J J J K Q.^.'.'.'.`.!.K K J J P ~.|. X X%X'.!.Q.J S N S J Q.-X1X8X6X(.D v O c c O % * & 0 0 3 3 f -.;.;.:.;.w.x.W.w.C.U.*.qX=X,XdXdX>X'.K J D J K /.(.}.}.-X}.!.Q.J S N B F !.'.{.{.(.I J G S S S S J K /.OX'.-X-X`.K D S S N S F G U U K K /.(._.@X+X+X}.{.Q.Q.K J D B M v M N S D J K (.(.(./.K D D S S D K Q.Q./.I U D D S S D D K Q.{.}.:X-X'.`.Q.K J J J J Q.^.`.'.'.`.K G D D D J K K |.|.|.].].!.`.!.Q.Q.Q.Q.Q.!.!.!.!.Q.Q.K K K K Q.{.{.OX@X@X_.(./.K J D D D D U I _.$X$X).D M v v O $ * w a y u 6 9.s.f.PXZXf.SX",
"6.k.AXVXVXSXl.:.2.<.O.a W Q 2XhXdXsXsX,X>X&X%X'.`.Q.K D D S S D !.'.'.'.'.`.`.!.J J J J J J J K K K K K K K J J U U K K /./.Q.Q.!.!.].].].].!.!.!.Q.Q.Q.Q.!.].`.`.`.`.!.Q.K J J J J K Q.!.!.`.!.Q.K K K K Q.Q.Q.].`.`.`.`.`.`.!.Q.K K J D S S S S D K /.!.`.`.`.Q.K J J J D D F M M M v v c c c v M N D Q.`.}.-X'.!.J N v O + O D K K Q.Q.K K K K J J J J K Q.^.`.`.`.!.Q.K J J J J Q.^.`.'.'.'.!.Q.J S N S J Q.-X6X8X6X(.D v O c c O @ * & 0 0 3 3 f -.;.;.:.;.w.r.r.w.C.Z.*.qX=X,XdXsX>X'.K G J U K Q.!.`.}.}.}.`.Q.J S N B F Q.'.{.{.(.I U G S S S S J K /.OX'.;X-X{.K D S S N N F G U U K K /.Q.(.{.}.}.`.`.Q.K K J F B v v M N S D J /.(.(.(.Q.K D D S S D K Q.Q./.K J D S S S D D K Q.{.}.'.'.`.!.Q.J D D D J K ^.`.`.'.!.K G D D D J K K ^.^.!.^.!.!.!.!.K K Q.Q.Q.Q.!.!.!.Q.K K K K K K (.!.{.{.{.(.Q.K K J D D D D U I K (._.K S M v v O $ * w a y u 6 0.s.h.PXHXf.d.",
"5.k.SXVXCXSXl.w.T.L.Z.V.| iX0XzXsXfXfX,X>X&X%X`.`.Q.J D S S S D Q.`.{.{.{.].(.!.J J J J J J J J J J J J K K I I I I I I I /./.Q.Q.^._._._.^.(.Q.Q.Q.Q.K Q.Q.(.|.!.Q.Q.K J D D S G D J J K Q.Q.Q.J J J J J J J J ~.Q.Q.Q.Q.Q.Q.Q.K J D D S N N N N S J K /.Q.(.Q.K J J D D D F F M M v v v v c c v v N D J /.(.{.(.K D N c O + O S J J J J J J D J J D D D J K ~.Q.Q.Q.K J D D S S D J P Q.^.!.!./.J D S N S G K OX+X5X@X).D v O c O @ % * & 0 7 3 3 f f q.q.-.-.w.r.W.F.Z.U.MXqX=X3XsXsX>X'.Q.J P I I /.(.(.!.!.{.(.K J D S N S Q.!.(.(.).I U D S S S D J K )._.`.}.+X(.K D S D S S D G U U J J K K /.(.(.(.(.Q.K K J J D N M v N N S D J I /.(.(./.K D D S S D J K K I U J D S S S S D J /.(.OX!.!.Q.K J D S S S D J P ^.(.!.Q.J G D S S D J J P P Q.K K K K K J J J K K K K K K K J D D D J J K K /.)./.I K J J D D S S D L U D I U D N v c m o $ > t a y u 6 0.s.h.PXHXf.d.",
"9.j.f.s.p.DXz.7.w.n.Z.U.uXuX@X-X1X8X8X1X%X`.`.{./.K J H G F F G J K K K K K K K K J K J J J J J I I I I J J J J I I I I J J J K K K K K K K K K I I I K K J J D N N M M M M M M M M N N N N S N N N N N N N N N S S S S S S S S N N N M M M M M v v M M M N N N N N N M M M M M M M M M v v v v v M M M N N S S S S S N B M b b v M M M M M M M N N N N N N N N S S S S S N N N M M N N N N N N N N M M M M M N S D D S S N M n A % % % 1 _ e 0 u f +.w.w.w.w.7.7.w.J.R.U.NXwX@X6X1X,X>X&X`.Q.K J I I I K K K K I I I I J J D J I I I I J J J J J J J J J J J K J K J J J D D D D D D D D D D D J J J J J J J J J J J D D D S S S S S S D D D D D D D D S S S S D D D D D S S S S S D D D D D D S N N N N N M M M M N N N N N N M M M M M M N N N N N N N N N N N N N N N N N N S S S S S S S S N N N N N N N N N M M M M M M M M n v v c @ @ X X X & 0 u u u 5 9.s.PXPXf.d.d.",
"y.s.JXs.s.g.z.0.w.F.U.U.NXuXrXOX5X8X8X5X{.!.Q./.J J D S S N B N D D D D D D D D D D D D D D D D D D D D D D D D D D D D D D D D D D D D D D D D J J J D D D D S M v v v v v v v M M M M M M M M M M M M M M M M M M M M M M M M v v v v v M M M v v v v v v v v M M v v v v M v v v v v v v v v v v v v v v v v M M M M M M M M v v v v v v v v v v v v v v v v M M M M M M M M v v v v v v v v v v v v M v v v M M M M M M M b m % X = 1 s r 0 9 f +.w.w.w.7.7.7.x.T.R.U.NXeXtX5X;X&X&X'.!.Q.J J D D D D D D D D D D D D D D D D D D D D D D D D D D D D D D D D D D D D D D D D D D D D D D D D D D D D D D D D D D D S S S S D D D D D D D D D D D D D D D D S N S S N N N N S N S S N N N N M v v v v v v v v v v v v v v v v v v v v v v v M M v v v v v v v v v v v M M M M M M M M M M M v v v v v v v v v v v v v v v v n A A m % % % = X .   0 u z u 5 9.s.PXPXJXd.d.",
"y.f.JXs.s.g.z.7.r.H.I.U.NXuXwXoXOX5X5XOX/.K K I D S N N M M b M N S S S S S S S S S S S S S S S S S S S S S S S S S S S S S S S S S S S S S S S S S S S S N N M M v v v v v v v b b n n n n n n n n n n b b b b c c c c c c c c v v v v v v v v c c c c c c c c v v v v v v v v c c c c c c c c c c c c c c c c c c c c c c c c c c c c c c c c v v v v v v v v c c c c c c c c c c c c c c c c v v v v v v v v c c c c c c c c @ X X = 1 r e 0 9 f +.q.w.w.7.7.t.r.T.R.U.NXuXeXOX}.%X'.`.Q.J D S S S S S S S S S S S S S S S S S S S S S S S S S S S S S S S S S S S S S S S S S S S S S S S S S S S S S S S S N N N N N N N N S S S S S S S S S S S S S S S S M M M M M M M M M M M M M M M M c c c c c c c c c c c c c c c c c c c c c c c c v v v v v v v v v v v v v v v v c c c c c c c c c c c c c c c c c c c c c c c c n A A A A % % = = = & 0 u z u 5 9.s.PXPXJXd.d.",
"y.s.JXs.s.g.z.7.r.W.I.U.NXuXwXoXoXOX@XoXI D D H N M M v v m m m M M M M M M M M M M M M M M M M M M M M M M M M M M M M M M M M M M M M M M M M B B N M M M M v c c c c c c c c V V V V V V V V V V V V V V V V O O O O O O O O m m m m m m m m O O O O O O O O m m m m m m m m O O O O O O O O O O O O O O O O O O O O O O O O O O O O O O O O m m m m m m m m O O O O O O O O O O O O O O O O m m m m V V m m O O O O O O O O X X X = 1 r e 9 9 f +.q.w.w.w.6.t.r.W.R.U.3.uXiX(.(.].!.Q.J S N N M M M M M M M M M M M M M M M M M M M M M M M M M M M M M M M B B B B B B B B N N M M M N N N N N M M M M N N M M M M M M M M N B N N N N N N N B N N N N N B v c v c c c c c v c v c v c v c O O O O O O O O O O O O O O O O O O O O O O O O m m m m m m m m m m m m m m m m O O O O O O O O O O O O O O O O O O O O O O O O A m m m % % % = = = 2 9 9 z u 4 9.s.PXPXJXd.d.",
"y.s.JXs.s.g.z.7.r.L.I.P.X. .wXwXY #XwXY H N N B n n m m m $ $ $ m n n n n n n n n n n n n n n n n n n n n n n n n n n n n n n n n n n n n n n n A A n n b b v c o + + + + + + + + + + + + + + + + + + + + + + + + + + + + + + + $ $ $ $ $ $ $ $ + + + + + + + + $ $ $ $ $ $ $ $ + + + + + + + + + + + + + + + + + + + + + + + + + + + + + + + + $ $ $ $ $ $ $ $ + + + + + + + + + + + + + + + + $ $ $ $ + + + + + + + + + + + + X X X = 1 r e 0 u d +.q.w.w.w.6.t.k.r.H.D.P.3.uXY ).).P L G N M b n n n n n n n n n n n n n n n n n n n n n n n n n n n n n n n A A A A A A A A n b b b b b b b n b b b b b b n n n n n n n n n b b b b b b b b b b b b b b b b c O O O O O O O O + O O O O O + + + + + + + + + + + + + + + + + + + + + + + + + $ $ $ $ $ $ $ $ $ $ $ $ $ $ $ $ + + + + + + + + + + + + + + + + + + + + + + + @ % % % % % % = = & & 0 9 d d u 4 9.s.PXPXf.d.d.",
"y.s.JXs.s.g.z.7.w.n.v.] ..} } ~ ~ ~ } ~ A A A A C C C * * * * * C C C C C C C C C C C C C C C C C C C C C C C C C C C C C C C C C C C C C C C C Z Z Z Z C C m $ + # # # # # # # $ $ $ $ $ $ $ $ $ $ $ $ $ $ $ $ $ $ $ $ $ $ $ $ $ $ $ $ $ $ $ $ # # # # # # # # $ $ $ $ $ $ $ $ $ $ $ $ $ $ $ $ $ $ $ $ $ $ $ $ $ $ $ $ $ $ $ $ # # # # # # # # $ $ $ $ $ $ $ $ $ $ $ $ $ $ $ $ $ $ $ $ $ $ $ $ $ $ $ $ $ $ $ $ $ $ $ $ $ $ $ $ * = = = t r e 0 9 d O.q.w.w.w.6.t.t.w.w.m.1... .~ ~ Q T T F B b V C C C C C C C C C C C C C C C C C C C C C C C C C C C C C C C Z Z Z Z Z Z Z Z m @ @ @ m m @ @ @ @ @ @ @ m m m Z Z Z Z Z Z Z Z V V V V m m m m V V V V V V V V $ $ $ $ $ $ $ $ $ $ $ $ $ $ $ $ $ $ $ $ $ $ $ $ $ $ $ $ $ $ $ $ $ $ $ $ $ $ $ $ $ $ $ $ $ $ $ $ $ $ $ $ $ $ $ $ $ $ $ $ $ $ $ $ $ $ $ $ $ $ $ $ $ $ $ $ $ $ $ * % % % % % = = = 2 0 9 9 d d y 4 9.s.PXPXf.d.d.",
"y.d.JXs.j.g.z.7.w.q.' ( / { { } { o. .{ ! Z Z ^ R R , , > > > > , R R R R R R R R R R R R R R R R R R R R R R R R R R R R R R R R R R R R R R R E E E R R * * * > > > > > > > > , , , , , , , , , , , , , , , , > : : : : : > > & & & & # & & & # # # # # # # # & & & & & & & & > > > > > > > > > > > > > > > > > > : : > > > > # # # # # # # # # # & & & & & & > : : : > > > > > > > > > > > > & & & & & & & & > > > > > > > > ^ 1 2 1 r s e 0 9 d O.q.q.w.q.w.t.7.7.w.O.' ] ..{ { { Q W W V V R R R R R R R R R R R R R R R R R R R R R R R R R R R R R R R R Z Z * * Z Z Z Z $ $ # $ $ $ $ # $ $ # # $ $ $ $ E E E E E ^ E E E E E E E E E E E E E E E E E R * > > > > > > > > > > > > > > > > > > > > > > > > > > > > > > > > > > > > > > > & & & & & & & & & & & & # & & & : : > > > > > > > > > > > > > > > > > > > > > , ! ! ! ! 1 1 1 t 2 9 e g g d y 4 9.s.PXPXf.d.d.",
"y.d.JXs.j.g.z.7.6.f h ^ ^ / { o.| ....] ^ ^ ^ ( w w q q q q q q w w w w w w w w w w w w w w w w w w w w w w w w w w w w w w w w w w w w w w w w ^ ^ ^ w w w , , p a a a a a a a p p ( ( k k k p ( ( p k p ( ( ( > > > : > > > > : : : : : : : :     & & & & & & : : : : : : : : q q q q q q q q q q q q q q q q > > > : : > > > & & & &         : : : : : : : : > > > : > > > > q q q q q q q q : : : : : : : : > > > > > > > q ' s t t s h 9 0 9 d O.q.q.q.q.w.7.7.6.+.l l ' ) ) ) | ) ) E E , , w w w w w w w w w w w w w w w w w w w w w w w w w w w w w w w > > > > > > > > & & & & & & & & & & & & & & & & ^ ( ^ ^ ^ ^ ^ ^ ' ' ' ' ( ( ( ( ' ' ' ' ( ( ( ( > > > > > > > > > > > > > > > > q q q q q q q q q q q q q q q q q q q q q q q q : : : : : : : : : : : : : : : : : : > > > > > > q q q q q q q q q q q q q q q w _ [ _ _ _ _ _ h t t e g g d 9 4 9.s.PXPXf.d.d.",
"y.d.JXs.j.g.z.7.6.l h ^ ( ) &.P.) V.V.] w : q p : 7 y i y y u 8 > q q p p q q : : q q q t q p p q r p p p p p p q q t q q t t t t t t q q t t t q q q p p p p l : : : 8 y i a a 8 8 8 8 8 8 8 8 O.O.O.l l a i i y y 8 8 : : - - : : : : : - - -     . . . . . . : : -     - : : i i y y 8 7 : : i i i i i i i i i y : : : : : : : - : - : : : : : : : : : : : : : : : : 7 8 8 8 : : 8 8 y y i i : : - - - - - - 7 : -   - : i h g r r e e e 9 9 9 d l q.q.q.q.w.w.7.6.@.f l #.#.$.$.$.$.%.( < : q r p p p p p p t t t t t t q q t t t t q t t t t t t t t t q q ' ( p q q : & & & & & & & & & & & : & & & & & & q q e r p p p ( h h ( ( ' ( ( ( ( ( ( ' ' ' p p i y y 8 8 7 7 7 . .   - - 7 u 8 8 8 8 8 8 8 y y 8 8 8 y 8 8 8 8 i i i y 8 8 7 7     : : : : : - : : : : : : : : - - : 8 y 8 8 7 8 8 8 y y y y y 8 8 8 8 8 8 8 q _ _ _ _ _ s s s e e e 9 9 9 9 4 9.s.HXPXf.d.d.",
"y.d.JXs.j.g.z.7.w.O.h p ( ) $.&.v.B.Z.c.i : : 8 : 7 7 u u 7 3 3 0 0 8 9 9 8 0 0 : 0 0 0 8 8 8 9 9 9 9 9 e e i i 8 8 8 8 8 8 8 8 8 8 8 8 8 8 8 8 8 8 8 9 i i i a y y d l O.O.#.c.k k k k O.O.O.k O.l l d y y y y 7 7 7 7 - - -   - - - -         7 7 - - - - : 7 - -         - - y y 8 7 7 7 7 : y y y y y y y y 7 7 - -     - - - - - -       - - - - - -   -   - - - - - 7 7 7 : : 7 7 7 y y y - - - - - - - - : -       - 7 i 9 t 9 9 9 0 0 0 9 g k q.M.n.n.q.w.@.@.5 f f O.#.#.#.M.#.#.a u : 8 9 9 9 e e i i 8 8 8 8 8 8 7 7 8 8 8 8 8 8 8 8 8 8 8 8 8 8 7 7 a i i 8 0 :     8 8 8 8 8 8 8 8 & &             8 8 8 9 i i i a i i a a a a a a g g g g a a a i u u u u 3 3 - - . .   - - 3 3 u 7 7 7 7 7 7 7 7 7 7 7 7 7 7 7 7 a y y y y 7 7 7   - : 7 7 7 - - - - - - - - - - - - 7 8 y y 7 7 y y y y y y y y 7 7 7 7 7 7 7 8 r s r r r e e e 9 9 9 9 9 9 0 4 9.s.HXPXf.d.d.",
"y.d.JXs.j.z.z.w.q.q.k ' ( #.$.$.m.G.G.c.y 3 3 7 3 3 3 3 3 3 3 - 7 8 9 y y 9 8 0 0 0 0 7 7 8 9 9 y y 9 9 9 9 9 9 7 7 8 8 7 7 7 7 7 7 7 7 7 7 7 7 7 8 8 9 y i i g 0 7 7 9 y g d l y y y y y y y y l l l d g y y y 7 7 7 7 0 - - - 7 3 - - -                       0 - -     - - - y y y u 7 7 7 7 u 8 y y 9 9 9 9 7 7 -         -                 - - - -           - - - - 7 7 0 7 7 7 7 9 y y y - - - - - - - - 3 - -   - - 0 9 0 0 0 0 0 0 0 0 g l k c.M.M.M.M.+.+.f f f f l O.q.q.c.c.O.O.d u y y 9 9 9 9 9 9 7 7 7 7 7 7 7 7 7 7 7 7 7 7 7 7 7 7 7 7 7 7 7 7 i i y 8 0 : -                   - - - - - - - - 7 8 8 9 y i i g g g g a g g g g g g g g g g g d u 7 u 3 3 3 3 3 .     - - 3 3 3 0 7 7 7 7 7 7 7 7 7 7 7 7 7 7 7 d d y y y 9 7 7 - - 7 7 7 7 - - - - - - - - - - - - 7 8 y y 7 7 y y y y y y y y 7 7 7 7 7 7 7 8 e e e e e e e e 0 0 0 0 0 8 0 4 9.s.HXPXf.d.d.",
"e.d.LXs.j.z.z.w.w.n.c.#.#.#.#.#.n.q.q.q.f f f f f f u u 7 7 7 u d g l k k l l d 9 9 y d g g l l k k k l l g g g g d g g g d g d g d g d g d g d g g l l k k k k 0 0 9 d g l l k l l l l l l l l c.q.q.O.k k l l d d d d d d d d g d y 9 0 0 0 3     - 3 3 3 3 - d 9 0 0 0 0 9 y k k l l g g d d d g g g g g g g d 9 7 0 3 3 0 0 0 0 0 0 0 0 0 0 0 7 0 0 0 0 0 0 0 0 0 9 9 y d d d d g g l l k k 9 9 9 9 9 9 9 9 9 u 0 0 0 9 9 y 9 9 9 9 9 9 d g k k c.M.m.m.m.M.q.q.+.O.O.O.O.q.q.q.q.q.q.O.O.l k k k l l g g g g d g d g d g d g d g d g d g d g d g g g d g d k l l g d 9 9 9 3 3 3 3 - 3 - - 9 9 9 9 9 9 9 9 g g l l k k k k k k k k k k k k k k k k O.k k O.f f f f u f u u 3 3 3 3 7 u u d d d g d d d d d d d d d d d d g l l l g d 9 9 9 0 0 9 9 u 0 3   3 3 3 3 3 3 3 3   3 7 9 9 9 9 0 d d d d d d d d d d d d d d d g l g l l k k k k g g g g g g g f 9.s.HXPXf.s.d.",
"e.d.LXs.j.z.z.w.F.m.C.M.#.O.+.+.f f f +.q.w.C.w.q.q.l f d d f l c.M.m.m.m.m.M.c.k k ;.q.c.c.M.M.m.m.m.M.M.c.c.q.c.c.c.c.c.c.c.c.c.c.c.c.c.c.c.c.c.c.c.M.m.m.m.m.m.S.K.L.L.R.R.R.R.R.R.R.R.R.R.R.K.K.S.m.m.m.M.M.c.c.c.c.c.c.c.c.m.M.c.;.k g g d k ,.M.m.K.m.m.m.,.;.k j j k ;.,.m.m.m.m.m.M.M.c.,.,.,.,.,.,.,.,.;.k l d d d d g l l l l g l g l l l l g l l l l l j j k k ,.,.c.c.M.M.M.m.m.m.m.k k k k k k k k k k ;.k k k k k g g g l k k q.c.k c.M.m.m.m.M.M.M.m.m.m.n.n.C.q.q.q.q.q.q.q.q.q.m.m.m.M.M.c.c.q.c.c.c.c.c.q.c.c.c.c.c.c.c.c.c.c.c.c.c.c.c.c.c.c.M.c.c.c.c.;.;.k M.M.M.M.M.M.M.M.k k k k k k k k c.c.c.M.M.m.m.m.m.m.m.m.m.m.m.m.m.m.m.m.m.m.m.m.q.q.q.q.q.q.O.O.l f l O.O.q.q.q.c.,.c.,.c.c.c.,.c.c.c.c.c.c.c.c.k k j l g g d d 9 9 d d 9 0 x x 0 0 0 0 0 0 0 0 x x 0 9 9 9 9 9 l l l g g l g g c.c.c.c.c.c.c.c.q.q.q.c.M.m.m.G.c.c.c.c.,.c.,.q.9.s.HXPXf.s.d.",
"e.d.LXs.j.z.z.w.J.H.Z.C.#.O.+.u u 3 5 f w.H.W.H.J.F.q.l l l ;.q.S.K.L.L.L.L.K.S.M.M.b.m.m.m.S.S.R.L.L.K.S.m.b.M.m.m.m.m.m.m.m.m.m.m.m.m.m.m.m.m.m.m.m.S.K.L.L.L.S.K.L.L.R.E.E.E.E.E.E.E.E.E.E.E.I.I.L.L.L.L.S.S.m.m.S.S.S.S.S.S.L.L.S.m.b.,.k j j ,.S.L.L.L.K.S.S.m.b.b.b.b.m.S.L.L.L.L.K.K.S.S.M.M.M.M.b.b.M.b.M.c.,.j j j j j ,.,.,.,.,.,.,.,.,.,.,.,.,.,.,.,.,.,.,.b.b.m.m.A.S.S.S.K.L.L.L.L.b.m.m.m.b.b.b.b.b.b.m.m.m.b.,.;.l l k O.c.M.m.m.c.M.m.B.B.N.b.v.B.Z.K.L.L.K.G.F.q.+.f -.q.q.w.J.T.L.L.K.S.m.b.M.m.m.m.m.m.m.m.m.m.m.m.m.m.m.m.m.m.m.m.m.m.m.m.m.m.m.m.m.m.m.m.m.m.m.m.m.m.m.m.m.b.b.b.b.m.m.b.b.m.m.m.S.K.L.L.L.L.L.L.L.L.L.L.L.L.L.L.L.L.L.L.L.G.G.F.F.n.n.q.q.n.n.n.n.n.n.n.n.m.m.A.N.A.m.S.m.m.m.m.m.m.m.B.m.,.,.j j j g s s s s g s z 0 2 x 2 2 2 2 2 2 2 2 x 2 0 e z z z 9 j j j j j j j j m.m.m.m.m.m.m.m.n.n.n.m.G.K.L.L.m.m.m.m.m.m.m.w.9.s.HXPXf.s.d.",
"e.d.LXs.j.z.z.w.H.H.L.H.#.+.+.u f 5 5 +.F.W.W.J.L.F.q.f d d k q.S.L.L.L.L.L.L.S.b.b.b.m.m.S.S.S.R.R.L.L.S.m.b.b.m.A.A.m.m.m.m.m.m.m.m.m.m.m.m.m.m.m.S.S.S.L.L.L.b.b.N.S.D.L.L.I.I.I.I.I.R.R.R.R.R.R.I.L.L.D.D.D.b.N.N.S.D.D.L.L.R.I.D.S.b.,.,.j e s ,.S.D.D.b.<.S.N.b.b.b.b.N.D.R.I.I.L.L.D.D.S.b.b.b.b.<.<.<.<.b.,.,.j h h j ` ,.,.,.,.,.,.,.,.,.,.,.,.,.,.,.,.,.,.<.<.b.b.N.N.D.D.D.L.L.I.I.R.N.N.N.N.N.N.N.N.<.b.N.S.N.<.,.j d f l O.q.M.m.m.M.m.B.B.B.N.b.<.V.V.D.I.L.K.F.q.f f f -.-.w.J.T.T.R.L.L.S.m.b.b.m.m.m.m.m.m.m.m.A.A.m.m.m.m.m.m.A.A.m.m.m.m.A.A.m.m.m.m.m.m.m.m.,.,.,.,.,.,.,.,.m.m.m.m.m.m.m.m.m.m.S.S.S.L.L.L.L.L.L.L.L.L.L.L.L.L.L.L.L.L.L.L.G.G.F.A.n.n.q.q.A.A.A.n.n.n.n.n.m.N.N.N.N.N.N.N.N.N.N.N.N.N.N.N.,.,.,.` j j h h j j j h s t 2 2 2 2 2 2 2 2 2 2 2 2 t e r r e e ` ` ` ` ` ` ` ` N.N.N.N.N.N.N.m.q.q.q.n.G.H.L.W.M.m.m.m.m.m.b.w.e.s.HXPXf.s.d.",
"e.d.LXs.s.g.z.w.H.L.I.Z.%.+.< ; +.f u O.C.Y.H.n.K.m.k y 8 9 g k B.V.D.I.I.D.D.B.' <.c.v.v.v.N.B.I.D.S.B.v.v.' ` v.v.v.v.v.v.v.v.b.b.b.b.b.b.b.b.b.b.b.N.B.S.S.S.D.D.I.I.R.E.E.E.E.E.E.E.E.E.E.E.L.L.D.D.D.S.S.V.<.v.b.N.B.D.D.D.L.L.B.v.' ' _ _ _ <.D.R.E.R.L.K.N.N.<.<.<.<.N.m.L.L.H.K.Z.V.P.V.] <.<.<.<.<.<.<.,.` h g r r g s ` ` ` ` ` ` ` ` ` ` ` ` ` ` ` ` ` ` ' ] ] <.<.<.B.B.B.Z.K.D.I.I.N.1.1.1.1.1.1.<.] 1.V.V.1.] _ r e 9 g l k q.c.M.M.m.B.B.B.V.1.1.] ] P.I.Z.B.M.q.l f f f l q.G.L.L.L.K.B.v.v.' ` v.N.N.N.N.N.v.v.N.v.v.v.v.v.v.v.v.v.v.v.v.v.v.v.<.<.v.v.N.N.N.v.D.B.B.B.B.B.B.B.N.<.N.N.N.N.b.v.b.b.b.N.S.S.S.S.Z.Z.S.S.K.K.K.K.K.K.K.S.S.D.D.S.m.F.w.w.q.q.q.q.v.v.v.v.#.#.O.O.M.v.v.v.v.v.v.v.v.v.v.v.v.v.v.v.] ] ' ' ` _ _ _ _ _ _ h r t & & 2 2 2 2 2 2 2 2 x 2 t t r r r t ` ` ` ` ' ` ` ` <.N.N.N.N.v.v.v.O.O.q.n.C.Z.L.L.M.v.v.M.M.M.M.w.y.j.HXHXf.s.d.",
"e.CXAXVXVXVXa.7.H.P.*.*.=.=.< < < u a #.#.Z.Z.I.Z.$.#.( a a a a P.U.U.U.U.U.U.P.P.P.P.V.Z.Z.Z.V.P.P.P.P.P.P.P.P.$.$.$.$.$.$.$.$.V.V.B.B.B.B.B.B.Z.Z.Z.Z.Z.Z.Z.Z.V.P.I.I.I.E.E.E.E.E.E.R.R.R.R.R.Z.Z.Z.Z.Z.Z.Z.Z.Z.Z.Z.Z.Z.Z.Z.Z.Z.%.%.%.) ( ^ ^ ) ] $.V.Z.C.H.C.v.V.P.3.3.D.S.F.r.t.t.w.%.&.*.*...1.1.1.1.1.1.v.' ' ' h h g g g h h h h h h h h ` ` ` ' ' ' ' ' ) ) ) ] ) ] ( ( V.Z.Z.Z.V.V.V.P.&.&.&.&.&.&.&.&.] ] ] ] ] ) / ^ ^ _ _ ' #.M.n.C.n.M.M.B.V.V.P.P.&.&.P.U.U.P.&.$.( ^ ( ( ( #.$.Z.V.V.V.V.P.P.P.P.$.&.&.&.&.&.&.&.&.$.$.$.$.$.$.$.$.$.$.$.$.$.$.$.$.$.$.$.&.&.&.&.&.&.&.$.$.$.$.$.P.P.P.P.P.P.V.V.V.V.V.V.Z.Z.L.I.P.U.Z.Z.Z.Y.Y.Y.W.W.H.K.S.D.I.L.F.w.r.r.r.r.F.M.] ..o.| ) %.%.%.%.%.%.#.#.#.#.#.#.#.#.#.#.#.%.$.( / / / ) ) ( ( , , , , > : & & = = = & &       7 7 8 e r _ _ [ ( ( ( ( ( ( ) ( &.&.&.&.&.$.&.$.Z.C.Z.Z.V.P.P.P.P.P.P.V.Z.Z.Z.J.7.j.HXHXf.s.d.",
"e.d.AXVXVXVXa.+.Z.*.MXMXo.=.=.E E ( ( ) &.*.*.*.*.*.| ) W E ( W X.iXMXMXMX*.*.*.*.*.*.*.&.&.&.&.*.X.X.X.*.*.*.*.| | | | | | | | ..] ] ] ] ..] ] P.P.P.P.P.P.P.P...&.P.U.U.U.U.BXBXBXBXBXBXBXBXBX&.P.P.P.P.P.P.P.P.P.P.P.P.P.P.&.&.%.%.=.W W W Z { { ..V.Z.C.C.C.$.$.P.P.3.D.A.w.t.t.t.t.%.*.MXiX ...............] ] ) ( ( _ ^ ^ ( ( ( ( ( ( ( ( ] ] ] ] ] ] ] ] { { { { | | | ) *.&.&.&.*.*.*.*.o.X.X.X.o.o.o.X.{ o.o.o.o.{ Q { / / / / ] ] $.v.#.$.$.] ......X.o.o.X.*.*.X.X.| W W W W / | *.*.*.*.*.*.*.*.X.*.| | | | o.o.o.o.| | | | | | | | | | | | | | | | | | | | | o.o.o.o.o.o.| | | | | X.X.X.X...............&.&.P.P.P.&.&.&.$.$.Z.C.Y.Y.Y.C.G.m.N.D.D.A.x.r.r.r.r.C.V.o.uXyXqXQ | =.=.=.%.) ) ) ) $.$.) $.) $.$.$.) | W Q Q Q Q { W W Z E W W E E $ $ C C C * * * & : > > , ^ ^ / / / { W W W W W W W | | | | | | | | $.$.$.&...X.X.X.X.X.X...&.$.$.m.7.l.KXHXf.d.d.",
"9.s.SXp.p.FXr.O.&.iXiXaXqXqXQ Q Q Q Q } } yXyXiXiXiX} Q Q Q Q Q iXiXiXiXiXiXyXyXyXyXyX} } } Q } yXyXyXyXyXyXyXyXyXyXyXyXyXyXyX} } } } } } } } }  . . . . . . . . . .uXuXiXiXNXNXNXNXiXiXiXiXiXiX . . . . . . . . . . . . . . .o.o.| Q Q Q T T T ~ } o...P.V.B.Z.Z.$.V.P.D.D.S.x.t.t.t.O.%.*.iXiXiXuXuXuXuXuXuXuX .} } { { { { { { { { { { { { { } } } } } } } } wX$X#X#X#XyXyX} yXyX} } yXyXyXyXyXiXiXiXiXiXiXiXyXyXyXyXyX#X#XT ~ ~ ~ { } o.....| | o.} } } uXuXyXyXyXyXyXyXyX} Q Q T T Q } yXiX} } } yX} yXyXyXyXyXyXyXyXyXyXyXyXyXyXyXyXyXyXyXyXyXyXyXyXyXyXyX} } } } yXyXyXyXyXyXyXyX} } } } yXwXyXyXyXyX} } } } } o.o. .X.o.| | | $.$.%.%.C.Z.C.n.M.c.b.N.N.D.S.J.J.J.G.V.X.uXeXtX9XqXqXQ Q Q } } } } } } } } } } } } } } yX#X#X#X#X#X#XyXQ Q Q Q Q Q Q T T T Y T A A A Z Z Z Z Z { ~ ~ ~ ~ ~ Q Q Q Q Q Q Q yXyXyXyXyXyXyX} o.o.o.o. .uXuXuXuXuXuX . .o.o.] w.l.KXHXf.s.d.",
"9.s.f.s.p.z.Y.]  .pXpXtXaXaX.X.XqX$X$X$X$X$X$X$XaXaX$X$X_.|.$X$X9X9X9X9X9X9X9X$X$X$X$X$X#X#X#X#X$X$X$X$X$X$X$X$X$X$X$X$X$X$X$X$X#X#X#X#X#X#XwXwXwXwXwXwXwXwXwXwX#X#XwXeXeXeXpXpX#X#X#X#X#X#X#X#X#XwXwXwXwXwXwXwXwX#XwXwXwXwXwX#XqXqX#X#XoXoX/.Y wXwX .X.3.P.P.V.Z.Z.V.V.D.D.S.x.w.t.t.O.$.o.iXaXtXtXtXtXtXtXtXtXtXtXeXeXeXwX#X#XeXeXeXeXeXeXeXeXeXeXeXeXeXeXeXeX7X0X7X7X9X9X9X9X$X$X$X$X$X$X$X$X9X9X9X9X9X9X9X9X9X9X9X9X9X9X X X@X@X$X#XwXwXyXyX~ ~ #X#X#X$X$X$X@X$X$X9X$X$X$X|.$X|.|.|._.$X$XaX$X$X$X$X$X$X$X$X$X$X$X$X$X$X$X$X$X$X$X$X$X$X$X$X$X$X$X$X$X$X$X$X$X$X$X$X$X$X$X$X$X$X$X$X$X$X$X$X$X$X$X$X$X$X$X#X#X#X#X#X#X#XwXyX~ Q { | ) $.#.#.M.M.O.k k ,.,.<.D.D.S.L.L.P.3.uXeXtXmXlX0X9XqXqXqX$X$X$X$X$X$X$X$X$X$X$X$X$X$X9X9X9X7X9X9X9X$X$X$X$X$XqX$X#X.X_.@X@X@XoX).Y T T T T T ).oX@X@X@X$X$X$X$X$X$X$X$X$X$X$X$X$X$X$X$X#X#X#X#X$X$XeX$X9X$X$X#X#X#XwX{ x.l.KXHXf.s.d.",
"9.j.h.j.u.W.T...uXtXmXzXxX0X4X4X0XlX8X2X2X2X1X<XxXxX8X1X1X2X2XfX,X2XfXgXlX2X1X>X&X&X&X=X*X*X*X*X&X>X>X>X>X>X>X>X>X>X>X>X>X>X>X;X;X6X6X6X6X6X6X6X;X;X;X:X:X;X;X:X6X6X6X7X7X0X8X8X'.'.'.'.'.'.'.'.;X;X;X6X;X;X;X;X;X;X;X;X;X;X;X:X7X7X5X5X5X}.OXOX@XrXuXuX3.3.3.V.C.C.Z.Z.D.D.J.J.w.t.w.#.&.yXaX0XlXzXzXzXzXzXzXmXlXlXlXlX8X8X8X8X8X8X8X8XlXlXlXlX8X8X8X8X8X8X8XlXlXkXkXkXkXfXfXfXfX2X2X2X2X3X8X3XlXlXlXlXlXlXlXlXfXlXlXlXlXfX2X>X1X1X1X7X7X:X9X$X@X@X:X;X;X1X8X1X&X>X1X1X1X>X&X&X1X>X&X&X&X>X8X0X>X>X>X>X&X&X&X>X>X>X>X>X>X>X>X>X1X>X>X>X>X>X>X>X>X>X>X>X>X>X>X>X>X>X>X>X>X>X>X>X&X>X>X>X>X>X1X1X1X1X8X1X1X6X6X6X7X7X7X7X+X X X@XY T ~ { | ] $.$.#.#.O.l l j j ,.3.U.D.I.U.U.NXpXtXmXnXnXzXlX0X0X8X3X2X2X2X3X3X3X2X2X2X2X2X2X2X2XlXfXlXgXfXgX8X0X8X0X0X0X0X0X4X:X1X8X1X6X6X+X@X@X@X X X:X;X;X1X1X1X1X1X1X1X<X1X1X>X>X>X>X>X>X>X;X X@X+X-X6X1X8X8X8X8X1X6X5X X@X~ w.l.KXHXf.d.d.",
"9.j.h.j.k.W.R.X.rX8XzXnXzXkX3X3XdXhXhXhXdXdXdXdXkXkXdXdXdXhXkXkXhXhXhXhXhXdXdXsX,X,X,X,X>X>X>X>X,XsXsXsXsXsXsXsXsXsXsXsXsXsXsXsX,X,X2X,X2X,X2X2X,X,X,X,X,X,X,X,X2X2X2X2X2X2X2X2X2X2X2X2X2X2X2X2X,X,X,X,X,X,X,X,X,X,X,X,X,X,X,X2XfXfX8X8X1X6X5X+X@XrXwX .3.3.3.$.C.w.C.K.L.L.T.J.w.w.q.%.| yXaXxXnXnXnXnXnXnXnXnXnXnXzXzXzXkXkXkXzXzXzXzXzXzXzXzXzXkXkXkXkXkXkXkXkXcXcXvXcXcXcXjXjXjXhXhXdXdXgXdXkXkXkXkXkXkXkXkXhXkXkXkXkXhXdXsXdXsXsX,X>X>X;X&X;X;X1X,XfXdXgXdX,X,X,XsXsXsX,X,XsXsX,X,X,XsXsXdXsXsXsXsXsXsXsXsXsXsXsXsXsX,X,XsXsXsXsXsXsXsXsXsXsXsXsXsXsXsXsXsXsXsXsXsXsXsXsX,X,X,XsXsXsXdXsXsXfXfXfXfXfX2X2X2X2X1X1X;X;X%X%X X).Y T ~ { | &.$.#.#.k l l l j ,.3.U.I.I.U.U.uXpXmXnXnXnXnXvXkXxXdXdXdXdXhXhXhXhXdXdXdXdXdXdXdXhXkXkXkXkXkXkXkXxXxXxXxXxXxX3X<X,XsXdXfX,X,X>X;X&X1X:X1X,X,XsXsXsXsXsXsXsXsXsXsXsXsXsXsXsXsXsXsX,X&X;X1X1X2XfXfXgXgXfXfX2X1X;X;X~ w.l.KXHXf.d.d.",
"9.j.h.j.u.W.I.X.rX8XzXnXnXkXdXdXjXjXjXjXjXhXhXdXkXjXjXjXjXcXvXvXjXjXjXjXjXjXdXdXsXsXsXsX,X,X,X,XsXsXsXsXsXdXsXsXdXdXdXdXdXdXdXdXdXsXdXdXdXdXdXdXsXsXsXsXsXsXsXsXfX2XfX,X,X,X,X,XfXfXfXfXfXfXfXfXsXsXsXsXsXsXsXsXsXsXsXsXsXsXsXsXkXlXlXlX8X8X5X+XoXwX}  .....1.#.F.t.Y.H.L.T.T.J.w.w.O.%.o.qX0XzXvXbXbXbXbXbXbXbXnXnXnXvXvXjXjXjXvXvXvXvXvXvXvXvXcXcXcXcXcXcXcXcXcXcXcXcXcXcXcXcXvXvXcXjXjXkXgXkXjXjXjXjXjXjXjXjXjXjXjXjXjXjXhXdXhXdXdXsX,X>X>X&X3X<X3XsXdXhXhXhXsX,XsXsXdXsXsXsXdXdXsXsXsXsXdXdXdXdXdXdXdXdXdXsXdXdXdXdXsXsXsXsXdXdXdXdXdXdXdXdXdXdXdXdXdXdXdXdXhXhXhXdXdXsXsXsXsXsXsXdXdXhXjXhXkXfXfXfXfXfXfX2X2X3X1X>X&X&X%X'.(.oXoXwX} X.&.P.$.#.O.k l j ;.,.D.D.D.I.U.U.iXpXmXnXnXnXbXvXkXjXhXjXjXjXjXjXjXjXjXjXjXjXjXjXjXjXcXcXjXjXjXjXjXkXkXkXgXxXgXsX,X,XdXdXdXsX,X>X>X&X3X3X3XsXsXdXdXdXdXdXdXdXdXdXdXdXdXdXdXdXdXdXdXsX<X>X>X,XfXsXdXdXdXdXsXfX,X>X>X#Xq.l.KXHXf.d.d.",
"9.s.f.s.a.z.L...rX7XlXzXzXkXgXsXhXjXjXjXhXdXdXdXdXdXdXhXjXjXcXvXjXjXjXjXhXhXdXsXsX,X,X,X,X,X<X,XsXsXsXsXsXsXsXsXdXdXdXdXgXdXgXdXdXdXdXdXdXdXdXdXsXsXsXsXsXsXsXsX3X2X2X,X,X,X>X>X>X>X>X>X>X>X>X>XsXsXsXsXsXsXsXsXsXsXsXsXsXsXsXsXzXzXlXlX8X6X@XrXY ~ { ..] $.v.O.t.t.H.H.L.T.T.J.w.q.#.] } aX8XzXvXbXbXbXbXbXbXbXbXvXvXvXcXcXjXjXvXvXvXvXvXvXvXvXcXcXcXcXcXcXcXjXjXjXjXcXcXcXcXcXbXvXcXjXhXgXgXgXdXhXhXhXhXhXhXhXhXhXhXhXhXhXdXdXdXdXsX,X,X>X&X&X<X<X3XdXdXhXjXhX,X,X3XsXsXsX,X,XsXsXsX,XsXsXsXdXdXdXdXdXdXdXsXsXdXdXdXsXgX3X3XgXdXdXdXdXgXdXdXdXgXgXdXdXdXdXdXdXhXjXdXdXdXgX3X<X<X3XsXsXdXhXjXhXgXfXfXfXgX3X2X0X0X0X0X=X*X*X'.'.{.oX#XwXuXX.P.P.V.M.#.k k k ;.,.B.B.K.K.Z.P.iXpXmXnXnXnXbXvXjXjXhXhXhXhXhXhXhXhXhXhXhXhXhXhXhXhXjXjXjXjXhXhXhXgXdXgXgXxXgX<X,X>XsXdXsX,X,X>X&X&X3X3X3X,XsXsXdXsXdXsXsXsXsXsXsXsXdXdXdXdXgXdXdXsX<X=X<X<X,XfXdXdXdXdXfX,X<X<X=X#Xq.l.KXHXf.d.d.",
"e.CXIXCXi.z.w.^ ~ 9X8XlXlXgX0X0XdXjXdXdX,X,X<X=X&X&X3XgXkXkXcXjXsXsXsXsX3X,X>X&X<X=X=X*X=X4X4X0X=X>X<X<X<X<X<X<X%X%X&X>X<X<X>X&X&X&X&X&X&X&X<X<X<X<X<X<X>X&X%X'.*X*X*X=X=X:X4X4X0X0X=X=X*X*X=X=X%X&X>X<X<X&X&X&X&X&X&X&X&X&X<X3XfXlXmX8X}./.I T A / ) $.M.M.q.+.@.@.+.q.m.A.A.w.w.w.M...yX9XlXkXnXbXbXbXcXjXjXjXjXjXjXhXhXhXdXhXhXjXjXjXhXhXhXhXjXjXkXjXhXdXdXsX>X>X,XsXhXjXcXcXvXjXdX,X&X*X*X*X&X,X,XsXsX,X,X>X,X3X3XsXgXgXxXgX,X,X,X>X=X*X[.[.`.'.*X=X,X,X,X>X=X*X[.'.'.*X=X<X&X&X&X>X>X>X>X>X,X,X,X,X>X>X>X&X3X<X=X*X*X*X*X=X%X&X&X<X<X&X&X&X&X&X&X&X>X<X3XxXsXgXxX3X=X'.'.[.!.`.'.=X<X,XsX,X3X0X:X=X=X*X*X[.4X4X4XXXXXXX^.^.(./.I Y uXX.*.&.' ' c.M.m.m.b.n.n.F.w.F.Y.$.*.iX9XzXnXvXvXjXdX,XsXsXdXgXgXgXdXdX,X,XsXsXsXsXdXdXgXgXxXgXgX3X,X&X<X=X=X=X=X0X0XxXsXsX,X>X&X'.`.`.`.'.*X=X,X,X,X,X>X&X%X%X%X%X&X&X&X&X<X<X<X<X<X=X[.].[.*X=X&X>X>X2X2X&X%X'.`.].T f l.KXh.f.LXLX",
"e.AXIXAXVXg.t.e { oX+X;X&X*XXX*X>X,X>X&X%X`.!.Q.Q.!.'.=X,XsXsXsX&X=X=X=X*X'.'.`.`.!.!.Q.Q.^.^.].].'.'.'.`.`.`.`.`.`.[.*X*X*X[.[.`.`.`.`.`.'.'.*X=X4X4X4X*X'.`.!.].!.!.].].].].XXXX].].!.!.!.!.].'.'.*X=X=X*X'.'.'.`.`.`.`.'.'.=X&X8X6X}.K S M b + # : u u 6 6 ; @.@.+.n.m.m.A.w.w.C.v...yX9XlXkXvXcXjXjXhXdXsXsXsX,X,X,X,X,X>X,X,X,X,X,X,X,X,X,X,XsXsX,X,X>X&X%X`.`.'.%X>X,XsXsX,X>X%X!.Q.J D J `.%X*X=X=X*X%X'.%X%X*X*X*X=X=X=X>X>X=X*X`.].^.Q.~.^.].*X=X=X>X*X^.~.K K Q.!.!.`.'.'.%X%X%X&X&X&X&X&X&X&X&X*X*X[.*X[.].^.~.~.~.^.].'.[.*X*X[.'.`.`.`.!.`.`.[.*X=X&X,X<X*X!.K K P J P ^.[.=X<X,X>X[.].].^.^.Q.Q.K J J P P L D S S J J D H ~ o...) ' ' c.M.m.m.b.n.w.t.t.t.C.%.*.iX9XlXvXvXcXhXsX>X>X&X&X&X&X&X&X&X%X%X%X%X%X&X&X&X=X=X=X=X=X*X'.`.!.Q.Q.Q.Q.^.XX[.<X<X=X*X[.].^.Q.Q.^.].*X=X=X>X&X'.`.`.!.!.`.`.'.'.'.[.*X[.[.`.!.K P ~.^.].[.%X&X&X%X'.!.Q.K P B f l.KXh.s.PXLX",
"e.AXIXAXVXFXt.y C H Q.`.`.^.P ~.%X&X'.!.K D S N S D K ^.`.%X&X&X'.`.`.].].!.Q.K K J J D D J P P ~.Q.Q.K K J J J Q.~.^.XXXXXX^.^.Q.Q.Q.K Q.Q.!.].XXXXXXXXXX].^.Q.K J K P P P P ~.P P J J D D D J ^.].].XXXX].^.!.Q.Q.Q.K Q.Q.!.`.`.'.{.K S c o + . . . ; ; ; ; ; @.@.O.n.m.N.A.n.J.n.v...yX9XlXkXgXsXsX,X>X>X&X%X&X%X%X%X%X%X'.'.%X%X%X%X%X%X%X%X%X%X%X%X'.`.!.Q.D D J Q.`.'.%X%X'.`.Q.D N M v v K !.].].].].!.!.Q.Q.!.!.!.!.].].*X*X'.].Q.J D D L P ^.XX[.*X*X].J S S S S D J K ^.].`.`.'.'.'.%X%X%X%X'.'.].].^.~.P J D S F F D ~.^.^.XXXX^.^.~.J J J J K Q.^.].`.'.'.!.J N N N F G P .XXX*X=X*XQ.J J J D S S S M M N M M v c v N N M M A / ^ ^ ' ' c.M.m.m.b.n.w.t.t.t.C.%.*.iX9XfXkXjXjXsX>X*X[.].].!.!.Q.Q.Q.Q.Q.Q.Q.Q.!.!.!.!.`.].].!.Q.K J D D S S D D P ~.4X=X*X[.^.~.P P P P .XXX[.*X*X[.!.Q.K K K K Q.Q.^.^.^.^.^.Q.K J S S D J Q.^.|. X].!.Q.J D D F V >.j.KXh.f.PXLX",
"e.CXIXAXVXFXt.y C S K !.Q.K L P '.%X`.Q.D N v c v M F K ^.`.'.'.`.!.^.^.^.Q.K J K J J G G L P P P P K J J D D S K K ~..X.X.X.X~.K K K K K Q.^.^.XXXXXXXXXX^.Q.K J J P P U U U U U J D D S S S D Q.^.^.XXXX^.^.Q.Q.K K K K Q.^.].!.`.!.J M O X X . . ; 6 6 6 6 ; @.+.O.M.V.N.A.A.F.n.v...yX9XlXlXgX3X3X,X&X%X%X'.%X'.'.'.[.].].].[.'.'.'.'.'.'.'.`.`.`.`.`.!.Q.J N M S J K !.`.'.'.`.K D M v m b J Q.^.^.^.^.Q.Q.K K K Q.Q.Q.Q.!.[.[.`.Q.K D S N L L ~.^.].[.'.^.S M M M N S S D ~.^.!.`.`.'.'.'.'.'.'.'.`.].^.~.P L D S N M M N P ~.~..X.X.X~.P D D D D J J ~.^.!.'.`.Q.S M v b b F G ~.XX X%X XJ D D F S N N M B B B B B b m v v v c c Z ^ ^ q l O.c.M.m.m.m.M.q.w.t.t.C.%.*.iX X3XhXjXhXsX&X'.].~.~.K J J D D J J J J J K K K Q.!.!.^.Q.K J J J D D D G L P .X[.*X[.].~.P P L L P ~.^.].[.'.].Q.J J J J J K K .X.X.X.X~.K J S M M N S J ~._.|.(.Q.K J D S F C >.j.KXh.f.PXLX",
"9.f.PXZXi.g.w.r A U Q.`.!.~.P P :X;X{.Q.D N v c b B F P ). X-X-X X|.|.|.|.(.Q.K K K J J G L L P ).~./.K K J D D K K Q.~._.)./.Q.^.!.Q.Q.!.!.].].XXXXXXXXXX].!.K I U Y Y Y #X#X#XY U J D D D D J Q.!.!.].].^.!.!.!.!.Q.Q.!.!.].[.'.}.{.K N c o # X   : u +.u u u +.+.#.v.V.D.N.A.F.n.M.] } $X8XfXxXxX0X3X<X=X%X%X*X*X[.[.[.[.[.[.[.[.[.[.[.[.[.[.].].].].`.!.Q.J N M N D K !.'.'.-X`.Q.D B m $ b U (.|.|.|.|.(.!.Q.Q.Q.Q.!.^.(.].*X%X`.!.K D S N J J ~.^.].'.'.!.D B B N N S D J (.(.{.`.'.'.%X%X%X%X'.'.`.`.(.Q.~.P G F N B B F P Q.~.~.).~./.K J J J J K K ~.|.'.%X}.!.D N M b b B G P |.}.;X}.I L H G H S N N B B B B B B b b c c O + E ( p a l O.c.M.m.m.b.v.M.#.C.C.Z.&.*.iX:XfXjXjXhXsX&X'.XX.X).P K J J D J J J J K K K Q.(.!.|.].(.Q.K K J J J J P P .X.X X*X[.].^.K J J J J ~.^.].'.'.'.Q.K J J J J K K $X$X$X.X.XQ.K D v v N S I /.oX@X@XoXoXI H H H Z >.j.KXh.f.LXLX",
"9.h.KXh.a.z.F.^ A I {.'.`.^.P .X7X6X+X/.J N b m b B T T @X5X6X6X+X+X+X+X@XOX(.Q.J J D D D D J J oXoX(././.K K K K K /.(.oXoX).(.!.!.!.!.`.`.'.[.:X:X4X:X X`.`.Q.oXoXoXoX#X#XwXwX#XoXY Y I Y Y /.!.!.`.`.`.`.`.!.`.!.!.!.`.`.'.:X%X;X5X(.D v O + X X & > q q q : l O.#.N.D.2.N.A.F.n.M.] } $X0XfXlXlX8X2X:X;X%X%X*X*X*X X X[. X X[. X X X X X X X[. X X[.`.`.!.J B b F J /.{.+X5X}.(.J S v O + O U {.OX@X@XOX{.{.(.(.{.{.{.OXOX+X%X%X'.`.Q.J D D J K Q.].'.'.%X`.L F S S S D K /.(.{.}.}.-X;X;X;X-X-X-X}.}.{.(.(.oX).U G F F F H K /./._.(./././.K K K K /.(._.@X;X6X5XOXJ S B B M B G ).OX5X6X5XoXY Y Y Y H H H B B B B B b v c m + + $ w ( O.a +.O.O.M.m.m.N.<.$.$.$.$.&.*.iXaX;XdXjXcXjXdX>X'.|.#X#X).U I K J J J K I I U ).).{.+X+X@XOX(.Q.Q.J J J D J J U _.-X&X%X'.!.Q.K J J K Q.].'.'.%X'.!./.K K K K /./.@X$X$X$XoX(./.K N N S H I oXoXOX@X@XoXY Y H T ! >.l.KXh.f.LXLX",
"8.z.KXz.z.W.S./ Y (.'.%X'.]..X.X-X5X{./.I F B b b B H Y @X5X6X6X5X+X+X+X+X{.(.Q./.K K J J K I /.(.(.(.(.(.(.(.(.Q.Q.(.OXOXOXOX{.`.`.`.!.`.`.'.'.6X6X6X6X;X%X'.`./.oXoXoXoXoXoXoXrXoXoX/.I Y oXoX`.'.'.'.'.'.'.`.`.`.`.!.`.`.'.%X&X1X6X`.D M c m X X $ , ^ R ! * ' #.] 1.3.3.N.A.F.q.M.] } $X0XlXlXlX2X1X1X&X%X%X%X%X'.'.'.'.'.'.'.'.'.'.'.'.'.'.'.-X-X-X'.`.!.K N M S U /.OX+X5X}.(.K S v O + O I {.+X+X+X+X{.{.{.{.{.+X+X+X+X5X&X&X%X'.`.!.Q.K K Q.!.'.%X&X&X'.I H S D D J I /.OX+X5X6X6X6X1X1X;X;X;X;X-X}.}.{.@XoXI J D D H U /.(.{.OXOXOX(.(.Q.Q.Q.Q.(.OX@X7X6X8X6X+XK S N B M S J (.+X6X8X6XoXoXY Y Y Y H H H H H H B M v c + # X # < +.+.u +.O.q.M.m.N.1.1.&.*.&.&.*.MXiXaX,XjXcXcXcXdX,X%X].oXoXoXoXoXoXoXK K I I I I oX(.+X5X5X5X+X+X{.(.K K J J K I oXOX;X>X&X'.`.!.Q.K K Q.!.'.%X&X&X%X+XOX(.(.(.(.OXOX(.(.OXOXOXOX(./.H H Y Y oXoXOX+X+XOXoX/.I H Y A -.l.KXh.f.PXLX",
"8.z.KXz.z.W.S.! H (.'.%X'.`.~.^.`.}.{./.I S N B M N H /.OX5X6X6X{.{.{.{.{.!.!.Q.+XOXOX(.(.oX#X#XK K /.Q.(.(.{.{.(.!.(.OXOXOX(./.K K K K Q.!.`.'.6X6X7X6X;X-X'.!.J H H I Y Y oXoXoXoX/.I I I I I `.'.'.'.'.'.`.`.!.Q.Q.Q.Q.Q.!.`.'.-X}.Q.S v c O O $ * ^ ^ ^ ^ ^ ' ' ] 1.3.3.2.A.F.q.M.$.o.qX0XlXfXfX,X>X%X'.`.`.`.`.`.`.`.'.'.'.!.!.!.!.`.`.`.`.'.'.'.'.`.!.Q.J M v N D I (.OX+X+XOX/.D M b + b J !.{.{.{.{.!.!.`.{.{.{.{.}.+X}.%X%X%X'.`.`.!.!.Q.!.`.'.%X%X%X`.J S S S D J K /.OX+X5X5X6X6X8X1X;X;X;X;X+X}.{.(.oX/.I D D D D J /.(.OXOXOX{.(.(.Q.K K K /.(.oX+X-X6X5X{.K D S S N D I (.+X6X8X5XoXY Y Y Y Y H H Y Y Y Y H H N M o X X # < a a u +.+.q.n.A.N.N.1.P.P.P.U.*.MXiXaX,XhXcXcXjXsX&X'.Q.I I /.oX(.OXOXK K K K I I H I {.-X5X5X+X{.!.Q.(.Q./.K /.oX#X$X;X&X%X'.`.Q.Q.K K Q.!.'.%X%X&X%X+XOXOX(.(.OXOX@XK Q.Q.(.(.(.(./.oXY oXoXoXOXOXOXoX(./.J D D D A -.l.KXh.f.LXLX",
"9.j.HXj.u.z.H.[ T @X5X;X%X`.Q.K !.!.!.Q.K J D D J J ).OX5X6X6X;X(././.(.{.}.}.-X5X5X5X+X@X).I J D D J K (.{.}.}.{.{.(././.I U L G G D D J K !.`.5X5X6X5X}.`.!.J M v M N H U U Y J J J D D S N S !.`.`.`.`.!.!.(.D D D D J J U I J I I H N v c m @ % 1 w _ s e 8 a #.] V.3.1.D.A.J.w.M.$.o.qX0XfXkXkXkX3X%X!.Q.Q.Q.(.|.7X8X8X8X8XQ.G D J J K !.!. X-X X X].!.K D N B B F D J K K K K J S N v c v D Q.Q.!.!.!.!.!.`.`.`.`.`.`.{.`.].].`.`.`.`.`.`.`.`.!.!.!.!.!.Q.G F G D D J J K /.Q.!.`.}.}.-X;X8X6X5X}.(.Q.J J S S D G U U J K (.{.{.{.(.(.(./.J J J J J U U I I /.K K J J D D D J K (.OX+X5XOXU H S S D J I /.oXoXoX).U H S M v O o $ , p i u u f q.q.q.A.A.A.D.D.K.Z.P.*.iXaX,XhXjXjXsX%XQ.D G S D K OX5X5X-X5X}.(.J S N v N !.%X-X;X-X}.`.!.Q.K J J D J P ~. X%X'.`.Q.K J J K Q.Q.!.`.'.'.'.]._.|.$X$X|._.).J J J J K Q._.@X{.OX(.(.(.(.Q././.I J S N M M o >.l.KXh.f.PXLX",
"9.j.HXj.a.z.J.[ ~ oX5X;X%X'.Q.K Q.Q.Q.Q.K K J J K /.{.+X6X6X1X5X/.U K Q.`.'.%X%X6X6X5X+X(./.J D S S G K /.{.}.}.`.`.!.Q.K L G F B B B S D J Q.!.+X5X5X+X{.(.Q.D v + b B F G U I J J J D S N M S Q.`.`.`.!.(././.S S S S S D G L D H T H M c c @ @ % 1 r h g z 7 +.O.#.V.3.1.N.A.w.w.M.$.o.qX0XfXhXkXkX3X'.Q.K P P P _.7X6X8XlX8XK F S S J K Q.!. X X X X^.Q.K D N B B F F D J J J D D S N v v M D K Q.Q.!.!.Q.Q.].].].!.!.!.!.!.Q.Q.Q.^.].].`.`.`.`.!.!.Q.Q.K K D S F D D D J J K Q.Q.(.`.{.}.}.6X;X-X{.Q.K D S N N F G U U K K !.`.`.`.!.(.Q./.J D D D D G G G U U U J J D D J D J Q.(.{.{.{._.G B S S D J K Q.(.(.(.).I D S M v c O @ R p i u u f -.q.w.A.A.A.A.L.L.K.Z.*.iXaX<XdXhXhX,X'.J N F N S K }.6X1X;X6X-X!.J S M m M !.'.%X%X'.'.`.!.Q.K J J D J P ~.'.'.`.!.Q.K J D P K K Q.!.`.`.`.!.^.|.|.|.|.^.~.J J J J K K ~.|.{.}.{.{.!.(./.K K J D N N M M o >.l.KXh.f.PXLX",
"9.j.HXj.a.z.J./ ~ oX5X;X%X'.Q.K Q.Q.Q.K K J J J I /.@X7X7X6X8X6X/.U K Q.`.`.'.%X6X6X5X+X(.K D S N S D K (.{.+X5X`.`.!.Q.K U G G N N N S D J Q.Q.+X+X+XOX(./.J S v m b B F L U ).K K J J D S N S Q.`.`.!.!.(././.D D D D D G G H D H T H M c O @ @ % 1 r h g z 7 +.O.' 1.3.2.N.A.w.w.M.] o.qX0XlXhXcXkX3X'.Q.K P J P _.+X6X8XlX6XK F S S J K Q.!. X X X X^.Q.K D B B N F D D J J D D S N M v c v J K Q.!.!.!.!.Q.|.].].!.!.!.Q.Q.Q.Q.Q.!.!.`.`. X`.`.`.!.Q.Q.K J D S D D D D J J K K Q.(.(.(.{.}.6X;X-X{.Q.K D S N S D L U U K K !.`.`.!.!.(.Q./.J J D D G G G G U U U J D D D D J K Q.(.{.{.{./.G B S S D J K Q.(.(.(./.U D S M v c O @ R r i u u f q.q.w.A.A.A.A.L.H.K.Z.*.iXaX<XdXhXhX,X'.J S F S S K {.6X6X;X6X-X!.J S M m M Q.`.'.'.'.`.!.!.Q.K K J J K P ^.-X%X'.`.Q.K J D P K K Q.!.!.`.!.^.~..X|.|..X~.~.J J J J K K ~.^.+X+X}.{.{.(.Q./.K J D S N N N O >.l.KXh.f.PXLX",
"9.j.HXj.a.z.J./ ~ oX5X;X%X'.Q.K Q.Q.Q.K K J J J I )._.+X7X8X8X6X/.I K Q.!.`.'.'.6X5X5XOX(.K D S S S D K (.OX+X5X`.`.(./.K U L G S S S S D J Q.Q.}.}.{.(./.K D N v b b N D U /././.Q.K K J D S D Q.`.!.!.(.Q.Q./.J D D D D G G L D H T H M c O @ @ % 1 r h g z 7 +.O.' 1.3.2.N.A.w.w.M.] o.$X0XlXhXjXkX3X'.Q.K P J K (.+X6X8X8X6XJ F S D J K Q.!. X X X X^.Q.K D N B N F D D J K J D S N M v c v J Q.Q.!.!.!.!.!.|.].].!.!.Q.Q.Q.K K Q.Q.!.].|.|.|.].].!.Q.Q.K K J D D D D J J J K K K /.Q./.(.{.5X;X}.{.Q.K D S S F G U U I I /.!.`.!.!.(.Q.Q./.J J J D D G D G Y U U J D D D D J K Q.(.{.{.{./.G F S S D J K Q.(.(./.I U D N M v c O @ R p i u u f q.q.w.A.A.A.A.L.H.K.Z.*.iXaX<XdXhXhX,X'.J S F S D K }.6X6X-X6X}.!.J S M b M K !.`.`.].!.!.Q.Q.Q.Q.K Q.Q.^.`.%X&X%X`.!.K J D P P K K Q.Q.!.!.Q.~.^.|.|.^.~.Q.J J J J K K Q.^.+X+X+X{.{.(.(./.K J D S S N N m -.l.KXh.f.PXLX",
"9.j.HXi.a.z.J./ ~ oX5X;X%X`.Q.K Q.Q.Q.K J J J J U /._.+X7X6X6X5XQ.K K Q.!.`.`.`.}.}.}.{.Q.K D S S S J K /.{.OX+X!.!.(./.K U L L D D D J J K Q.!.{.{.(.).U D S M M M B F J K (.(.!.!.Q.Q.K J J J Q.!.(.(.(.Q././.J J J J J J J U D H T H M c O @ @ * 1 r h g z 7 l O.#.V.D.2.N.A.w.w.M.$.o.qX0XfXhXjXkX,X'.Q.K P J K Q.{.5X6X8X-XP F S S J K Q.!. X X X X^.Q.K D F B F F D J K K J D D S N M v M J Q.!.!.].!.!.!.!.!.!.!.Q.Q.Q.Q.Q.Q.Q.Q.!.!.!.!.!.!.^.!.Q.Q.Q.Q.K K K K K J J J K K K K I I ).(.5X;X}.(./.J D S S D L U ).)./.(.(.!.(.(.(.Q././.K J J J D D D D U U U J D D D D J K Q.(.(.(.!./.G F F D D J Q.Q.Q.Q./.U D S M v v c O % ^ r i u f f -.q.w.A.A.A.A.S.S.K.Z.*.iXaX<XdXhXhX,X'.J S G S D K {.5X6X-X6X}.(.J S M b b J Q.Q.^.^.Q.Q.Q.!.!.!.Q.!.!.`.-X&X>X&X'.!.Q.J D P P P P K Q.Q.Q.Q.Q.~.^.^.~.~.Q.K K J J J K K Q.@XOX{.{.(.(.Q./.K J D D S S S n -.l.KXh.s.LXLX",
"9.j.HXi.a.z.J./ ~ oX5X;X%X'.Q.K Q.Q.K K J J D D J K /.{.+X5X;X}.Q.K /./.(.!.`.`.!.!.!.(./.K J D J J J K /.(.(.(.!.(.Q./.K U U U K K K K Q.Q.`.`.{.(./.I L S M M M M N D J /.(.{.{.{.`.(.Q.K K K Q.(.(.Q.Q.Q././.K K K J J U U J D H T H M c O @ @ * 1 r h g z 7 +.O.#.V.D.2.N.A.w.q.M.$.o.qX0XfXhXjXkX,X'.!.Q.Q.J J /.(.+X5X5X{.L F S S J K Q.!. X X X X^.Q.K D F B F D D J K K K K J D S N M N K Q.!.].].].!.!.Q.Q.Q.Q.Q.Q.Q.!.!.!.!.Q.Q.Q.Q.K Q.Q.Q.Q.!.!.!.!.!.!.Q.Q.Q.Q.K K K J J U U U U ).+X-X{.(./.J D S F G U U )._.(.(.(.(.(.Q.Q.Q././.K K K J J D D D J J J J J J J J K Q.Q.(.(.(.!.Q.L F D D J K Q.Q.Q./.K J D N M v v c O % ^ r i u f f -.q.w.A.A.A.A.S.J.K.Z.*.iXaX<XdXhXhX,X'.J S G D D K {.5X5X-X5X}.Q.J S M v B D J K K Q.Q.K K !.!.!.!.`.'.'.;X>X>X&X%X`.Q.K J P P P P K K Q.Q.K Q.~.~.~.~.Q.K K K K J J K K Q.(.(.(.Q.Q.Q.K K K K J D D D J A -.l.KXh.s.LXLX",
"9.j.PXa.a.z.J./ ~ oX5X;X%X'.Q.K K K K J J D D D D J K (.{.}.}.`.Q.K /./.Q.Q.(.(.K K Q././.K K J I I I I /.Q.Q.Q.Q.Q././.K K U U _.(.(.!.!.`.}.}.!.(./.U G B v v M N S D K Q.{.}.}.}.{.`.(.Q.K K Q.Q.Q.Q././././.K I K K K K K J D H T H M c O @ @ % 1 r h g z 7 +.O.#.V.D.2.N.A.w.q.M.$.o.qX0XfXdXkXkX,X%X!.Q.Q.J J K /.(.OX}.(.L F S S J K Q.!. X X X X^.Q.K D F F F D J J K K /./.K J D S N S K Q.!.].|.].].!.K K K Q.Q.!.!.`.`.`.!.Q.K K J D J J K Q.!.`.'. X`.{.{.{.(.(.(./.K J J L L L T U OX}.{.(.K J D S D G U ).oX_.(.(.Q.Q.Q.Q./././././.K K J J J D D D D D D J J K K K /.(.(.(.(.!.K U G D D J K Q.Q.Q.K K J S N v c v c O % , r i u f f -.q.w.A.A.A.A.A.L.K.Z.*.iXaX<XdXhXdX,X'.J S J D D K {.5X5X}.+X{.Q.J S N M M S D J J K K K K !.`.`.`.'.%X;X1X,X,X&X%X`.Q.K J P L L P P K K K K K Q.~.~.Q.K K Q.K K J J J K K Q.Q.K K K J J J K K J J J J K A -.j.KXh.s.LXLX",
"9.j.HXa.a.z.J./ ~ oX5X;X%X'.Q.K K K K J D D D D S D K /.!.`.`.!.Q.K /./././././.D J K K /././.K oXoX)./.K K K J /./././.K K K /._.{.{.{.{.}.}.+X!.(./.U F M v c M N S J K (.{.}.}.}.}.`.!.Q.Q.K /././././././././././.I K K K K D H T H M c O @ @ * 1 r h g z 7 +.O.#.V.1.2.N.A.w.q.M.$.o.qX0XfXdXkXxX,X%X!.Q.Q.J J K /.(.(.(./.G F S S J K Q.!. X X X X^.Q.K D F F F G J K K Q.(.(./.I L G F G K !.!.].|.|.].].J J K K Q.!.].|.'.'.`.!.K J D S D D J Q.`.'.:X:X}.}.}.}.{.{.(._.K J J J G T T U _.}.{.Q.K J D S G L U oX_._.{.{.Q./././././././././.K K J J J D S S D D J U )./.K /.(.(.(.(.!.K U J J J J K Q.(.Q.K J D S M v c v c O % R r i u f f -.q.w.A.A.A.A.A.L.K.Z.*.iXaX<XdXhXdX,X'.J S J J J K {.+X+X{.}.{./.J S N M B S D J P K K K K !.`.`.`.'.%X;X1X,X,X&X%X`.Q.K J L L P P P K K K K K Q.~.~.Q.K K Q.K K J J J K K K K K J J J D D K K J J J K K A -.j.KXh.s.LXLX",
"9.h.PXh.a.z.F.^ ~ @X6X&X%X`.Q.K ~./.I J D S N N S S J Q.!.`.`.!.Q./.oX#X#XoXI K J D J J J K /.oX_._.(./.K K J J D J K K /.K K K (.{.$X7X7X7X}.{.!.(./.U F M v c M N S J /.@X7X7X}.}.}.}.{.(.(.(.K J J J J K /./.)._.oX_._.)./.K U H H N M v c o @ * 1 r h g z 7 O.#.#.V.3.1.2.,.q.q.O.) } #X7XgXdXgXgX>X'.Q.K K K K K I )././.U F N S S J K !.`. X X X X^.Q.K D S S S D D J K K Q.Q./.).U L G G Q.!.].].].].!.!.J J J J K Q.!.`.'.-X-X!.J S S S D J Q.^. X:X:X-X`.}.+X5X+XOX(.K J D D G L T T T $X$X_./.J D S N S D P ).@X@X+X+X/.K J J J K K K K K K /.K K J D D S D D J U I /././.Q.Q.(.(.!.Q.I U J J J K Q.(.K J J D N M v c v c O @ R r i u 7 f q.w.J.A.A.:.A.T.L.K.Z.&.iXaX0XgXhXdX>X`.J D D J K Q.(.{.@X+XOX(./.J D F F F G D S S D J Q.^.|. X-X-X-X;X;X1X>X>X&X%X'.!.~.~.P L L J J J J J J K ~.^.^.~.K J J J K K K K K K K K K K K K K K D J K K /./.K A w.l.KXHXf.d.d.",
"9.h.PXh.a.z.F.^ ~ @X;X&X%X`.Q.K ~./.U J D S N N N S J K (.`.`.!.Q./._.oXoX).U J D D D D J K /._._._.(./.K J D D D D J K /./.Q.Q.(.(.@X$X7X5X}.{.!.(./.U G B v v M N S J /.{.+X7X}.}.}.{.{.(.(./.J J J D J K I /.)._._._._.(.Q.K U H H N M v c o @ % 1 r h g z 7 O.#.$.V.3.1.2.,.q.q.O.) } qX7XgXsXgXgX>X'.!.Q.Q.K K K P U U U J F N S S J K !.`. X X X X^.Q.K D S S S D J J K K Q.Q.Q./.U L G G Q.!.].].].].!.!.J J J J K Q.!.`.'.%X-X!.J S N S S D K ^. X:X;X;X`.{.}.+X@X{.(.K J D J J L T T T $X@X_./.J D S N S D U _.@X+X5X+X/.J J D J J K K K K /.Q./.K K J D S D D J J I /.K /.Q.Q.(.(.!.(./.K J J K Q.!.(.K J J D N M c c v c O % R r i u 7 f q.w.J.A.A.:.A.T.L.K.Z.&.iXaX0XgXhXdX>X'.J D J K K Q.(.{.@X@X{.(.K J D D F G G D D D D K Q.^.|.'.'.-X%X%X%X&X&X&X%X'.`.^.~.P P P J J K K K K K K Q.^.^.~.K K J K K K K K K J J J J J J K K K J J K /./././.A w.l.KXHXf.d.d.",
"9.h.PXh.a.z.F.^ ~ oX-X%X'.`.Q.K ~.I U G S N N M N S J K (.{.`.`.Q././.).).U L G S S S D J K (._.@X{.(./.K J D D S D J K /.(.(.Q./.)._.@X@X+X}.{.{.(./.I L S M M M M N D I (.@X+X{.{.{.(.(././.I J D D D D J I /.)._._._.{.(.(.K U H S N M v c o @ % 1 r h g z 7 O.O.#.V.1.2.2.,.q.q.O.( } #X7XgXsXdXgX,X%X`.!.!.Q.K J J G G H F N N S S J K !.`. X X X X^.Q.K D S S D D J K Q.Q.(.(.Q.K J J G J Q.!.].].].].!.!.K K K K K Q.!.`.%X&X%X`.J S N N S G P ^. X:X;X;X`.!.{.{.OX(.Q.K J J J U U U T ).oX_.).I J S N N S D I _.@X+X5X+XK J D D D J K K K /./.(.Q.Q.K J D D D D J J K K K Q.Q.Q.Q.Q.!.Q./.K K K Q.Q.(.(.K J D F B b c O b c O @ R r i u 7 f q.w.J.A.A.;.A.A.L.K.Z.*.iXaX3XgXhXdX,X'.K J K Q.Q.Q.(.(.(._._./.K J D D D G J J J J K K ^.^.].`.`.'.'.'.'.%X'.'.`.`.!.Q.P P P J K K Q.!.!.!.Q.K Q.~.~.Q.K K K K K Q.Q.K K J J J J J J J K K J J K Q.(.(.(.H w.l.KXHXf.s.d.",
"9.h.PXh.a.z.F.^ T oX}.%X'.`.Q.K ~.I U G S N M M N S J I (.{.{.`.(.Q./.I U L G F N N S S J K (.OX+X{.(./.K J D S S D J I /.(.!.(.I U )._._.{.{.{.{.{.(.).U D S M v M N F J /.(.{.!.!.(.Q./.I U U D D D D D J I /._._._._.{.{.!.Q.I H S N M v c o @ % 1 r h g z 7 O.O.#.V.1.1.2.,.q.q.O.) } #X7XgX,XsXgX,X%X`.`.`.Q.K J D S N B N B N S S J K !.`. X X X X^.Q.K J S S D J K Q.!.!.{.!.Q.K J D D D Q.!.].].].].!.!.K K K K K Q.!.`.%X&X%X`.J S N B N F P ^. X;X1X;X!.Q./././././.K K K K K I ).).)._.)./.J D S N N S D I (.+X5X6X+XK G D D D J K K K /.(.(.(.!.Q.K J D D D J J J K K K Q.Q.Q.Q.!.Q./././.Q.Q.(.(.(.K J D F B b O O b c O @ ^ _ i u 7 f q.w.A.A.A.;.A.S.L.K.Z.*.iXaX3XgXhXhX,X'.~.K Q.!.(.(.(.(././.)./.J J D D D J K Q.Q.Q.Q.Q.^.!.].].].].`.].].`.`.!.!.Q.K K P P J K Q.!.`.'.'.`.Q.K Q.Q.Q.Q.K K K Q.Q.~.Q.K K J J D D D J J J K J K Q.(.(.(.(.H w.l.KXHXf.s.d.",
"9.h.PXh.a.z.F.^ H /.'.'.'.`.Q.P P U U G S N M M N F L ).(.{.{.{.!.Q.K J G G F F M N N S J K (.OX+X}.{./.K D S S S D U ).(.{.{.(.U T U I /.(.{.{.}.}.{._./.K D N v v M N D U I /.Q.Q./.K U J J G D S S S D J I /._.(._.@XOX{.`.Q.I H H N M v c o @ * 1 r h g z 7 O.#.V.V.1.2.2.,.q.q.O.( } #X7XgX,XsXgX,X&X'.'.|.(.Q.D S M M M B B N S S J K !.`. X X X X^.Q.K D D S D K Q.(.`.{.}.{.Q.K D D S D Q.!.].].].].!.!.Q.Q.Q.K Q.Q.!.`.'.&X%X`.J S N N N F P ^. X;X1X;XQ.K K K K K K K K K /./.Q.(.(././.I K J D S N N S J I (.+X5X6X5XK G D S D J J K /.(.(.{.{.!.!.Q.J G J D J J J J K K K Q.Q.Q.Q.Q.Q.Q.(.(.{.!.!.(.K J D F B m + O b c o % , r i u u f q.w.J.A.A.;.A.S.H.K.Z.*.iXaX3XgXjXhX3X*X~.P (.{.(.(.Q./.K K I K J D D D D J Q.!.!.!.`.`.!.!.!.!.^.^.^.^.^.^.Q.Q.K K P P L P K Q.!.`.'.%X&X%X!.Q.K K K K Q.Q.~.~.~.~.~.Q.K J D D D D D J J K K K Q.(.{.{.{.Y w.l.KXHXf.s.d.",
"9.h.PXh.a.z.F.^ H K `.'.'.`.Q.P P U L D S B M M N F L )._.{.{.{.(.Q.K J S F F F M M N S J K (.+X+X}.{./.K D S N S G U )._.{.}.(.U T G G K /.(.{.+X+X+XOX(./.J S v m b M N D J K K K K J G G G F F S S S D J I /._.(.@X+X{.{.`.Q.I H H N M v c o @ * 1 r h g z 7 O.#.V.V.1.2.2.,.q.q.O.( } #X7X2X,XsXgX3X&X%X'. X|./.D N v v b b B N S S J K !.`. X X X X^.Q.K D S D J K Q.(.{.}.+X{.Q.J D S S D Q.!.].].].].!.!.!.!.Q.Q.Q.Q.!.`.'.&X%X`.J S N B B F P ^. X;X1X;X/.L D D D J K I /./.Q.(.(.!.!.(.Q.K J D S S N N S J /.{.+X6X6X5XK D D S D D J K /.(.{.{.{.{.!.Q.K J J J J J J J J K K K Q.Q.Q.Q.Q.(.(.{.{.{.!.(.K J D F B m + o b c O % , r i u 7 f q.w.J.A.A.;.A.S.H.K.Z.*.iXaX3XgXjXkXgX:X.X.X{.}.{.(.Q.K J J U J D D D D D J Q.`.`.'.'.`.].!.!.Q.Q.Q.~.P P P J J J G G G G J K Q.!.'.&X>X,X>X`.Q.K K K K Q.~.^.^.^.^.~.K K J D D D D D J J K K Q.(.{.{.}.{.Y w.l.KXHXf.s.d.",
"9.h.PXh.a.z.F.^ B K `.'.'.`.Q.P P U L G N B M M N G U ).oX_.{.{.{.Q.J D S N B F b M N S D K (.OX+X}.{./.K D S N F G U )._.OX}.(.T F F F J K (.{.+X5X5X+X{.(.Q.D v m b b B S D J J J J J D F F F S S S S D J I /._.(.@X+X}.{.`.Q.I H H N M v c o @ % 1 r h g z 7 O.#.v.V.1.2.2.,.q.q.O.( } #X7X2X,XsXgX3X&X%X*X:X|.~.D M c c c b B N S S J K !.`. X X X X^.Q.K D S D J K (.{.+X5X5X{.Q.J S S S D Q.!.].].].].!.!.!.!.Q.Q.Q.Q.!.`.'.&X%X`.J S B F B F L ^. X;X1X;XI G S S S D J /./.Q.(.!.`.`.`.!.K J D D S S N N S J /.{.5X6X6X5XK G S S S D J K (.(.OX+X}.{.`.Q.I L J J J D J J J K K K K K Q.Q.Q.(.{.+X+X}.{.Q.K J D N b m + o b c O % , p i u 7 f q.w.J.A.A.;.A.L.H.K.Z.*.iXaX3XgXkXkXgX4X.X.X+X+X}.(.Q.K J D U J D D S D D J !.'.%X-X-X'.`.!.Q.Q.Q.K P P P P G D G F F G D G K Q.`.%X>X,XdX,X'.~.K K K K ~.^.|.|.|.|.^.Q.K D D F D D D J J K K /.(.{.+X+X}.Y w.l.KXHXf.d.d.",
"y.h.PXh.h.z.w.r n J !.`.`.!.Q.P ~.I U J S N N M F G U )._.|.}.{.(./.J S S S F T B N N S J /.(.OX+X}.{.Q.K D S S F G U _.@X}.-X{.U T F S J K {.}.5X5X5X+X{.(.Q.J M v M M B N S S D D D D D D D D D D D D D J /.Q.(._._.@X{.{.!.Q.I U D S N v c O @ % 1 r g g z 7 O.#.V.V.V.2.2.,.q.q.O.( } #X7X2X,XsXgXgX&X%X X$X#XU S M c c v M F F S D J Q.!.`. X X X|.^.Q.K J J J K Q.(.{.+X+X+X{.K D N N N D Q.!.].].|.^.Q.Q.^.Q.Q.K K K Q.!.`.'.'.!.J S N F B F P ^. X;X1X;XI G S S S D J /./.(.(.!.!.`.`.!.J D D D S S S S D J /.{.+X5X6X+XU F S S S D J K (.(.@X+X+X{.`.!.I U J J D D D D D J J K K K Q.Q.!.(.OX+X+XOX(.Q.J D F B B m + o b c O % , p i u 7 f q.w.J.A.A.,.A.L.L.K.Z.*.iXaX3XgXjXkXxX4X.X.X$X@X{.(.Q.K J D K J D D S S D J !.'.%X:X:X X].!.Q.Q.K K K K K K J D G D D D D D K Q.`.'.&X,XfX2X`.~.K J J K ~.~..X.X.X.X~.K J D J D D D D D J J K /.(.+X5X5X;XY w.l.KXHXf.d.d.",
"y.JXJXf.ZXGXt.0 ! H /.!.!.!.~.^.!.`.!.Q.J D S S D J K Q.(.`.`.!.K J J D D D J U D D D J K Q.{.@X X X|.Q.K D S S J K ~.]. X-X%X}./.U K K Q.!.{.}.-X-X5X+XOX(./.K J D D D D F F F N F G L U K K K Q.Q.K J J K K Q.^.^.(.Q.Q.K K K K K I J N v v c o $ * w p i u 7 O.#.#.V.3.1.2.,.q.q.O.) } #X7XfXsXhXdX,X%X!.).#XT T F N N M N N D J J K Q.Q.!.!.]. X|.$X|.!.K K Q.Q.!.`.{.+X@X@X_.).U D N N M N Q.`.{.|.oX).U L G G D D J U )._.|.{.(./.J D S N N S K ).+X-X-X`.K G D D D J J K /.(.(.{.{.!.Q.K I U U J D D D D K K Q.(.{.+X+X@XU F S S S D J K _._.{.{.{.{.`.!.K D S S N N M M N S D K /.(.!.!.!.!.!.(.Q./.K U S S B B b m + O c c O % R r i u 7 f q.w.J.A.A.;.A.T.L.K.Z.*.iXaX=XsXhXdX3X:X.XP ).oX)././.K K K Q.K K J D D S D `.-X}.}.{.(./././././.Q.(.!.!.!.!.!.Q.K J J D D J K Q.`.'.%X;X:XK J J J J J J J U U )..X).J D S K K K J J J G J J K (.+X6X1X1XoXA.l.KXHXf.d.d.",
"y.JXJXd.LXGXk.3 ! H I Q.!.!.~.^.`.'.`.!.K J D D D J K ^.`.`.'.!.K G D D D J K K K K K K K Q.(.{.|.].!.Q.K J D D J K ^.`.-X%X&X%X(.I Q.Q.!.`.'.-X-X-X5X+XOX(.K K K K K J G G F F B N F L K K Q.Q.`.`.!.Q.Q.Q.!.!.^.^.Q.Q.K K J J K Q./.J S M v v O $ * w a y u 7 O.#.$.V.3.1.2.,.q.q.O.) } #X7XgXhXjXkX2X'./.U T T T F F S D J K K K Q.Q.Q.Q.!.!.!.!.|.|.|.!.Q.Q.`.`.`.'.{.{.{._.oXU G S N M M N Q.{.{._.oXU T F F F F F G U U )._._.).U J D S S N D K (.+X+X}.`.K G D D D J K K /./.(.(.(.(.Q.K U L J J J D J J K /.Q.(.{.{.+X_.J G S S S D J K _._.{.{.{.{.`.(.J D S S N M M M M N D U /.Q.!.!.!.!.(.Q./.K U J S B B B b m + O c c O % ^ r i u 7 f q.w.J.A.A.;.A.A.J.K.Z.*.iXaX=XsXhXdX3X:X.XP T U U I /.Q.!.!.!.!.Q.K J D S D {.}.}.+X_._./.I I I /.(.!.`.'.'.'.`.`.!.Q.J J D J K Q.^.].'.-X XK J J J J J J J J U U U U U D D Q.Q.Q.K J J G G J K (.+X6X8X2XoXA.l.KXHXf.s.d.",
"y.JXJXd.ZXGXk.3 ! H I Q.!.!.~.^.'.'.`.!.Q.J D D J J Q.^.`.'.'.`.K G D D D J K K )./.Q.K Q.Q.!.!.!.!.Q.Q.K K P P J K ^.`.-X-X&X%XQ.I K Q.Q.!.'.}.-X-X+X+X(./.K K K K K J G G F F M B F L U K Q.Q.`.`.`.!.!.!.!.!.!.^.Q.Q.K K K K K Q./.J S M v v O $ * w a y u 7 O.O.#.V.V.2.2.,.q.q.O.( } #X0XgXhXjXxX1X`.J D H H H G L K Q.!.!.Q.Q.Q.Q.Q.Q.!.!.Q.Q.!.].].].!.`.'.'.'.'.`.!.(.Q.).U G S N M M S Q.`.{._.).U G F F F N S D L I )._._./.U D S S S N D K (.+X+X}.{.K G D D D J K K /./.(.(.(.(.Q.K U G J J J J J J K /.Q.(.(.{.{.(.J D D S D J J K _.(.(.{.{.`.`.(.K D D S N M M M M N D J /.(.!.!.!.!.Q.Q.K K J G S N B B b m O O b c O % ^ r i u 7 f q.w.J.A.A.;.A.A.J.K.V.*.iXaX<XsXhXdX2X*X~.L G G J K Q.(.{.{.{.{.(./.K J G J {.}.}.+X|._.).I K K /.Q.!.`.'.'.'.`.`.!.Q.K J D J K Q.Q.`.`.'.'.K J J J J J J J D D J U U U U K Q.!.Q.K J J J G J K (.+X6X1X2XoXA.l.KXHXf.s.d.",
"y.JXJXd.LXGXk.3 ! H I Q.!.!.~.^.'.'.'.!.Q.J J D J K Q.^.`.'.'.`.K G D D D J K K _._.(.Q.Q.Q.Q.Q.Q.Q.Q.Q.K P P P J K ^.`.-X-X&X%XQ.K K K Q.!.`.'.-X-X+X+X_./.K K K Q.K J D D F F M N F L U Q.Q.Q.'.'.'.`.`.`.`.].!.Q.Q.Q.K K K K K Q./.J S M v v O $ * w a y u 7 O.O.#.V.V.1.2.,.q.q.O.( } #X0XgXkXkXxX;X!.D N N B F H P ^.[.*X*X!.Q.Q.Q.!.!.!.!.K K Q.!.!.].|. X}.-X}.}.`.!.Q.K ).U G S N N B S Q.`.(.(.).U G F F N N S D J I ).(././.J D S S N N D K (.+X+X}.`.K G D D D J K K /./.(.(.(.(.Q.K J G J D J J J J K /.Q.(.(.(.{.(.U G D D D J J K _.(.(.(.!.!.!.Q.K J D S N N M M M N D K /.(.!.!.!.Q.Q.Q.K J J D S N B B b m O O b c O % R r i u 7 f q.w.J.A.A.:.A.A.A.K.Z.*.yXaX<XsXhXdX,X'.P L S S J K Q.{.{.+X+XOX{.(.).U L U {.}.}.{.|._.).U J K K Q.!.{.}.'.'.'.`.!.Q.K J J J K K Q.!.`.'.`.K J J J J J J J S S D J U U U ).(.(.Q./.K J J J J K (.+X5X6X1XoXA.l.KXHXf.s.d.",
"y.JXJXd.LXGXk.3 ! H I Q.!.!.~.^.'.-X'.!.Q.K J D J K ~.]. X X%X`.K G D D D J K K #X@X_.(.(.Q.Q.K Q.Q.Q.Q.~.P .X.XJ K ^.`.-X%X&X%XQ.J J K Q.!.`.`.}.}.+X+X_./.U J K Q.K J D F S N M N S J U K /.Q.`.'.'.'.'.`.`.].Q.Q.Q.Q.K K P Q.K Q./.J S M v v O $ * w a y u 7 O.#.V.V.1.2.2.,.q.q.O.( { #X7XgXxXxXxX*XK S M M M S L .X X4X<X=X`.!.!.!.!.!.!.!.K K K Q.!.].|. X}.-X}.{.!.Q.K K /.U D S N N S G Q.!.(.(.I U G F N N N N S D J I /./.K J D S N N N D K (.+X+X}.{.K G D D D J K K /./.(.(.(.(.Q.K J D D D J J J K /./.Q.Q.(.(.!.Q.U G D D D J K K /./.(.Q.(.!.Q.Q.K J D S N N M M N S D K Q.(.!.!.Q.Q.K K K J J D S N B B b b c O v c O @ w r i u 7 f q.w.F.A.A.;.A.A.A.m.V.&.Q aX<XsXhXdX>X'.K D S S D K /.{.@X7X+X+X@X_.).U U I !.}.}.OX_.).I U J J K /.!.{.}.}.'.'.`.!.Q.K J J P K K Q.!.!.`.!.K J J J J J J J S S S D J P U oX(.{.(./.I J J J J K (.OX5X5X;XoXw.l.KXHXf.d.d.",
"y.JXJXd.LXGXk.3 ! H I Q.!.!.~.^. X-X'.].Q.K J J P P ~.|. X:X-X'.K G D D D J K K _.@X@X_.{.(.Q.K Q.Q.Q.Q.~.P P P J K ^.`.-X%X&X%XK J J J K Q.!.`.}.}.+X@X_.).U J K K K J D S S S M N S J U /./.Q.`.'.'.'.'.`.`.!.Q.Q.Q.K Q.~.~.~.K Q./.J S M v v O $ * w a y u 7 O.#.V.V.1.2.2.,.q.q.O.( { #X7X3XgXxX0X[.K N M M M N U _.4X<X,X>X'.].!.!.!.!.!.!.K K K K Q.!.]. X}.}.}.{.!.Q.K K K J D D S F F J Q.!.(./.I J F N N B N N S D J I /./.K J D S N N N D K (.+X+X}.`.K G D D D J K K /./.(.(.(.(.Q.K D S D D J J K K /./.Q.Q.Q.Q.Q.K K J D D D J K K /./.Q.Q.Q.Q.Q.K K J D S S N M M N S J K Q.!.`.!.Q.K K J J J D D S N N B B b c c v c O % ^ r i u 7 f q.w.F.A.A.;.2.A.A.m.$.&.Q $X<XsXhXdX>X`.J S S S D K /.{.+X+X+X+X{.(.).U L U !.}.}.OX_.).I U D D K /.(.{.}.-X-X'.'.`.!.K K J P K K Q.!.!.!.!.K J J J J J J J S S S S D J U oX@X_._././.K J J J K (.OX+X5X-XY w.l.KXHXf.d.d.",
"y.JXJXJXLXGXk.3 ! A I Q.!.!.^.^.:X-X'.].^.K J J P P ^.|. X:X:X XK G D D D J K K )._.@X@X@X(.Q.Q.!.Q.Q.Q.K P P P J K ^.`.-X%X&X%XK D D J J Q.!.!.}.}.+X_._.).U J I K K J D D S S N N D J U I /.Q.!.`.'.'.'.`.!.Q.Q.K K K Q.~.~.~.K Q./.J S M v v O $ , w a y u 7 O.#.v.V.2.2.2.,.q.q.O.( { #X7X3X<X<X4X].J N M M v N K |.:X>X>X&X'.|.].!.!.!.!.Q.Q.K K K K Q.!. X{.{.{.!.(.Q.Q.K K J D D S D G U Q.!.(.Q.K J F N B N M N S D J K /./.K J S N N N N D K (.+X+X}.`.K G D D D J K K /./.(.(.(.(.Q.K D S D D J J K /./.Q.Q.Q.Q.Q.Q.K K J J J J J K K /././.K K K K K K J D D S N N N N S J K (.!.`.!.K J J J J D D S S N N B B b v c v c O @ w r i u 3 f q.w.F.A.A.;.2.A.A.m.$.| Q $X<XsXhXsX>X`.J S S D J K /.(.{.}.}.{.(./.I U J J (.{.{.OXoX).U U S D J K (.{.+X5X-X'.'.`.^.Q.K J P K K Q.Q.!.!.Q.K J J J J J J J D S S S S D U U $X$X_._./.K J J J K (._.@X+X}.T w.l.KXHXf.s.d.",
"y.JXJXJXLXGXk.3 ! A I Q.!.!.^.^.:X:X X`.^.K K J P ~.^.|. X:X:X XK G D D D J K K /.(.@X@X@X{.(.Q.!.!.Q.Q.K K P P J K ^.`.-X%X&X'.K D D D J K Q.!.}.{.@X_.).I J D U U U J D D D S N S D J U I I /.Q.`.`.'.'.`.!.Q.K K K K Q.~.~.~.K Q./.J S M v v O $ * w a y u 7 O.#.V.V.2.2.2.c.q.q.O.( { #X7X3X&X=X4X].J N M N v N K |.=X>X>X&X*X|.|.].!.!.!.Q.Q.Q.K K K Q.!.].!.!.!.!.(.Q.Q./.K J D D D D G I Q.!.!.Q.K J F N N M M N S D J K /.K K D S N N M N D K (.+X+X}.`.K G D D D J K K /./.(.(.(.(.Q.K D S D D J U I /./.Q.Q.Q.Q.K Q.K /.K J J J J K K K K K K K K J J K K J D S S N N S S J /.!.`.`.!.K D D D D D S S S S F N B M v v v c O @ ^ r i u u f q.w.F.A.A.;.2.2.A.m.$.| Q $X<XsXhXsX&X!.D N D G U K Q.(.{.{.{.{.(./.K J G J (.{.{._.).).U L S D J K (.{.+X5X-X%X'.].^.Q.K P P K K Q.Q.Q.!.Q.K J J J J J J J D D S S S D J I $X$X#X_./.K K J K K ).oX_._.(.~ w.l.KXHXf.s.d.",
"y.JXJXJXLXPXk.3 % M J K Q.Q.~.^.`.'.`.!.Q.K J J P K K Q.!.`.`.!.K G D D D J K K ).(.(.(.{.{.{.{.`.!.^.Q.K J J J D J Q.`.'.%X%X'.K G D J K Q.!.!.!.(.(.(.I U D S #XU J J U I J D I U J D D D D J !.'.'.'.'.`.`.!.K K K J J K K ~.^.|._.I S M v v O $ * w a y u 7 +.O.' V.3.1.N.A.w.w.M.$.o.qX0X3X<X<X0XXXK S N N N S K !.'.&X>X&X'.!.Q.Q.Q.Q.!.!.Q.Q.!.!.!.!.!.Q.K K Q.Q.Q.Q././.K J J J J D D J !.{.{.(.).J F N M M M M S D U )././.K J D S N N S D K (.{.}.}.`.).S N D D N D ).oX_._.(.{.(.!.Q.U L J J J J J J J K Q.(.{.(.{.(.(./././.K K K K K J J J J K I /./.(.).U D N N S S D K (.{.}.-X}.K D D S S S S D G G T G F B M v v c O @ ^ p i u 3 5 f -.;.;.:.:.,.b.n.M.$.&.Q $X<XdXhXhX2X'.J S S S J K /.(.{.+X7X+X(./.J D D J Q.(.(./.).U L D S S S D K Q.{.}.-X'.'.!.Q.K J D J K ~.^. X'.'.`.K U J J J D D D D D D J J U U U ).)./.K K K K K _./.K K J K I A -.l.KXh.f.PXLX",
"y.JXJXJXLXPXk.3 % M J K Q.Q.~.^.`.'.`.!.Q.K J J P K K Q.!.`.`.!.K G D D D J K K ).(.(.(.(.{.{.{.`.!.^.Q.K J J J D K Q.`.'.%X%X'.U D D D J K Q.(.(.(././.U G S N T G D J I )./.J /.I J D D S D J !.'.'.'.'.`.`.!.K K K J J K K ~.^.|._.I S M v v O $ * w a y u 7 +.O.#.V.3.1.N.A.w.w.M.$.o.$X0X3X<X<X4XXXK S N N N S J !.'.&X>X&X'.!.Q.Q.Q.!.!.!.Q.Q.!.!.!.!.!.Q.K K K K Q.Q././.K K J J J J J K !.{.{.(.).J F N M M M M S D U )././.K J D S N N S D K (.{.}.}.`.).S N D D S D ).oX_._.(.{.(.!.Q.U L J J J J J J J K Q.(.{.{.{.!.(.(.(.Q./.K K K K J J J J J I /./.(._.I D S S D S D K (.}.-X;X}.K D S S S S S F G G G G F N M v v c O @ ^ p i u 3 u f -.;.;.:.:.,.b.n.M.$.&.Q $X<XdXhXhX2X'.J S S D J K /.(.{.+X+X+X(.Q.J D D J K Q.Q./.P L D S N S S D J /.(.}.-X'.'.!.Q.K J D J K ~.^. X'.'.`.K U J J J D D D S D D D D J J U U I K K /./.Q.Q._./.K J D D D C >.l.KXh.f.PXLX",
"y.JXJXJXZXGXk.3 % M J Q.Q.Q.~.^.`.'.`.!.Q.K J J P K K Q.!.`.'.!.K G D D D J K K ).(.(.(.{.{.{.{.`.!.^.Q.K J J J J K Q.`.'.%X%X'.U F D D J K Q.(.Q.Q.K K J S N M G S S D U #X_./././.K D D S S D !.'.'.'.'.`.`.!.K K K J J K K ~.^._._.I S M v v O $ * w a y u 7 +.O.#.1.3.1.N.A.w.w.M.$.o.qX0X3X3X3X0X XK S N N N S J Q.`.%X&X&X`.!.Q.Q.Q.!.!.!.Q.!.!.!.!.!.Q.Q.K J K K K K K /.K K K K K K K K !.{.{.(.).J F N M M M N S D U )././.K J D S S N S D K (.{.}.}.`.).S N D D N D ).oX_.OX(.{.(.(.Q.U L J J J D J J J K Q.(.{.(.{.!.(.(.(.(.Q.Q.K K K J J D D J P I /.(._./.D S S D S J K (.}.-X;X}.J S S S N S S F G G G G G S N M v c O % R r i u 3 u f -.;.;.:.:.,.b.n.M.$.*.Q $X<XdXhXhX,X'.J S S S J K /.(.{.+X+X{.(.K J D D D J K K K J D S N N N S D J /.(.{. X'.'.!.Q.K J D J K ~.^. X'.'.`.K U J J J D D D S S S S D D D D D J J K /.(.(._._.).K D S M M + >.l.KXh.f.PXLX",
"y.JXJXd.ZXGXk.3 % M J Q.Q.Q.~.^.`.'.`.!.Q.K J J P K K Q.!.`.`.!.K G D D D J K K ).(.(.(.{.{.{.{.`.!.^.Q.K J J J J K Q.`.'.%X%X'.U F S D J K Q.Q.K K K J D S M M N N N D ).$X$X_.(.Q.K D D S S D !.'.'.'.'.`.`.!.Q.K K J J K K ~.^._._.I S M v v O $ * w a y u 7 +.O.#.1.3.1.N.A.w.q.M.$.o.qX0XfXsXgX3X*XQ.D S N M N G P ].'.%X%X`.!.Q.Q.Q.!.!.!.!.!.!.!.!.!.Q.K J J J J K K K /.K K K K K K K K `.{.{.(.).J F N M M M N S D U ).(./.K J D S S N S D K (.{.}.}.`.).S N D D N D ).oX_.{.(.{.(.(.Q.U L J J J D J J J K Q.(.{.(.{.!.{.{.(.(.(.Q.K K K J D D D D L I /.(.(./.D S S D D J Q.(.}.;X;X}.J S S N N S S F G G L G G S N M M c O @ R r i u 3 u f -.;.;.:.:.2.b.n.M.$.*.Q $X<XdXhXhX,X'.J S S D J K /.(.{.+X+X{.(.K J D S D J J J J D S N M N N S S J K (.{. X'.'.!.Q.K J D J K ~.^. X'.'.`.K U J J J D D D S S S S S S S S S D J K /._.@X$X_.).K S M v c X >.l.KXh.f.PXLX",
"y.JXJXd.ZXGXk.3 % M J Q.Q.Q.~.^.`.'.`.!.Q.K J J P K Q.Q.!.`.'.!.K G D D D J K K ).(.(.(.(.{.{.{.`.!.^.Q.K J J J D J Q.`.'.%X%X`.U F F S D J K Q.K K J J D N M v M M N D ).$X$X@X(.(.K J S S N D !.'.'.'.'.`.`.!.Q.K K J J K P ~.^._._.I S M v v O $ , w a y u 7 +.O.#.V.P.2.N.A.w.q.M.$.o.qX0XfXdXkXgX&X!.J S S M N G P ^.].'.'.`.!.Q.Q.Q.Q.!.!.!.!.!.!.!.Q.Q.K J J J J K K K K K K K K K K K Q.`.{.{.(.).J F N M M M N S D U ).(./.K J D S S N S D K (.{.}.}.{.).S N D D S D ).oX_._.(.(.(.!.Q.U L J D J D J J J K Q.(.(.(.(.!.{.{.{.!.(.Q.Q.K J J D D D G L U Q.{.(.Q.J S S D D J Q.{.}.;X;X}.J S N N N N S F G L L L G S S M M c O % * r i u 3 5 f -.;.;.:.:.2.A.n.m.$.| Q $X<XdXhXhX,X'.J S S D J K /.(.{.+X}.{.Q.K D D S S D J J J D S M M N N N S J K (.{.}.'.'.!.Q.K J D J K ~.^. X X%X'.K U J J J D D D S S S S S S S S N S D K /.@X@X9X_./.J S M c O X >.l.KXh.f.LXLX",
"y.JXJXd.ZXGXk.3 % B J Q.Q.Q.~.^.`.'.`.!.Q.K J J P K Q.Q.!.`.`.!.K G D D D J K K ).(.(.(.{.{.{.{.`.!.^.Q.K J J J D J Q.`.'.%X%X`.U F S S D J K Q.K K K J D S N M M M M D ).$X$X+X{.(.K J S S B F !.'.'.'.'.`.`.!.Q.K K J J K K ~.^._._.I S M v v O $ * w a y u : +.O.#.V.P.2.N.n.w.q.M.$.o.qX0XfXhXhXgX>X`.J S S M B F L ~.^.].`.].!.Q.Q.Q.Q.!.!.!.].].].!.Q.K J J J J J J K K K K K K K K K K Q.`.{.{.(.).J F N M M M N S D U ).(./.K J D S N N S D K (.{.}.}.{.).S N D D S D ).oX_.|.(.(.(.!.Q.U L J D J D J J J K Q.(.{.(.(.!.{.{.{.!.(.Q.Q.K J J D D S D G U Q.{.{.Q.J D D D D J Q.{.}.;X;X}.J N N N N N S F L L L L G D S M M c O % R r i u 3 5 f -.;.;.:.:.2.A.A.m.$.| Q $X<XdXhXhX,X'.J S S D J K /.(.{.+X{.(.Q.J D S S S J J J J G S N M B N N S D K /.|. X'.'.!.Q.K J D J K ~.^. X X%X'.K U J J J D D D D D D D S S S S N S D K (.@X$X7X_.(.U S M c O # >.l.KXh.f.LXLX",
"y.JXJXd.LXUXk.3 % B J Q.Q.Q.~.^.`.'.`.!.Q.K J J P K K Q.!.`.`.!.K G D D D J K K ).(.(.(.{.{.{.{.`.!.^.Q.K J J J D J Q.`.'.%X%X`.J F S S D J K /././.I U L F N M B M N D ).$X+X{.{.(.K J S N B F !.'.'.'.'.`.`.!.Q.K K J J K P ~.^.|._.I S M v v O $ , w a y u 7 +.O.#.V.P.2.N.A.J.w.M.$.o.qX0XfXjXjXkX>X`.J D S M B F G P ~.^.^.!.!.Q.Q.Q.Q.!.!.].].].].!.Q.K J J D J J J K K K K K K K K Q.Q.Q.`.{.{.(.I J F N M M M N S D U )././.K J D S N N S D K (.{.}.}.{.).S N D D S D )._._.|.(.(.(.!.Q.U L J J J J J J J K Q.(.{.(.(.!.{.}.{.`.!.Q.Q.K J J D S S D G U Q.{.{.Q.J D D J D J Q.{.-X;X;X}.J N N M N N S F L L L L J D S N M c O % ^ p i u 3 5 f -.;.;.:.:.:.2.A.M.$.| Q $X<XdXhXhX,X'.J S S D J K /.{.{.+X{.!.Q.J D S N S J K U U L G F B M N N S D K /.|. X'.'.!.Q.K J D J K ~.^. X'.%X'.K U J J J D D D U J J D D D D S S S J K (.{.+X+X{./.U F B b V : 6.j.KXh.f.LXLX",
"y.j.HXf.ZXGXt.7 % B J Q.!.!.^.].'.%X'.`.Q.K J G P P K Q.`.`.'.`.K G D S D D J U ).)././.(.(.(.(.(.^.Q.K K J J G D J K ^.`.'.'.!.K G D D J K Q.Q.Q.(./.).I U D N B b N D ).@X}.{.{.!.Q.J S B B F Q.`.'. X|.`.!.!.K K K J J K K ~.Q._.oXI S M v c O $ , w a i u 7 l O.v.V.1.1.N.M.C.n.#.$.} eX8XfXjXjXkX,X'.K J D N N F G L P P ~.^.!.!.Q.Q.!.!.!.].`.|.].!.Q.K J D S D J J K /.Q.Q.Q.K K K J J K (.(.(./.I L F S M M M N S D U ).(.{.(.K J S N N S D K (.{.}.-X'./.S N D D N D ).oX_._._.(.(.Q./.U L J J D D D J J K /./.(.(.(.(.{.}.{.`.!.!.Q.K K J J D D J U I Q.(.(./.J S D D D J K (.{.}.-X{.D N N M N N S F G G L L G D S M v O o % t h i u 3 u f f ;.;.:.f q.q.q.n.$.&.Q $X=XgXkXgX<X].G N S S D J I /._._.(.Q.K D S S N S K Q./.).I U G D S S S D J K (.{.-X%X'.`.!.Q.K J K Q.^.]. X X'.'.Q.K K J J J J J /.I K K J J J D D D J Q.(.{.}.5X}.(.K J F F B , >.l.KXh.s.LXLX",
"9.u.g.a.FXGXt.> m D Q.`.`.`.Q.`.1X1X%X`.K D N M N D K (.-X1X2X6XK D F F F D D D S S S D G G L P J J J J D D D D D D D J J J J K K K Q.Q.Q.Q.Q.Q.+X+X|.|.Q.K J N c O v S K !.}.:X'.`.Q.J S M b B J Q.Q.Q.Q.Q.Q.K K K K K K K K K oXoX).H S M v O @ % 1 r h d u 7 l c.V.V.1.] v.G.C.C.Z.&.iXeX8XfXkXdXsX2X1X;X+X@X#X#XT F N M M N J K K Q.Q.Q.Q.Q.{.{.{.`.!.Q.Q.D v c M S K (.}.5X-X{.Q.J N v c v S J J J J G D S D S S S D G U Q.6X1X%X!.K S M v N D K _.5X1X8X1XK D D D D D D D S S D D D J )..X#XT L J D S N N J J J J J J J K !.`.{.}.}.{.`.!.Q.K Q.Q.Q.Q.Q.Q.K J J J D D D D D J J J J J K J G F S N N S F G G G G G S M v c n @ @ % t h g u u u f l k j j h l +.+.O.%.) Q .X:X2XlXgX=X~.F b F F F D D D D D D S S S S S N D Q.!.|.|.|.(.(.Q.J J J K Q.!.+X:X}.'.'.`.!.Q.K K !.`.`.}.-X-X%X'.!.Q.Q.K K K Q.Q.|.{.{.|.(.Q.K J S S D K !.'.;X6X%X'.!.Q.J D S V >.l.KXh.f.LXLX",
"7.k.g.a.a.GXw.> n D Q.`.'.`.!.`.2X2X;X`.K D N M N F P |.6X8XfX1XJ F F F F F F F N S S S F F G G L P L J G D D D J J G G G G J J Q.!.!.!.!.!.!.!.+X+X+X}.`.!.K D c O M F K ].-X;X-X'.!.J S B V B D K K K K K K K K K K K K K K K oXoXY H S M c O @ % 1 r g g z z l c.N.N.1.' v.C.C.C.Z.&.iXtXmXlXkXkXfXfX1X;X:X X$X).U S M v v M J Q.Q.Q.Q.Q.!.!.{. X}.{.`.!.Q.D c O M F K |.5X6X;X'.Q.D M c O O S D L P U L D D J G D D D J L _.8X2X;X`.K D N M N F P |.7X8XfX8XQ.J J J J J J J D D S D D P U .X#X.XU P D S S N J J J J J J J J (.`.{.}.}.{.{.`.Q.Q.Q.Q.!.!.!.Q.I P P J G D D D J J J G J J G G G F S S S S F G T G G G S N M c c % = = t s g 7 u z f l k j _ h +.+.+.+.%.) Q #X7X8XlXlX*X~.B b N F F F F F F F N N N N N N N D (.`.{.}.}.{.{.`.K K K K Q.`.}.7X}.}.'.`.`.!.!.Q.`.'.}.-X5X:X-X}.`.!.Q.Q.Q.!.!.!.}.}.}. X`.!.Q.K S D J Q.`.-X;X8X;X%X'.!.Q.K J A -.l.KXh.f.LXLX",
"7.k.g.a.a.GXt.> A J (.`.`.`.!.`.8X8X;X`.K D N M N G U _.7X6X8X6XJ F F S S S S S N S S S F D G G U U P U U J J J U P U P U J U K Q.!.(.!.(.!.(.!.@X$X@X+X{.!.Q.D v b B G /.{.5X6X5X}.(.K D B B B D J J J J J K J K K K K K K /.K ).Y Y H N M c O @ * 1 r g g z z l c.N.N.1.] v.C.Y.Y.Z.U.iXpXmXlXzXzXlXfX2X1X:X+X@X).U S N M v M J Q.Q.Q.Q.Q.(.!.{.{.@X{.|.!.Q.J v b B G /.{.5X6X;X'.Q.J N v O c D J U U U U J J U J J D J U U |.8X8X;X`.K D N M N G U _.7X6X8X1XQ.U U J U P U J D D D D J U ).#X#X#XU P J D S S U P U P U P U K (.|.OX+X+X|.{.(.K K K Q.Q.Q.Q.Q.).U U U U J J J U P U P U P U P G F S S S S F G T T T G G S N v m % = = 1 g 9 7 7 u f l k ` ` h O.+.+.%.%.=.Q #X7X2XlX2X*X~.B v F F F F F F S S S S S S S S S D (.|.@X+X@X|.{.(.J J J K K !.{. X+X}.}.`.`.!.!.!.`.`.}.5X5X7X5X}.{.!.!.Q.Q.!.(.(.@X@X+X@X{.(.Q.K D D J Q.{.-X6X6X6X-X'.!.Q.K J A -.l.KXh.f.LXLX",
"8.k.g.a.FXGXt.: C H /.`.`.`.^.(.6X6X-X{.K G N M B F U oX@X5X6X5XJ S S S S S S S S N S S S S D G U U I P U U J J P P U P I P I I /.Q./.(./.Q./.Q.$X$X$X@X_.Q.Q.D M b B G /.{.5X6X5X}.(.K G F B F S J J J J J J J I I I I I I I I U U H S N v c O @ * 1 r g g z z l q.N.N.1.] v.C.Y.Y.Z.U.NXpXtXmXzXzXlXfX1X;X-X}.(./.J S N M v M J K K Q.Q.Q.Q.Q.(.(._._.(.Q.Q.J M b B G /.{.5X6X}.`.Q.J N v c v G U I U U U U J U U J J U U )._.6X6X-X{.K G N M B F U oX@X5X6X6X/.P I P U P U P U J J J U U ).#X#X#X).U U J D D U P U P U P U I /.(._.@X@X_.(.(.J J J K K K K K ).U U U P U J J U P U P U P U U D S S N S S S D U T U L G S N M m @ = = 1 e 9 0 7 u f l k ,.' ' #.O.#.%.%.) } #X6X8XfX2X-XQ.N v N S S S S S S S S S S S S S S D /.(._.@X@X_.(.(.J J J J J Q./.(.{.{.{.{.!.!.!.!.!.!.{.+X+X@X+XOX(.(.Q.Q.Q.Q.(.(._.@X@X@X_.(.Q.K D D J K (.}.5X5X5X}.{.Q.K K U A -.z.KXh.f.LXLX",
"8.k.g.a.FXGXt.7 C H I (.!.(.~.~.}.}.{.Q.U F B b B F T U _.{.}.{.D S S S S S S S N N S S S S D D U I I U J J J J I U I U U U I U I K I K I K I K oXoX#XoXoX/.K D B B F J /.(.+X5X5X}.(.K D S B B S D D D D D D D U U U U U U U U H H S N M v c o @ * 1 r g g z z l q.N.V.1.] N.Z.H.Y.Z.U.iXpXtXlXlXlXfX2X1X-X'.`./.I D S M M M N D J J J K K K K K K /././.K J D B B F J /.(.}.-X}.`.Q.J S M v M G U I I U I J J U J J J J U U _.+X}.{.Q.U F B b B F T U _.{.}.{./.U I U I U U U I U J J J U U U ).U U U K J J D I U U U I U U U K /.).).oX)./.K D D D J J J J J U I I U J J J J I U U U I U U U D S S N N S S D G L L L G S S M O X X = 1 e 9 3 7 u f k c.v.<.' #.%.#.%.$.| } wX5X8XfX2X%XQ.N v S S S S S S S S S S S S S S S S U /.).).oX)./.K D D D D D J K K (.(.(.Q.Q.Q./.Q.Q.Q.(.(._._._.(./.I K K K K I /./.).oXoXoX).I J D D D J /.(.{.{.OX{./.K J D G Z >.l.KXh.f.LXLX",
"8.k.g.a.FXGXt.7 % B J K Q.K J J (.(./.J D N M b b B F L I /.Q.Q.D S S S S S S S N N N S S S S S U U J J J D D D J J J J J J J J D D D D D D D D U U U U U U D S M M N D K /.(.{.}.{./.J S N B B N N S N S N S N D S D S D S D S S S N M v c O o @ * 1 r h g z z f q.A.V.1.] V.Z.C.C.C.$.X.iXtX8X8X2X1X;X%X`.!.Q.I I D N M M n M N S S S D D D D S D D J D D D N M M N D K Q.(.{.{.(.K D S M M M S D J I I J D D J D D D D J I /.(.(./.J D N M b b B F L I /.Q.Q.K J J J J J J J J J D D D D J U U U J J J D D D J J J J J J J J D D U U U U D D S S S S S D D D U I J J J D D D J J J J J J J D S S N N N N S S S S D D S S N v O X X = 2 9 0 3 7 u f O.M.b.N.V.] $.$.$.$.&. .eX+X8X2X2X'.Q.N v N S S S S S S S S S S S S S S S D D U U U U D D S S S S S S D J J K K J J J K J J J K I /.I I I U J D D D D J U J U U U U U J D S N S D J K K I ).I J D S S S C >.l.KXh.f.LXLX",
"9.l.g.a.FXGXt.3 = v S J J D S F J J D S N v c c c b B N D D D D S N N N N N N N M M N N N N S S D D D D D S S S D D D D D D D S S N N N N N N N S F H H H S N M M M N S D J K Q.(./.J D N M M M M M M M M M M M N N N N N N N N N M M v c c O @ X = 1 r h g z z f q.m.N.1.] V.Z.#.O.#.%.| } #X5X7X;X;X'.`.Q.K J I H S N M n n M M M M M N N N N M M N N N N M M M M N S D J K Q.(./.J D S N M N N S D D D D D S D S S S S D J I J J D S N v c c c v B N D D D D D D D D D D D D D D D S S S D D D D D D D D S S D D D D D D D S N N S S S N N N M M M N N N N S D D D D D S S S D D D D D D D S S N N M M N N S N N N N N N M c O X X = 2 9 0 3 7 u l q.M.B.B.V.] $.V.V.$.&.X.iXOX6X8X1X}.K N v N N N N N N N N S S S S S S S S N N N S S S N N N N M M M N N S S S S S S S D S N S S D D D D S S N N N N N N S N S F H H H S N M M M N S S S S H D S N M M M % >.l.KXh.f.PXLX",
"y.l.h.i.ZXGXt.3 X c N S S N M M N S N M v c O O O O v M M N N M N M M M M M M M M M M M M N N N S S S N N N N N N N N N N N N N M v v v v v v v M M B B B M M v v v M N S D J J I J D N M v v v v v v v v v v v v v v v v v v v M v v v c O @ + X = 1 r h g d z f q.m.N.1.] 1.Z.O.O.O.%.) { #XOX}.}.'.!.Q.J D S H S N M v v n n c c c c v v v v c c v v v v v c v v M N S D J J /.I J S N M M B M N S S S S N N N N N N N N S H S S N M v c O O O O v M M N N N N N N N N N N N S S N N N N N S S S S N N N N N N N N N N N N N v v M M M M v v v v v v M M M N S S S N N N N N N N N N N N N N N M M M M M M N v v M M M v v c O X X X & t 0 3 3 u f q.M.B.D.P.1.3.V.V.V.&.X.uXoX5X6X6X{.K N c M M M M M M M M N N N N N N N N v v M M M M v v M v v v v v M N M M M M N N N N v M M N N N N M M M v v v v M M v M M B B B M M v v v v v M M M B M M v v v v @ >.l.KXh.f.PXLX",
"y.z.h.i.ZXGXu.6 & A B S S N v b M M n n m m m @ @ @ m m n B M N M B B B M M M n n n n M M M M M N N N N N N N N N N N N N N N N n m m n n n b b b b n n n n n n b M M N N S D D D D S N N B n n b b b b n n n n b b b b b b b n c c c c O + + @ X X & t s g 9 3 f q.m.V.1.] 1.V.O.+.+.#.) Q T /.$X$X$X_.J S S N N N M v n A A A c c c c c c c c c c c c c c c c v v v M N N S S D D S N B M M B N N N N N N N N N N N N N N N N N M M b b m m @ @ @ m b b M M N N N N N N N N N N N N N N N N N N N N N N N N N N N N N N N N N v c c c c c c c c c c c c c c v M N M N N N N N N N N N M M M M M M M B B M M v v v v v v v v v o X = = = & 0 3   7 O.M.M.b.D.I.U.U.U.I.Z.P...uX#X@X7X7X@XU M v v v v v v v v v M M M M M M M n b b n n n n n n n n n b n m m n v v v v v v M M v v v v v v v v c c c c c c c c c c c c c c c c b v v c c c c c b b b b n b b * >.l.KXh.s.LXLX",
"y.j.h.f.ZXDXu.4   % n M M v O O m c c O @ + + + + + + @ O c c c c c c c c c c c c c c c c c c c v v v v v v v v v v v v v v v v m O @ @ @ @ O O O O O O O O O O c c v v v M M M M M M v v v c b c O m O m O m O m O m O c O c c O O O o o + o X X = & t s s 9 3 f q.m.V.1.] 1.V.O.+.+.#.) W T U ).#X#XU S M v M v v c c @ @ % @ O o o o o o o o o o o o o o o O O O c c v v M M M M M v v c c c v v v v v v v v v v v v v v v v c c c O @ + + + + + + @ O c c c v v v v v v v v v v v v v v v v v v v v v v v v v v v v v v v v m @ @ @ O @ O O O O O O @ @ @ m v v v v v v v v v M M v v v v v c c b n n b c O c c c c c c c m @ X = = = & 0 3   7 O.n.M.b.V.U.U.U.U.I.Z.V...o.Y @X@X@X).D v O O O O O O O O O c c c c c c c c O O O O O O O O @ O O O O O @ O O O O O O O c c c c c c c c c m O @ @ @ O @ O O @ O O O @ @ @ O O O O o o o X X + + O @ O m c = >.l.KXh.s.LXLX",
"y.h.HXf.SXDXu.4   % c v v c o + @ @ + + X X X X X X X X + + @ @ @ @ @ @ @ @ @ @ @ @ @ @ @ @ @ @ O c c c O O O O O O O O c c c O @ + + + X + + + + + + + + + + + @ O O O O c c c c c c c O O O O @ @ @ @ @ @ @ @ @ @ @ @ @ @ @ o o o o + + o X X X = 2 t r z z 0 5 w.m.B.3...1.V.#.O.+.O.%./ Q T T Q Q T M c c c O @ @ @ % % = = X o o o o o o o o o o o o o o + o O O O O O c c c c c O O O O O O O O O c c O c c c O c O O c O @ @ + + X X X X # # X X + + @ @ O c c c O O O O O O O c c c c c O O O O c c c c c c O O c O O O @ @ @ @ @ @ $ $ @ @ @ @ @ @ @ @ m m m m m m m m m m m m m m m m o @ @ @ @ @ @ o @ @ % % @ @ @ @ @ % = = = & 0 3   3 O.n.M.v.N.D.3.U.U.K.G.m.V...~ Y oXoXY N c o o o o o o + + + @ @ @ @ @ @ @ @ + + X + + + + + X + + + + + X + o o o o o o o o @ @ @ @ @ @ @ @ @ @ @ @ @ @ $ $ @ @ @ @ @ @ @ @ o o o X X X X X X X X X + @ O = >.l.KXh.s.PXLX",
"y.HXHXd.SXPXu.4 x * A n n m $ $ $ $ $ $ & $ $ & $ # & & & & $ $ $ $ $ $ $ $ $ $ $ $ $ $ $ $ $ % % % % % % % % % % % % % % % % % $ $ $ $ $ $ $ $ $ $ & & & & $ $ % % % % % % % % % % % % % % % % % $ % $ % % % % % % % % % % % $ + + + + + + # # = & 1 t r z e 0 5 w.m.B.3...3.V.#.O.O.%.%.) W Q Q { { W C @ % C % % % = = = = & = # # # # # # # # # # # # # # # $ @ @ @ % @ @ @ % % % % % % % % % % % % % % % % % % % % % % % % % $ $ $ $ $ $ & $ $ $ $ $ $ $ % % % % % % % % % % % % % % % % % % % % % % % % % % % % % % % % % $ $ = $ = # = = = # = # $ $ & $ % % % % % % % @ % % % @ % @ % % # # * * * * $ # $ # $ $ $ $ $ % % % = = & & 0 3   7 O.c.c.,.<.1.3.3.D.K.F.n.M.] / ~ wXwXT B + + # # # # $ # # # $ $ $ $ $ $ $ $ $ $ & & & & $ $ $ $ $ $ $ $ $ $ $ $ % @ @ @ X X % @ % $ % $ % % $ $ = $ = # = = & # = = $ $ $ $ + + X X # #     & & & & % % % & >.l.KXh.f.LXLX",
"y.HXHXf.LXPXu.4 z 1 ! A Z Z , > > > > , > > > > , > > , > > > > q > > > > > q > q > > > > > q , t , w , , , , , , , , , w , w , > , > , > , , , > , t , > > > > w * * , t , , , t , , , * * 1 * * * * * 1 * * * * * * * * * * Z R E E E , , , , * 1 t t e e e z 5 w.m.D.3...3.V.M.#.%.#.%.) / W | &.&.) ^ R R ^ t t t t t t e t t , w , t , t , t , t , t , t , w , w , w , t , , , , , w * 1 * , , , , * , , , w , w , , , , , t > > > > > t > > > > , > > > , t , w , , , , , , , , , w , w , , , , , * , , , w , w , * , * , & & & & & & & & & & & & & & & & * & * & * & * & * & * & * & * & & > t q t , > : & & & & & & & * % % % * & 2 3 3   7 O.c.,.` ' 1.1.1.m.F.w.w.q.#.]  .uXuX} W R # , , t , q > q > q > > > > > q > > , t , > , > > > , > , > > t > w , * * * * * $ * $ * $ * * * * & & & & & & & & & & & & & & & & % % * * : : 7 7 : : : : t * Z t >.l.KXh.f.LXLX",
"y.HXHXJXLXPXj.4 f _ / / ! ^ , q q q e q r w r w w w r w e q i q y y y y y q y q i i y y y y i q e r r r r w r w r w r w r r r r e q e q e q e q e e e e e q e w w w w w r e e a e a e w r w w w ^ ^ ^ ^ ^ ^ ^ ^ ^ ^ ^ ^ ^ ^ ^ ^ E E E E E ^ ^ ^ w t t t t r r z 5 6.A.B.3...3.P.Z.C.C.C.%.%.) / $.$.&.$.( ( ( ' h h g g g g g g i p p p p p p p p p p p p p p p _ ^ _ w p p i a e a e r r w w w r r r w r w r w r r r r e w r q i i e q r w r w r w r w e a i q e r r r r w r w r w r w r r r r r r r w r w r w r r r r r w e q & & & & & & & & & & & & & & & & & & & & & & & & & & & & & & & & 8 y i a a i 8 8 : : : : - - - & % C % 1 2 2 3 3   7 l c.k j ` <.1.1.n.w.t.t.w.M.V.3.NXuXo.) , < a a i i i i i i i i y y y y i q e e e e e q e q e q e q e r e r _ ^ ^ w t * * & * * * * * & * & & & & & & & & & & & & & & & & & * * * > 8 u u u u u u q r ^ ^ r >.l.KXh.f.LXLX",
"y.HXHXJXLXPXj.4 f s ! ! ! ^ , q y 8 y 8 e q e w r e e q 9 8 y 8 u u u u u u u u u u u u u u u 8 y 8 9 9 9 8 9 8 e q 9 8 9 8 9 y e q e q e q e q e e e e e q e q e q e q 9 8 y y y y y 8 e q e r w w t w t w t w t w w w w w t w E E E E E ^ ^ ^ ^ w e t t t r z 5 6.A.B.3.....P.Z.Y.Y.C.%.%.) ) %.%.$.%.O.a l #.i d d f d f f d g i i i i i i i i i i i i i i i r p p i i i y y y 8 y y e e e q e 8 9 8 e q 9 8 9 8 e 9 9 8 9 8 y y 9 8 e q e w r e e e 9 8 9 8 9 8 e 9 9 8 9 8 e q 9 8 9 8 9 8 9 8 9 8 e q 9 8 9 8 e 9 e q 9 8 : : : : : : : : : : : : : : : : : : : : : : : : : : : : : : : : 7 u u u y u u 7 - - - - - - - : 1 ! 1 1 2 2 3 3   7 l q.k h _ ` ` <.q.w.t.t.w.q.$.3.3.X.| ) < : y d d d d u y i u u u u u u u 8 9 e e e e q e q e q e q e e e e h r w t t & & & & & & & & & & & & : : : : : : : : : : : : : : & * * * : 8 u u @.6 u u y e w ^ r >.l.KXh.f.LXLX",
"y.KXHXf.LXPXj.4 4 t ! ! R > : : 7 7 8 0 8 8 t t t t 8 8 0 8 7 7 0 0 0 0 7 7 7 7 7 0 0 0 7 7 7 7 7 8 8 8 0 8 8 8 8 8 7 0 0 8 8 8 0 8 8 8 8 8 8 8 8 0 0 0 8 8 8 8 8 8 8 8 8 8 7 7 7 7 7 8 0 8 8 t t t t t t t t t t t t t t t t , , , , , , w w w ( r r t t t r g f q.m.B.1...1.P.Z.Y.Y.Y.Z.$.$.) #.#.%.#.a a l k 9 9 z z d z z z 9 e e e e e e e e e e e e e e e e e e e 9 9 y y 7 7 8 8 8 8 t 8 0 8 8 8 8 8 8 0 7 8 8 8 8 7 7 8 7 7 7 0 8 8 t t t t 8 8 0 7 7 7 7 8 8 8 8 8 8 8 8 8 8 0 7 8 8 8 8 8 8 8 8 8 8 0 7 8 8 8 8 8 8 0 : : : : : : : : : : : : : : : : : : : : : : : : : : : : : : : : - 7 7 u u 7 7 - - - - - - - - : 1 ! 1 1 2 2 x -   0 k ,.k h _ ` ` ,.q.w.w.t.w.q.' ] ....) ^ > : 8 y y y u u u u 7 0 0 0 7 7 7 7 8 0 0 8 8 8 8 8 8 8 8 8 8 0 0 8 e r t t & & & . & & & & & & & & : : : : : : : : : : : : : : : & = = & & 7 u u u 3 3 7 7 t t 1 9 8.h.UXh.f.PXLX",
"8.z.HXd.d.ZXp.0.4 0 1 1 * 0 u u : t r r t t r ' & 2 t t t t t 0 h h e t 8 8 e e e e e e e e e e t t t t t t t 0 e e e e e e e e e r r r r r e e e r r r r r r r t t t t e r r s e e e e t t t t s r t t t t r r t t t t t t t r t t w w t w t t t t r r r r r e M.M.N.N.V.P.P.V.Z.Z.Z.Z.Z.V.P.P.v.#.' ' h r e t s s s s s s s s e r e e e e t r r r e r e e r e t t t t e r r r e e t t 2 2 2 & e e e e e e e e & & 2 t t t t e s r e t t t t t r r r r e e e e r r e t t e r s e e e e e e e e e e e e e e e e t t t t 8 t t t & & & & & & & & & & & & 2 2 t t t t 2 & & & & & & & & & & & & & t t t t 8 8 8 8 2 2 2 & & & 2 2 1 1 1 2 2 & & & t e s j ` ` _ _ <.<.b.m.m.M.c.' V.V.1.] ' _ r r 0 0 t t 8 8 t e & 2 8 e e t t t e e r r r r r r e r r r r r e e s r r t 1 & & & & & & & & & & & & & 2 2 2 & & & & & & & 2 2 t t & = & 2 t e h h e e e e r t t z u.j.f.h.JXZXSX",
"8.l.g.p.p.ZXa.0.5 z 1 1 t 9 u f 9 _ ` _ r t s ` 1 t r s _ s r r ` _ s t t t r r r r r r r r r r r r r r r r t t s s _ s _ _ s s _ _ _ _ s _ s s s _ _ _ s s _ _ r r s s _ ' ` ` _ _ _ _ _ _ _ _ ' _ s r r s _ _ _ _ _ _ _ _ s s _ s _ _ _ _ _ _ _ _ _ _ _ _ s s N.V.N.V.B.V.D.D.D.D.D.U.D.U.D.D.V.V.<.<.' ' _ s ` ` ` ' ` ` ` ` _ _ s s s _ _ _ _ _ _ _ s s _ s r r r s _ ' ` ` _ s r r r t t t _ _ _ _ _ _ s s t t t r r s _ _ ` ` _ _ s s r r _ _ _ _ s s _ s _ s r t t r s _ _ _ _ _ _ _ s s s s _ _ _ _ _ _ r r r r r r r r 2 2 2 2 2 2 2 2 2 2 1 1 t t r r r t t t 1 1 2 2 2 2 2 2 2 2 2 2 r r r r r r r r t t t t t t t t r t t t 1 1 2 2 t r _ ` ` ` ' _ <.<.N.V.V.N.<.<.B.V.V.1.' ` _ _ t t r r r r r r 1 t r s _ _ r r s s s _ _ _ s _ _ _ _ _ s _ s s ' ' _ s t 1 1 2 2 2 2 2 2 2 2 2 t t t t t t t t 1 1 1 t t t r r 2 2 1 t s _ ` ` _ _ _ _ s _ s f u.s.f.f.ZXZXd.",
"8.l.g.p.p.ZXa.0.5 g s ^ s l +.O.` v.N.<._ r s ` r s _ ` ' ' ` ` ` ` s r t t r r s s r s s s r r _ _ _ _ _ _ _ _ ` ` ` ` ` ` ` ` ` ` ` ` ` ` ` ` ` ` ` ` ` ` ` ` ` ` ` ' ' <.<.<.' ' ' ' ' ' ' ' ' ` _ h h _ ` ' ` ` ` ` ` ` ` ` ` ` ` ` ` ` ` ` ` ` ` ` ` ` ` ` N.N.V.V.D.D.D.D.D.D.D.D.D.D.D.D.D.V.B.N.<.<.' ' <.<.<.<.1.1.1.<.` ` ` ` ` ` ` ` ` ` ` ` ` ` ` ` ` ` ` ' ' <.<.1.' ' ` ` _ _ s s ` ` ` ` ` ` ` ` s s _ _ ` ` ' ' <.<.<.' ' ` ` ` ` ` ` ` ` ` ` ` _ s r t t r s _ ` ` ` ` ` ` ` ` ` ` ` ` ` ` ` ` _ _ _ _ _ h h h t t t t t t t t t t t r s h h _ _ h s r r t t t t t t t t t t t _ _ _ _ _ _ _ _ s s s s s s s s _ h s s r t t t t r h ` ` ` ` _ <.N.V.B.V.N.<.<.V.V.N.<.<.` ` _ _ _ _ _ _ _ _ h r s _ ` ' ' ' ` ` ` ` ` ` ` ` ` ` ` ` ` ` ` ` ` <.<.' ` _ s r r r r e e t t t t r r r r r r r r r r r s s h ` ` r r s _ ` ' <.<.` ` ` ` ` ` ` ;.u.s.f.f.JXZXd.",
"8.l.g.i.p.ZXa.0.6.k _ _ ` O.q.w.Z.D.D.B.` s s ` h ` ' v.N.V.N.N.` ` h r t t r s s s s s s s s s ` ` ` ` ' <.<.<.<.<.<.<.<.<.<.<.<.<.<.<.<.<.<.<.<.<.<.<.<.<.<.<.<.<.N.N.V.V.D.D.N.N.N.N.N.N.N.N.<.<.` ` ` ` <.<.<.<.<.<.<.<.<.v.<.<.<.<.<.<.<.<.<.<.<.<.<.<.<.<.V.V.D.D.D.D.D.I.D.D.D.D.D.D.D.D.I.I.D.D.D.V.V.N.D.D.D.D.D.D.D.D.<.<.<.<.<.<.<.<.<.<.<.<.<.<.<.<.<.<.v.N.V.V.D.D.N.N.N.<.<.' ' ` <.<.<.<.<.<.<.<.` ' ' <.<.N.N.N.D.B.V.N.N.v.<.<.<.<.<.<.<.<.<.<._ s r r e r h _ <.<.<.<.<.<.<.<.<.<.<.<.<.<.<.<.' ' ' ' ` ` ` ` s s s s s s s s s s h _ ` ` ` ` ` ` ` ` ` h h s s s s s s s s s ' ' ' ' ' ' ' ' ` ' ` ' ` ` ` ` ` ` ` ` _ h s s e s ` ` ' ` ` ` v.N.V.D.D.V.N.<.V.V.N.N.<.<.' ` <.<.<.' ` ` ` ` h ` ' <.N.V.N.N.<.<.<.<.<.<.<.<.<.<.<.<.<.<.<.<.V.V.N.<.<.' ` ` _ ' ` _ _ _ ` ` ` ` ` ` ` ` ` ` _ ` ` ` ` <.<.<.` ` ' <.<.N.N.V.<.<.<.<.<.<.<.q.u.s.f.f.JXSXd.",
"0.a.g.p.p.ZXa.0.6.k ` ` ' M.w.F.K.I.I.S.<.h h ` ` ` v.B.S.S.D.S.` ` h s e r s h h h h h h h h h ` ` ` <.v.v.N.N.N.N.N.N.N.N.N.N.N.N.N.N.N.N.N.N.N.N.N.N.N.N.N.N.N.N.B.B.S.D.D.D.S.S.B.S.S.S.S.S.v.c.' ` ` ' <.v.N.N.N.N.N.N.N.N.N.N.N.N.N.N.N.N.N.N.N.N.N.N.N.N.B.B.S.S.D.D.I.I.S.S.S.S.S.S.S.S.I.I.I.D.D.S.S.S.D.D.D.D.D.D.D.D.N.N.N.N.N.N.N.N.N.N.N.N.N.N.N.N.N.N.B.B.S.S.D.D.B.B.B.N.N.N.v.v.N.N.N.N.N.N.N.N.v.v.v.N.N.B.B.B.D.D.S.S.B.B.N.N.N.N.N.N.N.N.N.N.` h h s g s h ` N.N.N.N.N.N.N.N.N.N.N.N.N.N.N.N.c.c.c.c.<.<.<.<.h h h h j j j h h ` ` ' ` <.<.<.<.<.<.` ` ` ` j h h h h ` ` j ` <.<.<.<.<.<.<.c.v.v.v.v.v.v.v.<.<.<.<.` ` ` ` h s h ` ` <.<.` ` N.N.B.S.S.B.N.N.N.N.N.v.v.v.<.<.N.N.v.<.<.` ` ` ` ` <.V.S.D.D.S.N.N.N.N.N.N.N.N.N.N.N.N.N.N.N.N.B.B.B.N.N.N.v.v.` ` ' ` ` ` ` ` ` ` ` ` ` ` ` ` ` ` <.<.v.v.N.N.v.v.N.N.N.B.B.B.N.N.N.N.N.N.N.w.u.s.f.f.JXZXf.",
"0.a.g.p.p.ZXa.0.6.k ` ` c.n.F.Y.K.I.I.S.,.h h ` ` ` v.B.K.L.L.L.,.` j h g s h h h h h h h h h h j j ` ,.v.b.B.B.b.b.b.b.b.b.N.N.b.b.b.b.b.b.b.b.b.b.N.N.b.b.b.b.B.B.B.S.S.D.D.L.S.S.S.S.K.K.S.S.v.c.' ' ' ` <.v.b.b.b.b.b.b.b.b.b.b.b.b.b.b.b.b.b.b.b.b.b.b.b.b.B.S.S.K.D.L.I.I.S.S.S.S.S.S.S.S.D.D.D.D.K.K.K.K.I.I.L.L.L.L.L.L.N.N.b.b.b.b.b.b.b.b.b.b.b.b.b.b.B.B.B.S.K.K.L.L.S.S.S.B.B.b.b.v.b.b.b.b.b.b.b.b.v.b.N.B.B.S.S.S.L.L.D.K.S.B.B.B.b.b.b.b.b.b.b.b.` j h s s h j ` b.b.b.b.b.b.b.b.b.b.b.b.b.b.b.b.c.c.c.v.c.c.c.c.h h h h h j h h j j ` ` ` ,.<.v.c.<.,.` ` j j j h h h h j j j j c.<.<.<.<.<.c.c.v.v.v.v.v.v.v.v.<.<.,.` ` ' j j h h ` ,.c.<.,.` N.B.S.K.K.S.B.N.b.b.b.b.N.b.b.b.B.B.b.v.,.` ` j j ` v.B.K.L.L.L.b.b.b.b.b.b.N.b.b.b.b.b.b.b.b.b.B.B.B.B.B.B.B.B.c.,.c.c.,.,.,.,.` ` ` ` ` ` ` ` ,.<.c.v.b.b.B.B.B.B.B.B.B.B.B.B.b.b.b.b.b.b.b.w.u.s.f.f.JXf.f.",
"0.l.g.p.VXVXa.0.f l _ ` ' n.F.Y.G.L.L.B.` h j ` h ' v.B.K.L.L.L.c.` k h h h h j j j j j k k k j g h k ` v.b.B.B.M.M.M.M.v.v.v.v.M.M.v.M.M.M.M.M.M.v.v.v.M.M.M.M.B.B.B.S.K.K.L.L.K.K.K.K.K.K.K.K.,.` k h h k ` ,.M.M.M.M.M.M.M.M.M.M.M.M.v.v.v.v.M.M.M.M.M.M.M.M.S.S.K.L.L.L.I.I.S.S.S.S.K.S.K.K.S.S.K.K.K.K.K.K.L.L.L.L.L.L.L.L.M.v.M.M.M.M.M.M.v.v.M.M.M.M.M.M.B.B.B.S.K.K.L.L.K.S.B.B.m.b.v.M.M.M.v.M.M.M.M.M.M.M.b.B.B.B.S.K.L.L.K.K.S.B.B.B.v.v.M.M.M.M.M.M.` k h h h h k ` M.M.M.M.M.M.M.M.M.M.M.M.v.v.v.v.,.,.,.c.c.c.,.,.h h h h h h h h h h j k ` ` ,.,.,.' ` ` k j h h h h h h h h h h ,.c.,.,.,.,.,.,.M.M.M.M.v.v.M.M.,.,.` ` k j h h h j ` c.v.v.,.` B.B.K.K.K.K.B.B.b.b.b.m.m.m.B.B.B.B.b.v.` k h h h k v.B.K.L.L.L.M.M.M.M.M.M.v.v.M.M.M.M.M.M.M.M.m.m.m.B.B.B.B.B.,.,.,.,.,.,.,.,.k ' k k k k k k ,.,.c.v.M.b.m.B.B.B.B.B.B.B.m.m.M.M.v.v.M.v.M.w.u.s.f.f.JXf.d.",
"0.a.g.p.p.VXa.0.5 d s _ ' M.w.Y.n.K.K.m.k l k c.h j c.m.K.L.L.L.M.,.k h g l h k k k k k k k k k g h h k c.M.m.m.c.c.M.M.M.M.M.M.M.M.M.c.M.M.M.M.M.M.M.M.c.M.M.M.m.m.m.S.K.K.K.L.K.K.K.K.K.K.K.K.k k j l l h k ` M.M.M.c.M.M.M.M.c.c.M.M.M.M.M.M.M.M.M.c.M.M.M.M.K.K.K.L.L.L.L.L.K.K.K.K.K.K.K.K.B.B.B.S.K.K.K.K.L.L.L.L.L.L.K.L.M.M.M.M.c.M.M.M.M.M.M.M.M.M.M.M.m.m.m.S.K.K.K.L.S.S.m.m.m.M.M.M.M.M.M.c.M.M.M.M.M.M.M.m.m.m.S.S.L.K.K.K.B.m.m.m.M.M.M.M.M.M.M.M.k k j l l j k k M.M.M.c.M.M.M.M.c.c.M.M.M.M.M.M.` ` ` ` ` ` ` ` g g h h h h h h l g l l k k ;.,.` k k k j l g g h h h h h h g g ` ` ` k ` ` ` ` M.M.M.M.c.c.M.M.` k k k k l l l l k k c.M.M.c.,.m.B.K.K.K.K.B.m.M.M.m.m.m.m.B.B.m.m.M.c.k h h g h j c.m.K.L.L.L.c.c.M.M.M.M.M.M.M.M.M.c.M.M.M.M.M.M.m.m.m.m.m.m.` ` ` #.` ` ` ` k k k k k k k k ` ,.c.c.M.M.m.m.m.m.m.m.m.m.M.M.M.M.M.M.M.M.M.w.u.s.f.f.JXZXd.",
"0.z.UXi.p.ZXg.u.6.;.<.] ' O.+.+.q.M.M.M.M.c.c.M.K.K.K.K.K.K.K.K.O.k k k O.O.q.q.O.O.O.O.q.q.k k k k k k O.O.O.O.m.m.m.m.m.m.m.m.m.m.m.m.m.m.m.m.m.m.m.m.m.m.m.m.K.K.K.K.K.K.K.K.L.L.L.L.L.L.L.L.k O.k O.O.O.O.O.m.m.m.m.m.m.m.m.m.m.m.m.m.m.m.m.m.m.m.m.m.m.m.m.L.L.L.L.L.L.L.L.L.L.L.L.L.L.L.L.L.L.L.L.L.L.L.L.L.L.L.L.L.L.L.L.m.m.m.m.m.m.m.m.m.m.m.m.m.m.m.m.K.K.K.K.K.K.K.K.m.m.m.m.m.m.m.m.m.m.m.m.m.m.m.m.K.K.K.K.K.K.K.K.K.K.K.K.K.K.K.K.m.m.m.m.m.m.m.m.k k k k O.O.O.O.m.m.m.m.m.m.m.m.m.m.m.m.m.m.m.m.c.c.c.c.M.M.M.M.k k k k O.O.O.O.q.q.k O.O.O.O.O.O.O.O.O.O.O.O.O.q.q.O.O.O.O.O.O.O.k O.O.k O.O.k M.M.M.M.M.M.c.M.k k k k O.O.O.O.O.O.k k k O.O.O.K.K.K.K.K.K.K.K.m.m.m.m.m.m.m.m.k k O.O.O.O.q.q.K.K.K.K.K.K.K.K.m.m.m.m.m.m.m.m.m.m.m.m.m.m.m.m.m.m.m.m.m.m.m.m.c.c.c.c.M.M.M.M.k O.O.O.O.O.O.O.M.M.M.M.M.M.M.M.m.m.m.m.m.m.m.m.m.m.m.m.m.m.m.w.a.f.f.f.f.d.d.",
"0.z.UXi.p.ZXg.u.w.m.B.V.B.M.q.w.C.m.m.m.m.m.m.m.G.G.G.G.G.G.G.G.n.n.m.n.m.m.n.m.m.m.m.m.m.m.n.n.n.n.n.n.m.m.m.n.m.m.m.m.n.n.n.n.m.m.m.n.n.n.m.m.m.n.n.n.m.m.m.m.G.G.G.G.G.G.G.G.L.L.K.K.K.K.L.L.n.n.m.m.n.n.m.m.m.m.m.m.m.m.n.n.m.m.m.m.m.m.n.n.n.n.n.n.m.m.n.n.L.L.L.L.L.L.L.K.K.K.K.K.L.L.L.K.L.L.K.K.L.L.L.K.K.K.K.K.L.L.L.K.m.m.m.m.n.n.n.n.m.m.m.n.n.n.m.m.G.G.G.G.G.G.G.G.m.m.m.m.n.n.n.n.m.m.m.n.n.n.m.m.G.G.G.G.G.G.G.G.G.G.G.G.G.G.G.G.m.m.m.n.n.n.m.m.n.n.m.n.n.n.m.m.m.m.m.m.m.m.n.n.m.m.m.m.m.m.n.n.m.m.m.m.m.m.m.m.n.n.n.m.n.n.m.m.m.m.n.n.n.n.m.m.n.n.n.n.n.n.m.m.m.m.m.n.n.n.m.m.n.n.n.n.n.n.n.n.m.m.m.m.m.m.m.m.n.n.n.n.m.m.m.n.n.n.m.n.m.m.n.m.G.G.G.G.G.G.G.G.m.n.n.n.m.m.m.m.n.n.n.n.m.m.m.m.G.G.G.G.G.G.G.G.m.m.m.m.m.m.n.n.n.n.n.n.m.m.n.n.m.m.m.m.m.m.n.n.m.m.m.m.m.m.m.m.n.m.n.n.n.n.m.m.m.m.m.m.m.m.m.m.m.n.m.m.m.m.n.m.n.n.m.n.m.m.m.w.a.f.f.f.f.d.d.",
"0.z.UXi.p.ZXFXu.J.L.I.I.L.K.Y.H.H.H.H.H.H.H.H.H.G.G.G.G.G.G.G.G.K.K.K.K.L.K.L.L.K.K.K.K.L.L.K.L.K.K.L.L.K.L.K.K.m.m.m.m.m.m.n.n.m.m.m.m.n.n.n.m.m.m.n.n.m.m.m.m.G.G.G.G.G.G.G.G.L.L.L.L.K.K.K.K.L.L.K.K.K.K.K.K.m.n.m.m.m.m.m.m.m.m.m.m.m.m.m.m.m.m.n.m.m.m.m.m.K.K.K.K.L.L.L.L.H.H.K.K.L.L.L.L.K.K.K.K.L.L.L.L.H.H.K.K.L.L.L.L.m.m.m.m.m.m.n.n.m.m.m.m.n.n.n.m.G.G.G.G.G.G.G.G.m.m.m.m.m.m.n.n.m.m.m.m.n.n.n.m.G.G.G.G.G.G.G.G.G.G.G.G.G.G.G.G.m.m.m.m.n.n.n.m.K.K.K.K.K.K.K.K.m.n.m.m.m.m.m.m.m.m.m.m.m.m.m.m.H.H.H.H.H.H.H.H.K.K.K.K.K.K.K.K.K.K.L.L.K.K.K.K.L.L.K.K.K.K.K.K.K.K.L.L.K.K.K.K.K.K.K.L.L.L.K.K.H.H.H.H.H.H.H.H.K.K.L.L.K.L.K.K.K.K.K.K.L.L.L.L.G.G.G.G.G.G.G.G.m.m.n.n.m.m.m.m.K.K.K.K.L.L.L.L.G.G.G.G.G.G.G.G.m.m.m.m.m.m.m.m.m.m.n.m.m.m.m.m.n.m.m.m.m.n.m.m.H.H.H.H.H.H.H.H.K.K.K.K.K.K.K.K.H.H.K.H.H.H.H.H.m.m.m.m.m.n.m.m.m.m.n.n.m.m.m.w.a.f.f.f.f.d.d.",
"0.z.UXi.p.ZXFXu.W.L.I.I.I.L.Y.Y.F.H.H.H.H.H.H.H.G.G.G.G.G.G.G.G.H.H.H.Y.H.H.W.W.Y.Y.H.H.L.W.L.L.H.H.L.W.W.W.Y.H.C.G.G.G.G.F.F.F.G.G.G.G.F.F.F.G.G.G.F.F.F.F.G.G.G.G.G.G.G.G.G.G.H.H.H.H.H.H.H.H.W.Y.H.H.H.Y.H.H.G.G.G.G.G.G.G.C.G.G.G.G.G.G.G.C.G.G.G.G.G.G.G.G.H.H.H.K.H.H.H.H.H.H.H.H.H.H.H.H.H.H.H.H.H.H.H.H.H.H.H.H.H.H.H.H.G.G.G.G.G.F.F.F.G.G.G.G.F.F.F.G.G.G.G.G.G.G.G.G.G.G.G.G.G.F.F.F.G.G.G.G.F.F.F.G.G.G.G.G.G.G.G.G.G.G.G.G.G.G.G.G.G.G.G.G.F.F.F.G.W.Y.Y.Y.H.Y.H.H.G.G.G.G.G.G.G.C.G.G.G.G.G.G.G.C.J.H.H.H.H.H.H.H.Y.H.H.H.H.Y.H.Y.H.L.L.L.H.Y.Y.Y.L.W.W.L.H.Y.H.H.H.L.L.L.H.Y.H.Y.Y.Y.W.W.L.L.L.H.H.H.H.H.H.H.J.H.H.H.L.W.W.W.Y.H.H.H.H.H.W.W.W.W.G.G.G.G.G.G.G.G.G.G.F.F.F.F.G.G.H.H.H.H.L.L.L.W.G.G.G.G.G.G.G.G.G.G.G.G.G.G.G.C.G.G.G.G.G.G.G.G.F.G.G.G.G.G.G.C.H.H.H.H.H.H.H.H.L.H.H.H.H.Y.H.Y.H.H.H.G.H.H.H.H.G.G.G.G.G.G.G.C.G.G.G.G.G.G.G.r.a.f.f.f.f.d.d.",
"0.z.UXi.p.ZXFXu.J.L.I.I.D.K.H.H.F.C.C.C.C.C.C.C.F.F.F.F.F.F.G.G.J.J.J.J.J.H.J.J.J.J.J.J.J.J.J.J.J.J.H.H.J.J.J.J.G.G.H.G.H.H.H.H.H.H.G.G.G.H.H.G.H.H.H.H.G.G.G.G.G.F.F.F.F.F.F.F.H.H.H.H.H.H.H.H.H.H.J.J.J.J.H.H.F.F.H.H.H.H.F.G.F.F.H.H.H.H.F.G.H.H.F.G.G.H.H.H.H.H.H.H.H.H.H.H.H.H.H.H.H.H.H.H.H.H.H.H.H.H.H.H.H.H.H.H.H.H.H.H.G.G.H.G.H.H.H.H.H.G.G.H.G.G.G.G.F.F.F.F.F.F.F.F.G.G.H.G.H.H.H.H.H.G.G.H.G.G.G.G.F.F.F.F.F.F.F.G.G.F.F.F.F.F.F.F.H.G.G.H.G.G.G.G.J.J.J.J.H.J.H.J.F.F.H.H.H.H.F.G.F.F.H.H.H.H.F.G.C.C.n.n.C.C.C.C.H.H.J.J.J.J.H.H.J.J.H.H.J.J.J.J.H.H.J.J.J.J.H.H.J.J.H.H.J.J.J.J.J.J.J.J.H.H.J.H.C.C.C.C.C.C.C.C.J.J.H.H.J.J.J.J.J.J.J.J.J.J.J.J.F.F.F.F.F.F.F.F.H.H.H.H.H.G.H.G.J.J.J.J.J.J.J.J.F.F.F.F.F.F.F.F.F.F.H.H.H.H.F.G.H.H.F.G.G.H.H.H.F.F.H.G.H.H.G.G.C.C.n.n.C.C.C.C.H.H.J.J.J.J.H.H.C.F.n.n.C.C.C.C.F.F.H.H.H.H.F.G.H.H.F.G.G.H.H.r.a.f.f.f.f.d.d.",
"0.z.UXi.p.ZXFXu.w.S.D.D.Z.G.w.w.w.C.C.C.F.F.C.C.F.F.F.F.F.F.F.F.F.F.F.F.F.F.F.F.F.F.F.F.F.F.F.F.F.F.F.F.F.F.F.F.J.J.J.H.J.J.J.J.J.J.J.J.J.J.J.H.J.J.J.J.J.J.J.J.F.F.F.F.F.F.F.F.H.H.H.H.H.H.H.H.F.F.F.F.F.F.F.F.J.J.J.J.J.J.H.H.J.J.J.J.J.J.H.H.J.J.J.J.J.J.J.J.H.H.H.H.H.H.H.H.H.H.H.H.H.H.H.H.H.H.H.H.H.H.H.H.H.H.H.H.H.H.H.H.J.J.J.H.J.J.J.J.J.J.J.J.J.J.J.J.F.F.F.F.F.F.F.F.J.J.J.H.J.J.J.J.J.J.J.J.J.J.J.J.F.F.F.F.F.F.F.F.F.F.F.F.F.F.F.F.J.J.J.J.J.J.J.H.F.F.F.F.F.F.F.F.J.J.J.J.J.J.H.H.J.J.J.J.J.J.H.H.F.F.C.C.F.F.F.F.F.F.F.F.F.F.F.F.F.F.F.F.F.F.F.F.F.F.F.F.F.F.F.F.F.F.F.F.F.F.F.F.F.F.F.F.F.F.F.F.F.C.F.F.F.F.F.F.F.F.F.F.F.F.F.F.F.F.F.F.F.F.C.C.F.F.F.F.F.F.F.F.J.J.J.J.J.J.J.J.F.F.F.F.F.F.F.F.F.F.F.F.F.F.F.F.J.J.J.J.J.J.H.H.J.J.J.J.J.J.J.J.J.J.J.J.J.J.H.H.F.F.C.C.F.F.F.F.F.F.F.F.F.F.F.F.C.C.C.C.F.F.F.F.J.J.J.J.J.J.H.H.J.J.J.J.J.J.J.r.a.f.f.f.f.d.d.",
"0.z.UXi.p.ZXFXu.r.S.D.D.D.Z.F.w.H.J.J.J.H.H.H.J.F.F.F.F.F.F.F.F.F.F.F.F.F.F.F.F.F.F.F.F.F.F.F.F.F.F.F.F.F.F.F.F.H.H.H.H.H.H.H.H.H.H.H.H.H.H.H.H.H.H.H.H.H.H.H.H.F.F.F.F.F.F.F.F.H.H.H.H.H.H.H.H.F.F.F.F.F.F.F.F.H.H.H.H.H.H.H.H.H.H.H.H.H.H.H.H.H.H.H.H.H.H.H.H.H.H.H.H.H.H.H.H.H.H.H.H.H.H.H.H.H.H.H.H.H.H.H.H.H.H.H.H.H.H.H.H.H.H.H.H.H.H.H.H.H.H.H.H.H.H.H.H.F.F.F.F.F.F.F.F.H.H.H.H.H.H.H.H.H.H.H.H.H.H.H.H.F.F.F.F.F.F.F.F.F.F.F.F.F.F.F.F.H.H.H.H.H.H.J.J.F.F.F.F.F.F.F.F.H.H.H.H.H.H.H.H.H.H.H.H.H.H.H.H.H.J.J.J.H.H.H.J.F.F.J.F.F.F.F.F.F.F.F.F.F.F.F.F.F.F.F.F.F.F.F.F.F.F.F.F.F.F.F.F.F.F.F.F.F.F.F.F.J.J.J.J.H.H.H.H.F.F.F.F.F.F.F.F.F.F.F.F.F.F.F.F.F.F.F.F.F.F.F.F.H.H.H.H.H.H.H.H.F.F.F.F.F.F.F.F.F.F.F.F.F.F.F.F.H.H.H.H.H.H.H.H.H.H.H.H.H.H.H.H.H.H.H.H.H.H.H.H.H.J.J.J.H.H.H.J.F.F.F.F.F.F.F.F.J.J.J.J.H.H.H.J.H.H.H.H.H.H.H.H.H.H.H.H.H.H.H.r.a.f.f.f.f.d.d.",
"9.h.PXd.p.SXZXa.l.r.J.T.J.r.r.r.r.r.r.r.r.r.r.r.t.t.t.t.t.t.t.t.r.r.r.r.r.r.r.r.r.r.r.r.r.r.r.r.r.r.r.r.r.r.r.r.r.r.r.r.r.r.r.r.r.r.r.r.r.r.r.r.r.r.r.r.r.r.r.r.t.t.t.t.t.t.t.t.r.r.r.r.r.r.r.r.r.r.r.r.r.r.r.r.r.r.r.r.r.r.r.r.r.r.r.r.r.r.r.r.r.r.r.r.r.r.r.r.r.r.r.r.r.r.r.r.r.r.r.r.r.r.r.r.r.r.r.r.r.r.r.r.r.r.r.r.r.r.r.r.r.r.r.r.r.r.r.r.r.r.r.r.r.r.r.r.t.t.t.t.t.t.t.t.r.r.r.r.r.r.r.r.r.r.r.r.r.r.r.r.t.t.t.t.t.t.t.t.t.t.t.t.t.t.t.t.r.r.r.r.r.r.r.r.r.r.r.r.r.r.r.r.r.r.r.r.r.r.r.r.r.r.r.r.r.r.r.r.r.r.r.r.r.r.r.r.r.r.r.r.r.r.r.r.r.r.r.r.r.r.r.r.r.r.r.r.r.r.r.r.r.r.r.r.r.r.r.r.r.r.r.r.r.r.r.r.r.r.r.r.r.r.r.r.r.r.r.r.r.r.r.r.r.r.r.r.r.r.r.r.t.t.t.t.t.t.t.t.r.r.r.r.r.r.r.r.r.r.r.r.r.r.r.r.t.t.t.t.t.t.t.t.r.r.r.r.r.r.r.r.r.r.r.r.r.r.r.r.r.r.r.r.r.r.r.r.r.r.r.r.r.r.r.r.r.r.r.r.r.r.r.r.r.r.r.r.r.r.r.r.r.r.r.r.r.r.r.r.r.r.r.r.r.r.r.k.a.f.f.d.d.d.d.",
"9.CXIXCXd.SXSXs.PXPXKXKXHXHXPXPXDXDXDXDXDXDXDXDXDXDXDXDXDXDXDXDXDXDXDXDXDXDXDXDXDXDXDXDXDXDXDXDXDXDXDXDXDXDXDXDXDXDXDXDXDXDXDXDXDXDXDXDXDXDXDXDXDXDXDXDXDXDXDXDXDXDXDXDXDXDXDXDXDXDXDXDXDXDXDXDXDXDXDXDXDXDXDXDXDXDXDXDXDXDXDXDXDXDXDXDXDXDXDXDXDXDXDXDXDXDXDXDXDXDXDXDXDXDXDXDXDXDXDXDXDXDXDXDXDXDXDXDXDXDXDXDXDXDXDXDXDXDXDXDXDXDXDXDXDXDXDXDXDXDXDXDXDXDXDXDXDXDXDXDXDXDXDXDXDXDXDXDXDXDXDXDXDXDXDXDXDXDXDXDXDXDXDXDXDXDXDXDXDXDXDXDXDXDXDXDXDXDXDXDXDXDXDXDXDXDXDXDXDXDXDXDXDXDXDXDXDXDXDXDXDXDXDXDXDXDXDXDXDXDXDXDXDXDXDXDXDXDXDXDXDXDXDXDXDXDXDXDXDXDXDXDXDXDXDXDXDXDXDXDXDXDXDXDXDXDXDXDXDXDXDXDXDXDXDXDXZXZXZXZXZXZXZXZXDXDXDXDXDXDXDXDXZXZXZXZXZXZXZXZXZXZXZXZXZXZXZXZXZXZXZXZXZXZXZXZXZXZXZXZXZXZXZXZXZXZXZXZXZXZXZXZXZXZXZXZXZXZXZXZXZXZXZXZXZXZXZXZXZXZXZXZXZXZXZXZXZXZXZXZXZXZXZXZXZXZXZXZXZXZXZXZXZXZXZXZXZXZXZXZXZXZXZXZXZXZXZXZXZXZXZXVXZXZXZXZXd.d.d.d.d.d.d.",
"e.CXIXAXd.LXLXd.LXLXLXLXJXJXJXLXAXAXAXAXAXAXAXAXAXAXAXAXAXAXAXAXAXAXAXAXAXAXAXAXAXAXAXAXAXAXAXAXAXAXAXAXAXAXAXAXAXAXAXAXAXAXAXAXAXAXAXAXAXAXAXAXAXAXAXAXAXAXAXAXAXAXAXAXAXAXAXAXAXAXAXAXAXAXAXAXAXAXAXAXAXAXAXAXAXAXAXAXAXAXAXAXAXAXAXAXAXAXAXAXAXAXAXAXAXAXAXAXAXAXAXAXAXAXAXAXAXAXAXAXAXAXAXAXAXAXAXAXAXAXAXAXAXAXAXAXAXAXAXAXAXAXAXAXAXAXAXAXAXAXAXAXAXAXAXAXAXAXAXAXAXAXAXAXAXAXAXAXAXAXAXAXAXAXAXAXAXAXAXAXAXAXAXAXAXAXAXAXAXAXAXAXAXAXAXAXAXAXAXAXAXAXAXAXAXAXAXAXAXAXAXAXAXAXAXAXAXAXAXAXAXAXAXAXAXAXAXAXAXAXAXAXAXAXAXAXAXAXAXAXAXAXAXAXAXAXAXAXAXAXAXAXAXAXAXAXAXAXAXAXAXAXAXAXAXAXAXAXAXAXAXAXAXAXAXAXCXCXCXCXCXCXCXCXAXAXAXAXAXAXAXAXCXCXCXCXCXCXCXCXCXCXCXCXCXCXCXCXCXCXCXCXCXCXCXCXCXCXCXCXCXCXCXCXCXCXCXCXCXCXCXCXCXCXCXCXCXCXCXCXCXCXCXCXCXCXCXCXCXCXCXCXCXCXCXCXCXCXCXCXCXCXCXCXCXCXCXCXCXCXCXCXCXCXCXCXCXCXCXCXCXCXCXCXCXCXCXCXCXCXCXCXCXCXCXCXd.d.d.d.d.d.d.",
"e.CXIXCXp.LXLXs.d.d.f.JXJXJXJXf.d.VXd.CXCXCXCXCXVXVXd.CXCXCXCXCXCXCXCXCXCXCXCXCXCXCXCXCXCXCXCXCXCXCXCXCXCXCXCXCXCXCXCXCXCXCXCXCXCXCXCXCXCXCXCXCXCXCXCXCXCXCXCXCXCXCXCXCXCXCXCXCXCXCXCXCXCXCXCXCXVXVXd.CXCXCXCXCXVXVXd.CXCXCXCXCXVXVXd.CXCXCXCXCXVXVXd.CXCXCXCXCXVXVXd.CXCXCXCXCXVXVXd.CXCXCXCXCXVXVXd.CXCXCXCXCXVXVXd.CXCXCXCXCXCXCXCXCXCXCXCXCXCXCXCXCXCXCXCXCXCXCXCXCXCXCXCXCXCXCXCXCXCXCXCXCXCXCXCXCXCXCXCXCXCXCXCXCXCXCXCXCXCXCXCXCXCXCXCXCXCXCXCXCXCXCXCXCXVXVXd.CXCXCXCXCXVXVXd.CXCXCXCXCXVXVXd.CXCXCXCXCXVXVXd.CXCXCXCXCXVXVXd.CXCXCXCXCXVXVXd.CXCXCXCXCXVXVXd.CXCXCXCXCXVXVXd.CXCXCXCXCXCXCXCXCXCXCXCXCXCXCXCXCXCXCXCXCXVXVXCXCXCXCXCXCXCXCXCXCXCXCXCXCXCXCXCXCXCXCXCXCXCXCXCXCXCXCXCXCXCXCXCXCXCXCXCXCXCXCXCXCXCXCXCXCXCXCXCXCXCXCXCXCXCXCXCXCXCXCXCXCXCXCXCXCXCXCXCXCXCXCXCXCXCXCXCXCXCXCXCXCXCXCXCXCXCXCXCXCXCXCXCXCXCXCXCXCXCXCXCXCXCXCXCXCXCXCXCXCXd.d.d.d.d.d.d.",
"9.d.IXSXd.ZXPXs.f.f.f.h.h.h.h.h.i.i.i.i.i.i.i.i.i.i.i.i.i.i.i.i.i.i.i.i.i.i.i.i.i.i.i.i.i.i.i.i.i.i.i.i.i.i.i.i.i.i.i.i.i.i.i.i.i.i.i.i.i.i.i.i.i.i.i.i.i.i.i.i.i.i.i.i.i.i.i.i.i.i.i.i.i.i.i.i.i.i.i.i.i.i.i.i.i.i.i.i.i.i.i.i.i.i.i.i.i.i.i.i.i.i.i.i.i.i.i.i.i.i.i.i.i.i.i.i.i.i.i.i.i.i.i.i.i.i.i.i.i.i.i.i.i.i.i.i.i.i.i.i.i.i.i.i.i.i.i.i.i.i.i.i.i.i.i.i.i.i.i.i.i.i.i.i.i.i.i.i.i.i.i.i.i.i.i.i.i.i.i.i.i.i.i.i.i.i.i.i.i.i.i.i.i.i.i.i.i.i.i.i.i.i.i.i.i.i.i.i.i.i.i.i.i.i.i.i.i.i.i.i.i.i.i.i.i.i.i.i.i.i.i.i.i.i.i.i.i.i.i.i.i.i.i.i.i.i.i.i.i.i.i.i.i.i.i.i.i.i.i.i.i.i.i.i.i.i.i.i.i.i.i.i.i.i.i.i.ZXZXZXZXZXZXZXZXi.i.i.i.i.i.i.i.ZXZXZXZXZXZXZXZXZXZXZXZXZXZXZXZXZXZXZXZXZXZXZXZXZXZXZXZXZXZXZXZXZXZXZXZXZXZXZXZXZXZXZXZXZXZXZXZXZXZXZXZXZXZXZXZXZXZXZXZXZXZXZXZXZXZXZXZXZXZXZXZXZXZXZXZXZXZXZXZXZXZXZXZXZXZXZXZXZXZXZXZXZXZXZXZXZXZXZXZXZXZXZXZXd.d.d.d.d.d.d.",
"9.f.PXf.s.h.HXj.h.h.h.h.z.z.z.z.a.a.a.a.a.a.a.a.a.a.a.a.a.a.a.a.a.a.a.a.a.a.a.a.a.a.a.a.a.a.a.a.a.a.a.a.a.a.a.a.a.a.a.a.a.a.a.a.a.a.a.a.a.a.a.a.a.a.a.a.a.a.a.a.a.a.a.a.a.a.a.a.a.a.a.a.a.a.a.a.a.a.a.a.a.a.a.a.a.a.a.a.a.a.a.a.a.a.a.a.a.a.a.a.a.a.a.a.a.a.a.a.a.a.a.a.a.a.a.a.a.a.a.a.a.a.a.a.a.a.a.a.a.a.a.a.a.a.a.a.a.a.a.a.a.a.a.a.a.a.a.a.a.a.a.a.a.a.a.a.a.a.a.a.a.a.a.a.a.a.a.a.a.a.a.a.a.a.a.a.a.a.a.a.a.a.a.a.a.a.a.a.a.a.a.a.a.a.a.a.a.a.a.a.a.a.a.a.a.a.a.a.a.a.a.a.a.a.a.a.a.a.a.a.a.a.a.a.a.a.a.a.a.a.a.a.a.a.a.a.a.a.a.a.a.a.a.a.a.a.a.a.a.a.a.a.a.a.a.a.a.a.a.a.a.a.a.a.a.a.a.a.a.a.a.a.a.a.a.a.g.g.g.g.g.g.g.g.a.a.a.a.a.a.a.a.g.g.g.g.g.g.g.g.g.g.g.g.g.g.g.g.g.g.g.g.g.g.g.g.g.g.g.g.g.g.g.g.g.g.g.g.g.g.g.g.g.g.g.g.g.g.g.g.g.g.g.g.g.g.g.g.g.g.g.g.g.g.g.g.g.g.g.g.g.g.g.g.g.g.g.g.g.g.g.g.g.g.g.g.g.g.g.g.g.g.g.g.g.g.g.g.g.g.g.g.g.g.g.g.d.d.d.d.d.d.d.",
"9.h.UXh.j.HXKXj.j.u.l.l.l.l.l.l.k.u.u.u.u.u.u.u.u.u.u.u.u.u.u.u.u.u.u.u.u.u.u.u.u.u.u.u.u.u.u.u.u.u.u.u.u.u.u.u.u.u.u.u.u.u.u.u.u.u.u.u.u.u.u.u.u.u.u.u.u.u.u.u.u.u.u.u.u.u.u.u.u.u.u.u.u.u.u.u.u.u.u.u.u.u.u.u.u.u.u.u.u.u.u.u.u.u.u.u.u.u.u.u.u.u.u.u.u.u.u.u.u.u.u.u.u.u.u.u.u.u.u.u.u.u.u.u.u.u.u.u.u.u.u.u.u.u.u.u.u.u.u.u.u.u.u.u.u.u.u.u.u.u.u.u.u.u.u.u.u.u.u.u.u.u.u.u.u.u.u.u.u.u.u.u.u.u.u.u.u.u.u.u.u.u.u.u.u.u.u.u.u.u.u.u.u.u.u.u.u.u.u.u.u.u.u.u.u.u.u.u.u.u.u.u.u.u.u.u.u.u.u.u.u.u.u.u.u.u.u.u.u.u.u.u.u.u.u.u.u.u.u.u.u.u.u.u.u.u.u.u.u.u.u.u.u.u.u.u.u.u.u.u.u.u.u.u.u.u.u.u.u.u.u.u.u.u.u.u.k.k.k.k.k.k.k.k.u.u.u.u.u.u.u.u.k.k.k.k.k.k.k.k.k.k.k.k.k.k.k.k.k.k.k.k.k.k.k.k.k.k.k.k.k.k.k.k.k.k.k.k.k.k.k.k.k.k.k.k.k.k.k.k.k.k.k.k.k.k.k.k.k.k.k.k.k.k.k.k.k.k.k.k.k.k.k.k.k.k.k.k.k.k.k.k.k.k.k.k.k.k.k.k.k.k.k.k.k.k.k.k.k.k.k.k.k.k.k.a.f.d.d.d.d.d.d.",
"9.h.UXh.j.KXz.l.8.8.8.7.7.7.7.7.7.7.7.7.7.7.7.7.7.7.7.7.7.7.7.7.7.7.7.7.7.7.5.7.7.7.7.7.7.7.7.7.7.7.7.7.7.7.7.7.7.7.7.7.7.7.5.7.7.7.7.7.7.7.7.7.7.7.7.7.7.7.7.7.7.7.7.7.7.7.5.7.7.7.7.7.7.7.7.7.7.7.7.7.7.7.7.7.7.7.7.7.7.7.7.7.7.7.7.7.7.7.7.7.7.7.7.7.7.7.7.7.7.7.7.7.7.7.7.7.7.7.7.7.7.7.7.7.7.7.7.7.7.7.7.7.7.7.7.7.7.7.7.7.7.7.7.7.7.7.5.7.7.7.7.7.7.7.7.7.7.7.7.7.7.7.7.7.7.7.7.7.7.7.5.7.7.7.7.7.7.7.7.7.7.7.7.7.7.7.7.7.7.7.7.7.7.7.5.7.7.7.7.7.7.7.7.7.7.7.7.7.7.7.7.7.7.7.7.7.7.7.7.7.7.7.7.7.7.7.7.7.7.7.7.7.7.7.7.7.7.7.7.7.7.7.7.7.7.7.7.7.7.7.7.7.7.7.7.7.7.7.7.7.7.7.7.7.7.7.7.7.7.7.7.7.7.7.5.7.5.5.5.5.5.5.5.5.7.7.7.7.7.7.7.7.5.5.5.5.5.5.5.5.5.5.5.5.5.5.5.5.5.5.5.5.5.5.5.5.5.5.5.5.5.5.5.5.5.5.5.5.5.5.5.5.5.5.5.5.5.5.5.5.5.5.5.5.5.5.5.5.5.5.5.5.5.5.5.5.5.5.5.5.5.5.5.5.5.5.5.5.5.5.5.5.5.5.5.5.5.5.5.5.5.5.5.5.5.5.5.5.5.5.5.5.5.5.5.0.i.d.d.d.d.d.d."
};
