/* XPM */
static char *_42cc8ab09b448f1a2f8b81251971f074EowrmVfYGcpuPQ9[] = {
/* columns rows colors chars-per-pixel */
"423 423 256 2 ",
"   c #2C1302",
".  c #281900",
"X  c #2D1A0B",
"o  c #251802",
"O  c #341901",
"+  c #371C01",
"@  c #251B12",
"#  c #2A1E14",
"$  c #250C00",
"%  c #032800",
"&  c #14300C",
"*  c #272401",
"=  c #242901",
"-  c #282A09",
";  c #38210F",
":  c #392807",
">  c #362416",
",  c #392413",
"<  c #312318",
"1  c #3E2B1C",
"2  c #3D2C12",
"3  c #393D16",
"4  c #3D3A16",
"5  c #2F360E",
"6  c #123D21",
"7  c #18302E",
"8  c #2A2F29",
"9  c #232D24",
"0  c #293028",
"q  c #2C3522",
"w  c #3F392B",
"e  c #373B26",
"r  c #213936",
"t  c #293436",
"y  c #333133",
"u  c #131C0C",
"i  c #40240C",
"p  c #412B0E",
"a  c #492A0D",
"s  c #472B06",
"d  c #5B2E07",
"f  c #5A2E09",
"g  c #512A02",
"h  c #423105",
"j  c #423608",
"k  c #4A350B",
"l  c #453B0D",
"z  c #4A3A0E",
"x  c #4C3706",
"c  c #52360E",
"v  c #5C320E",
"b  c #5E3B0E",
"n  c #553609",
"m  c #4E2E15",
"M  c #442F10",
"N  c #502E13",
"B  c #5B2E16",
"V  c #453213",
"C  c #4A3515",
"Z  c #453C16",
"A  c #4B3B13",
"S  c #443419",
"D  c #4C3718",
"F  c #423D18",
"G  c #4C391A",
"H  c #533415",
"J  c #5C3415",
"K  c #543B12",
"L  c #5C3C15",
"P  c #553419",
"I  c #5A371C",
"U  c #523C1D",
"Y  c #5C3A1C",
"T  c #603311",
"R  c #633C16",
"E  c #633D19",
"W  c #693B1A",
"Q  c #69390F",
"!  c #463622",
"~  c #4D3E26",
"^  c #41392B",
"/  c #483823",
"(  c #543D23",
")  c #5E3D21",
"_  c #553C28",
"`  c #5B3828",
"'  c #4B3F33",
"]  c #623E23",
"[  c #6A3B27",
"{  c #703D29",
"}  c #431E01",
"|  c #0B4417",
" . c #3C4111",
".. c #124D37",
"X. c #284927",
"o. c #364429",
"O. c #324F31",
"+. c #2A6A39",
"@. c #4D4114",
"#. c #43431D",
"$. c #4D411B",
"%. c #474816",
"&. c #524216",
"*. c #55451A",
"=. c #5C431B",
"-. c #594B1E",
";. c #574619",
":. c #52460B",
">. c #63431C",
",. c #6D411D",
"<. c #684918",
"1. c #714018",
"2. c #764A19",
"3. c #7C521F",
"4. c #6A4B14",
"5. c #4D4723",
"6. c #484827",
"7. c #554122",
"8. c #5A4323",
"9. c #5C4628",
"0. c #5E492A",
"q. c #584B26",
"w. c #59493D",
"e. c #4E5131",
"r. c #654423",
"t. c #6E4420",
"y. c #634C23",
"u. c #6C4B24",
"i. c #65452A",
"p. c #6B462C",
"a. c #634C2D",
"s. c #6C4B2C",
"d. c #744523",
"f. c #744925",
"g. c #73442D",
"h. c #754D2B",
"j. c #7A4E2B",
"k. c #784627",
"l. c #6D5429",
"z. c #655328",
"x. c #72522B",
"c. c #7D522E",
"v. c #775223",
"b. c #6D4C31",
"n. c #654733",
"m. c #7D4632",
"M. c #734E34",
"N. c #7B4A34",
"B. c #764731",
"V. c #665132",
"C. c #6B5333",
"Z. c #725135",
"A. c #7E5235",
"S. c #7D5B35",
"D. c #765639",
"F. c #7E6139",
"G. c #7C6833",
"H. c #706232",
"J. c #546236",
"K. c #185948",
"L. c #10504C",
"P. c #2B4C42",
"I. c #375648",
"U. c #245051",
"Y. c #295E58",
"T. c #2F5348",
"R. c #19625A",
"E. c #156750",
"W. c #27685A",
"Q. c #35655C",
"!. c #32644E",
"~. c #00696A",
"^. c #0E6A68",
"/. c #01726D",
"(. c #17796A",
"). c #007573",
"_. c #067D79",
"`. c #177A7A",
"'. c #186D6B",
"]. c #276B6E",
"[. c #2D6665",
"{. c #26776D",
"}. c #267775",
"|. c #2C6E72",
" X c #1C5861",
".X c #495450",
"XX c #4D5650",
"oX c #6E684D",
"OX c #615C52",
"+X c #203749",
"@X c #94511C",
"#X c #824A2B",
"$X c #85592A",
"%X c #895D2D",
"&X c #865728",
"*X c #945A2A",
"=X c #854D38",
"-X c #855633",
";X c #8C5434",
":X c #855A36",
">X c #845C3B",
",X c #8B5C3A",
"<X c #8B5A35",
"1X c #935539",
"2X c #925B3C",
"3X c #965739",
"4X c #924C32",
"5X c #90612D",
"6X c #84643E",
"7X c #8D613E",
"8X c #886033",
"9X c #926434",
"0X c #92633E",
"qX c #976B3A",
"wX c #8E602D",
"eX c #825F43",
"rX c #8C5E41",
"tX c #9B5C42",
"yX c #886744",
"uX c #9A6545",
"iX c #946845",
"pX c #976A4B",
"aX c #956443",
"sX c #966951",
"dX c #8E704A",
"fX c #A26145",
"gX c #A05F43",
"hX c #01857B",
"jX c #008979",
"kX c #018375",
"lX c #088772",
"zX c #0D825D",
"xX c #007D83",
"cX c #0D7E82",
"vX c #087A8B",
"bX c #167785",
"nX c #057B95",
"mX c #107391",
"MX c #207A80",
"NX c #237987",
"BX c #346E81",
"VX c #0E8181",
"CX c #008D81",
"ZX c #008388",
"AX c #06838E",
"SX c #008B88",
"DX c #028484",
"FX c #1B8789",
"GX c #1D8B8C",
"HX c #028299",
"JX c #019288",
"KX c #30ADA9",
"LX c #58C1C4",
"PX c #5DC6C9",
"IX c #4FC6C4",
"UX c #41B9B7",
/* pixels */
"_._.kXjXjXjXJXJXxXvXmXvXxXZXSXSXSXZXZXZXZXZXZXZXZXZXZXZXZXZXZXZXZXZXZXZXZXZXZXZXZXZXZXZXZXZXZXZXZXZXZXZXZXZXZXZXZXZXZXZXZXZXZXZXZXZXZXZXZXZXZXZXZXZXZXZXZXZXZXZXZXZXZXZXZXZXZXZXZXZXZXZXZXZXZXZXZXZXZXZXZXZXZXZXZXZXZXZXZXZXZXZXZXZXZXZXZXZXZXZXZXZXZXZXZXZXZXZXZXZXZXZXZXZXZXZXZXZXZXZXZXZXZXZXZXZXZXZXZXZXZXZXZXZXZXZXZXZXZXZXZXZXZXZXZXZXZXZXZXZXZXZXZXZXZXZXZXZXZXZXZXZXZXZXZXZXZXZXZXZXZXZXZXZXZXZXZXZXZXZXZXZXZXZXZXZXZXZXZXZXZXZXZXZXZXZXZXZXZXZXZXZXZXZXZXZXZXZXZXZXZXZXZXZXZXZXZXZXZXZXZXZXZXZXZXZXZXZXZXZXZXZXZXZXZXZXZXZXZXZXZXZXZXZXZXZXZXZXZXZXZXZXZXZXZXZXZXZXZXZXZXZXZXZXZXZXZXZXZXZXZXZXZXZXZXZXZXZXZXZXZXZXZXZXZXZXZXZXZXZXZXZXZXZXZXZXZXZXZXZXZXZXZXZXZXZXZXZXZXZXZXZXZXZXZXZXZXZXZXZXZXZXZXZXZXZXZXZXZXZXZXZXZXZXZXZXZXZXZXZXZXZXZXZXZXZXZXZXZXZXZXZXZXZXZXZXZXZXZXZXZXZXZXZXZXZXZXZXZXZXZXZXZXZXZXZXZXZXZXZXZXZXZXZXZXZXZXZXZXZXZXZXSXZXZXhXkXlXlXjXjXjXhX",
"hXhXjXjXjXjXJXSXxXvXbXbXxXxXSXSXDXxXxXxXxXxXxXxXxXxXxXxXxXxXxXxXxXxXxXxXxXxXxXxXxXxXxXxXxXxXxXxXxXxXxXxXxXxXxXxXxXxXxXxXxXxXxXxXxXxXxXxXxXxXxXxXxXxXxXxXxXxXxXxXxXxXxXxXxXxXxXxXxXxXxXxXxXxXxXxXxXxXxXxXxXxXxXxXxXxXxXxXxXxXxXxXxXxXxXxXxXxXxXxXxXxXxXxXxXxXxXxXxXxXxXxXxXxXxXxXxXxXxXxXxXxXxXxXxXxXxXxXxXxXxXxXxXxXxXxXxXxXxXxXxXxXxXxXxXxXxXxXxXxXxXxXxXxXxXxXxXxXxXxXxXxXxXxXxXxXxXxXxXxXxXxXxXxXxXxXxXxXxXxXxXxXxXxXxXxXxXxXxXxXxXxXxXxXxXxXxXxXxXxXxXxXxXxXxXxXxXxXxXxXxXxXxXxXxXxXxXxXxXxXxXxXxXxXxXxXxXxXxXxXxXxXxXxXxXxXxXxXxXxXxXxXxXxXxXxXxXxXxXxXxXxXxXxXxXxXxXxXxXxXxXxXxXxXxXxXxXxXxXxXxXxXxXxXxXxXxXxXxXxXxXxXxXxXxXxXxXxXxXxXxXxXxXxXxXxXxXxXxXxXxXxXxXxXxXxXxXxXxXxXxXxXxXxXxXxXxXxXxXxXxXxXxXxXxXxXxXxXxXxXxXxXxXxXxXxXxXxXxXxXxXxXxXxXxXxXxXxXxXxXxXxXxXxXxXxXxXxXxXxXxXxXxXxXxXxXxXxXxXxXxXxXxXxXxXxXxXxXxXxXxXxXxXxXxXxXxXxXxXxXxXxXxXxXxXhXkXlXlXjXjXjXkX",
"VXVXCXjXjXjXCXDXxXbXbXbXvXxXDXDXDXxXxXxXxXxXxXxXxXxXxXxXxXxXxXxXxXxXxXxXxXxXxXxXxXxXxXxXxXxXxXxXxXxXxXxXxXxXxXxXxXxXxXxXxXxXxXxXxXxXxXxXxXxXxXxXxXxXxXxXxXxXxXxXxXxXxXxXxXxXxXxXxXxXxXxXxXxXxXxXxXxXxXxXxXxXxXxXxXxXxXxXxXxXxXxXxXxXxXxXxXxXxXxXxXxXxXxXxXxXxXxXxXxXxXxXxXxXxXxXxXxXxXxXxXxXxXxXxXxXxXxXxXxXxXxXxXxXxXxXxXxXxXxXxXxXxXxXxXxXxXxXxXxXxXxXxXxXxXxXxXxXxXxXxXxXxXxXxXxXxXxXxXxXxXxXxXxXxXxXxXxXxXxXxXxXxXxXxXxXxXxXxXxXxXxXxXxXxXxXxXxXxXxXxXxXxXxXxXxXxXxXxXxXxXxXxXxXxXxXxXxXxXxXxXxXxXxXxXxXxXxXxXxXxXxXxXxXxXxXxXxXxXxXxXxXxXxXxXxXxXxXxXxXxXxXxXxXxXxXxXxXxXxXxXxXxXxXxXxXxXxXxXxXxXxXxXxXxXxXxXxXxXxXxXxXxXxXxXxXxXxXxXxXxXxXxXxXxXxXxXxXxXxXxXxXxXxXxXxXxXxXxXxXxXxXxXxXxXxXxXxXxXxXxXxXxXxXxXxXxXxXxXxXxXxXxXxXxXxXxXxXxXxXxXxXxXxXxXxXxXxXxXxXxXxXxXxXxXxXxXxXxXxXxXxXxXxXxXxXxXxXxXxXxXxXxXxXxXxXxXxXxXxXxXxXxXxXxXxXxXxXxXxXxXxXxXxXxX_.kXlXjXjXjXkX).",
"bXVXCXJXJXjXjXhXcXNXBXBXbXcXDXSXDXcXcXcXcXcXcXcXcXcXcXcXcXcXcXcXcXcXcXcXcXcXcXcXcXcXcXcXcXcXcXcXcXcXcXcXcXcXcXcXcXcXcXcXcXcXcXcXcXcXcXcXcXcXcXcXcXcXcXcXcXcXcXcXcXcXcXcXcXcXcXcXcXcXcXcXcXcXcXcXcXcXcXcXcXcXcXcXcXcXcXcXcXcXcXcXcXcXcXcXcXcXcXcXcXcXcXcXcXcXcXcXcXcXcXcXcXcXcXcXcXcXcXcXcXcXcXcXcXcXcXcXcXcXcXcXcXcXcXcXcXcXcXcXcXcXcXcXcXcXcXcXcXcXcXcXcXcXcXcXcXcXcXcXcXcXcXcXcXcXcXcXcXcXcXcXcXcXcXcXcXcXcXcXcXcXcXcXcXcXcXcXcXcXcXcXcXcXcXcXcXcXcXcXcXcXcXcXcXcXcXcXcXcXcXcXcXcXcXcXcXcXcXcXcXcXcXcXcXcXcXcXcXcXcXcXcXcXcXcXcXcXcXcXcXcXcXcXcXcXcXcXcXcXcXcXcXcXcXcXcXcXcXcXcXcXcXcXcXcXcXcXcXcXcXcXcXcXcXcXcXcXcXcXcXcXcXcXcXcXcXcXcXcXcXcXcXcXcXcXcXcXcXcXcXcXcXcXcXcXcXcXcXcXcXcXcXcXcXcXcXcXcXcXcXcXcXcXcXcXcXcXcXcXcXcXcXcXcXcXcXcXcXcXcXcXcXcXcXcXcXcXcXcXcXcXcXcXcXcXcXcXcXcXcXcXcXcXcXcXcXcXcXcXcXcXcXcXcXcXcXcXcXcXcXcXcXcXcXcXcXcXcXcXcXcXcXcXcXhXkXkXkXkXkXkX).",
"].`.hXCXJXjXhX).MXBXBXBXBXMXVXVXbXMXMXMXMXMXMXMXMXMXMXMXMXMXMXMXMXMXMXMXMXMXMXMXMXMXMXMXMXMXMXMXMXMXMXMXMXMXMXMXMXMXMXMXMXMXMXMXMXMXMXMXMXMXMXMXMXMXMXMXMXMXMXMXMXMXMXMXMXMXMXMXMXMXMXMXMXMXMXMXMXMXMXMXMXMXMXMXMXMXMXMXMXMXMXMXMXMXMXMXMXMXMXMXMXMXMXMXMXMXMXMXMXMXMXMXMXMXMXMXMXMXMXMXMXMXMXMXMXMXMXMXMXMXMXMXMXMXMXMXMXMXMXMXMXMXMXMXMXMXMXMXMXMXMXMXMXMXMXMXMXMXMXMXMXMXMXMXMXMXMXMXMXMXMXMXMXMXMXMXMXMXMXMXMXMXMXMXMXMXMXMXMXMXMXMXMXMXMXMXMXMXMXMXMXMXMXMXMXMXMXMXMXMXMXMXMXMXMXMXMXMXMXMXMXMXMXMXMXMXMXMXMXMXMXMXMXMXMXMXMXMXMXMXMXMXMXMXMXMXMXMXMXMXMXMXMXMXMXMXMXMXMXMXMXMXMXMXMXMXMXMXMXMXMXMXMXMXMXMXMXMXMXMXMXMXMXMXMXMXMXMXMXMXMXMXMXMXMXMXMXMXMXMXMXMXMXMXMXMXMXMXMXMXMXMXMXMXMXMXMXMXMXMXMXMXMXMXMXMXMXMXMXMXMXMXMXMXMXMXMXMXMXMXMXMXMXMXMXMXMXMXMXMXMXMXMXMXMXMXMXMXMXMXMXMXMXMXMXMXMXMXMXMXMXMXMXMXMXMXMXMXMXMXMXMXMXMXMXMXMXMXMXMXMXMXMXMXMX`././.lXlXkXkX).",
" X'.`.hXjXjXkX/.].|.[.[.[.].'.'.].].].].].].].].].].].].].].].].].].].].].].].].].].].].].].].].].].].].].].].].].].].].].].].].].].].].].].].].].].].].].].].].].].].].].].].].].].].].].].].].].].].].].].].].].].].].].].].].].].].].].].].].].].].].].].].].].].].].].].].].].].].].].].].].].].].].].].].].].].].].].].].].].].].].].].].].].].].].].].].].].].].].].].].].].].].].].].].].].].].].].].].].].].].].].].].].].].].].].].].].].].].].].].].].].].].].].].].].].].].].].].].].].].].].].].].].].].].].].].].].].].].].].].].].].].].].].].].].].].].].].].].].].].].].].].].].].].].].].].].].].].].].].].].].].].].].].].].].].].].].].].].].].].].].].].].].].].].].].].].].].].].].].].].].].].].].].].].].].].].].].].].].].].].].].].].].].].].].].].].].].].].].].].].].].].].].].].].].].].].].].].].].].].].].].].].].].].].].].].].].~.~././.lXkX).",
"+XL.^._.jXjX).^.L.U.T.T.U.U.K.K.U.U.U.U.U.U.U.U.U.U.U.U.U.U.U.U.U.U.U.U.U.U.U.U.U.U.U.U.U.U.U.U.U.U.U.U.U.U.U.U.U.U.U.U.U.U.U.U.U.U.U.U.U.U.U.U.U.U.U.U.U.U.U.U.U.U.U.U.U.U.U.U.U.U.U.U.U.U.U.U.U.U.U.U.U.U.U.U.U.U.U.U.U.U.U.U.U.U.U.U.U.U.U.U.U.U.U.U.U.U.U.U.U.U.U.U.U.U.U.U.U.U.U.U.U.U.U.U.U.U.U.U.U.U.U.U.U.U.U.U.U.U.U.U.U.U.U.U.U.U.U.U.U.U.U.U.U.U.U.U.U.U.U.U.U.U.U.U.U.U.U.U.U.U.U.U.U.U.U.U.U.U.U.U.U.U.U.U.U.U.U.U.U.U.U.U.U.U.U.U.U.U.U.U.U.U.U.U.U.U.U.U.U.U.U.U.U.U.U.U.U.U.U.U.U.U.U.U.U.U.U.U.U.U.U.U.U.U.U.U.U.U.U.U.U.U.U.U.U.U.U.U.U.U.U.U.U.U.U.U.U.U.U.U.U.U.U.U.U.U.U.U.U.U.U.U.U.U.U.U.U.U.U.U.U.U.U.U.U.U.U.U.U.U.U.U.U.U.U.U.U.U.U.U.U.U.U.U.U.U.U.U.U.U.U.U.U.U.U.U.U.U.U.U.U.U.U.U.U.U.U.U.U.U.U.U.U.U.U.U.U.U.U.U.U.U.U.U.U.U.U.U.U.U.U.U.U.U.U.U.U.U.U.U.U.U.U.U.U.U.U.U.U.U.U.U.U.U.U.U.U.U.U.U.U.U.U.U.U.U.U.U.U.U.U.U.U.U.U.U.L.E.~./._.lXkX",
"+X+X X^.lXlX/.^...r t y t r r r r r r r r r r r r r r r r r r r r r r r r r r r r r r r r r r r r r r r r r r r r r r r r r r r r r r r r r r r r r r r r r r r r r r r r r r r r r r r r r r r r r r r r r r r r r r r r r r r r r r r r r r r r r r r r r r r r r r r r r r r r r r r r r r r r r r r r r r r r r r r r r r r r r r r r r r r r r r r r r r r r r r r r r r r r r r r r r r r r r r r r r r r r r r r r r r r r r r r r r r r r r r r r r r r r r r r r r r r r r r r r r r r r r r r r r r r r r r r r r r r r r r r r r r r r r r r r r r r r r r r r r r r r r r r r r r r r r r r r r r r r r r r r r r r r r r r r r r r r r r r r r r r r r r r r r r r r r r r r r r r r r r r r r r r r r r r r r r r r r r r r r r r r r r r r r r r r r r r r r r r r r r r r r r r r r r r r r r r r r r r r r r r r r r r r r r r r r r r r r r r L.L.E.^.(.lXhX",
"7 +X X(.lXlXlXzX6 7 8 y 8 8 9 9 0 0 8 0 8 0 8 0 8 0 8 0 8 0 8 0 8 0 8 0 8 0 8 0 8 0 8 0 8 0 8 0 8 0 8 0 8 0 8 0 8 0 8 0 8 0 8 0 8 0 8 0 8 0 8 0 8 0 8 0 8 0 8 0 8 0 8 0 8 0 8 0 8 0 8 0 8 0 8 0 8 0 8 0 8 0 8 0 8 0 8 0 8 0 8 0 8 0 8 0 8 0 8 0 8 0 8 0 8 0 8 0 8 0 8 0 8 0 8 0 8 0 8 0 8 0 8 0 8 0 8 0 8 0 8 0 8 0 8 0 8 0 8 0 8 0 8 0 8 0 8 0 8 0 8 0 8 0 8 0 8 0 8 0 0 0 8 0 8 0 8 0 8 0 8 0 8 0 8 0 8 0 8 0 8 0 8 0 8 0 8 0 8 0 8 0 8 0 8 0 8 0 8 0 8 0 8 0 8 0 8 0 0 0 8 0 8 0 8 0 8 0 8 0 8 0 8 0 8 0 8 0 8 0 8 0 8 0 8 0 8 0 8 0 8 0 8 0 8 0 8 0 8 0 8 0 8 0 8 0 8 0 8 0 8 0 8 0 8 0 8 0 8 0 8 0 8 0 8 0 8 0 8 0 8 0 8 0 8 0 8 0 8 0 8 0 8 0 8 0 8 0 8 0 8 0 8 0 8 0 8 0 8 0 8 0 8 0 8 0 8 0 8 0 8 0 8 0 8 0 8 0 8 0 8 0 8 0 8 0 8 0 8 0 8 0 8 0 8 0 8 0 8 0 8 0 8 0 8 0 8 0 8 0 8 0 8 0 8 0 8 0 8 0 8 0 8 0 8 0 8 0 8 0 8 0 8 0 8 0 8 0 8 0 8 0 8 0 8 7 6 L.R.(.`._.).",
"7 +X X'.zXzXzXzX..o.w ^ ! ! w e w w ^ w ^ w ^ w ^ w ^ w ^ w ^ w ^ w ^ w ^ w ^ w ^ w ^ w ^ w ^ w ^ w ^ w ^ w ^ w ^ w ^ w ^ w ^ w ^ w ^ w ^ w ^ w ^ w ^ w ^ w ^ w ^ w ^ w ^ w ^ w ^ w ^ w ^ w ^ w ^ w ^ w ^ w ^ w ^ w ^ w ^ w ^ w ^ w ^ w ^ w ^ w ^ w ^ w ^ w ^ w ^ w ^ w ^ w ^ w ^ w ^ w ^ w ^ w ^ w ^ w ^ w ^ w ^ w ^ w ^ w ^ w ^ w ^ w ^ w ^ w ^ w ^ w ^ w ^ w ^ w ^ w ^ ^ ^ w ^ w ^ w ^ ^ ^ w ^ w ^ w ^ w ^ w ^ w ^ w ^ w ^ w ^ w ^ w ^ w ^ w ^ w ^ w ^ w ^ w ^ w ^ w ^ ^ ^ w ^ w ^ w ^ ^ ^ w ^ w ^ w ^ w ^ w ^ w ^ w ^ w ^ w ^ w ^ w ^ w ^ w ^ w ^ w ^ w ^ w ^ w ^ w ^ w ^ w ^ w ^ w ^ w ^ w ^ w ^ w ^ w ^ w ^ w ^ w ^ w ^ w ^ w ^ w ^ w ^ w ^ w ^ w ^ w ^ w ^ w ^ w ^ w ^ w ^ w ^ w ^ w ^ w ^ w ^ w ^ w ^ w ^ w ^ w ^ w ^ w ^ w ^ w ^ w ^ w ^ w ^ w ^ w ^ w ^ w ^ w ^ w ^ w ^ w ^ w ^ w ^ w ^ w ^ w ^ w ^ w ^ w ^ w ^ w ^ w ^ w ^ w ^ w ^ w ^ w ^ ^ ^ w ^ y 7 L.[.}.`._.).",
"7 +XY.'.zXzXzXzX..X.w ! D D D S S ! ! ! ! ! ! ! ! ! ! ! ! ! ! ! ! ! ! ! ! ! ! ! ! ! ! ! ! ! ! ! ! ! ! ! ! ! ! ! ! ! ! ! ! ! ! ! ! ! ! ! ! ! ! ! ! ! ! ! ! ! ! ! ! ! ! ! ! ! ! ! ! ! ! ! ! ! ! ! ! ! ! ! ! ! ! ! ! ! ! ! ! ! ! ! ! ! ! ! ! ! ! ! ! ! ! ! ! ! ! ! ! ! ! ! ! ! ! ! ! ! ! ! ! ! ! ! ! ! ! ! ! ! ! ! ! ! ! ! ! ! ! ! ! ! ! ! ! ! ! ! ! ! ! ! ! ! ! ! ! ! ! ! ! ! ! ! ! ! ! ! ! ! ! ! ! ! ! ! ! ! ! ! ! ! ! ! ! ! ! ! ! ! ! ! ! ! ! ! ! ! ! ! ! ! ! ! ! ! ! ! ! ! ! ! ! ! ! ! ! ! ! ! ! ! ! ! ! ! ! ! ! ! ! ! ! ! ! ! ! ! ! ! ! ! ! ! ! ! ! ! ! ! ! ! ! ! ! ! ! ! ! ! ! ! ! ! ! ! ! ! ! ! ! ! ! ! ! ! ! ! ! ! ! ! ! ! ! ! ! ! ! ! ! ! ! ! ! ! ! ! ! ! ! ! ! ! ! ! ! ! ! ! ! ! ! ! ! ! ! ! ! ! ! ! ! ! ! ! ! ! ! ! ! ! ! ! ! ! ! ! ! ! ! ! ! ! ! ! ! ! ! ! ! ! ! ! ! ! ! ! ! ! ! ! ! ! ! ! ! ! ! ! ! ! ! ! ! ! ! ! ! ! ! ! ! ! ! ! ! ! ! ! ! ! ! ! ! w 7 U.[.}.`./.).",
"7 +XY.(.zXzXzXzX| 6 5 p a s s h p p p p p p p p p p p p p p p p p p p p p p p p p p p p p p p p p p p p p p 2 2 p p p p p p p p p p p p p p p p p p p p p p p p p p p p p p p p p p p p p p p p p p p p p p p p p p p p p p p p p p p p p p p p p p p p p p p p p p p p p p p p p p p p p p p p p p p p p p p p p p p p p p p p 2 2 2 2 p p p p p p p p p p 2 p p p p p p p p p p p p p p p p p p p p p p p p p p p p p p p p p p p p p p p p p p p p p p p p p p p p p p p p p p p p p p p p p p p p p p p 2 2 p p p p p p p p 2 p p p p p p p p p p p p p p p p p p p p p p p p p p p p p p p p p p p p p 2 2 p p p p p p p p 2 2 2 2 p p p p p p p p p p 2 2 p p p p p p p p p p p p p p p p p p p p p p p p p p p p p p p p p p p p p p p p p p p p p p p p p p p p p p p p p p p p p p p p p p p p p p 2 2 p p p p p p p p 2 p p p p p p p p p p p p p p 1 t U.[.|.'./.).",
"7 +X X(.zXzXzXzX| X.3 C c g x x k C C C C C C C C C C C C C C C C C C C C C C C C C C C C C C C C C C C C C C C C C C C C C C C C C C C C C C C C C C C C C C C C C C C C C C C C C C C C C C C C C C C C C C C C C C C C C C C C C C C C C C C C C C C C C C C C C C C C C C C C C C C C C C C C C C C C C C C C C C C C C C C C C C C C C C C C C C C C C C C C C C C C C C C C C C C C C C C C C C C C C C C C C C C C C C C C C C C C C C C C C C C C C C C C C C C C C C C C C C C C C C C C C C C C C C C C C C C C C C C C C C C C C C C C C C C C C C C C C C C C C C C C C C C C C C C C C C C C C C C C C C C C C C C C C C C C C C C C C C C C C C C C C C C C C C C C C C C C C C C C C C C C C C C C C C C C C C C C C C C C C C C C C C C C C C C C C C C C C C C C C C C C C C C C C C C C C C C C C C C C C C C C C C C C C C C C C C C C C C S y I.Q.|.]./._.",
"7 +X X(.zXzXzXzX+.+.e.y.<.<.<.<.<.y.y.y.y.y.y.y.y.y.y.y.y.y.y.y.y.y.y.y.y.y.y.y.y.y.y.y.y.y.y.y.y.y.y.y.y.y.y.y.y.y.y.y.y.y.y.y.y.y.y.y.y.y.y.y.y.y.y.y.y.y.y.y.y.y.y.y.y.y.y.y.y.y.y.y.y.y.y.y.y.y.y.y.y.y.y.y.y.y.y.y.y.y.y.y.y.y.y.y.y.y.y.y.y.y.y.y.y.y.y.y.y.y.y.y.y.y.y.y.y.y.y.y.y.y.y.y.y.y.y.y.y.y.y.y.y.y.y.y.y.y.y.y.y.y.y.y.y.y.y.y.y.y.y.y.y.y.y.y.y.y.y.y.y.y.y.y.y.y.y.y.y.y.y.y.y.y.y.y.y.y.y.y.y.y.y.y.y.y.y.y.y.y.y.y.y.y.y.y.y.y.y.y.y.y.y.y.y.y.y.y.y.y.y.y.y.y.y.y.y.y.y.y.y.y.y.y.y.y.y.y.y.y.y.y.y.y.y.y.y.y.y.y.y.y.y.y.y.y.y.y.y.y.y.y.y.y.y.y.y.y.y.y.y.y.y.y.y.y.y.y.y.y.y.y.y.y.y.y.y.y.y.y.y.y.y.y.y.y.y.y.y.y.y.y.y.y.y.y.y.y.y.y.y.y.y.y.y.y.y.y.y.y.y.y.y.y.y.y.y.y.y.y.y.y.y.y.y.y.y.y.y.y.y.y.y.y.y.y.y.y.y.y.y.y.y.y.y.y.y.y.y.y.y.y.y.y.y.y.y.y.y.y.y.y.y.y.y.y.y.y.y.y.y.y.y.y.y.y.y.y.y.y.y.y.y.y.y.y.y.y.y.y.y.y.y.y.y.0.' .XQ.|.]./._.",
"t +X[.(.zXzXzXzX+.+.J.l.v.3.3.3.l.l.l.l.l.l.l.l.l.l.l.l.l.l.l.l.l.l.l.l.l.l.l.l.l.l.l.l.l.l.l.l.l.l.l.l.l.l.l.l.l.l.l.l.l.l.l.l.l.l.l.l.l.l.l.l.l.l.l.l.l.l.l.l.l.l.l.l.l.l.l.l.l.l.l.l.l.l.l.l.l.l.l.l.l.l.l.l.l.l.l.l.l.l.l.l.l.l.l.l.l.l.l.l.l.l.l.l.l.l.l.l.l.l.l.l.l.l.l.l.l.l.l.l.l.l.l.l.l.l.l.l.l.l.l.l.l.l.l.l.l.l.l.l.l.l.l.l.l.l.l.l.l.l.l.l.l.l.l.l.l.l.l.l.l.l.l.l.l.l.l.l.l.l.l.l.l.l.l.l.l.l.l.l.l.l.l.l.l.l.l.l.l.l.l.l.l.l.l.l.l.l.l.l.l.l.l.l.l.l.l.l.l.l.l.l.l.l.l.l.l.l.l.l.l.l.l.l.l.l.l.l.l.l.l.l.l.l.l.l.l.l.l.l.l.l.l.l.l.l.l.l.l.l.l.l.l.l.l.l.l.l.l.l.l.l.l.l.l.l.l.l.l.l.l.l.l.l.l.l.l.l.l.l.l.l.l.l.l.l.l.l.l.l.l.l.l.l.l.l.l.l.l.l.l.l.l.l.l.l.l.l.l.l.l.l.l.l.l.l.l.l.l.l.l.l.l.l.l.l.l.l.l.l.l.l.l.l.l.l.l.l.l.l.l.l.l.l.l.l.l.l.l.l.l.l.l.l.l.l.l.l.l.l.l.l.l.l.l.l.l.l.l.l.l.l.l.l.l.l.l.l.l.l.l.l.l.l.l.l.l.l.l.l.l.l.l.l.l.C.XXXXQ.|.].^._.",
"7 P.W.(.lXzXzXE.+.+.q.y.2.2.2.2.2.u.u.u.u.u.u.u.u.u.u.u.u.u.u.u.u.u.u.u.u.u.u.u.u.u.u.u.f.u.u.2.2.2.2.2.2.2.2.u.u.u.2.2.2.2.2.<.y.y.y.y.y.y.y.y.y.y.y.y.y.y.y.y.u.u.u.u.u.u.u.u.u.u.u.u.u.u.u.u.u.u.u.u.u.u.u.u.u.u.u.u.u.u.u.u.u.u.u.u.u.u.u.u.u.u.u.u.u.u.u.u.u.u.u.u.u.u.u.u.u.u.u.u.u.u.u.u.u.u.u.u.u.u.u.u.u.u.u.u.u.u.u.u.2.2.2.u.u.u.2.2.2.2.2.2.2.2.2.<.y.y.y.y.y.y.y.y.y.y.y.y.y.y.y.y.<.u.u.u.u.u.u.u.u.u.u.u.u.u.u.u.u.u.u.u.u.u.u.u.u.u.u.u.u.u.u.u.y.y.y.y.y.y.y.y.y.y.y.y.y.y.y.y.<.2.2.2.2.2.2.u.u.u.2.2.2.2.2.2.2.u.u.u.u.u.u.u.u.u.u.u.u.u.u.u.u.u.u.u.u.u.u.u.u.u.u.u.u.u.u.2.2.2.2.2.2.2.2.u.u.u.2.2.2.2.2.2.2.2.2.u.u.u.2.2.2.2.2.2.2.2.2.2.u.u.u.u.u.u.u.u.u.u.u.u.u.u.u.u.u.u.u.u.u.u.u.u.u.u.u.u.u.u.u.u.u.u.u.u.u.u.u.u.u.u.u.u.u.u.u.u.u.u.u.u.u.u.u.u.u.u.u.u.u.u.u.2.2.2.2.2.2.2.2.u.u.u.2.2.2.2.2.2.2.u.u.u.u.u.u.u.u.u.u.u.u.u.u.b.XXXXQ.|.'.).hX",
"q O.W.(._.DXhXlX+.O.;.4.1.1.W t.,.,.,.,.,.,.,.,.,.,.,.,.,.,.,.,.W W W W W W W W W W W W W W W W 1.4.1.4.4.4.1.4.1.4.1.4.1.4.1.4.4.4.4.;.;.;.4.4.4.:.;.:.4.4.4.4.,.,.,.,.,.,.,.,.,.,.,.,.,.,.,.,.,.,.,.,.,.,.,.,.,.,.,.,.,.,.,.,.,.,.,.,.,.,.,.,.,.,.,.,.,.,.,.,.,.,.,.,.,.,.,.,.,.,.,.,.,.,.,.,.,.,.,.,.,.,.,.,.,.,.,.,.,.,.,.,.4.4.1.4.1.4.1.4.1.4.1.4.4.4.4.4.4.:.;.:.4.4.4.4.;.:.;.;.4.4.4.4.,.,.,.,.,.,.,.,.,.,.,.,.,.,.,.,.,.,.,.,.,.,.,.,.,.,.,.,.,.,.,.,.4.:.;.:.4.4.4.4.;.:.;.:.4.4.4.4.4.4.1.4.4.4.1.4.1.4.1.4.1.4.1.1.,.,.,.,.,.,.,.,.,.,.,.,.,.,.,.,.,.,.,.,.,.,.,.,.,.,.,.,.,.,.,.,.1.4.1.4.1.4.1.4.4.4.1.4.1.4.1.4.1.4.4.4.4.4.1.4.4.4.1.4.1.4.1.1.,.,.,.,.,.,.,.,.,.,.,.,.,.,.,.,.,.,.,.,.,.,.,.,.,.,.,.,.,.,.,.,.,.,.,.,.,.,.,.,.,.,.,.,.,.,.,.,.,.,.,.,.,.,.,.,.,.,.,.,.,.,.,.,.1.4.1.4.1.4.1.4.4.4.1.4.1.4.1.1.,.,.,.,.,.,.,.,.,.,.,.,.,.,.,.i.XX.XQ.'.).jXJX",
"5 X.W.`.vXvXvX}.!.e.<.2.2.k.k.g.k.k.k.k.k.k.k.k.k.k.k.k.k.k.k.k.k.k.k.k.#X#X#X#Xk.k.k.k.#X#X#Xk.2.2.2.2.2.2.2.2.2.2.2.2.2.2.2.2.4.4.4.4.4.4.4.4.4.<.4.4.4.4.4.4.d.k.k.d.k.k.k.k.k.k.k.d.k.k.k.k.d.d.k.k.k.k.k.k.k.k.k.k.k.k.k.k.k.k.k.d.k.k.k.k.k.k.k.k.k.k.k.k.k.k.k.d.k.k.k.k.k.k.k.d.k.k.k.k.d.d.k.k.k.k.k.k.k.k.k.k.k.k.k.k.2.2.2.2.2.2.2.2.2.2.2.2.2.2.2.2.4.<.4.4.4.4.4.4.4.4.4.<.4.4.4.4.2.d.k.k.k.k.k.k.k.k.k.k.k.k.k.k.k.k.k.d.k.k.k.k.k.k.k.k.k.k.k.2.4.4.4.4.4.4.4.4.4.<.4.4.4.4.4.4.2.2.2.2.2.2.2.2.2.2.2.2.2.2.2.2.2.k.k.k.k.k.k.d.k.k.k.k.k.k.k.k.k.k.k.d.k.k.k.k.k.k.k.d.k.k.d.d.2.2.2.2.2.2.2.2.2.2.2.2.2.2.2.2.2.2.2.2.2.2.2.2.2.2.2.2.2.2.2.2.d.k.k.d.k.k.k.k.k.k.k.d.k.k.k.k.d.d.k.k.k.k.k.k.k.k.k.k.k.k.k.k.k.k.k.k.k.k.k.k.k.k.k.k.k.k.k.k.k.k.k.d.k.k.k.k.k.k.k.d.k.k.d.d.2.2.2.2.2.2.2.2.2.2.2.2.2.2.2.2.2.d.d.d.k.k.k.k.k.k.k.k.k.k.k.p.OX.XQ.(.kXCXJX",
"5 X.W.`.vXxXvX`.Q.J.l.3.&X#X=X=Xj.j.j.j.j.j.j.j.j.j.j.j.j.j.j.#X#X#X#X#X#X#X#X#X#X#X#X#X#X#X#X#X#X3.3.3.3.3.3.3.3.3.3.3.3.3.3.3.3.3.3.3.3.3.3.3.3.3.3.3.3.3.3.v.c.j.#Xj.j.j.j.j.#Xj.#Xj.j.j.j.j.j.j.j.j.j.j.#Xj.j.j.j.j.j.j.j.j.#X#Xj.j.j.j.#Xj.j.j.j.j.j.j.j.j.#Xj.#Xj.j.j.j.j.#Xj.#Xj.j.j.j.j.j.j.j.j.j.j.j.j.j.j.j.j.j.j.j.j.v.3.3.3.3.3.3.3.3.3.3.3.3.3.3.3.3.3.3.3.3.3.3.3.3.3.3.3.3.3.3.v.c.j.j.j.j.j.j.j.j.j.j.j.j.j.j.j.#X#Xj.j.j.j.#Xj.j.j.j.j.j.j.j.c.v.3.3.3.3.3.3.3.3.3.3.3.3.3.3.3.3.3.3.3.3.3.3.3.3.3.3.3.3.3.3.v.c.j.j.j.j.j.j.j.j.j.#Xj.j.j.j.j.#Xj.#Xj.j.j.j.j.#Xj.#X#Xj.j.j.c.v.3.3.3.3.3.3.3.3.3.3.3.3.3.3.3.3.&X3.3.#X#X&X3.3.3.3.3.3.3.3.v.#Xj.#Xj.j.j.j.j.#Xj.#Xj.j.j.j.j.j.j.j.j.j.j.j.j.j.j.j.j.j.j.j.j.j.j.j.j.j.j.j.j.j.j.j.j.j.j.j.j.#Xj.#Xj.j.j.j.j.#Xj.#X#Xj.j.j.c.v.3.3.3.3.3.3.3.3.3.3.3.3.3.3.v.#X#Xj.j.j.j.#Xj.j.j.j.j.j.j.j.D.OXXXQ.(.kXCXJX",
"5 O.W.`.vXxXxX`.Q.J.G.&X&X;X,XrX:X-X-X-X-X-X-X-X-X-X-X-X-X-X-X-X;X;X;X;X;X;X;X;X;X;X;X;X;X;X;X;X$X$X$X$X&X&X&X$X&X&X&X&X&X&X&X&X$X$X$X$X$X$X$X$X$X$X$X$X$X$X$X$X-X-X-X-X-X-X-X-X-X-X-X-X-X-X-X-X-X-X-X-X-X-X-X-X-X-X-X-X-X-X-X-X-X-X-X-X-X-X-X-X-X-X-X-X-X-X-X-X-X-X-X-X-X-X-X-X-X-X-X-X-X-X-X-X-X-X-X-X-X-X-X-X-X-X-X-X-X-X-X-X$X$X&X&X&X&X&X&X&X&X&X&X&X&X&X&X$X$X$X$X$X$X&X&X$X$X$X$X$X$X$X$X-X-X-X-X-X-X-X-X-X-X-X-X-X-X-X-X-X-X-X-X-X-X-X-X-X-X-X-X-X-X-X-X$X$X$X$X$X$X&X$X$X$X$X$X$X$X&X$X&X$X$X$X&X&X&X$X&X&X&X&X&X&X&X$X-X-X-X-X-X-X-X-X-X-X-X-X-X-X-X-X-X-X-X-X-X-X-X-X-X-X-X-X-X-X-X-X$X$X$X$X&X&X&X&X&X&X&X&X&X&X&X&X&X&X&X&X&X&X&X&X&X&X&X&X&X&X&X$X-X-X-X-X-X-X-X-X-X-X-X-X-X-X-X-X-X-X-X-X-X-X-X-X-X-X-X-X-X-X-X-X-X-X-X-X-X-X-X-X-X-X-X-X-X-X-X-X-X-X-X-X-X-X-X-X-X-X-X-X-X-X-X-X$X$X$X$X&X&X&X&X&X&X&X&X&X&X&X$X-X-X-X-X-X-X-X-X-X-X-X-X-X-X-XS.OXXXQ.(.kXCXJX",
" .O.W.`.vXxXxX(.Q.oXG.%X*X1XrXrX,X,X,X,X,X,X,X,X,X,X,X,X,X,X,X,X1X1X1X3X1X1X1X1X1X1X1X3X1X1X1X,X<X%X%X%X%X%X%X%X%X%X%X%X%X%X%X%X%X%X%X%X%X%X%X%X%X%X%X%X%X%X%X<X,X,X,X,X,X,X,X,X,X,X,X,X,X,X,X,X,X,X,X,X,X,X,X,X,X,X,X,X,X,X,X,X,X,X,X,X,X,X,X,X,X,X,X,X,X,X,X,X,X,X,X,X,X,X,X,X,X,X,X,X,X,X,X,X,X,X,X,X,X,X,X,X,X,X,X,X,X,X,X<X<X%X%X%X%X%X%X%X%X%X%X%X%X%X%X%X%X%X%X%X%X%X%X%X%X%X%X%X%X%X%X<X,X,X,X,X,X,X,X,X,X,X,X,X,X,X,X,X,X,X,X,X,X,X,X,X,X,X,X,X,X,X,X,X<X%X%X%X%X%X%X%X%X%X%X%X%X%X%X%X%X%X%X%X%X%X%X%X%X%X%X%X%X%X%X<X,X,X,X,X,X,X,X,X,X,X,X,X,X,X,X,X,X,X,X,X,X,X,X,X,X,X,X,X,X,X,X,X<X%X%X%X%X%X%X%X%X%X%X%X%X%X%X%X%X%X%X%X%X%X%X%X%X%X%X%X%X%X%X<X,X,X,X,X,X,X,X,X,X,X,X,X,X,X,X,X,X,X,X,X,X,X,X,X,X,X,X,X,X,X,X,X,X,X,X,X,X,X,X,X,X,X,X,X,X,X,X,X,X,X,X,X,X,X,X,X,X,X,X,X,X,X,X,X<X%X%X%X%X%X%X%X%X%X%X%X%X%X%X<X,X,X,X,X,X,X,X,X,X,X,X,X,X,X,XeXoXOXQ.(.jXCXJX",
" .O.W.`.xXxX).'.Q.oXG.%X*X1XrXrX,X>X>X>X>X>X>X>X>X>X>X>X>X>X>X,X1X1X1X1X1X1X,X,X1X1X1X1X,X,X,X,X<X:X8X8X8X8X8X8X8X8X8X8X:X:X8X<X<X<X<X<X<X<X<X<X<X<X<X<X<X<X<X<X,X>X>X>X>X>X>X>X>X>X>X>X>X>X>X>X>X>X>X>X>X>X>X>X>X>X>X>X>X>X>X>X>X>X>X>X>X>X>X>X>X>X>X>X>X>X>X>X>X>X>X>X>X>X>X>X>X>X>X>X>X>X>X>X>X>X>X>X>X>X>X>X>X>X>X>X>X>X>X:X8X8X8X8X8X8X8X8X:X:X8X8X8X8X8X<X<X<X<X<X<X<X<X<X<X<X<X<X<X<X<X<X,X>X>X>X>X>X>X>X>X>X>X>X>X>X>X>X>X>X>X>X>X>X>X>X>X>X>X>X>X>X>X<X<X<X<X<X<X<X<X<X<X<X<X<X<X<X<X<X<X:X8X8X8X8X8X8X8X8X8X8X:X:X8X:X6X>X>X>X>X>X>X>X>X>X>X>X>X>X>X>X>X>X>X>X>X>X>X>X>X>X>X>X>X>X>X6X8X8X8X8X:X:X8X8X8X8X8X8X8X8X8X8X8X8X8X8X:X:X8X8X8X8X8X8X8X:X8X:X>X>X>X>X>X>X>X>X>X>X>X>X>X>X>X>X>X>X>X>X>X>X>X>X>X>X>X>X>X>X>X>X>X>X>X>X>X>X>X>X>X>X>X>X>X>X>X>X>X>X>X>X>X>X>X>X>X>X>X>X>X>X>X6X8X8X8X8X:X:X8X8X8X8X8X8X8X8X8X:X6X>X>X>X>X>X>X>X>X>X>X>X>X>X>XeXoXOXQ.}.jXCXJX",
" .O.[.`.xXxX).^.Q.J.G.$X%X;XrXrX>X>X>X>X>X>X>X>X>X>X>X>X>X>X>X>X<X,X,X,X<X<X<X<X,X,X,X,X:X:X<X:X:X:X:X:X:X:X:X:X:X:X:X:X:X:X:X:X<X;X;X;X;X;X;X;X<X<X<X<X;X;X;X<X:X>X:X:X>X>X>X>X>X>X>X>X>X>X>X>X>X>X>X>X>X>X>X>X>X>X>X>X>X>X>X>X>X>X>X>X>X>X>X>X>X>X:X>X>X>X>X>X>X>X>X>X>X>X>X>X>X>X>X>X>X>X>X>X>X>X>X>X>X>X>X>X>X>X>X>X>X>X>X:X:X:X:X:X:X:X:X:X:X:X:X:X:X:X:X:X<X<X<X<X;X;X;X<X<X<X<X<X;X;X;X<X:X>X>X>X>X>X>X>X>X>X>X>X>X>X>X>X>X>X>X>X>X>X>X>X>X>X>X>X>X>X:X:X<X<X<X<X;X;X;X<X<X<X<X<X;X;X;X<X:X:X:X:X:X:X:X:X:X:X:X:X:X:X:X:X:X>X:X>X>X>X>X>X>X>X>X>X>X>X>X>X>X>X>X>X>X>X>X>X>X>X>X>X:X>X>X:X:X:X:X:X:X:X:X:X:X:X:X:X:X:X:X:X:X:X:X:X:X:X:X:X:X:X:X:X:X:X:X:X:X>X:X>X>X>X>X>X>X>X>X>X>X>X>X>X>X>X>X>X>X>X>X>X>X>X>X>X>X>X>X>X>X>X:X>X>X>X>X>X>X>X>X>X>X>X>X>X>X>X>X>X>X>X>X>X>X>X>X>X:X>X>X:X:X:X:X:X:X:X:X:X:X:X:X:X:X:X:X:X:X>X>X>X>X>X>X>X>X>X>X>X>X>X>XF.oXOX|.}.jXCXJX",
" .O.[.`.xXxX).^.Q.J.H.&X&X;X1XrX>XS.S.S.S.S.S.S.S.S.S.S.S.S.S.S.-X-X-X:X-X-X-X-X-X-X:X:X-X-X-X-X:XS.S.S.S.S.S.S.S.S.S.S.S.S.S.:X-X;X;X;X;X;X;X;X;X;X;X;X;X;X;X-X:XS.S.S.S.S.S.S.S.S.S.S.S.S.S.S.S.S.S.S.S.S.S.S.S.S.S.S.S.S.S.S.S.S.S.S.S.S.S.S.S.S.S.S.S.S.S.S.S.S.S.S.S.S.S.S.S.S.S.S.S.S.S.S.S.S.S.S.S.S.S.S.S.S.S.S.S.S.S.S.S.S.S.S.S.S.S.S.S.S.S.S.S.S.S.:X:X;X;X;X;X;X;X;X;X;X;X;X;X;X;X-X:XS.S.S.S.S.S.S.S.S.S.S.S.S.S.S.S.S.S.S.S.S.S.S.S.S.S.S.S.S.S.:X:X;X;X;X;X;X;X;X;X;X;X;X;X;X;X-X:XS.S.S.S.S.S.S.S.S.S.S.S.S.S.S.S.S.S.S.S.S.S.S.S.S.S.S.S.S.S.S.S.S.S.S.S.S.S.S.S.S.S.S.S.S.S.S.S.S.S.S.S.S.S.S.S.S.S.S.S.S.S.S.S.S.S.S.S.S.S.S.S.S.S.S.S.S.S.S.S.S.S.S.S.S.S.S.S.S.S.S.S.S.S.S.S.S.S.S.S.S.S.S.S.S.S.S.S.S.S.S.S.S.S.S.S.S.S.S.S.S.S.S.S.S.S.S.S.S.S.S.S.S.S.S.S.S.S.S.S.S.S.S.S.S.S.S.S.S.S.S.S.S.S.S.S.S.S.S.S.S.S.S.S.S.S.S.S.S.S.S.S.S.S.F.oXOX|.lXjXCXJX",
" .O.[.lXvXxX).^.Q.oXG.5X*X2XtXrXyX6X6X6X6X6X6X6XF.F.F.F.F.F.F.6X>X>X>X>X>X:X:X:X>X>X>X:X:X:X>X>XyXdXdXdXyX6XD.Z.x.D.S.S.6XyXyXyXsXuX;X;X2XuXuXtX1X;X-X;X;X1XtXaX6X6X6X6X6X6X6X6X6X6X6X6X6X6XyX6X6X6X6X6X6X6X6X6X6X6X6X6X6X6X6X6XF.F.F.F.F.F.F.F.F.F.F.F.F.F.F.F.F.F.F.F.F.F.F.F.F.F.F.F.F.F.F.F.6X6XyXyX6X6X6X6XF.F.F.F.F.F.F.F.F.F.F.F.F.F.S.S.S.D.x.x.Z.D.F.6X-X1X2X2X2X2X1X-X1X2X2X2XaXuXuXuXS.F.6XyXdXdXyX6XF.F.F.F.F.F.F.F.F.F.F.F.F.F.F.F.6X6X6XF.F.S.S.S.-X,X2XuXuXuXuXtXuXuX2X2X2X2XuXaX6XF.S.D.S.F.6XyX6X6XyXyXyXyXyXyXF.F.F.F.F.F.F.F.6X6XyXyX6X6X6X6X6X6X6X6X6X6X6X6X6X6X6XF.F.S.S.S.S.F.6XyXdXyXyXyXdXyX6X6X6X6XyXdXS.D.D.D.S.6XyXdXF.F.F.F.F.F.F.F.F.F.F.F.F.F.F.F.F.F.F.F.F.F.F.F.6X6XyXyX6X6X6X6XF.F.F.F.F.F.F.F.F.F.F.F.F.F.F.F.F.F.F.F.F.F.F.F.F.F.F.F.F.F.F.F.6X6X6XF.F.S.S.S.S.F.6XyXdXyXyXyXdXyX6X6X6X6XyXdXF.S.S.S.S.F.6XyXF.F.F.F.F.F.F.oXoXOX|.lXjXjXhX",
"5 O.W.}.vXxXxX'.Q.J.l.3.#X#X=XA.Z.l.l.l.x.x.x.x.l.l.l.l.l.l.l.l.h.h.h.h.f.f.f.f.h.h.h.f.f.f.h.h.D.D.D.D.Z.l.y.8.8.8.y.a.l.C.D.D.:Xj.W R [ k.k.d.k.g.d.d.g.k.N.A.x.l.l.l.l.l.l.l.l.l.l.l.l.l.l.l.l.l.l.l.x.x.x.x.x.l.l.l.x.x.x.x.l.u.l.l.l.l.l.l.l.l.l.l.l.l.l.l.l.l.l.l.l.l.l.l.l.l.l.l.l.l.l.l.l.l.l.l.l.l.l.x.l.l.l.l.l.l.l.l.l.l.l.l.l.l.s.s.y.r.8.8.8.y.l.Z.k.j.N.N.j.k.d.[ [ [ { d.g.k.k.h.u.u.l.x.S.D.l.x.u.u.u.u.l.l.l.l.l.u.l.l.l.l.l.l.l.l.l.l.u.y.y.u.d.k.N.-X-X-X-XN.k.k.d.[ [ d.k.h.s.u.i.y.i.s.C.D.C.C.C.C.C.C.C.C.l.l.l.l.l.l.l.l.l.l.l.l.l.l.l.x.l.l.l.l.l.l.l.l.l.l.l.l.u.y.y.y.y.a.C.D.D.D.D.Z.u.a.y.8.8.r.a.u.y.y.y.y.a.C.D.S.l.l.l.l.l.l.l.l.l.l.l.l.l.l.l.l.l.l.l.l.l.l.l.l.l.l.l.l.l.l.l.l.l.u.l.l.l.l.l.l.l.l.l.l.l.l.l.l.l.l.l.l.l.l.l.l.l.l.l.l.l.l.l.l.l.l.l.l.u.y.y.y.y.a.C.D.D.D.D.Z.u.a.y.8.8.y.a.u.u.y.y.y.y.l.x.x.l.l.l.l.l.l.l.C.OXOX|.lXjXCXSX",
"= X.W.`.vXvXvX`.K.o.;.4.Q W [ [ =.=.=.=.=.=.=.=.K K K K K K K K L L L L L L L L L L L L L L L L 8.9.y.9.8.U C k k k C K U =.8.8.Y N + + } s s } J N N N N J Y E =.=.=.=.=.=.=.=.=.=.=.=.=.=.=.=.=.=.=.=.=.=.=.=.=.=.=.=.=.=.=.=.K K K K K K K K K K K K K K K K K K K K K K K K K K K K K K K K =.=.=.=.=.=.=.=.K K K K K K K K U U U U U U U U C k a a k C U U r.r.r.] J N a i } } i i s a a s k K &.=.-.-.=.=.K K K K K K K K K K K K K K K K &.&.K K c k k k H J E ] r.r.] E a a i } } i a s H D C C D U 8.8.=.=.=.=.=.=.=.=.K K K K K K K K =.=.=.=.=.=.=.=.=.=.=.=.=.=.=.=.=.&.&.K K k k k C K =.8.9.8.8.8.s s : : : : p s C C k C K U 8.i.U U U U U U U U K K K K K K K K K K K K K K K K =.=.=.=.=.=.=.=.K K K K K K K K K K K K K K K K K K K K K K K K K K K K K K K K =.&.K K K k k k C K =.8.9.8.8.8.s s : : : : p s K z k k z K =.=.K K K K K K K U OXXXQ.(.jXJXJX",
"% 6 E.`.vXnXvX`...o.x d d Q T T K A A A A A A A k k k k k k k k k c c c c c c c c c c c c c c c U U U U D V : : : : : p V C G U C :   $   O O   i i : : : p M C k k k k k k k k A A A A A A A A A A A A A A A A A A A A A A A A k k k k k k k k k j k k k k k k k k k k k j k j k k k j k k k k A A A A A A A A k k k k k j k j C C C C C C C C : : : : : : M C 8.8.U P M : O         O O O + + h h k z A A z z k k k k k k k k k k k k j k k k z z k h h : : : p a C P U U D D + O         O + p : : : p V G U C C C C C C C C k k k k k k k k A A A A A A A A A A A A A A A A z z k h h : : : 2 p C G G G D C + . . . . . . + : : : : p C G U C C V V C C C C k k k k k j k j k k k k k k k k A A A A A A A A k k k k k j k j k k k j k k k k j j k k k k j j k k k k k j k j z z k h h : : : 2 p C G G G D C + . . . . . . + h h : : h h k A k k k k k k k V w..XQ.(.jXJXJX",
"% & K.'.vXAXvXlX..o.:.b Q Q W E K &.K K K K @.@.z z z z z z z z k c c c c c c c c c c c c c c C U U ( U G V 2 : : : 2 M V D G G ~ 2 . o . * . . : : : : : : 2 V l z z z z z z z K A A K A A A K &.&.K K K K @.@.&.&.K K K K @.@.z z z z z z z z z z z z z z z z z z z z z z z z z z z z z z z z &.&.&.&.K K K K z z z z z z z A C D D D D D D D 2 : : : : 2 V V q.7.7.G 2 : . o . . . * : : : : : h z z K A z z z z z z z z z z z z z z z z z z A A z j h : : : 2 2 V G G G G S : : * . . * : : : : : : M D U 7.D D D D C C D C A z z z z z z z &.&.&.&.A K A K K K K K &.&.&.&.K A z j h : : : 2 V C G G G G D : : + . . + : : : : : 2 M C G 7.D D D D D D D C A z z z z z z z z z z z z z z z &.&.&.&.K K K K z z z z z z z z z z z z z z z z z z z z z z z z z z z z z z z z K A z j h : : : 2 V C G G G G D : : + . . + : : h h : : h j z A z z z z z z z Z ' I.Y.(.jXJXJX",
"% & K.'.vXvXvX`.K.o.:.4.Q Q { [ =.*.*.*.*.*.*.*.@.@.@.@.@.@.@.&.K K K K L L L L K L K K L K K U 7.7.7.7.~ S M 2 2 2 2 S D G ~ 5.e.F - * - - - * 5 5 - - 5 5 4 F A A A A A A A A *.*.*.*.*.*.*.*.*.*.*.*.*.*.*.*.*.*.*.*.*.*.*.*.@.@.@.@.@.@.@.@.@.@.@.@.@.@.@.@.@.@.@.@.@.@.@.@.@.@.@.@.@.@.@.@.*.*.*.*.*.*.*.*.@.@.@.@.@.@.@.@.G ~ ~ ~ ~ ~ ~ ~ 2 2 2 2 2 S S G e.e.6.6.4 5 * o - - - 5 5 5 5 2 2 l z @.&.&.@.A @.@.@.@.@.@.@.@.@.@.@.@.@.@.@.@.*.*.&.z j : : : 4 4 F 6.6.6.6.#.4 5 - - - - 5 2 2 2 2 2 S ~ q.0.G G ~ G G G G G @.@.@.@.@.@.@.@.*.*.*.*.*.*.*.*.*.*.*.*.*.*.*.*.*.&.@.z j : : : V S G ~ 7.7.~ G M 2 2 : : 2 2 2 2 2 2 M S G 7.q.~ ~ ~ ~ ~ ~ ~ G $.@.@.@.@.@.@.@.@.@.@.@.@.@.@.@.*.*.*.*.*.*.*.*.@.@.@.@.@.@.@.@.@.@.@.@.@.@.@.@.@.@.@.@.@.@.@.@.@.@.@.@.@.@.@.@.*.&.@.z j : : : V S G ~ 7.7.~ G M 2 2 : : 2 2 2 k j h h j l A &.@.@.@.@.@.@.@.G ' I.Y.(.kXCXJX",
"u & K.'.xXxXxX(.T.6.;.4.Q Q { [ -.-.-.-.-.-.-.-.&.@.&.&.&.&.&.&.&.&.K K L L L L L L L L L L &.*.7.7.7.7.~ S 2 2 2 2 2 S S / ~ 5.e.o.- = = - = = 5 - - - - 5 3 3 @.A A A A A A A -.-.-.-.-.-.-.-.-.-.*.*.-.-.-.-.-.-.-.-.-.-.-.-.&.&.&.&.&.&.&.&.&.&.&.&.@.&.&.&.&.@.&.&.&.&.&.&.&.&.&.&.&.&.&.&.*.*.-.-.-.-.-.-.&.&.&.&.&.&.&.&.7.7.5.5.7.7.7.7.2 2 2 2 2 S S S 6.6.6.o.3 5 = = - - - - 5 5 5 5 2 j A @.&.&.@.A &.&.&.&.&.&.&.&.&.&.&.&.@.&.&.&.-.*.@.z j : : * 5 3 o.o.6.6.6.o.5 5 - - - - 5 5 : : 2 2 S ~ 9.0./ / / / / / / G &.&.&.&.&.&.&.&.*.*.-.-.-.-.-.-.-.-.-.-.-.-.-.-.*.*.@.z j : : * V S / ~ 7.7.~ ~ 2 2 : : : : 2 2 2 2 2 2 S G 7.q.7.7.7.7.5.5.5.7.*.&.&.&.&.&.&.&.&.&.&.&.&.&.&.&.*.*.-.-.-.-.-.-.&.&.&.&.&.&.&.&.&.&.&.&.&.&.&.&.&.&.&.&.&.&.&.&.&.&.&.&.&.&.&.&.*.*.@.z j : : * V S / ~ 7.7.~ ~ 2 2 : : : : 2 2 k j h : j l A &.&.&.&.&.&.&.&.5.w..XW.(.kXjXSX",
"u 6 K.'.xXvXxX'.K.o.;.4.Q W [ ] =.*.*.*.*.*.*.*.K K &.K &.K K K L L L L L L L L L L L L L L L U U 7.7.7.G V p : : 2 p M C D U ( 5.4 * o = = u u - - = = - 5 5 4 z x x x z z z z *.*.*.*.*.*.*.-.*.*.*.*.*.*.*.*.*.*.*.*.*.*.*.*.@.@.@.@.@.@.&.&.K K K K &.&.K K K &.K &.K &.K &.K &.K &.K &.K &.*.*.*.*.*.*.*.*.@.@.@.@.@.@.@.$.~ ~ ~ ~ ~ ~ ~ ~ 2 2 ; : 2 2 V S $.$.$.F 4 5 - = * = = = - - 5 : : k z K &.K K z &.&.&.K K K K K K &.K &.K &.K &.=.*.K z h : : : 2 4 F #.6.6.F 4 - - * * * = - - : : : 2 V U 8.i.P P D D D G G C $.@.@.@.@.@.@.@.*.*.*.*.*.*.*.*.*.*.*.*.*.*.*.*.=.*.K z h : : + a C D U ( ( G G ; ; O X . X : : 2 : 2 p M D ( _ ( ( ( ( ( ~ ~ G U K K K K K K &.K &.@.@.@.@.@.@.*.*.*.*.=.=.=.=.U K K K K @.@.@.K &.K &.K &.K &.K &.K &.K &.K &.&.&.&.&.&.&.&.&.-.&.&.k h : : : a C D U ( ( G G ; ; O X . X : : k h h h h k c K K K &.K &.K K U w..XW.(.kXjXDX",
"5 O.[.NXnXnXvX`...X.l x n H P G A l l l A =.>.y.>.>.u.u.f.h.h.h.f.f.f.f.f.f.f.f.f.f.f.f.f.f.f.u.l.C.C.z.z.y.=.K Y L E h.>XiXyX>XyXC.C : * * * = 3 #.5.5.G ( a.D.8X8X8X8Xc.f.<.=.=.=.=.U G Z G G C C C C C C C C C C C C C C C A z l z A *.y.l.l.u.u.u.u.u.f.f.u.D.r.H a H U P C i.i.p.s.a.r.) U C C C C G =.0.a.a.a.0.8.7.U G C G G G G G G G G G ( 7.G D U V.S.<X&X<XyXC.; . < # @ # 1 5.0.8.U K t.S.6X>XS.>X6XS.x.u.f.x.h.>.c H H H U ) i.C.Z.C.C.s.i.r.8.( Y K ,.S.6XF.S.oXoXV . . ; > X > ~ G q.8.K W <XuX2X;X1X:Xh.Y K =.0.q.8.U D C C G U C C C C C C C D U U P H P Y 8.r.i.r.r.8.) Y Y Y K t.A.6X>XS.F.yXm O   ; , X , ~ F q.q.C Y >XiXrX,X,X>Xu.K h j D a J g.M.s.p.p.s.H D D C C C C Z Z Z C U ) p.M.N.M.N.M.r.D j Z $.a U s.C.s.i.a.s.( U H C H U r.y.u.u.u.u.u.u.u.u.l.l.u.r.>.=.L L c ,.:XaXyX>XF.oXm O   ; , X , _ H t.>.c R :XyX6X6X>XS.x.h.t.>.) w..XQ.(.hXCXSX",
"5 O.[.NXnXnXnX`...X. .x c H / ! A l l z A =.>.u.>.,.t.d.k.k.j.j.k.f.f.f.f.f.f.f.f.f.f.f.f.f.f.u.l.z.l.l.z.y.=.L L L E f.<XaX2X-XpXM.N + . * * = 3 #.5.7.U Y p.-X9X5XwX%X&Xf.<.>.=.=.=.U G G / G G D D G D D D D D D D D D D D C A l z A *.y.l.x.u.u.f.f.k.k.k.k.D.i.P m P I I H i.p.p.s.p.i.) Y D C C C G 7.0.a.a.a.0.9.7.U G D D D D D D D D D G U 7.U C U a.S.*X@X*X0Xh.i X < # @ # 1 _ i.] J J t.-X7X,X-X,X7X-Xj.f.f.j.j.W v P P P I ) p.M.D.M.M.s.p.r.] ) Y T 1.$X,X,X>X>XyXm O   ; , X > ~ D >.>.v W 1XfX3X4X1X;Xj.E L =.q.9.7.U C C C D G D D D D D D D D P P H H P I ) r.i.i.r.] ) ) Y Y T 1.-X,X,X>X>XyXm O   ; , X > ~ Z -.-.c R :XuX2X,X,X-Xu.K h j A a W g.N.B.p.p.M.P P D D G G G S Z Z G U ] g.m.=Xm.N.B.r.P V Z $.a Y s.Z.b.p.p.b.) Y H N H Y r.p.u.u.u.u.u.u.u.u.x.x.u.u.>.>.L L d 1.-X0X7X>X>XeXm O   ; , X > _ J t.,.v R :XiX,X,X>X-Xc.h.d.,.] w..XQ.(.hXCXSX",
"5 O.[.NXnXnXnX`...X. .x c H / ! A l l z A =.>.u.>.,.t.k.k.j.j.j.k.f.f.f.f.f.f.f.f.f.f.f.f.f.f.u.l.z.z.z.z.-.=.L L L E f.<XaX2X-XpXM.N + . * * = 3 #.5.7.U Y p.A.9X5XwX%X&Xv.<.>.=.=.U U G G / G G D D D D D D D D D G G G G D C A l z A *.y.l.x.u.u.f.f.k.k.k.k.D.i.P m H I P N i.p.p.s.p.i.) Y D C C C G 7.0.a.a.a.0.9.7.U G D D D D D D D D D G U 7.U D U a.S.*X@X*X0Xh.i   < # @ # 1 _ i.] J J t.-X7X,X-X>X7X-Xj.f.f.j.j.W v P P P I ) p.M.D.M.b.s.p.r.] ) Y T 1.$X,X,X>X>XyXm O   ; , X > ~ D >.>.v W 1XfX3X4X1X1Xj.E L =.y.=.U D C V V C C G G D D D D D D H N m m N P Y ) i.i.r.] ) ) Y Y T 1.-X,X,X>X>XyXm O   ; , X > ~ Z -.-.c R -XuX2X,X,X-Xu.K h j A a W g.N.B.p.p.M.P P D D G G G S Z Z D P ] g.m.=Xm.N.B.r.P V V G a Y s.Z.b.p.p.b.) Y H N N I r.p.u.u.u.u.u.u.u.u.x.x.u.u.>.>.L L d 1.-X0X7X:X>XeXm O   ; , X > _ J t.,.v R -XiX,X,X,X-Xc.h.d.W ] w..XQ.(.jXCXSX",
"5 O.[.NXnXnXnX`...X.4 x c H / ! A l l z A =.>.y.>.t.t.k.k.j.j.j.k.f.f.f.f.f.f.f.f.f.f.f.f.f.f.u.z.z.z.z.y.=.L K L L E f.<XaX2X-XpXM.N + . * * = 3 #.5.7.U Y p.A.9X5XwX%X&Xf.<.>.Y Y Y U G G / G G D D D D D D D D D D G G G D C A l z A *.y.l.x.u.u.f.f.k.k.k.k.D.i.P m H I P N i.p.p.s.p.i.) Y D C C C G 7.0.a.a.a.0.9.7.U G D D D D D D D D D G U 7.U D U a.S.*X@X*X0Xh.i   < # @ # 1 _ i.] J J t.-X7X,X-X>X7X-Xj.f.f.j.j.W v P P P I ) p.M.D.M.M.s.p.i.] ) J T 1.$X,X,X>X>XyXm O   ; , X > ~ D >.>.v W 1XfX3X3X3X1Xj.,.L -.y.*.U C V M M V C G G G D D D D D H N m m m P I ) i.i.r.] ) ) Y Y T 1.-X,X:X>X>XyXm O   ; , X > ~ Z -.-.c R -XuX2X,X,X-Xu.K h j z a W g.N.B.p.p.M.P P D D G G G S Z Z D P ] g.m.=Xm.N.B.r.P V V G a Y b.Z.b.p.p.b.) Y H N N I r.p.u.u.u.u.u.u.u.u.x.x.u.u.>.>.L L d 1.-X0X7X:X>XeXm O   ; , X > _ J ,.,.v R -XiX7X,X,X-Xc.h.d.,.] w..XQ.(.jXCXSX",
"5 O.[.NXnXnXnX`...X. .x c H / ! C l j k A =.>.u.>.t.t.d.k.j.j.j.k.f.f.f.f.f.f.f.f.f.f.f.f.f.f.u.z.z.z.z.-.=.K c L L E h.<XaX2X-XpXM.N + . * * = 3 #.5.7.U Y p.A.9X5XwX%X&Xf.<.>.=.=.=.U G G / G G D G G D D D D D D G G G G G C A l z A *.y.l.x.u.f.f.f.k.k.k.k.D.i.P m P I P N i.p.p.b.p.i.) Y D C C C G 7.0.a.a.a.0.9.7.U G D D D D D D D D D G U 7.U D U a.S.*X@X*X0Xh.i   < # @ # 1 _ i.] J J ,.-X,X,X-X>X7X-Xj.f.f.j.j.W v P P P I ) p.M.D.M.b.s.p.r.] ) J T 1.-X,X,X>X>XyXm O   ; , X > ~ D >.>.v W 1XfX3X3X3X2X#X,.=.-.z.7.U G C V V C C G D D D D D D D H H N m N P Y ) i.i.r.] ) ) ) Y T 1.$X,X,X>X>XyXm O   ; , X > ~ Z -.-.c R -XuX2X,X,X-Xu.c h j z a W k.N.B.p.p.M.P P D G G G G S Z Z D P ] g.m.=Xm.N.B.r.H V V G a Y n.Z.b.i.p.b.) Y H m N Y r.p.u.u.u.u.u.u.u.u.x.l.u.t.>.E L L d 1.-X7X7X:X>XeXm O   ; , X > _ J ,.,.v R -XiX,X,X,X-Xc.h.d.,.] w..XQ.(.jXCXSX",
"5 O.[.NXnXnXnX`...X. .x c H / ! C l j k A =.>.u.>.t.t.f.k.j.j.j.k.f.f.f.f.f.f.f.f.f.f.f.f.f.f.u.y.q.q.y.-.=.c c L L E h.<XaX2X-XpXM.N + . * * = 3 #.5.7.U Y p.A.9X5XwX%X&Xv.<.>.=.=.=.U G G / G G D D G D D D D D D D G G G D C A l z A *.y.l.x.u.f.f.f.k.k.k.k.D.i.P m P I P N i.p.p.b.p.i.) Y D C C C G 7.0.a.a.a.0.9.7.U G D D D D D D D D D G U 7.U D U a.S.*X@X*X0Xh.i   < # @ # 1 _ i.] J J ,.-X,X,X-X>X7X-Xj.f.f.j.j.W v P P P I ) i.b.D.M.b.s.p.r.] ) J T 1.-X,X,X>X>XyXm O   ; , X > ~ D >.>.v W 1XfX3X3XtX2X-Xt.>.y.z.0.9.U G D G G U G D D D D D D D Y I P P P Y r.i.i.i.r.] ) ) ) Y T 1.$X,X,X>X>XyXm O   ; , X > ~ Z -.-.c R -XuX2X,X,X-Xu.c h j z a W B.N.B.p.p.M.P P D G G G Z Z Z Z D P ] g.m.=Xm.N.B.r.H V V G a Y p.Z.b.i.p.b.) Y H m N Y r.p.u.u.u.u.u.u.u.u.x.l.u.t.>.>.L L d 1.-X0X7X:X>XeXm O   ; , X > _ J ,.,.v R -XiX7X,X,X-Xc.h.d.,.] w..XQ.(.jXCXSX",
"5 O.[.NXnXnXnX`.L.X. .x c H / ! C l j k A =.>.u.>.t.t.f.k.j.j.j.k.f.f.f.f.f.f.f.f.f.f.f.f.f.f.u.q.q.-.q.-.=.c k L L E h.<XaX2X-XpXM.N + . * * = 3 #.5.7.U Y p.A.9XwXwX%X&Xf.<.>.=.=.=.U G G / G G D D D D D D D D D D D D G D C z l z A *.y.l.x.u.f.f.f.k.k.k.k.D.i.P m H I P N i.p.p.s.p.i.) Y D C C C G 7.0.a.a.a.0.9.7.U G C D D D D D D D D G U 7.U C U a.S.*X@X*X0Xh.i X < # @ # 1 _ i.] J J t.-X,X,X-X,X7X-Xj.f.f.j.j.W v P P P I ) p.M.D.M.M.s.p.r.] ) Y T 1.-X,X>X>X>XyXm O   ; , X > ~ D -.>.v W 1XfX3X3XtXtX-Xt.>.y.l.V.a.9.7.U ( 7.8.D D D D D D D D 8.] ) Y ) r.p.b.i.i.r.] ) ) Y Y T 1.$X,X,X>X>XyXm O   ; , X > ~ Z -.-.c R -XuX2X1X,X-Xu.K h j A a W B.N.B.p.p.M.P P D G G G C S Z Z G U ] g.m.=Xm.N.N.r.H M V G a Y p.Z.b.p.p.b.) I H m H Y r.p.u.u.u.u.u.u.u.u.x.x.u.u.>.>.L L d 1.-X0X7X:X>XeXm O   ; , X > _ J ,.,.v R -XiX,X,X>X-Xc.h.d.,.] w..XQ.(.jXCXSX",
"5 O.[.NXnXnXnX`.L.X. .x c H / ! C l l k A =.>.u.r.t.t.f.k.j.j.j.k.f.f.f.f.f.f.f.f.f.f.f.f.f.f.u.q.q.q.q.-.&.c k L L E h.<XaX2X-XpXM.N + . * * = 3 #.5.7.U Y p.A.9XwXwX%X&Xf.<.>.=.=.=.U G G G G G D D D D D D D D D D D D D D C z l z A *.y.l.x.u.f.f.f.k.k.k.k.D.i.P m H I P N i.p.p.s.p.i.) Y D C C C G 7.0.a.a.a.0.9.7.U G C D D D D D D D D G U 7.U C U a.S.*X@X*X0Xh.i X < # @ # 1 _ i.] J J ,.-X,X,X-X,X7X-Xj.f.f.j.j.W v P P P I ) i.M.D.M.b.p.p.r.] ) Y T 1.$X,X>X>X>XyXm O   ; , X > ~ D -.>.v W 1XfX3X3XgXtX-Xf.>.y.l.C.V.0.9.8.9.9.0.D D D D D D D D i.r.r.] r.p.b.M.i.i.r.] ) ) Y J T 1.$X,X,X>X>XyXm O   ; , X > ~ Z -.-.c R -XuX2X1X,X-Xu.K h j A a W B.N.B.p.p.M.P P D D G C Z Z Z Z D U ] g.m.=Xm.N.N.r.H V V G a Y p.Z.b.p.p.b.) I H N H Y r.p.u.u.u.u.u.u.u.u.x.l.u.r.>.>.L L d 1.-X0X7X:X>XeXm O   ; , X > _ P ,.,.v R -XiX,X7X>X:Xc.h.d.,.] w..XQ.(.jXCXSX",
"5 O.[.NXnXnXnX`...X. .x c H / / C l l z A =.>.u.>.t.t.f.f.j.j.j.j.j.j.j.j.j.j.j.f.h.j.j.j.d.,.>.K @.@.&.K K K L L L E f.<XaX2X-XsXM.N O . * * = 3 #.5.7.U Y p.A.%X%X%X%X$Xv.f.u.r.8.8.U G D S S G D D D D D D D D D D D D D D C A A A A &.>.u.l.x.x.h.j.j.j.j.j.D.i.P m H I P N i.p.p.s.p.i.) Y D C C C G 7.0.a.a.a.0.9.7.U G D D D D D D D D D G U 7.U D U a.S.*X@X*X0Xh.i X < # @ # 1 _ i.] J J t.-X,X,X-X,X7Xc.f.d.f.c.j.t.R P P P I ) p.M.D.M.M.b.p.r.) ) Y f 1.-X0X7X:X>XeXm O   ; , X > ~ D >.>.v W 1XfX3X3X1X1X-XA.x.l.z.a.0.7.U U U ( 7.U G C V V C G U H P I ) r.p.b.b.M.M.s.p.r.] ) J f 1.-X0X7X:X>XeXm O   ; , X > ~ Z -.-.c R -XuX2X,X,X-Xu.K h j A a W B.N.B.p.p.M.P P D D G G G S Z Z G U ] g.m.=Xm.N.B.r.H V S G a Y p.Z.b.p.p.b.I I P P P Y ] i.x.x.x.x.x.x.x.x.x.x.u.u.>.>.L L d 1.-X0X7X:X>XeXm O   ; , X > _ J ,.,.v R -XiX,X,X>X-Xc.h.d.,.] w..XQ.(.jXCXSX",
"5 O.[.NXnXnXnX`...X. .x c H / / C l l z A =.>.u.r.t.t.f.f.j.j.j.j.j.j.j.j.j.j.j.f.h.j.j.j.d.,.>.K @.@.&.K K K L R R E f.<XaX2X-XsXM.N O . * * = 3 #.5.7.U Y p.A.%X%X%X%X$Xv.f.u.r.r.8.( G G S V G D D D D D D D D D D D D D D C A A A A &.>.u.l.x.x.h.j.j.j.j.j.D.i.P m H I P H i.p.p.s.p.i.) ( D C C C G 7.0.a.a.a.0.9.7.U G D D D D D D D D D G U 7.U C U a.S.*X@X*X0Xh.i X < # @ # 1 _ i.] J J t.-X,X,X-X,X7Xc.f.d.f.c.j.t.R P P P I ) p.M.D.M.M.s.p.r.) ) Y f 1.-X0X7X:X>XeXm O   , , X > ~ D >.>.v W 1XfX3X3X1X1X-XA.x.u.z.a.0.9.( U U 7.7.U G C V V C G U H P I ) r.p.b.b.M.M.p.i.r.] ) J f 1.-X0X7X:X>XeXm O   ; , X > ~ Z -.-.c R -XuX2X,X,X-Xu.K h j A a W g.N.B.p.p.M.P P D D G G G S Z Z G U ] g.m.=Xm.N.B.r.H V S G a Y p.Z.b.p.p.b.Y I P P P Y ] i.x.x.x.x.x.x.x.x.x.h.u.u.>.>.L L d 1.-X0X7X:X>XeXm O   ; , X > _ J ,.,.v R -XiX,X,X>X-Xc.h.d.,.] w..XQ.(.jXCXSX",
"5 O.[.NXnXnXnX`...X. .x c H / ! C l l z A =.>.u.>.t.t.d.f.j.j.j.j.j.j.j.j.j.j.j.f.h.j.j.j.d.,.>.K @.@.A K K K L R R E f.<XaX2X-XsXM.N O . * * = 3 #.5.7.U Y p.-X%X%X%X$X$Xv.,.<.r.r.8.7.( G S S G D D D D D D D D D D D D D D C A A A A &.-.u.l.x.x.j.j.j.j.j.j.D.i.P m H I P H i.p.p.s.p.i.) ) D C C C G 7.0.a.a.a.0.9.7.U G D D D D D D D D D G ( 7.U C U a.S.*X@X*X0Xh.i   < # @ # 1 _ i.] J J t.-X,X,X-X>X7Xc.f.d.f.c.j.t.R P P P I ) p.M.D.M.M.s.p.r.) ) Y f 1.-X0X7X>X>XeXm O   ; , X > ~ D >.>.v W 1XfX3X3X3X1X-Xc.l.u.z.V.a.9.7.( 7.7.9.U U D C C D U U P Y ) ] i.p.p.b.M.M.p.i.r.] ) Y f 1.-X0X7X:X>XeXm O   ; , X > ~ Z -.-.c R -XuX2X,X,X-Xu.K h j A a W g.N.B.p.p.M.P D D D G G G S Z Z D P ] g.m.=Xm.N.B.r.H V S G a Y s.Z.b.p.p.b.Y I P P P Y ] i.x.x.x.x.x.x.x.x.x.u.u.u.>.>.L L d 1.-X0X7X:X>XeXm O   ; , X > _ J ,.,.v W -XiX,X,X>X-Xc.h.d.,.] w..XQ.(.jXCXSX",
"5 O.[.NXnXnXnX`.L.X. .x c H / / C l l z A =.>.u.>.t.t.d.f.j.j.j.j.j.j.j.j.j.j.j.f.h.j.j.j.d.,.>.K @.@.A K K K L R R E f.<XaX2X-XsXM.N O . * * = 3 #.5.7.U Y p.-X%X$X%X$X$Xv.,.<.u.y.9.7.7.~ G D G D D D D D D D D D D D D D D C A A A A &.-.u.l.x.x.j.j.j.j.j.j.D.i.P m H I P H i.p.p.s.p.i.) ) D C C C G 7.0.a.a.a.0.9.7.U G D D D D D D D D D G U 7.U C U a.S.*X@X*X0Xh.i   < # @ # 1 _ i.] J J t.-X,X,X-X,X7Xc.f.d.f.c.j.t.R P P P I ) p.M.D.M.M.s.i.r.) ) Y f 1.-X0X7X:X>XeXm O   ; , X > ~ D >.>.v W 1XfX3X3X3X1X-Xc.l.u.z.V.a.0.9.7.7.9.9.7.U G C C G U 7.) ) ] r.i.p.p.s.M.M.p.i.r.] ) Y f 1.-X0X7X:X>XeXm O   ; , X > ~ Z -.-.c R -XuX2X1X,X-Xu.K h j A a W g.N.B.p.p.M.P P D D C G G S Z Z D P ] g.m.=Xm.N.B.r.H V Z $.a Y s.Z.b.p.p.b.I I P P P Y ] i.x.x.x.x.x.x.x.x.x.h.u.u.>.>.L L d 1.-X0X7X:X>XeXm O   ; , X > _ J ,.,.v W -XiX,X,X>X-Xc.h.d.,.] w..XQ.(.jXCXSX",
"5 O.[.NXnXnXnX`...X. .x c H / ! C l l z A =.>.r.>.t.t.d.f.j.j.j.j.j.j.j.j.j.j.j.f.h.j.j.j.d.,.>.K @.@.K K K K L L L E h.<XaX2X-XsXM.N O . * * = 3 #.5.7.U Y p.-X%X%X%X$X&Xv.,.<.u.a.i.9.7.~ / G G D D D D D D D D D D D D G G C A A A A &.-.y.l.x.x.h.j.j.j.j.j.D.i.P m H I P H i.p.p.b.p.i.) Y D C C C G 7.0.a.a.a.0.9.7.U G D D D D D D D D D G U 7.U C U a.S.*X@X*X0Xh.i   < # @ # 1 _ i.] J J t.-X,X,X-X,X7Xc.f.d.f.j.j.t.R P P P I ) i.b.D.M.M.p.i.i.] ) Y f 1.-X0X7X:X>XeXm O   ; , X > ~ D -.>.v W 1XfX3X3X1X1X-Xc.l.z.z.C.V.a.9.9.9.9.0.7.7.U G G U 7.8.r.r.i.i.p.p.p.p.M.b.p.i.r.] ) Y f 1.-X0X7X>X>XeXm O   ; , X > ~ Z -.-.c E -XuX2X1X,X-Xu.K h j A a W g.N.B.p.p.M.P P D G C G G S Z Z D P ] g.m.=Xm.N.N.r.H V Z $.a Y s.Z.b.p.p.b.Y I P P P Y ] i.x.x.x.x.x.x.x.x.x.u.u.r.>.>.L L d 1.-X0X7X:X>XeXm O   ; , X > _ J ,.,.v W :XiX7X,X,X-Xc.h.d.,.] w..XQ.(.jXCXSX",
"5 O.[.NXnXnXnX`...X. .x c H / ! A l l z A =.>.r.>.t.t.d.f.j.j.j.j.j.j.j.j.j.j.j.f.f.j.j.j.d.,.>.K @.@.K K K K L L L E h.<XaX2X-XsXM.N O . * * = 3 #.5.7.U Y p.A.%X%X%X$X&Xv.,.<.l.u.a.0.7.7.~ ~ G D D D D D D D D D D D D G G C @.A A K &.-.y.l.x.x.h.j.j.j.j.j.D.i.P m H I P H i.p.p.s.p.i.) Y D C C C G 7.0.a.a.a.0.9.7.U G D D D D D D G D D G U 7.U C U a.S.*X@X*X0Xh.i   < # @ # 1 _ i.] J J t.-X,X,X-X,X7Xc.f.d.f.j.j.t.R P H P I ) i.b.D.M.b.p.i.r.] ) Y f 1.-X0X7X:X>XeXm O   ; , X > ~ D -.>.v W 1XfX3X3X1X1X-Xc.l.z.z.C.V.a.0.9.9.0.a.9.7.U U U U 7.9.a.p.p.p.p.p.p.p.M.M.p.i.r.) ) Y f 1.-X0X7X>X>XeXm O   ; , X > ~ Z -.-.c E :XuX2X1X,X-Xu.K h j A a W B.N.B.p.p.M.P P D G C C S S Z Z D P ] g.m.=Xm.N.B.r.P V Z $.a Y n.Z.b.p.p.b.Y I P P P Y ] i.x.x.x.x.x.x.x.x.x.l.u.u.>.>.L L d 1.-X0X7X>X>XeXm O   ; , X > _ J ,.,.v W :XiX,X,X,X-Xc.h.d.,.] w..XQ.(.jXCXSX",
"5 O.[.NXnXnXnX`...X. .x c H / ! A l l z A =.>.r.>.t.t.k.f.j.j.j.j.j.j.j.j.j.j.j.f.h.j.j.j.d.,.>.K @.@.&.K K K L L L E h.<XaX2X-XsXM.N O . * * = 3 #.5.7.U Y p.A.%X%X%X$X&Xv.,.<.l.l.a.0.9.7.5.~ G D D D D D D D D D G D D D G C @.@.A K &.>.y.l.x.x.j.j.j.j.j.j.D.i.P m H I P H i.p.p.s.p.i.) Y D C C C G 7.0.a.a.a.0.9.7.U G D D D D D D D D D G U 7.U D U a.S.*X@X*X0Xh.i   < # @ # 1 _ i.] J J t.-X7X>X-X,X7Xc.f.d.f.j.j.t.R P P P I ) p.M.D.M.b.s.p.r.] ) Y f 1.-X0X7X:X>XeXm O   ; , X > ~ D >.>.v W 1XfX3X3X1X1X-Xc.l.z.z.C.C.a.0.9.0.a.a.9.8.7.U U 7.8.9.b.b.s.s.p.p.p.p.Z.M.s.i.r.] ) Y f 1.-X0X7X:X>XeXm O   ; , X > ~ Z -.-.c R -XuX2X,X,X-Xu.K h j A a W B.N.B.p.p.M.P D D D G G G S Z Z G U ] g.m.=Xm.N.B.r.H V V G a Y p.Z.b.p.p.b.Y I P P I Y ] i.x.x.x.x.x.x.x.x.x.x.u.u.>.>.L L d 1.-X0X7X>X>XeXm O   ; , X > _ J ,.,.v R -XiX7X,X,X-Xc.h.d.,.] w..XQ.(.jXCXSX",
"5 O.[.NXnXnXvX`...X.%.x n H G S Z l l z A =.y.r.r.t.u.u.f.h.j.j.j.h.j.h.j.h.j.h.f.h.j.h.h.f.,.>.K @.@.&.K K K L L L E h.<XaX2X-XsXM.N O . * * = 3 #.5.7.U Y p.A.%X%X%X%X$Xj.f.,.x.l.u.i.9.7.7.( D D D D D D D D D D G D G G G D K A K K =.>.u.l.x.x.x.j.j.j.j.j.D.i.P m H I P H i.p.p.s.p.i.) Y D C C C G 7.0.a.a.a.0.9.7.U G D D D D D D D D D G U 7.U D U a.S.*X@X*X0XM.i   < # @ # 1 _ i.] J J t.-X7X>X-X>X7Xc.f.d.f.j.j.t.R P P P I ) p.M.D.M.M.s.p.i.] ) J f 1.-X0X7X:X>XeXm O   ; , X > ~ K >.>.v W ;XuX3X3X1X;X-Xc.x.u.u.Z.C.s.i.i.y.i.a.r.8.( U U Y 8.r.b.s.b.s.s.p.p.p.Z.Z.s.p.r.] Y Y f 1.-X0X7X>X>XeXm O   ; , X > ~ Z -.-.c R :XuX2X,X,X-Xu.K h j z a W B.N.M.p.p.b.P D G G G S S F F Z G U ] g.m.=Xm.N.B.r.H V V G a Y p.Z.s.p.p.s.Y I P H P Y ] r.x.x.x.x.x.x.x.x.x.x.u.u.>.>.L L d 1.-X0X7X>X>XeXm O   ; , X > _ H ,.,.v R -XaX,X,X<X-Xc.h.t.>.8.w..XQ.(.jXCXSX",
"& X.W.bXvXnXvX`...o.@.x x j 4 4 V V V C G G U U U U 8.9.i.s.C.l.u.u.u.u.u.u.u.u.x.u.u.u.x.x.t.L K @.@.A K K K L L L E f.<XaX2X-XsXM.N O . * * = 3 #.5.7.U ) p.A.;X1X1X;X-Xj.d.t.h.h.u.r.8.=.U U U U G G C C V V D D D D D D D D =.=.L =.>.u.l.x.u.u.u.u.u.u.u.u.M.p.) H m N P I i.p.p.b.p.i.) Y D C C C G 7.0.a.a.a.0.9.7.U G D D D D D D D D D G U 7.U C U a.S.*X@X*X0Xh.i   < # @ # 1 _ i.] J J t.-X,X,X-X,X7Xf.t.W t.f.f.W v P P P I ) p.M.D.M.M.s.i.r.] ) J f 1.-X0X7X:X>XeXm O   ; , X > _ H ,.,.v W <XuX,X,X,X<X-XA.h.h.f.x.x.h.x.h.x.h.x.t.t.t.t.t.t.t.r.x.x.x.x.x.x.x.x.x.h.u.u.r.>.Y L d 1.-X0X7X:X>XeXm O   ; , X > ~ Z -.-.c R -XuX2X,X,X-Xu.c h j z a I g.M.b.p.a.C.D G G S F F F F F Z G P ] g.m.=Xm.N.N.] P V V $.s L p.x.u.u.u.u.L K H c K L E >.x.x.x.x.x.x.x.x.x.x.u.u.>.>.L L d 1.-X0X7X:X>XeXm O   ; , X > ~ C -.-.c R -XuX2X2X,X-Xc.h.y.-.7.w..XQ.(.jXCXSX",
"& X.W.`.vXvXbX}.O.o.:.x x j 4 3 V V C C G G U U U ( 7.9.0.a.V.C.u.u.u.u.u.u.u.u.x.u.u.u.x.x.r.L K @.@.K K K K L L L E f.<XaX2X-XsXM.N O . * * = 3 #.5.7.U ) p.=X1X1X1X1X;X#Xk.d.j.h.u.u.>.=.L K U U G G C C V V D D D D D D D D =.R L L >.u.x.x.u.u.u.u.u.u.u.u.b.p.) H m N P I i.p.p.b.p.i.) Y D C C C G 7.0.a.a.a.0.9.7.U G D D D D D D D D D G U 7.U D U a.S.*X@X*X0Xh.i   < # @ # 1 _ i.] J J t.-X,X,X-X,X7Xf.t.W t.f.f.W v P P P I ) p.M.D.M.M.p.i.r.] ) J f 1.-X0X7X>X>XeXm O   ; , X > _ J ,.,.v W -XiX,X,X,X:X-Xc.j.f.f.j.j.j.j.j.j.j.j.t.t.t.t.t.t.t.t.x.x.x.x.x.x.x.x.x.h.u.u.>.>.L L d 1.-X0X7X:X>XeXm O   ; , X > ~ Z -.-.c R -XuX2X,X,X-Xu.c h j z a I p.M.b.i.a.V.G G S F F F F F F Z G U ] g.m.=Xm.N.N.] H V V $.s L u.x.u.u.u.u.L K c c K L >.>.x.x.x.x.x.x.x.x.x.l.u.u.>.>.L L d 1.-X0X7X:X>XeXm O   ; , X > ~ Z -.-.c R -XuX2X2X,X-Xx.l.q.-.5.w..XQ.(.jXCXSX",
"& X.W.`.vXvXbX}.O.o.:.x x l 4 3 V V C C G G U U U ( 7.9.0.a.V.C.u.u.u.u.u.u.u.u.x.u.u.u.x.x.u.L @.@.@.K K K K L L L E f.<XaX2X-XsXM.N O . * * = 3 #.5.7.U ) p.=X1X1X1X1X;X#Xk.d.j.h.u.u.>.=.K K U U G G C C V V D D D D D D D D =.>.L >.>.u.x.x.u.u.u.u.u.u.u.u.b.p.Y H m N P I i.p.p.b.p.i.) Y D C C C G 7.0.a.a.a.0.9.7.U G D D D D D D D D D G U 7.U D U a.S.*X@X*X0Xh.i X < # @ # 1 _ i.] J J t.-X,X,X-X,X7Xf.t.,.t.f.f.W v P P P I ) p.M.D.M.b.p.i.r.] ) Y f 1.-X0X7X:X>XeXm O   ; , X > _ J ,.,.v W :XiX,X,X,X-X-Xc.j.h.f.j.j.j.j.j.j.j.j.d.d.d.d.d.d.d.t.x.x.x.x.x.x.x.x.x.u.u.u.>.>.L L d 1.-X0X7X>X>XeXm O   , , X > ~ Z -.-.c R -XuX2X,X,X-Xu.K h j A a I s.M.b.i.a.V.G S F F F F F F F Z G U ] g.m.=Xm.N.B.r.H V V $.s L u.x.u.u.u.u.L K c c v L >.>.x.x.x.x.x.x.x.x.x.l.u.r.>.E L L d 1.-X0X7X>X>XeXm O   , , X > ~ Z -.-.c R -XuX2X2X,X-Xx.x.q.-.5.w..XQ.(.jXCXSX",
"& X.W.`.vXvXbX}.P.o.:.n x x 4 3 V V C C G G U U U ( 7.9.0.a.V.C.u.u.u.u.u.u.u.u.x.u.u.u.x.x.r.L @.@.@.K K K K L L L E f.<XaX2X-XsXM.N O . * * = 3 #.5.7.U Y p.-X1X1X1X1X;X#Xk.d.j.h.u.u.>.=.L K U U G G C C V V D D D D D D D D =.R L >.>.u.x.x.u.u.u.u.u.u.u.u.b.p.Y H m N P I i.p.p.s.p.i.) Y D C C C G 7.0.a.a.a.0.9.7.U G D D D D D D D D D G U 7.U D U a.S.*X@X*X0Xh.i X < # @ # 1 _ i.] J J ,.-X,X,X-X,X7Xf.t.W t.f.f.W v P P P I ) p.M.D.M.b.p.p.r.] ) Y f 1.-X0X7X:X>XeXm O   ; , X > _ J t.,.v W :XiX,X,X,X-X-Xc.j.f.f.j.j.j.j.j.j.j.j.d.d.d.d.d.d.d.f.x.x.x.x.x.x.x.x.x.u.u.u.>.>.L L d 1.-X0X7X:X>XeXm O   , , X > ~ Z -.-.c R -XuX2X1X,X-Xu.K h j A a I b.M.b.i.a.V.G S F F F F F F F Z G U ] g.m.=Xm.N.B.r.H V V $.s L u.x.u.u.u.u.L K c c K L >.>.x.x.x.x.x.x.x.x.x.l.u.r.>.E L L d 1.-X0X7X:X>XeXm O   , , X > ~ Z -.-.c R -XuX2X2X,X-Xx.l.q.-.5.w..XQ.(.jXCXSX",
"& X.W.lXAXvXbX}.P.o.:.:.:.z #.4 S V C C G G U U U ( 7.9.0.a.V.C.u.u.u.u.u.u.u.u.x.u.u.u.x.x.r.L @.@.@.K K K K K L L E h.<XaX2X-XsXM.N O . * * = 3 #.5.7.U Y p.-X1X1X1X1X;X#Xk.d.j.h.u.u.>.=.=.K U U G G C C V V D D D D D D D D =.Y L >.>.u.x.x.u.u.u.u.u.u.u.u.b.p.) H m N P I i.p.p.s.p.i.) Y D C C C G 7.0.a.a.a.0.9.7.U G D D D D D D D D D G U 7.U C U V.S.*X@X*X0XM.i   < # @ # 1 _ i.] J J t.-X,X,X-X,X7Xf.t.W t.f.f.W v P P P I ) i.b.D.M.M.p.i.r.) ) Y f 1.-X0X7X:X>XeXm O   ; , X > _ J ,.,.v R -XiX,X,X,X-X-Xc.j.f.f.j.j.j.j.j.j.j.j.f.f.f.f.f.f.f.f.x.x.x.x.x.x.x.x.x.u.u.r.>.>.L L d 1.-X0X7X:X>XeXm O   ; , X > ~ Z q.-.c R -XuX2X1X,X-Xu.K h j A a I s.Z.b.i.a.V.G G S F F F F F F Z G U ] g.m.=Xm.N.B.r.H V S $.s L u.x.u.u.u.u.L K c c K L >.>.x.x.x.x.x.x.x.x.x.x.u.u.>.>.L L d 1.-X0X7X:X>XeXm O   ; , X > ~ Z q.-.c R -XuX2X2X,X-Xx.l.q.-.5.w..XQ.(.jXCXSX",
"& X.W.lXAXvXbX}.T.6.:.:.:.@.#.#.S V C C G G U U U ( 7.9.0.a.V.C.u.u.u.u.u.u.u.u.x.u.u.u.x.x.r.L K @.@.K K K K K L L E h.<XaX2X-XsXM.N O . * * = 3 #.5.7.U Y p.-X1X1X1X1X;X#Xk.d.j.h.u.u.>.=.=.K U U G G C C V V D D D D D D D D =.Y L Y >.u.x.x.u.u.u.u.u.u.u.u.b.p.) H m N P I i.p.p.s.p.i.) Y D C C C G 7.0.a.a.a.0.9.7.U G D D D D D D D D D G U 7.U C U a.S.*X@X*X0Xh.i   < # @ # 1 _ i.] J J t.-X,X,X-X>X7Xf.t.,.t.f.f.W v P P P I ) i.b.D.M.M.p.p.r.) ) Y f 1.-X0X7X:X>XeXm O   ; , X > _ P ,.,.v R -XiX,X,X,X-X-Xc.j.f.f.j.j.j.j.j.j.j.j.h.h.h.h.h.f.h.h.x.x.x.x.x.x.x.x.x.l.u.u.>.>.L L d 1.-X0X7X:X>XeXm O   ; , X > ~ Z q.-.c R -XuX2X,X,X-Xu.K h j A a I s.Z.b.i.a.V.G G F F F F F F F Z G U ] g.m.=Xm.N.B.r.H V S $.s L u.x.u.u.u.u.L K c c K L >.>.x.x.x.x.x.x.x.x.x.h.u.t.>.>.L L d 1.-X0X7X:X>XeXm O   ; , X > ~ Z q.-.c R -XuX2X2X,X-Xx.l.q.-.5.w..XQ.(.jXCXSX",
"& X.W.lXAXvXbX}.T.6.;.:.:.&.#.6.S V C C G G U U U ( 7.9.0.a.V.C.u.u.u.u.u.u.u.u.x.u.u.u.x.x.r.L K @.@.K K K K K L L E h.<XaX2X-XsXM.N O . * * = 3 #.5.7.U Y p.A.1X1X1X1X;X#Xk.d.j.h.u.r.>.=.L K U U G G C C C V D D D D D D D D =.Y L Y >.u.x.x.u.u.u.u.u.u.u.u.b.p.) H m N P I i.p.p.s.p.i.) Y D C C C U 7.0.a.a.a.0.9.7.U G D D D D D D D D D G ( 7.U C U a.S.*X@X*X0XM.i   < # @ # 1 _ i.] J J t.-X,X,X-X>X7Xf.d.W t.h.f.W v P P P I ) i.M.D.M.M.s.p.r.) ) Y f 1.-X0X7X:X>XeXm O   ; , X > _ J ,.,.v R -XiX,X,X,X-X-Xc.j.f.f.j.j.j.j.j.j.j.j.j.j.j.j.j.j.j.h.x.x.x.x.x.x.x.x.x.x.u.u.>.>.L L d 1.-X0X7X:X>XeXm O   ; , X > ~ Z q.-.c R -XuX2X,X,X-Xu.K h j A a I s.Z.b.i.a.V.G G S F F 3 F F F Z G U ] g.m.=Xm.N.B.r.H V S $.s L u.x.u.u.u.u.L K c c K L >.>.x.x.x.x.x.x.x.x.x.x.u.u.>.>.L L d 1.-X0X7X:X>XeXm O   ; , X > ~ Z q.-.c R -XuX2X2X,X-Xx.l.q.-.5.w..XQ.(.jXCXSX",
"& X.W.lXAXvXbX}.T.6.;.:.:.&.#.6.S V C C G G U U U ( 7.9.0.a.V.C.u.u.u.u.u.u.u.u.x.u.u.u.x.x.r.L &.@.@.K K K K K L L E h.<XaX2X-XsXM.N O . * * = 3 #.5.7.U Y p.A.1X1X1X1X;X#Xk.d.h.h.u.u.>.=.=.K U U G G C C V V D D D D D D D D =.Y Y >.>.u.x.x.u.u.u.u.u.u.u.u.b.p.) H m N P I i.p.p.b.p.i.) Y D C C C G 7.0.a.a.a.0.9.7.U G D D D D D D D D D G U 7.U C U a.S.*X@X*X0XM.i   < # @ # 1 _ i.] J J t.-X,X,X-X,X7Xf.d.W t.f.f.W v P P P I ) p.M.D.Z.M.s.p.r.) ) Y f 1.-X0X7X:X>XeXm O   ; , X > _ J ,.,.v R -XiX,X7X,X-X-Xc.j.f.f.j.j.j.j.j.j.j.j.j.j.j.j.j.j.j.h.x.x.x.x.x.x.x.x.x.x.u.u.>.>.L L d 1.-X0X7X:X>XeXm O   ; , X > ~ Z -.-.c R -XuX2X1X,X-Xu.K h j A a I s.Z.b.i.a.V.G G S F F 3 F F F Z D P ] g.m.=Xm.N.B.r.H V S $.s L u.x.u.u.u.u.L L c c K L >.>.x.x.x.x.x.x.x.x.x.x.u.u.>.>.L L d 1.-X0X7X:X>XeXm O   ; , X > ~ Z -.-.c R -XuX2X2X,X-Xx.l.q.-.5.w..XQ.(.jXCXSX",
"% | R.`.vXvXbX'.I.6.:.:.<.-.#.3 G D D D D D D D U U ( 7.9.9.9.0.>.>.u.x.x.x.u.u.u.x.x.x.x.u.>.>.j j j z z K K L L L E f.<XaX2X-XsXM.N O . * * = 3 #.5.7.U ) p.-X1X1X1X1X;X#Xk.d.j.h.u.u.>.=.K K 8.U G C V V C C U G D D G U 8.9.r.>.u.u.u.u.x.x.x.x.u.u.u.u.r.r.p.i.) I H N H P i.p.p.s.p.i.) Y D C C C G 7.0.a.a.a.0.9.7.U G D D D D D D D D D G U 7.U C U a.S.*X@X*X0XM.i X < # @ # 1 _ i.] J J t.-X7X>X-X,X7Xf.t.W d.f.f.W v P P P I ) p.M.D.M.M.s.p.r.] ) Y T 1.$X,X,X>X>XyXm O   ; , X > _ J ,.,.v W :XiX,X7X,X-X-Xc.j.f.f.j.j.j.j.j.j.j.j.j.j.j.j.j.j.j.h.x.x.x.x.x.x.x.x.x.x.u.u.>.E L L d 1.-X0X7X:X>XeXm O   ; , X > ~ Z -.-.c R -XuX2X,X,X-Xu.K h j z a I s.Z.b.i.a.V.G G S F F 3 F F F Z D P ] g.m.=Xm.N.B.] P V V $.s L u.x.u.u.u.u.L L c c K L >.>.u.u.u.u.u.u.u.u.x.x.u.u.>.>.L L d 1.-X0X7X:X>XeXm O   ; , X > ~ Z -.-.c R -XuX2X2XaX7Xc.>.&.*.q.e..XQ.(.hXJXJX",
"% | R.`.vXvXvX'.I.6.:.:.<.-.#.3 S D D D G D D D U U U 7.8.9.9.9.>.>.u.x.x.x.u.u.u.u.u.u.u.r.>.L j j j z z K K L R R E f.<XaX2X-XsXM.N O . * * = 3 #.5.7.U ) p.-X1X1X1X1X;X#Xk.d.j.h.u.u.>.=.L K 8.U G C V V C C U G D D G U 8.9.r.r.u.u.u.u.x.x.x.x.u.u.u.u.r.r.p.i.) I H N H P i.p.p.s.p.i.) Y D C C C G 7.0.a.a.a.0.9.7.U G D D D D D D D D D G U 7.U C U a.S.*X@X*X0Xh.i X < # @ # 1 _ i.] J J t.-X7X,X-X,X7Xf.t.W t.f.f.W v P P P I ) p.M.D.M.b.s.p.r.] ) Y T 1.$X,X,X>X>XyXm O   ; , X > _ J ,.,.v W :XiX,X,X,X-X-Xc.j.h.f.j.j.j.j.j.j.j.j.j.j.j.j.j.j.j.h.x.x.x.x.x.x.x.x.x.l.u.u.>.>.L L d 1.-X0X7X>X>XeXm O   ; , X > ~ Z -.-.c R -XuX2X,X,X-Xu.K h j A a I s.Z.b.i.a.V.G G S F F 3 F F F Z D P ] g.m.=Xm.N.B.] P V Z $.s L u.x.u.u.u.u.L L c c K L >.>.u.u.u.u.u.u.u.u.x.x.u.u.>.>.L L d 1.-X0X7X>X>XeXm O   ; , X > ~ Z -.-.c R -XuX2X2XaX,Xx.>.K *.q.e..XQ.(.hXJXJX",
"% | R.`.vXvXbX'.I.6.:.:.<.-.#.3 S D D D G D D D G U U ( 7.8.9.8.>.>.u.x.x.x.u.u.>.>.>.r.>.>.L K j j j z z K K L R R E f.<XaX2X-XsXM.N O . * * = 3 #.5.7.U ) p.-X1X1X1X1X;X#Xk.d.j.h.u.r.>.=.L K 8.U G C V V C C U G D D G U 8.9.r.r.u.u.u.x.x.x.x.x.l.u.u.u.>.>.p.i.) I H N H P i.p.p.s.p.i.) Y D C C C G 7.0.a.a.a.0.9.7.U G D D D D D D D D D G U 7.U C U a.S.*X@X*X0Xh.i   < # @ # 1 _ i.] J J t.-X7X,X-X,X7Xf.t.W t.f.f.W v P P P I ) p.M.D.M.b.s.p.r.] ) Y T 1.$X,X,X>X>XyXm O   ; , X > _ J ,.,.v R -XiX,X7X,X-X-Xc.j.h.f.j.j.j.j.j.j.j.j.j.j.j.j.j.j.j.h.x.x.x.x.x.x.x.x.x.l.u.u.>.E L L d 1.-X0X7X:X>XeXm O   ; , X > ~ Z -.-.c R -XuX2X,X,X-Xu.c h j A a I s.Z.b.i.a.V.G G S F F 3 F F F Z D P ] g.m.=Xm.N.B.r.H V V $.s L u.x.u.u.u.u.L L c c K L >.>.u.u.u.u.u.u.u.u.x.x.u.u.>.>.L L d 1.-X0X7X:X>XeXm O   ; , X > ~ Z -.-.c R -XuX2X2X0X,Xx.=.A @.q.e..XQ.(.jXJXJX",
"% | R.`.vXvXbX'.!.6.;.4.<.z.5.3 S D D D G G D D G G G U ( 7.7.8.>.>.u.x.x.x.u.u.L L >.>.L L c k j j j z z K K L R R E f.<XaX2X-XsXM.N O . * * = 3 #.5.7.U ) p.-X1X1X1X1X;X#Xk.d.h.h.u.r.>.=.L K 8.U G C V V C C U G D D G U 8.9.r.>.u.u.u.x.x.x.x.x.x.u.u.u.>.>.p.i.) I H N H P i.p.p.s.p.i.) Y D C C C G 7.0.a.a.a.0.9.7.U G D D D D D D D D D G U 7.U C U V.S.*X@X*X0Xh.i X < # @ # 1 _ i.] J J t.-X,X,X-X,X7Xf.t.W t.f.f.W v P P P I ) p.M.D.M.b.s.p.r.] ) J T 1.$X,X,X>X>XyXm O   ; , X > _ J ,.,.v R :XiX,X7X,X-X-Xc.j.f.f.j.j.j.j.j.j.j.j.j.j.j.j.j.j.j.h.x.x.x.x.x.x.x.x.x.l.u.r.>.E L L d 1.-X0X7X:X>XeXm O   ; , X > ~ Z -.-.c R -XuX2X,X,X-Xu.c h j A a I s.Z.b.i.a.V.G G S F F 3 F F F Z D P ] g.m.=Xm.N.B.r.H V V $.s L u.x.u.u.u.u.L L c c K L >.>.u.u.u.u.u.u.u.u.x.x.u.u.>.>.L L d 1.-X0X7X:X>XeXm O   ; , X > ~ Z -.-.c R -XuX2X1X2X,Xx.=.A @.5.e..XQ.(.jXJXJX",
"% | W.`.vXvXbX'.!.e.;.4.z.z.5. .G D D D D D D D C C G G U U 7.=.>.>.u.x.x.x.x.u.L L L L L K c s j j j z z K K L L L E h.<XaX2X-XsXM.N O . * * = 3 #.5.7.U Y p.-X1X1X1X1X;X#Xk.d.j.h.u.u.>.=.L K 8.U G C V V C C U G D D G U 8.9.r.r.u.u.u.u.x.x.x.x.u.u.u.u.r.>.p.i.) I H H H P i.p.p.s.p.i.) Y D C C C G 7.0.a.a.a.0.9.7.U G D D D D D D D D D G U 7.U D U a.S.*X@X*X0Xh.i   < # @ # 1 _ i.] J J ,.-X,X,X-X,X7Xf.t.W t.f.f.W v P P P I ) i.b.D.M.b.p.p.r.] ) Y T 1.-X,X>X>X>XyXm O   ; , X > _ J ,.,.v R -XiX,X,X,X-X-Xc.j.f.f.j.j.j.j.j.j.j.j.j.j.j.j.j.j.j.h.x.x.x.x.x.x.x.x.x.x.u.u.>.>.L L d 1.-X0X7X:X>XeXm O   ; , X > ~ Z -.-.c R -XuX2X,X,X-Xu.K h j A a I s.Z.b.i.a.V.G G Z F F 4 F F F Z D P ] g.m.=Xm.N.B.r.H V V $.s L u.x.u.u.u.u.L K c c K L >.>.u.u.u.u.u.u.u.u.x.l.u.u.>.E L L d 1.-X0X7X:X>XeXm O   ; , X > ~ Z q.-.c R -XuX2X1X,X-Xh.L k A 5.e..XQ.(.jXJXJX",
"% | W.`.vXvXvX'.!.e.-.4.l.z.q.#.G D D D D D D D C C C G G U U U >.>.u.x.x.x.l.u.L L Y >.L L c k j j j z z K K L L L E h.<XaX2X-XsXM.N O . * * = 3 #.5.7.U Y p.-X1X1X1X1X;X#Xk.d.j.h.u.u.>.=.L K 8.U G C V V C C U G D D G U 8.9.r.t.u.u.u.l.x.x.x.x.u.u.u.u.r.>.p.i.) I H H H P i.p.p.s.p.i.) ) D C C C G 7.0.a.a.a.0.9.7.U G D D D D D D D D D G U 7.U C U a.S.*X@X*X0Xh.i   < # @ # 1 _ i.] J J t.-X,X,X-X,X7Xf.t.W t.f.f.W v P P P I ) p.M.D.M.b.b.p.r.] ) Y T 1.-X,X,X>X>XyXm O   ; , X > _ J ,.,.v R -XiX,X,X,X-X-Xc.j.f.f.j.j.j.j.j.j.j.j.j.j.j.j.j.j.j.h.x.x.x.x.x.x.x.x.x.h.u.r.>.>.L L d 1.-X0X7X:X>XeXm O   ; , X > ~ Z q.-.c R -XuX2X,X,X-Xu.K h j A a I s.Z.b.i.a.V.G G Z F F 4 F F F Z D P ] g.m.=Xm.N.B.r.H V V $.s L u.x.u.u.u.u.L K c c K L >.>.u.u.u.u.u.u.u.u.x.l.u.t.>.>.L L d 1.-X0X7X:X>XeXm O   ; , X > ~ Z q.-.c R -XuX2X;X<X-Xu.K j l 5.e..XQ.(.jXJXJX",
"% | W.`.AXxXvX'.!.e.-.4.l.z.q.6.G D D D D D D D V C C C G G U U >.>.u.x.x.x.u.u.Y >.>.>.>.L K c j j j z z K K L L L E h.<XaX2X-XsXM.N O . * * = 3 #.5.7.U Y p.A.1X1X1X1X;X#Xk.d.j.h.u.u.>.=.L K 8.U G C V V C C U G G D G U 8.9.r.t.u.u.u.u.x.x.x.x.u.u.u.u.r.r.p.i.) I H H H P i.p.p.s.p.i.) ) D C C C G 7.0.a.a.a.0.9.7.U G C D D D D D D D D G U 7.U C U a.S.*X@X*X0Xh.i X < # @ # 1 _ i.] J J t.-X,X,X-X,X7Xf.t.W t.h.f.W v P P P I ) i.M.D.M.M.s.i.r.] ) Y T 1.-X,X>X>X>XyXm O   ; , X > _ J ,.,.v W -XiX7X,X,X-X-Xc.j.f.f.j.j.j.j.j.j.j.j.j.j.j.j.j.j.j.h.x.x.x.x.x.x.x.x.x.x.u.u.>.>.L L d 1.-X0X7X:X>XeXm O   ; , X > ~ Z q.-.c R -XuX2X1X,X-Xu.K h j A a I b.Z.b.i.a.V.G G F F F F F F F Z G P ] g.m.=Xm.N.N.r.H M V G s L u.x.u.u.u.u.L K c c K L >.>.u.u.u.u.u.u.u.u.x.x.u.u.>.=.L L d 1.-X0X7X:X>XeXm O   ; , X > ~ Z q.-.c R -XuX2X-X-X-Xu.K k l $.e..XQ.(.jXJXJX",
"% | E.`.AXxXvX].!.J.-.4.3.l.q.5.G D D D D D D D V V C C D G U U 8.>.u.l.x.l.u.u.>.>.r.r.r.=.L K k k k k A K K L L L R f.<X0X2X-XpXM.N O . * * = 3 #.5.7.U Y p.A.1X1X1X1X-Xj.k.d.j.h.f.u.>.=.L L =.U D C C k C D U U D D U U 8.r.r.r.u.u.u.u.x.x.x.x.u.u.u.u.r.r.p.i.) I H H H P i.p.p.s.p.i.) ) D C C C G 7.0.a.a.a.0.9.7.U G C D D D D D D D D G U 7.U C U a.S.*X@X*X0Xh.i X < # @ # 1 _ i.] J J 1.-X,X,X-X>X7Xf.t.>.t.f.u.>.v P P P I ) i.M.D.M.M.s.p.r.] ) Y T 1.-X,X,X>X>XyXm O   ; , X > _ P ,.,.v W :XiX7X7X,X-X-Xc.j.f.f.j.j.j.j.j.j.j.j.j.j.j.j.j.j.j.h.x.x.x.x.x.x.x.x.x.x.u.u.>.>.L L d 1.-X0X7X:X>XeXm O   ; , X > ~ Z -.-.c R -XuX2X1X,X-Xu.K h j z a I s.Z.b.i.a.V.G G S F F F F F F Z G U ] g.m.=Xm.N.N.r.P V V G s L u.x.u.u.u.u.L K H c K L E >.u.u.u.u.u.u.u.u.x.u.u.t.>.>.L L d 1.-X0X7X:X>XeXm O   ; , X > ~ Z -.-.c R -XuX2X;X-X-Xu.K k l $.e..XW.(.jXJXJX",
"% | E.`.vXvXbX|.!.e.=.4.2.u.8.D D D D D D D D D U U G G C C V V C D U =.8.=.U U U U U U U U U U V S V C D K K L L L R f.<X9X9X$XpXM.N O . * * = 3 #.5.7.U Y p.A.:X<X<X<X-Xj.k.t.f.f.f.f.f.f.f.u.>.=.K k a s a a K K H c K L =.>.u.u.u.u.u.u.u.u.x.x.u.u.>.>.L L ) Y P N m m H P i.p.p.s.p.i.) Y D C C C G 7.0.a.a.a.0.9.7.U G D D D D D D D D D G U 7.U D U V.S.*X@X*X0Xh.i X < # @ # 1 _ i.] J T d.-X,X,X-X>X6Xu.>.L L -.-.&.k H P P P ) p.M.D.M.M.s.i.r.] ) J f W -X0X7X:X>XeXm O   ; , X > _ J ,.,.v W :XiX7X,X,X-X-XA.j.h.f.j.j.j.j.j.j.j.j.j.j.j.j.j.j.j.h.x.x.x.x.x.x.x.x.x.x.u.u.>.E L L d 1.-X0X7X:X>XeXm O   ; , X > ~ Z -.-.c R -XuX2X,X,X-Xu.c h j z a I s.Z.b.i.a.V.G G S F F F F F F Z D U ] g.m.=Xm.N.B.r.H V S G a Y s.Z.s.p.p.s.Y I P H P Y ] r.r.r.u.u.u.u.x.x.x.x.u.u.>.>.L L d 1.-X0X7X:X>XeXm O   ; , X > ~ Z -.-.c R -XuX2X,X,X<Xh.L z @.5.w T.W.(.kXjXDX",
"% | E.`.vXvXbX|..Xq.<.4.2.f.] D D D D D D D D D U U G G C C V V V C U 7.7.7.( U U U U U U U U G S S S D G U K L R b R 2.%X9X5X$XpXM.N O . * * = 3 #.5.7.U Y p.A.:X:X,X:X-Xj.f.t.f.f.f.f.f.f.f.f.>.>.L c g g g a L L c c K L >.>.u.u.u.u.u.u.u.u.x.x.u.u.>.>.L L ) Y P N m m H P i.p.p.s.p.i.) Y D C C C G 7.0.a.a.a.0.9.7.U G D D D D D D D D D G U 7.U C U a.S.*X@X*X0Xh.i   < # @ # 1 _ i.] J T d.-X,X,X:X>X6Xu.-.K &.-.-.&.z H H P P ) p.M.D.M.M.p.i.r.] ) J f 1.-X0X7X:X>XeXm O   ; , X > _ J ,.,.v W -XiX,X,X,X-X-Xc.j.h.f.j.j.j.j.j.j.j.j.j.j.j.j.j.j.j.h.x.x.x.x.x.x.x.x.x.l.u.u.>.>.L L d 1.-X0X7X:X>XeXm O   ; , X > ~ Z -.-.c R -XuX2X,X,X-Xu.c h j z a I s.Z.b.i.a.V.G G S F F F F F F Z D P ] g.m.=Xm.N.B.r.H V S G a Y s.Z.b.p.p.b.Y I P P P Y ] i.r.u.u.u.u.u.x.x.x.h.u.u.>.>.L L d 1.-X0X7X:X>XeXm O   ; , X > ~ Z -.-.c R -XuX2X,X,X<Xh.L z @.5.o.T.W.(.hXDXDX",
"% | E.`.vXvXbX|..Xq.<.1.2.f.r.D D D D D D D D D U U G G C C V V V C U 7.7.7.( U U U U U U U U U S S S D G U K L R b R 2.%X9X5X$XpXM.N O . * * = 3 #.5.7.U Y p.A.:X:X,X:X-Xj.f.d.f.f.f.f.f.f.f.f.t.>.L c c a a c L L L c L L >.r.u.u.u.u.u.u.u.u.x.x.u.r.>.=.L L ) Y P N m m N P i.p.p.s.p.i.) Y D C C C G 7.0.a.a.a.0.9.7.U G D D D D D D D D D G U 7.U C U a.S.*X@X*X0Xh.i X < # @ # 1 _ i.] J T 1.-X,X,X:X>X6Xu.-.K &.-.-.&.z H P P I ) p.M.D.M.b.p.i.r.] ) Y f 1.-X0X7X:X>XeXm O   ; , X > _ J ,.,.v W :XiX,X,X,X-X-Xc.j.h.f.j.j.j.j.j.j.j.j.j.j.j.j.j.j.j.h.x.x.x.x.x.x.x.x.x.l.u.u.>.E L L d 1.-X0X7X>X>XeXm O   , , X > ~ Z -.-.c R -XuX2X,X,X-Xu.K h j A a I s.Z.b.i.a.V.G G S F F F F F F Z G P ] g.m.=Xm.N.B.r.H V S G a Y s.Z.b.p.p.b.Y I P P P Y ] i.r.r.u.u.u.u.x.x.x.u.u.u.>.>.L L d 1.-X0X7X:X>XeXm O   ; , X > ~ Z -.-.c E -XuX2X,X,X<Xh.L z @.5.o.P.W.(.hXDXDX",
"% | E.`.vXvXbX|..Xq.<.1.2.f.] P D D D D D D D D U U G G C C V V V C U 7.7.7.( U U U U U U U U U S S S D G U K K R b R 2.%X9X5X$XpXM.N O . * * = 3 #.5.7.U Y p.A.:X:X,X:X-Xj.f.d.f.f.f.f.f.f.f.f.u.>.L K c c c c L L L L L >.>.u.u.u.u.u.u.u.u.u.x.x.u.r.>.=.L L ) Y P N m m N P i.p.p.b.p.i.) Y D C C C G 7.0.a.a.a.0.9.7.U G D D D D D D D D D G U 7.U C U a.S.*X@X*X0Xh.i X < # @ # 1 _ i.] J T d.-X,X,X:X>X6Xu.-.K &.-.-.&.z H P P I ) p.M.D.M.b.s.p.r.] ) Y f 1.-X0X7X:X>XeXm O   ; , X > _ J ,.,.v W :XiX,X,X,X-X-Xc.j.f.f.j.j.j.j.j.j.j.j.j.j.j.j.j.j.j.h.x.x.x.x.x.x.x.x.x.l.u.r.>.E L L d 1.-X0X7X:X>XeXm O   , , X > ~ Z -.-.c R -XuX2X1X,X-Xu.K h j A a I s.Z.b.i.a.V.G G F F F 3 F F F Z G U ] g.m.=Xm.N.B.r.H V F $.a Y s.Z.b.p.p.b.Y I P P P Y ] i.r.r.u.u.u.u.x.x.x.h.u.u.>.>.L L d 1.-X0X7X:X>XeXm O   ; , X > ~ Z -.-.c E :XuX2X,X,X<Xh.=.z @.5.o.T.W.(.hXDXDX",
"% | E.`.vXvXbX|..Xe.<.1.2.f.] G D D D D D D D D U U G G C C V V V C U 7.7.7.( U U U U U U U U U S S S D G U K L L b R 2.%X9X5X$XpXM.N O . * * = 3 #.5.7.U Y p.A.:X:X,X:X-Xj.f.d.f.f.f.f.f.f.f.f.u.>.E L c c c c >.L L L L >.u.u.u.u.u.u.u.u.u.u.x.x.u.r.>.>.L L ) Y P N m m H P i.p.p.s.p.i.) Y D C C C G 7.0.a.a.a.0.9.7.U G D D D D D D D D D G U 7.U C U a.S.*X@X*X0Xh.i   < # @ # 1 _ i.] J T d.-X,X<X:X>X6Xu.-.K &.-.-.&.z H P P I ) p.b.D.M.M.p.i.r.) ) Y f 1.-X0X7X>X>XeXm O   ; , X > _ J ,.,.v R -XiX,X,X,X-X-Xc.j.f.f.j.j.j.j.j.j.j.j.j.j.j.j.j.j.j.h.x.x.x.x.x.x.x.x.x.x.u.u.>.>.L L d 1.-X0X7X:X>XeXm O   ; , X > ~ Z q.-.c R -XuX2X1X,X-Xu.K h j A a I s.Z.b.i.a.V.G G F F F 3 3 F F Z G P ] g.m.=Xm.N.N.r.P V Z $.a Y p.Z.b.p.p.b.Y I P P P Y ] i.r.r.u.u.u.u.x.x.x.u.u.r.>.>.L L d 1.-X0X7X:X>XeXm O   ; , X > ~ Z -.-.c R -XuX2X,X,X<Xx.=.z @.5.o.P.W.(.kXjXDX",
"% | E.`.vXvXbX|..Xe.<.1.2.f.] G D D D D D D D D U U G G C C V V V C U 7.7.7.( U U U U U U U U U S S S D G U K L L b R 2.%X9X5X$XpXM.N O . * * = 3 #.5.7.U Y p.A.:X:X,X:X-Xj.f.d.f.f.f.f.f.f.f.f.f.u.>.L K c c K >.>.Y L >.>.u.u.u.u.u.u.u.u.u.u.x.h.u.r.>.>.L L ) Y P N m m H P i.p.p.s.p.i.) Y D C C C G 7.0.a.a.a.0.9.7.U G D D D D D D D D D G U 7.U C U a.S.*X@X*X0Xh.i X < # @ # 1 _ i.] J T d.-X,X<X:X>X6Xu.-.K &.-.-.&.z H P P I ) i.b.D.M.M.p.p.r.) ) Y f 1.-X0X7X>X>XeXm O   ; , X > _ J ,.,.v R -XiX,X,X,X-X-Xc.j.f.f.j.j.j.j.j.j.j.j.j.j.j.j.j.j.j.h.x.x.x.x.x.x.x.x.x.h.u.r.>.>.L L d 1.-X0X7X:X>XeXm O   ; , X > ~ Z q.-.c R -XuX2X,X,X-Xu.K h j A a I s.Z.b.i.a.V.G G S F F 3 3 F F Z D P ] g.m.=Xm.N.B.r.P V Z $.a Y p.Z.b.p.p.b.Y I P P P Y ] i.r.r.u.u.u.u.x.x.x.l.u.u.>.>.L L d 1.-X0X7X>X>XeXm O   ; , X > ~ Z -.-.c R -XuX2X,X,X<Xx.L z @.5.o.T.W.(.hXjXDX",
"% | E.`.vXvXbX|..Xe.<.1.2.f.] G D D D D D D D D U U G G C C V V V C U 7.7.7.( U U U U U U U U U S S S D D U K L L b R 2.%X9X5X$XpXM.N O . * * = 3 #.5.7.U ) p.A.:X:X,X:X-Xj.f.d.f.f.f.f.f.f.f.f.h.u.>.L L K L L >.>.>.>.>.>.u.x.u.u.u.u.u.u.u.u.x.x.u.u.>.>.L L ) Y P N m m H P i.p.p.s.p.i.) Y D C C C G 7.0.a.a.a.0.9.7.U G D D D D D D D D D G ( 7.U C U a.S.*X@X*X0Xh.i   < # @ # 1 _ i.] J T d.-X,X<X:X>X6Xu.-.K &.-.-.&.z H P P I ) p.M.D.M.M.s.p.r.] ) Y f 1.-X0X7X:X>XeXm O   ; , X > _ J ,.,.v R -XiX,X,X,X-X-Xc.j.f.f.j.j.j.j.j.j.j.j.j.j.j.j.j.j.j.h.x.x.x.x.x.x.x.x.x.x.u.u.>.>.L L d 1.-X0X7X:X>XeXm O   ; , X > ~ Z q.-.c R -XuX2X,X,X-Xu.K h j A a I s.Z.b.i.a.V.G S Z F F 3 F F F Z D P ] g.m.=Xm.N.B.r.P V V G a Y p.Z.b.p.p.b.I I P P P Y ] r.r.>.u.u.u.u.x.x.x.x.u.u.>.>.L L d 1.-X0X7X>X>XeXm O   ; , X > ~ Z -.-.c R -XuX2X,X,X<Xx.L z @.5.o.T.W.(.hXDXDX",
"% | E.`.vXvXbX|..Xe.<.1.2.f.] G D D D D D D D D U U G G C C V V V C U 7.7.7.( U U U U U U U U U S S S D D K K L L b R 2.%X9X5X$XpXM.N O . * * = 3 #.5.7.U ) p.A.:X:X,X:X-Xj.f.d.f.f.f.f.f.f.f.f.h.u.>.L L L L L >.>.>.>.>.r.u.x.u.u.u.u.u.u.u.u.x.x.u.u.>.>.L L ) Y P N m m H P i.p.p.s.p.i.) Y D C C C G 7.0.a.a.a.0.9.7.U G D D D D D D D D D G ( 7.U C U V.S.*X@X*X0Xh.i   < # @ # 1 _ i.] J T d.-X,X<X:X>X6Xu.-.K &.-.-.&.z H P P I ) p.b.D.Z.M.s.i.r.] ) Y f 1.-X0X7X>X>XeXm O   ; , X > _ J ,.,.v R -XiX,X7X,X-X-Xc.j.f.f.j.j.j.j.j.j.j.j.j.j.j.j.j.j.j.h.x.x.x.x.x.x.x.x.x.x.u.u.>.>.L L d 1.-X0X7X:X>XeXm O   ; , X > ~ Z -.-.c R -XuX2X1X,X-Xu.K h j A a I s.Z.b.i.a.V.G Z Z F F F F F F Z D P ] g.m.=Xm.N.B.r.P V V G a Y p.Z.b.p.p.b.I I P P P Y ] r.r.>.u.u.u.u.x.x.x.x.u.u.>.>.L L d 1.-X0X7X>X>XeXm O   ; , X > ~ Z -.-.c R -XuX2X,X,X<Xh.L z @.5.o.T.W.(.hXDXDX",
"% | E.`.vXvXbX|..XJ.v.3.2.d.r.9.8.7.7.U U G G D D D D D D D D D D D D D D D D D D D D D D D D G ~ ~ ~ U U U K L L b R 2.%X9X5X$XpXM.N O . * * = 3 #.5.7.U ) p.A.:X:X,X:X-Xj.f.t.j.j.j.j.j.j.j.h.u.r.>.L L L L Y u.u.u.u.u.u.u.u.x.x.x.x.x.x.x.x.x.x.u.u.>.>.L L ) Y P N m m H P i.p.p.s.p.i.) Y D C C C G 7.0.a.a.a.0.9.7.U G D D D D D D D D D G U 7.U C U a.S.*X@X*X0Xh.i   < # @ # 1 _ i.] J J d.-X,X,X:X>X6X>.>.-.=.*.&.@.&.H P P P ) p.M.D.M.M.s.p.r.] ) Y f 1.-X0X7X:X>XeXm O   ; , X > _ J ,.,.v W :XiX,X7X,X-X-Xc.j.f.f.j.j.j.j.j.j.j.j.j.j.j.j.j.j.j.h.x.x.x.x.x.x.x.x.x.x.u.u.>.>.L L d 1.-X0X7X:X>XeXm O   ; , X > ~ Z -.-.c R -XuX2X1X,X-Xu.K h j A a I s.Z.b.i.a.V.G G F F F F F F F Z D P ] g.m.=Xm.N.N.] P V V G a Y n.Z.b.p.p.b.I P H N N H P Y E L L =.>.u.x.x.x.x.u.u.>.E L L d 1.-X0X7X:X>XeXm O   ; , X > ~ Z q.-.c R -XuX2X2XaX,Xx.L k l #.e T.W.(.kXhXDX",
"% | E.`.vXvXbX|..XJ.v.3.2.d.r.9.8.7.7.U U G G D D D D D D D D D D D D D D D D D D D D D D D D G ~ ~ ~ U U U K L L b R 2.%X9X5X$XpXM.N O . * * = 3 #.5.7.U ) p.A.:X:X,X:X-Xj.f.d.j.j.j.j.j.j.j.h.u.u.>.L L L L >.u.u.u.u.u.u.u.u.x.x.x.x.x.x.x.x.x.x.u.u.>.>.L L ) Y P N m m H P i.p.p.s.p.i.) ( D C C C G 7.0.a.a.a.0.9.7.U G D D D D D D D D D G U 7.U C U a.S.*X@X*X0Xh.i X < # @ # 1 _ i.] J J d.-X,X,X:X>X6X>.>.-.=.&.&.@.K H P P P ) p.M.D.M.b.s.p.r.] ) Y f 1.-X0X7X:X>XeXm O   , , X > _ J ,.,.v W :XiX,X,X,X-X-Xc.j.h.f.j.j.j.j.j.j.j.j.j.j.j.j.j.j.j.h.x.x.x.x.x.x.x.x.x.x.u.u.>.>.L L d 1.-X0X7X>X>XeXm O   ; , X > ~ Z -.-.c R -XuX2X,X,X-Xu.K h j A a I s.Z.b.i.a.V.G S F F F F F F F Z D P ] g.m.=Xm.N.N.] H V V G a Y n.Z.b.i.p.b.I P H N N H P I E L L >.>.u.x.x.x.l.u.u.>.>.L L d 1.-X0X7X:X>XeXm O   , , X > ~ Z q.-.c R :XuX2X2XaX,Xx.L k l #.e T.W.(.kXhXDX",
"% | E.`.vXvXbX|.I.J.v.3.3.d.i.9.8.7.7.U U G G D D D D D D D D D D D D D D D D D D D D D D D D G ~ ~ ~ U U U U L L b R 2.%X9X5X$XpXM.N O . * * = 3 #.5.7.U ) p.A.:X:X,X:X-Xj.f.d.j.j.j.j.j.j.j.h.u.u.>.Y L L >.>.u.u.u.u.u.u.u.u.x.x.x.x.x.x.x.x.x.x.u.u.>.>.L L ) Y P N m m H P i.p.p.s.p.i.) ( D C C C G 7.0.a.a.a.0.9.7.U G D D D D D D D D D G U 7.U C U a.S.*X@X*X0Xh.i X < # @ # 1 _ i.] J J d.-X,X,X:X>X6X>.-.=.*.&.@.A A H P P I ) p.M.D.M.b.s.p.r.] ) Y f 1.-X0X7X>X>XeXm O   ; , X > _ J ,.,.v R -XiX,X7X,X-X-Xc.j.h.f.j.j.j.j.j.j.j.j.j.j.j.j.j.j.j.h.x.x.x.x.x.x.x.x.x.x.u.u.>.>.L L d 1.-X0X7X:X>XeXm O   ; , X > ~ Z -.-.c R -XuX2X,X,X-Xu.K h j A a I b.Z.b.i.a.V.C S F F F F F F F Z G P ] g.m.=Xm.N.N.r.H V V G a Y n.Z.b.p.p.b.I P H N N H P I E Y L =.>.u.x.x.x.l.u.u.>.E L L d 1.-X0X7X>X>XeXm O   ; , X > ~ Z -.-.c R -XuX2X2XaX,Xx.L k l #.e T.W.(.kXhXDX",
"% | E.`.vXvXbX|.I.J.v.3.3.d.i.9.8.7.7.U U G G D D D D D D D D D D D D D D D D D D D D D D D D G ~ ~ ~ U U U U L L b R 2.%X9X5X$XpXM.N O . * * = 3 #.5.7.U Y p.A.:X:X,X:X-Xj.f.t.j.j.j.j.j.j.j.h.h.u.>.>.L >.>.>.u.u.u.u.u.u.u.u.x.x.x.x.x.x.x.x.x.x.u.u.>.>.L L ) Y P N m m H P i.p.p.b.p.i.) Y D C C C G 7.0.a.a.a.0.9.7.U G D D D D D D D D D U ( 7.U C U a.S.*X@X*X0Xh.i X < # @ # 1 _ i.] J T d.-X,X,X:X>X6X>.=.=.&.K A A A H P P I ) p.M.D.M.b.s.p.r.] ) Y f 1.-X0X7X:X>XeXm O   ; , X > _ J ,.,.v R :XiX,X7X,X-X-Xc.j.f.f.j.j.j.j.j.j.j.j.j.j.j.j.j.j.j.h.x.x.x.x.x.x.x.x.x.x.u.u.>.>.L L d 1.-X0X7X:X>XeXm O   ; , X > ~ Z -.-.c R -XuX2X,X,X-Xu.K h j z a I s.Z.b.i.a.V.C G F F F F F F F Z G U ] g.m.=Xm.N.B.r.H V V G a Y p.Z.b.p.p.b.I P H N N H P Y E Y L =.>.u.x.x.x.l.u.r.>.E L L d 1.-X0X7X:X>XeXm O   ; , X > ~ Z -.-.c R -XuX2X2XaX,Xh.L k l #.e T.W.(.kXhXDX",
"% | E.`.vXvXbX|..XV.v.3.2.,.i.9.8.7.7.U U G G D D D D D D D D D D D D D D D D D D D D D D D D G ~ ~ G U U U U L R b R 2.%X9X5X$XpXM.N O . * * = 3 #.5.7.U Y p.A.:X:X,X:X-Xj.f.t.j.j.j.j.j.j.j.h.x.u.u.>.>.>.>.r.u.u.u.u.u.u.u.u.x.x.x.x.x.x.x.x.x.l.u.u.>.>.L L ) Y P N m m N P i.p.p.b.p.i.) Y D C C C G 7.0.a.a.a.0.9.7.U G D D D D D D D D D G U 7.U C U a.S.*X@X*X0Xh.i   < # @ # 1 _ i.] J T d.-X,X,X:X>X6X=.=.K K A z l z H P P I ) i.b.D.M.b.p.p.r.] ) Y f 1.-X0X7X:X>XeXm O   ; , X > _ J ,.,.v R -XiX,X,X,X-X-Xc.j.f.f.j.j.j.j.j.j.j.j.j.j.j.j.j.j.j.h.x.x.x.x.x.x.x.x.x.l.u.u.>.E L L d 1.-X0X7X:X>XeXm O   ; , X > ~ Z -.-.c R -XuX2X,X,X-Xu.c h j z a I s.Z.b.i.a.V.G G S F F F F F F Z G U ] g.m.=Xm.N.B.r.H V S G a Y s.Z.b.p.p.b.I P H N N H P Y E >.L >.>.u.x.Z.x.x.u.t.>.>.L L d 1.-X0X7X:X>XeXm O   ; , X > ~ Z -.-.c R -XuX2X2XaX,Xx.L z z #.e T.W.(.kXhXDX",
"% | E.`.vXvXbX|..XV.v.3.2.,.i.9.8.7.7.U U G G D D D D D D D D D D D D D D D D D D D D D D D D G ~ ~ ~ U U U U L L b R 2.%X9X5X$XpXM.N O . * * = 3 #.5.7.U Y p.A.:X:X,X:X-Xj.f.d.j.j.j.j.j.j.j.h.x.x.u.>.>.>.r.u.u.u.u.u.u.u.u.u.x.x.x.x.x.x.x.x.x.u.u.u.>.>.L L ) Y P N m m N P i.p.p.s.p.i.) Y D C C C G 7.0.a.a.a.0.9.7.U G D D D D D D D D D G U 7.U C U a.S.*X@X*X0Xh.i   < # @ # 1 _ i.] J T d.-X,X,X:X>X6XL K K A z z l j H P P I ) p.M.D.M.b.b.p.r.] ) Y f 1.-X0X7X:X>XeXm O   ; , X > _ J ,.,.v R -XiX,X,X,X-X-Xc.j.f.f.j.j.j.j.j.j.j.j.j.j.j.j.j.j.j.h.x.x.x.x.x.x.x.x.x.l.u.t.>.>.L L d 1.-X0X7X:X>XeXm O   ; , X > ~ Z q.-.c R -XuX2X,X,X-Xu.c h j z a I s.Z.b.i.a.V.G G S F F F F F F Z G U ] g.m.=Xm.N.B.r.H V S G a Y s.Z.b.p.p.b.I P H N N H P Y E Y L >.>.u.x.x.x.h.u.r.>.>.L L d 1.-X0X7X:X>XeXm O   ; , X > ~ Z -.-.c R -XuX2X2XaX,Xx.L z l #.e T.W.(.kXhXDX",
"% | E.`.vXvXbX|..XV.v.3.2.2.r.9.8.7.7.U U G G D D D D D D D D D D D D D D D D D D D D D D D D G ~ ~ ~ U U U K L L b R 2.%X9X5X$XpXM.N O . * * = 3 #.5.7.U Y p.A.:X:X,X:X-Xj.f.d.j.j.j.j.j.j.j.h.c.x.u.u.>.>.u.u.u.u.u.u.u.u.u.u.x.x.x.x.x.x.x.x.x.x.u.u.>.=.L L ) Y P N m m N P i.p.p.s.p.i.) Y D C C C U 7.0.a.a.a.0.9.7.U G D D D D D D D D D G U 7.U C U a.S.*X@X*X0XM.i   < # @ # 1 _ i.] J T d.-X,X,X:X>X6XL K K z z l l j H P P I ) i.M.D.M.M.s.i.r.] ) Y f 1.-X0X7X:X>XeXm O   ; , X > _ J ,.,.v W -XiX7X,X,X-X-Xc.j.f.f.j.j.j.j.j.j.j.j.j.j.j.j.j.j.j.h.x.x.x.x.x.x.x.x.x.x.u.u.>.=.L L d 1.-X0X7X:X>XeXm O   ; , X > ~ Z q.-.c R -XuX2X1X,X-Xu.K h j A a I s.Z.b.i.a.V.G G S F F F F F F Z G U ] g.m.=Xm.N.B.r.H V S G a Y s.Z.b.p.p.b.I P H N N H P Y E Y L =.>.u.x.x.x.x.u.u.>.>.L L d 1.-X0X7X:X>XeXm O   ; , X > ~ Z -.-.c R -XuX2X2XaX,Xx.L z l #.e T.W.(.kXhXDX",
"% | E.`.vXvXbX|..XV.v.3.2.,.r.9.8.8.( U U U G D D G G G G G G G G D D D D D D D D D D D D D D D U U U U U K K L L L R f.%X9XwX$XpXM.N O . * * = 3 #.5.7.U Y p.A.:X:X,X:X-Xj.f.d.j.j.j.j.j.j.j.j.c.x.u.u.,.t.u.u.u.u.u.u.u.u.u.u.x.x.x.x.x.x.x.x.x.l.u.r.>.=.L L ) Y P C m m H H i.a.p.p.p.i.) U D C C C G 7.0.a.a.a.0.9.7.U G D D D D D D D D D G U 7.U C U a.S.*X@X*X0XM.i   < # @ # 1 _ i.] J T 1.-X,X,X:X>X6XL K K z z j j j H P P I ) i.M.D.M.M.s.p.r.] Y Y f 1.-X0X7X:X>XeXm O   ; , X > _ P ,.,.v W :XiX7X7X,X-X-Xc.j.f.f.j.j.j.j.j.j.j.j.j.j.j.j.j.j.j.h.x.x.x.x.x.x.x.x.x.u.u.t.>.>.L L d 1.-X0X7X:X>XeXm O   ; , X > ~ Z -.-.c R -XuX2X1X,X-Xu.K h j A a I s.Z.b.i.a.V.G S S F F F F F F Z G P ] g.m.=Xm.N.B.r.H V F $.a Y s.Z.b.p.p.b.I P H N N H P Y E Y Y Y r.u.x.Z.x.x.u.u.>.>.Y L d 1.-X0X7X:X>XeXm O   ; , X > ~ Z -.-.c R -XuX2X2XaX,Xx.L z l #.e T.W.(.kXhXDX",
"% | E.`.vXvXbX|..Xe.<.2.2.f.s.n.I Y ) ) ( U P C G G S S F F F F G D D D D D D D C C V V C D U 8.C H L Y Y Y L L L L R u.:X6X6XS.pXM.N O . * * = 3 #.5.7.U Y p.A.:X:X,X:X-Xj.f.t.j.j.j.j.j.j.j.j.f.f.f.f.f.f.f.f.f.f.f.f.f.f.f.f.j.j.j.j.j.x.x.x.x.l.y.y.-.*.&.K U U U G D C C C i.a.a.a.a.9.8.U C C C C G 7.0.a.a.a.0.9.7.U G D D D D D D D D D G U 7.U D U a.S.*X@X*X0Xh.i X < # @ # 1 _ i.] J T d.-X,X<X:X>X6XK c k j j z z K c c c c J Y r.u.x.x.u.u.r.>.Y L d 1.-X0X7X:X>XeXm O   ; , X > _ J ,.,.v W :XiX7X,X,X-X-XA.j.h.f.f.f.f.f.f.f.f.f.j.j.j.j.j.j.j.h.x.x.x.x.x.x.x.x.x.x.u.u.>.>.L L d 1.-X0X7X:X>XeXm O   ; , X > ~ Z -.-.c R -XuX2X,X,X-Xu.K h j A a I s.Z.b.i.a.V.G G S F F F F F F Z G U ] g.m.=Xm.N.B.] P V Z $.a Y b.Z.b.p.p.b.Y Y Y Y I I I I p.i.r.] ] i.p.s.M.M.s.p.r.] Y Y f 1.-X0X7X:X>XeXm O   ; , X > ~ Z -.-.c R -XuX2X,X,X-Xu.K h j F q P.W.(.kXhXSX",
"% | E.`.vXvXbX|.I.e.<.2.2.f.s.n.I Y ] ] ) Y P C G G S F F 3 F F G D D D D D D D C C V V C G U =.H L L >.>.L L K L L L u.6XyX6XS.sXM.N O . * * = 3 #.5.7.U Y p.A.:X:X,X:X-Xj.f.t.j.j.j.j.j.j.j.j.f.f.f.f.f.f.f.f.f.f.f.f.f.f.f.k.j.j.j.j.j.h.x.x.x.l.y.q.-.*.&.@.U U G G C C V V 0.a.a.a.a.9.7.U C C C C G 7.0.a.a.a.0.9.7.U G D D D D D D D D D G U 7.U C U a.S.*X@X*X0Xh.i X < # @ # 1 _ i.] J T d.-X,X<X:X>X6XK c k j j z z K c c c c L Y >.u.x.l.u.u.>.E L L d 1.-X0X7X>X>XeXm O   ; , X > _ J ,.,.v W -XiX,X,X,X-X-Xc.j.h.f.f.f.f.f.f.f.f.f.j.j.j.j.j.j.j.h.x.x.x.x.x.x.x.x.x.x.u.u.>.>.L L d 1.-X0X7X:X>XeXm O   ; , X > ~ Z -.-.c R -XuX2X,X,X-Xu.K h j A a I s.Z.b.i.a.V.G G S F F 3 F F F Z G U ] g.m.=Xm.N.B.r.P V Z $.a Y n.Z.b.p.p.b.Y Y Y Y I I I I i.r.] ] ] i.p.b.M.M.s.p.r.] ) J f 1.-X0X7X>X>XeXm O   ; , X > ~ Z -.-.c R -XuX2X,X,X-Xu.K h j F q P.W.(.kXhXSX",
"% | E.`.vXvXbX|.I.e.2.2.2.f.s.n.] ] ] r.] Y D C G G S F F F F F G D D D D D D D G C C C C G 7.8.K L L >.>.L L c L L L u.6XyX6XS.sXM.N O . * * = 3 #.5.7.U ) p.A.:X:X,X:X-Xj.f.d.j.j.j.j.j.j.j.j.f.f.f.f.f.f.f.f.f.f.f.f.f.f.f.k.j.j.j.j.j.j.x.x.x.l.y.q.-.*.&.@.U U G G C C V V 0.a.a.a.a.9.7.U C C C C G 7.0.a.a.a.0.9.7.U G D D D D D D D D D G U 7.U C U a.S.*X@X*X0Xh.i   < # @ # 1 _ i.] J T d.-X,X,X:X>X6XK c k j j l z K c c c c L >.u.u.x.l.u.r.>.E L L d 1.-X0X7X:X>XeXm O   ; , X > _ J ,.,.v W :XiX,X,X,X-X-Xc.j.h.f.f.f.f.f.f.f.f.f.j.j.j.j.j.j.j.h.x.x.x.x.x.x.x.x.x.u.u.u.>.>.L L d 1.-X0X7X:X>XeXm O   ; , X > ~ Z -.-.c R -XuX2X,X,X-Xu.K h j A a I s.Z.b.i.a.V.G G S F F F F F F Z D P ] g.m.=Xm.N.B.r.P V V G a Y p.Z.b.p.p.b.Y Y Y Y Y Y I I r.] ) ) ] i.p.b.Z.M.s.p.r.] ) Y f 1.-X0X7X:X>XeXm O   ; , X > ~ Z -.-.c E -XuX2X,X,X-Xu.K h j F q P.W.(.kXhXSX",
"% | E.`.vXvXbX|.I.e.2.2.2.f.s.n.i.i.i.i.r.Y P C G G S F F F F F G D D D D D D D G G C C G U 7.8.Y >.>.>.>.E L c L L L u.6XyX6XS.sXM.N O . * * = 3 #.5.7.U ) p.A.:X:X,X:X-Xj.f.d.j.j.j.j.j.j.j.j.f.f.f.f.f.f.f.f.f.f.f.f.f.f.f.k.j.j.j.j.j.j.x.x.x.l.y.q.-.*.&.@.U U G G C C V V 0.a.a.a.a.9.7.U C C C C G 7.0.a.a.a.0.9.7.U G D D D D D D D D D G U 7.U C U a.S.*X@X*X0Xh.i   < # @ # 1 _ i.] J T d.-X,X,X:X>X6XK c k k j z z K K L K K L >.u.h.x.l.u.r.>.E L L d 1.-X0X7X:X>XeXm O   ; , X > _ J ,.,.v W :XiX,X,X,X-X-Xc.j.f.f.f.f.f.f.f.f.f.f.j.j.j.j.j.j.j.h.x.x.x.x.x.x.x.x.x.h.u.u.>.>.L L d 1.-X0X7X:X>XeXm O   ; , X > ~ Z -.-.c R -XuX2X,X,X-Xu.K h j A a I s.Z.b.i.a.V.G G S F F F F F F Z D P ] g.m.=Xm.N.B.r.P V V G a Y p.Z.b.p.p.b.Y Y Y Y Y Y Y Y ) Y Y Y ) i.p.M.M.M.s.p.r.] ) Y f 1.-X0X7X:X>XeXm O   ; , X > ~ Z -.-.c E :XuX2X,X,X-Xu.K h j F q P.W.(.kXhXSX",
"% | E.`.vXvXbX|.I.V.2.2.2.f.s.n.p.p.p.p.i.Y D V G G S F F F F F G D D D D D D D U U G G G ( 9.0.r.>.u.u.>.Y L c Y L =.u.6XyX6XS.sXM.N O . * * = 3 #.5.7.U ) p.A.:X:X,X:X-Xj.f.d.j.j.j.j.j.j.j.j.f.f.f.f.f.f.f.f.f.f.f.f.f.f.f.k.j.j.j.j.j.h.x.x.x.l.y.q.-.*.&.@.U U G G C C V V 0.a.a.V.a.9.7.U C C C C G 7.0.a.a.a.0.9.7.U G D D D D D D D D D G U 7.U C U a.S.*X@X*X0Xh.i   < # @ # 1 _ i.] J T d.-X,X,X:X>X6XL c k k j l z K L L L L L >.u.x.x.x.u.u.>.>.L L d 1.-X0X7X:X>XeXm O   ; , X > _ J ,.,.v R -XiX,X,X,X-X-Xc.j.f.f.f.f.f.f.f.f.f.f.j.j.j.j.j.j.j.h.x.x.x.x.x.x.x.x.x.u.u.u.>.E L L d 1.-X0X7X:X>XeXm O   ; , X > ~ Z -.-.c E -XuX2X1X,X-Xu.K h j A a I s.Z.b.i.a.V.G G F F F 3 3 3 F Z D P ] g.m.=Xm.N.B.r.H V V G a Y p.Z.b.i.p.b.Y Y Y Y Y Y Y Y P P P I ) r.p.M.M.b.s.p.r.] ) Y f 1.-X0X7X:X>XeXm O   ; , X > ~ Z -.-.c R -XuX2X,X,X-Xu.K h j F q P.W.(.kXhXSX",
"% | E.`.vXvXbX|.I.V.2.2.2.f.s.n.M.M.M.s.i.) D V G G F F F F F F G D D D D D D D ( U U G U 7.9.i.y.u.u.u.>.>.L c L L =.u.6XyX6XS.sXM.N O . * * = 3 #.5.7.U ) p.A.:X:X,X:X-Xj.f.d.j.j.j.j.j.j.j.j.f.f.f.f.f.f.f.f.f.f.f.f.f.f.f.k.j.j.j.j.j.j.x.x.x.l.y.q.-.*.&.@.U U G G C C V V 0.a.a.a.a.9.7.U C C C C G 7.0.a.a.a.0.9.7.U G D D D D D D D D D G U 7.U C U a.S.*X@X*X0Xh.i   < # @ # 1 _ i.] J T d.-X,X,X:X>X6XL c k k j l z K L L L L >.u.u.x.x.h.u.t.>.>.L L d 1.-X0X7X:X>XeXm O   ; , X > _ J ,.,.v R -XiX,X,X,X-X-Xc.j.f.f.f.f.f.f.f.f.f.f.j.j.j.j.j.j.j.h.x.x.x.x.x.x.x.x.x.u.u.u.>.E L L d 1.-X0X7X>X>XeXm O   ; , X > ~ Z -.-.c E :XuX2X1X,X-Xu.K h j A a I s.Z.b.i.a.V.G G F F F F F 3 F Z D P ] g.m.=Xm.N.B.r.H V V G a Y p.Z.b.i.p.b.Y Y Y Y Y Y Y Y N N N P Y r.p.M.M.b.p.i.r.] ) Y f 1.-X0X7X:X>XeXm O   ; , X > ~ Z -.-.c R -XuX2X,X,X-Xu.K h j F q P.W.(.kXhXSX",
"% | E.`.vXvXbX|.I.V.2.2.2.f.s.n.M.M.M.b.i.( D V G G S F F F F F G D D D D D D D 7.( U U U 8.0.a.u.u.u.u.u.>.L c L L Y u.6XyX6XS.sXM.N O . * * = 3 #.5.7.U ) p.A.:X:X,X:X-Xj.f.d.j.j.j.j.j.j.j.j.f.f.f.f.f.f.f.f.f.f.f.f.f.f.f.k.j.j.j.j.j.j.x.x.l.l.y.q.-.*.&.@.U U G G C C V V 0.a.a.a.a.9.7.U C C C C G 7.0.a.a.a.0.9.7.U G C D D D D D D D D G U 7.U D U a.S.*X@X*X0Xh.i X < # @ # 1 _ i.] J T d.-X,X>X:X>X6XL c k j j l z K =.L L L >.u.x.x.x.x.u.u.>.>.L L d 1.-X0X7X:X>XeXm O   ; , X > _ J ,.,.v R -XiX,X,X,X-X-Xc.j.f.f.f.f.f.f.f.f.f.f.j.j.j.j.j.j.j.h.x.x.x.x.x.x.x.x.x.x.u.u.>.E L L d 1.-X0X7X>X>XeXm O   ; , X > ~ Z -.-.c R -XuX2X,X,X-Xu.K h j A a I b.Z.b.i.a.V.G G F F F F F F F Z G U ] g.m.=Xm.N.N.r.H M V G a Y n.Z.b.p.p.b.Y Y I I I I Y I m m m H Y r.b.Z.M.b.p.i.i.] ) Y f 1.-X0X7X:X>XeXm O   ; , X > ~ Z -.-.c R -XuX2X,X,X-Xu.K h j F q P.W.(.kXhXSX",
"% | E.`.vXvXbX|.I.V.2.2.2.f.s.n.D.D.M.b.i.( D V G G S F F F F F G D D D D D D D 7.7.U U ( 9.0.a.l.x.x.u.u.>.L c L L >.u.6XyX6XS.sXM.N O . * * = 3 #.5.7.U Y p.A.:X:X,X:X-Xj.f.d.j.j.j.j.j.j.j.j.f.f.f.f.f.f.f.f.f.f.f.f.f.f.f.k.j.j.j.j.j.c.x.x.l.l.y.q.-.*.&.@.U U G G C C V V 0.a.a.a.a.9.7.U C C C C G 7.0.a.a.a.0.9.7.U G C D D D D D D D D G U 7.U D U a.S.*X@X*X0Xh.i X < # @ # 1 _ i.] J T d.-X,X>X:X>X6XK c k j j l z K =.=.L Y >.u.x.x.x.x.u.u.>.>.L L d 1.-X0X7X:X>XeXm O   ; , X > _ J ,.,.v R -XiX,X7X,X-X-Xc.j.f.f.f.f.f.f.f.f.f.f.j.j.j.j.j.j.j.h.x.x.x.x.x.x.x.x.x.x.u.u.>.>.L L d 1.-X0X7X>X>XeXm O   ; , X > ~ Z -.-.c R :XuX2X,X,X-Xu.K h j z a I s.Z.b.i.a.V.G G S F F F F F F Z D U ] g.m.=Xm.N.N.r.P V V G a Y p.Z.b.p.p.b.Y Y I I I I I I a a m H I r.b.Z.M.b.p.i.i.] ) Y f 1.-X0X7X:X>XeXm O   ; , X > ~ Z -.-.c R -XuX2X,X,X-Xu.K h j F q P.W.(.kXhXSX",
"% | E.`.vXvXbX|.I.e.<.2.2.f.s.n.b.M.M.b.p.8.U G U G F F F 4 4 4 G D D D D D D D U 7.9.7.G U 9.C.u.u.u.u.u.>.L K L L >.u.6XyX6XS.sXM.N O . * * = 3 #.5.7.U Y p.A.:X:X,X:X-Xj.f.t.j.j.j.j.j.j.j.j.f.f.f.f.f.f.f.f.f.f.f.f.f.f.f.k.k.k.k.k.f.f.f.u.u.y.>.=.&.@.A z C D D D D D D D 0.a.a.a.a.9.7.U C C C C G 7.0.a.a.a.0.9.7.U G D D D D D D D D D G U 7.U D U a.S.*X@X*X0Xh.i X < # @ # 1 _ i.] J T d.-X,X,X:X>X6XK c k j j l z A =.Y L Y >.u.x.Z.x.x.u.u.>.>.L L d 1.-X0X7X:X>XeXm O   ; , X > _ J t.,.v R -XiX,X7X,X-Xc.h.t.,.W f.f.f.f.f.f.f.f.j.j.j.j.j.j.j.h.u.u.u.u.u.u.u.u.u.u.>.>.L L K c d 1.-X0X7X:X>XeXm O   ; , X > ~ Z -.-.c R -XuX2X,X,X-Xu.c h j z a I s.Z.b.i.a.V.G G S F F F F F F Z G U ] g.m.=Xm.N.B.r.H V S G a Y s.Z.b.p.p.b.] ) ) Y I P P P P P P I ) p.b.D.M.M.s.p.i.] ) Y f 1.-X0X7X:X>XeXm O   ; , X > ~ Z q.-.c R -XuX2X,X,X-Xu.K h j F q P.W.(.kXhXSX",
"% | E.`.vXvXbX|.I.V.<.2.2.f.s.b.b.b.M.b.p.r.U G U G F F F 4 4 4 G D D D D D D D U 7.9.7.G U 9.C.u.u.u.u.u.>.L K L L E u.6XyX6XS.sXM.N O . * * = 3 #.5.7.U Y p.A.:X:X,X:X-Xj.f.d.j.j.j.j.j.j.j.j.f.f.f.f.f.f.f.f.f.f.f.f.f.f.f.k.k.k.k.k.f.f.f.u.u.y.y.=.&.@.A z C D D D D D D D 0.a.a.a.a.9.7.U C C C C G 7.0.a.a.a.0.9.7.U G D D D D D D D D D G U 7.U C U a.S.*X@X*X0Xh.i X < # @ # 1 _ i.] J T d.-X,X,X:X>X6XK c k j j l z A =.Y L Y >.u.x.x.x.x.u.u.>.>.L L d 1.-X0X7X:X>XeXm O   ; , X > _ J t.,.v R -XiX,X,X,X-Xc.h.t.,.W f.f.f.f.f.f.f.f.j.j.j.j.j.j.j.h.u.u.u.u.u.u.u.u.u.u.>.>.L L K c d 1.-X0X7X:X>XeXm O   , , X > ~ Z -.-.c R -XuX2X,X,X-Xu.c h j z a I s.Z.b.i.a.V.G G Z F F 3 F F F Z G U ] g.m.=Xm.N.B.r.H V S G a Y p.Z.b.p.p.b.) ) ) Y I P P P P P P I ) p.M.D.M.b.s.p.r.] ) Y f 1.-X0X7X:X>XeXm O   ; , X > ~ Z q.-.c R :XuX2X1X,X-Xu.K h j F q P.W.(.kXhXSX",
"% | E.`.vXvXbX|..XV.2.2.2.f.s.b.b.b.M.b.p.r.U G U G F F F 4 4 4 G D D D D D D D U 7.9.7.G U 9.C.u.u.u.u.u.>.L K L L =.u.6XyX6XS.sXM.N O . * * = 3 #.5.7.U Y p.A.:X:X,X:X-Xj.f.d.j.j.j.j.j.j.j.j.f.f.f.f.f.f.f.f.f.f.f.f.f.f.f.k.k.k.k.k.f.f.f.u.u.y.y.=.&.@.A z C D D D D D D D 0.a.a.a.a.9.7.U C C C C G 7.0.a.a.a.0.9.7.U G D D D D D D D D D G ( 7.U C U a.S.*X@X*X0Xh.i   < # @ # 1 _ i.] J T d.-X,X,X:X>X6XL c k j j l z A =.E L Y >.u.x.x.x.x.u.u.>.>.L L d 1.-X0X7X:X>XeXm O   ; , X > _ J t.,.v R -XiX,X7X,X:Xc.h.d.,.W f.f.f.f.f.f.f.f.j.j.j.j.j.j.j.h.u.u.u.u.u.u.u.u.u.u.r.>.L L K c d 1.-X0X7X>X>XeXm O   ; , X > ~ Z -.-.c E -XuX2X1X,X-Xu.K h j A a I s.Z.b.i.a.V.G Z Z F F F F F F Z D P ] g.m.=Xm.N.B.r.H V S G a Y s.Z.b.p.p.b.) ) ) Y I P P P P P P I ) p.M.D.M.b.s.p.r.] ) Y f 1.-X0X7X:X>XeXm O   ; , X > ~ Z -.-.c R -XuX2X1X,X-Xu.K h j F q P.W.(.kXhXSX",
"% | E.`.vXvXbX|..XV.2.2.2.f.s.b.p.b.M.b.p.r.U G U G F F F 4 4 4 G D D D D D D D U 7.9.7.G U 9.C.u.u.u.u.u.>.L K L L Y u.6XyX6XS.sXM.N O . * * = 3 #.5.7.U Y p.A.:X:X,X:X-Xj.f.t.j.j.j.j.j.j.j.j.f.f.f.f.f.f.f.f.f.f.f.f.f.f.f.k.k.k.k.k.f.f.u.u.u.y.y.=.&.@.A z C D D D D D D D 0.a.a.a.a.9.7.U C C C C G 7.0.a.a.a.0.9.7.U G D D D D D D D D D G U 7.U C U a.S.*X@X*X0Xh.i   < # @ # 1 _ i.] J T d.-X,X,X:X>X6XL c k j j l z A =.R L Y >.u.x.x.x.x.u.u.>.>.L L d 1.-X0X7X:X>XeXm O   ; , X > _ J ,.,.v R -XiX7X7X,X:Xc.h.d.,.W f.f.f.f.f.f.f.f.j.j.j.j.j.j.j.h.u.u.u.u.u.u.u.u.u.u.r.>.L L K c d 1.-X0X7X:X>XeXm O   ; , X > ~ Z -.-.c E :XuX2X1X,X-Xu.K h j A a I s.Z.b.i.a.V.G G Z F F F F F F Z D P ] g.m.=Xm.N.B.r.H V Z $.a Y s.Z.b.p.p.b.) ) ) Y I P P P P P P I ) p.M.D.M.b.s.p.i.] ) J f 1.-X0X7X:X>XeXm O   ; , X > ~ Z -.-.c R -XuX2X1X,X-Xu.K h j F q P.W.(.kXhXSX",
"% | E.`.vXvXbX|.I.e.2.2.2.f.s.n.p.M.M.b.p.8.U G U G F F 4 4 4 4 G D D D D D D D U 7.9.7.G U 0.C.u.u.u.u.u.>.L c L L Y u.6XyX6XS.sXM.N O . * * = 3 #.5.7.U ) p.A.:X:X,X:X-Xj.f.t.j.j.j.j.j.j.j.j.f.f.f.f.f.f.f.f.f.f.f.f.f.f.f.k.k.k.k.k.f.f.f.u.u.y.y.=.&.@.A z C D D D D D D D 0.a.a.V.a.9.7.U C C C C G 7.0.a.a.a.0.9.7.U G D D D D D D D D D G U 7.U C U a.S.*X@X*X0Xh.i   < # @ # 1 _ i.] J T d.-X,X<X:X>X6XL c k j j l z K =.>.L L >.u.x.x.x.l.u.t.>.E L L d 1.-X0X7X:X>XeXm O   ; , X > _ J ,.,.v W :XiX7X,X,X-Xc.h.d.,.W f.f.f.f.f.f.f.f.j.j.j.j.j.j.j.h.u.u.u.u.u.u.u.u.u.u.r.>.L L K c d 1.-X0X7X:X>XeXm O   ; , X > ~ Z -.-.c R -XuX2X1X,X-Xu.K h j A a I s.Z.b.i.a.V.G G S F F 3 3 3 F Z D P ] g.m.=Xm.N.N.r.H V S $.a Y p.Z.b.p.p.b.] ) ) Y I P P P P P P I ) i.b.D.M.b.p.p.r.] ) J f 1.-X0X7X:X>XeXm O   ; , X > ~ Z -.-.c R -XuX2X,X,X-Xu.K h j F q P.W.(.kXhXSX",
"% | E.`.vXvXbX|.I.e.2.2.2.f.s.n.p.M.M.b.p.8.U G U G F F 4 4 4 4 G D D D D D D D U 7.9.7.G U 0.C.u.u.u.u.u.>.L c L L =.u.6XyX6XS.sXM.N O . * * = 3 #.5.7.U ) p.A.:X:X,X:X-Xj.f.d.j.j.j.j.j.j.j.j.f.f.f.f.f.f.f.f.f.f.f.f.f.f.f.k.k.k.k.k.f.f.u.u.u.y.y.=.&.@.A z C D D D D D D D 0.a.a.a.a.9.7.U C C C C G 7.0.a.a.a.0.9.7.U G D D D D D D G D D G U 7.U C U a.S.*X@X*X0Xh.i   < # @ # 1 _ i.] J T d.-X,X<X:X>X6XL c k j j l z K =.>.L L >.u.x.x.x.l.u.t.>.>.L L d 1.-X0X7X>X>XeXm O   ; , X > _ J ,.,.v R -XiX7X,X,X-Xc.h.d.,.W f.f.f.f.f.f.f.f.j.j.j.j.j.j.j.h.u.u.u.u.u.u.u.u.u.u.r.>.L L K c d 1.-X0X7X:X>XeXm O   ; , X > ~ Z -.-.c R -XuX2X,X,X-Xu.K h j A a I s.Z.b.i.a.V.G G F F F F F 3 F Z D P ] g.m.=Xm.N.B.r.H V F $.a Y n.Z.b.p.p.b.] ) ) Y I I P P P P P I ) p.M.D.M.b.s.p.r.] ) J f 1.-X0X7X>X>XeXm O   ; , X > ~ Z -.-.c R -XuX2X,X,X-Xu.K h j F q P.W.(.kXhXSX",
"% | E.`.vXvXbX|.I.e.2.2.2.f.p.n.b.M.M.b.p.8.U G U G F F F 4 4 4 G D D D D D D D U 7.9.7.G U 0.C.u.u.u.u.u.>.L c L L Y u.6XyX6XS.sXM.N O . * * = 3 #.5.7.U ) p.A.:X:X,X:X-Xj.f.d.j.j.j.j.j.j.j.j.f.f.f.f.f.f.f.f.f.f.f.f.f.f.f.k.k.k.k.k.f.f.f.u.u.y.y.=.&.@.A z C D G G D D D D 0.a.a.a.a.9.7.U C C C C G 7.0.a.a.a.0.9.7.U G D D D D D D D D D G U 7.U D U a.S.*X@X*X0Xh.i   < # @ # 1 _ i.] J T d.-X,X<X:X>X6XL c k j j z z K =.>.L Y >.u.x.x.x.x.u.u.>.=.L L d 1.-X0X7X>X>XeXm O   ; , X > _ J ,.,.v R -XiX,X,X,X-Xc.f.d.,.W f.f.f.f.f.f.f.f.j.j.j.j.j.j.j.h.u.u.u.u.u.u.u.u.u.u.t.>.L L K n d 1.-X0X7X:X>XeXm O   ; , X > ~ Z -.-.c R -XuX2X,X,X-Xu.K h j A a I s.Z.b.i.a.V.G G F F F F F F F Z G U ] g.m.=Xm.N.B.r.H V V G a Y p.Z.b.p.p.b.] ) ) Y I P P P P P P I ) i.M.D.M.M.s.i.r.] ) Y f 1.-X0X7X>X>XeXm O   ; , X > ~ Z -.-.c R -XuX2X,X,X-Xu.K h j F q P.W.(.kXhXSX",
"% | E.`.AXnXbX}.I.e.<.2.2.f.b.n.s.h.b.s.p.8.U K U G G C V V 4 j D D D D D D D D U =.9.=.U U 9.C.y.u.u.u.r.>.L c L L E u.>XyX6X:XsXM.N O . * * = 3 #.5.7.U ) p.A.:X:X,X:X-Xj.f.d.j.j.j.j.j.j.j.j.f.f.f.f.f.f.f.f.f.f.f.f.f.f.f.k.k.k.k.k.f.f.f.u.u.y.y.=.&.@.A z C G G G G G G D 0.a.a.a.a.9.8.U D C C C G 7.0.a.a.a.0.9.7.U G D D D D D D D D D G U 7.U D U a.S.*X@X*X0XM.i   < # @ # 1 _ i.] J T d.-X,X<X:X>X6XL c k j j z z K =.>.L =.>.u.x.x.x.x.u.t.>.=.L L d 1.-X0X7X>X>XeXm O   ; , X > _ H ,.>.v R -XaX,X,X<X-Xc.f.t.>.>.f.f.f.f.f.f.f.f.j.h.j.h.j.h.j.x.u.u.u.u.u.u.u.u.u.u.t.>.L L K n d 1.-X0X7X:X>XeXm O   ; , X > ~ Z -.-.c R -XuX2X,X,X-Xu.K h j A a I s.Z.b.i.a.V.G G S F F F F F F Z G U ] g.m.=Xm.N.B.r.H V V G a Y p.Z.s.p.p.s.] Y ) Y I H P P P P P I ) i.M.D.M.M.s.p.r.] ) Y f 1.-X0X7X>X>XeXm O   ; , X > ~ Z -.-.c R -XuX2X,X,X-Xu.K h j F q P.W.(.kXhXSX",
"% 6 R.bXHXnXvX`.K.O.*.b R W [ i.Z.x.x.x.x.x.x.x.Z.l.a.>.Y K k s k c K K Y =.>.>.u.u.u.u.u.u.u.y.l.l.l.l.l.y.=.L L L E f.>XaX,X-XsXM.N O . * * = 3 #.5.7.U Y p.A.:X:X,X:X-Xj.f.d.f.f.f.f.f.f.f.f.j.j.j.j.j.j.j.j.j.j.j.j.j.j.j.j.k.k.k.k.f.f.u.u.u.y.y.=.&.@.A l Z F F F S S G G 0.a.a.p.p.i.) Y D C C C G 7.0.a.a.a.0.9.7.U G D D D D D D D D D G U 7.U C U a.S.*X@X*X0Xh.i   < # @ # 1 _ i.] J J d.-X,X,X:X>X6XK k h h h z &.-.u.u.u.u.u.u.u.u.x.x.u.u.>.>.L L d 1.-X0X7X:X>XeXm O   ; , X > ~ C -.-.c R -XuX2X,X,X:Xh.L c K =.>.>.u.h.x.x.h.u.u.u.u.u.u.u.u.u.x.x.u.u.u.u.r.>.>.>.>.>.Y L L L d 1.-X0X7X:X>XeXm O   ; , X > ~ Z q.-.c R -XuX2X1X,X-Xu.K h j A a I s.Z.b.i.a.V.G G S F F F F F F Z G U ] g.m.=Xm.N.B.r.H V V $.s L u.x.u.u.u.u.E Y Y L L K K H P P P I ) p.M.D.Z.M.s.i.r.) ) Y f 1.-X0X7X:X>XeXm O   ; , X > ~ Z -.-.c R -XuX2X,X,X-Xu.K h j F q P.W.(.kXhXSX",
"% 6 R.bXHXHXnX`.K.O.$.b R W [ n.Z.x.x.x.x.x.x.x.x.u.u.>.L c g g c c c L L L >.>.u.u.u.u.u.u.u.u.z.z.z.z.z.y.=.L L L E f.<XaX2X-XsXM.N O . * * = 3 #.5.7.U Y p.A.:X:X,X:X-Xj.f.d.f.f.f.f.f.f.f.f.j.j.j.j.j.j.j.j.j.j.j.j.j.j.j.j.k.k.k.k.f.f.u.u.u.y.y.=.&.@.A l F 3 F F F S G G 0.a.a.s.p.i.] Y D C C C G 7.0.a.a.a.0.9.7.U G D D D D D D D D D G U 7.U C U a.S.*X@X*X0Xh.i   < # @ # 1 _ i.] J J d.-X,X,X:X>X6XK k s h h z &.-.u.u.u.u.u.u.u.u.x.x.u.u.>.>.L L d 1.-X0X7X:X>XeXm O   ; , X > ~ Z -.-.c R -XuX2X,X,X<Xh.L z @.*.=.>.u.x.x.x.u.u.u.u.u.u.u.u.u.u.x.x.u.u.u.u.u.>.>.>.>.>.>.L L L d 1.-X0X7X>X>XeXm O   ; , X > ~ Z q.-.c R :XuX2X,X,X-Xu.K h j A a I s.Z.b.i.a.V.G G S F F F F F F Z G U ] g.m.=Xm.N.B.r.H V V $.s L u.x.u.u.u.u.=.Y L L L K c c P P P I ) p.M.D.M.M.s.p.r.) ) Y f 1.-X0X7X:X>XeXm O   ; , X > ~ Z -.-.c R -XuX2X,X,X-Xu.K h j F q P.W.(.kXhXSX",
"% 6 R.bXHXHXnX`.K.O.$.b R W [ n.Z.x.x.x.x.x.x.x.u.r.>.L K c g s c c L L L L L L u.u.u.u.u.u.u.u.z.z.z.l.z.-.=.L L L E f.<XaX2X-XsXM.N O . * * = 3 #.5.7.U Y p.A.:X:X,X:X-Xj.f.d.f.f.f.f.f.f.f.f.j.j.j.j.j.j.j.j.j.j.j.j.j.j.j.j.k.k.k.k.f.f.u.u.u.y.y.=.&.@.A l F 3 F F F F G G 0.a.p.p.p.i.] Y D C C C G 7.0.a.a.a.0.9.7.U G D D D D D D D D D G U 7.U C U a.S.*X@X*X0Xh.i X < # @ # 1 _ i.] J J d.-X,X,X:X>X6XL c k h j z *.-.u.u.u.u.u.u.u.u.x.u.u.u.>.>.L L d 1.-X0X7X:X>XeXm O   ; , X > ~ Z -.-.c E -XuX2X,X,X<Xh.L z @.*.=.>.u.x.x.x.u.u.u.u.u.u.u.u.u.u.x.x.u.u.u.u.u.r.r.>.>.>.>.L L L d 1.-X0X7X:X>XeXm O   ; , X > ~ Z -.-.c R -XuX2X,X,X-Xu.K h j A a I b.Z.b.i.a.V.G S F F F F 3 F F Z G U ] g.m.=Xm.N.B.r.P V V $.s L u.x.u.u.u.u.>.Y L L L K c c P P P I ) p.M.D.Z.M.b.p.r.) ) Y f 1.-X0X7X>X>XeXm O   , , X > ~ Z -.-.c R -XuX2X,X,X-Xu.K h j F q P.W.(.kXhXSX",
"% 6 R.bXHXHXnX`.K.O.$.b R W [ n.Z.x.x.x.x.x.x.x.>.>.>.L c c g g L L L L L L L L u.u.u.u.u.u.u.u.z.z.z.z.y.-.K K L L E f.<XaX2X-XsXM.N O . * * = 3 #.5.7.U Y p.A.:X:X,X:X-Xj.f.d.f.f.f.f.f.f.f.f.j.j.j.j.j.j.j.j.j.j.j.j.j.j.j.j.k.k.k.k.f.f.u.u.u.y.y.=.&.@.A l F 3 F F F F G G 0.a.p.b.p.i.] Y D C C C G 7.0.a.a.a.0.9.7.U G C D D D D D D D D G U 7.U C U V.S.*X@X*X0Xh.i X < # @ # 1 _ i.] J T d.-X,X,X:X>X6XL K k k j A *.q.u.u.u.u.u.u.u.u.x.h.u.u.>.>.L L d 1.-X0X7X:X>XeXm O   ; , X > ~ Z -.-.c E :XuX2X,X,X<Xh.=.z @.*.=.>.u.x.x.x.u.u.u.u.u.u.u.u.u.u.x.x.u.u.u.u.r.>.r.>.>.>.>.L L L d 1.-X0X7X:X>XeXm O   ; , X > ~ Z -.-.c R -XuX2X,X,X-Xu.K h j z a I s.Z.b.i.a.V.G S F F F F F F F Z G U ] g.m.=Xm.N.B.r.H V V G s L u.x.u.u.u.u.>.Y L L L c c c P P P I ) p.M.D.M.M.s.i.r.) ) Y f 1.-X0X7X:X>XeXm O   , , X > ~ Z -.-.c R -XuX2X1X,X-Xu.K h j F q P.W.(.kXhXSX",
"% 6 R.bXHXHXnX`.K.O.$.b R W [ n.Z.x.x.x.x.x.x.x.>.>.>.L L c c c L L L L L L L L u.u.u.u.u.u.u.u.y.z.z.z.q.=.K c R R E f.<XaX2X-XsXM.N O . * * = 3 #.5.7.U ) p.A.:X:X,X:X-Xj.f.t.f.f.f.f.f.f.f.f.j.j.j.j.j.j.j.j.j.j.j.j.j.j.j.j.k.k.k.k.f.f.f.u.u.y.y.=.&.@.A l F 3 F F F S S G 0.a.p.b.p.i.] Y D C C C G 7.0.a.a.a.0.9.7.U G D D D D D D D D D G U 7.U D U a.S.*X@X*X0XM.i   < # @ # 1 _ i.] J T d.-X,X,X:X>X6X=.K z k z @.-.z.u.u.u.u.u.u.u.u.x.u.u.u.>.E L L d 1.-X0X7X:X>XeXm O   ; , X > ~ Z -.-.c R -XuX2X,X,X<Xh.=.z @.*.=.>.u.x.x.x.u.u.u.u.u.u.u.u.u.u.x.x.x.u.u.u.r.>.>.>.>.>.L L L L d 1.-X0X7X:X>XeXm O   ; , X > ~ Z -.-.c R -XuX2X,X,X-Xu.c h j z a I s.Z.b.i.a.V.G G S F F F F F F Z D P ] g.m.=Xm.N.B.r.H V V $.s L u.x.u.u.u.u.>.R L L L c c c P P P I ) i.b.D.M.b.p.p.r.] ) Y f 1.-X0X7X:X>XeXm O   ; , X > ~ Z q.-.c R -XuX2X1X,X-Xu.K h j F q P.W.(.kXhXSX",
"% 6 R.bXHXHXnX`.K.O.$.b R W [ n.Z.x.x.x.x.x.x.x.r.>.>.>.>.L L L Y L L L L L c c u.u.u.u.u.u.u.u.y.-.y.y.-.=.K c L R E f.<XaX2X-XsXM.N O . * * = 3 #.5.7.U ) p.A.:X:X,X:X-Xj.f.t.f.f.f.f.f.f.f.f.j.j.j.j.j.j.j.j.j.j.j.j.j.j.j.j.k.k.k.k.f.f.f.u.u.y.y.=.&.@.A l F 4 F F F F G G 0.a.p.p.p.i.] Y D C C C G 7.0.a.a.a.0.9.7.U G D D D D D D D D D G U 7.U C U a.S.*X@X*X0Xh.i   < # @ # 1 _ i.] J T d.-X,X,X:X>X6X>.L K k z &.-.z.u.u.u.u.u.u.u.u.x.u.u.u.>.E L L d 1.-X0X7X>X>XeXm O   ; , X > ~ Z -.-.c R -XuX2X,X,X:Xh.=.z @.*.=.>.u.x.x.x.u.u.u.u.u.u.u.u.u.u.x.x.x.u.u.u.>.>.>.>.>.>.Y L L L d 1.-X0X7X:X>XeXm O   ; , X > ~ Z -.-.c R -XuX2X,X,X-Xu.c h j z a I s.Z.b.i.a.V.G G F F F F F F F Z D P ] g.m.=Xm.N.B.r.H V Z $.s L u.x.u.u.u.u.>.>.L L L c c c P H P I ) i.b.D.M.b.p.i.r.] ) Y f 1.-X0X7X:X>XeXm O   ; , X > ~ Z q.-.c R -XuX2X,X,X-Xu.K h j F q P.W.(.kXhXSX",
"% 6 R.bXHXHXnX`.K.O.$.b R W [ n.Z.x.x.x.x.x.x.x.u.u.u.u.r.>.>.>.>.E L L L c c c u.u.u.u.u.u.u.u.-.q.q.q.=.&.c k L R E f.<XaX2X-XsXM.N O . * * = 3 #.5.7.U Y p.A.:X:X,X:X-Xj.f.t.f.f.f.f.f.f.f.f.j.j.j.j.j.j.j.j.j.j.j.j.j.j.j.j.k.k.k.k.f.f.f.u.u.y.y.=.&.@.z l F 3 F F F S G G 0.a.p.p.p.i.] Y D C C C G 7.0.a.a.a.0.9.7.U G D D D D D D D D D G U 7.U C U a.S.*X@X*X0XM.i   < # @ # 1 _ i.] J T d.-X,X,X:X>X6X>.=.K z A *.q.z.u.u.u.u.u.u.u.u.x.x.u.u.>.E L L d 1.-X0X7X>X>XeXm O   ; , X > ~ Z -.-.c R -XuX2X,X,X<Xh.L z @.*.=.>.u.x.x.x.u.u.u.u.u.u.u.u.u.u.x.x.u.u.u.u.>.>.>.>.>.>.L L L L d 1.-X0X7X:X>XeXm O   ; , X > ~ Z -.-.c R -XuX2X1X,X-Xu.K h j A a I s.Z.b.i.a.V.G G S F F 3 F F F Z D P ] g.m.=Xm.N.B.r.H V V $.s L u.x.u.u.u.u.>.Y L L L K c c P P P I ) p.M.D.M.b.s.p.r.] ) Y f 1.-X0X7X:X>XeXm O   ; , X > ~ Z q.-.c R -XuX2X,X,X-Xu.K h j F q P.W.(.kXhXSX",
"% 6 R.bXHXHXnX`.K.O.$.b R W [ n.Z.x.x.x.x.x.x.x.x.u.u.u.u.u.u.u.>.>.Y L L c c c u.u.u.u.u.u.u.u.-.q.q.q.=.K c k L R E f.<XaX2X-XsXM.N O . * * = 3 #.5.7.U Y p.A.:X:X,X:X-Xj.f.t.f.f.f.f.f.f.f.f.j.j.j.j.j.j.j.j.j.j.j.j.j.j.j.j.k.k.k.k.f.f.f.u.u.y.y.=.&.@.A l F 3 F F F S G G 0.a.p.p.p.i.] Y D C C C G 7.0.a.a.a.0.9.7.U G D D D D D D D D D G U 7.U C U a.S.*X@X*X0XM.i   < # @ # 1 _ i.] J T 1.-X,X,X:X>X6X>.=.K z A *.q.z.u.u.u.u.u.u.u.u.x.x.u.u.>.>.L L d 1.-X0X7X>X>XeXm O   ; , X > ~ Z -.-.c R -XuX2X,X,X<Xh.L z @.*.=.>.u.x.x.x.u.u.u.u.u.u.u.u.u.u.x.x.u.u.u.u.r.>.>.>.>.>.Y L L L d 1.-X0X7X:X>XeXm O   ; , X > ~ Z -.-.c R -XuX2X1X,X-Xu.K h j A a I s.Z.b.i.a.V.G G S F F 3 F F F Z D P ] g.m.=Xm.N.B.r.H V S $.s L u.x.u.u.u.u.>.Y L L L L c c P P P I ) p.M.D.M.M.s.p.i.] ) J f 1.-X0X7X:X>XeXm O   ; , X > ~ Z -.-.c R -XuX2X1X,X-Xu.K h j F q P.W.(.kXhXSX",
"% 6 R.bXHXHXnX`.K.O.@.b R [ p.b.s.u.u.u.u.u.u.u.u.u.u.u.u.u.u.u.u.r.>.L L L L Y u.u.x.x.x.u.>.-.K @.@.K K K K K Y L E h.<XaX2X-XsXM.N O . * * = 3 #.5.7.U Y p.A.rX7X7X>X-Xh.d.W ,.t.d.d.f.h.j.j.j.j.j.j.j.j.j.j.j.j.j.j.j.j.j.j.j.j.j.k.d.t.t.>.>.-.=.&.A z l 4 F 3 F F F Z Z G 0.a.p.p.p.i.] Y D C C C G 7.0.a.a.a.0.9.7.U G D D D D D D D D D G U 7.U D U a.S.*X@X*X0XM.i X < # @ # 1 _ i.] J T d.-X,X<X:X>X6X>.=.=.&.&.&.*.-.u.u.u.u.u.u.u.u.u.u.>.>.L L K c d 1.-X0X7X:X>XeXm O   ; , X > ~ Z q.-.c R -XuX2X,X,X-Xu.K h j z K >.>.u.u.u.u.r.x.x.x.x.x.x.x.x.u.u.u.r.>.>.>.>.u.u.>.>.Y L L v d 1.-X0X7X:X>XeXm O   ; , X > ~ Z -.-.c R -XuX2X,X,X-Xu.K h j A a I s.Z.b.i.a.V.G G S F F 3 F F F Z D P ] g.m.=Xm.N.B.r.H V V $.s L u.x.u.u.u.u.E L L L L K c c P P P I ) p.b.D.M.M.s.p.r.] ) J f 1.-X0X7X:X>XeXm O   ; , X > ~ Z -.-.c R -XuX2X,X,X<Xh.=.z @.5.o.T.W.(.jXjXDX",
"% 6 R.bXHXHXnX`.K.O.@.b R [ { n.s.u.u.u.u.u.u.u.u.u.u.u.u.u.u.u.u.r.>.L L L L Y u.u.x.x.x.u.>.=.K @.@.K K K K L L L E h.<XaX2X-XsXM.N O . * * = 3 #.5.7.U Y p.A.rX7X,X>X-Xj.d.W ,.,.d.d.f.h.j.j.j.j.j.j.j.j.j.j.j.j.j.j.j.j.j.j.j.j.j.k.k.t.t.>.>.-.=.&.A z l 4 F 3 F F F Z S G 0.a.p.p.p.i.] Y D C C C G 7.0.a.a.a.0.9.7.U G D D D D D D D D D G U 7.U C U a.S.*X@X*X0Xh.i X < # @ # 1 _ i.] J T d.-X,X<X:X>X6X>.=.=.&.&.&.*.-.u.u.u.u.u.u.u.u.u.u.>.>.L L K c d 1.-X0X7X:X>XeXm O   , , X > ~ Z q.-.c R :XuX2X,X,X-Xu.K h j z K Y >.u.u.u.u.>.x.x.x.x.x.x.x.x.u.u.u.r.>.>.>.>.r.>.>.>.L L L v d 1.-X0X7X:X>XeXm O   ; , X > ~ Z -.-.c R -XuX2X,X,X-Xu.K h j A a I s.Z.b.i.a.V.G G S F F 3 F F F Z D P ] g.m.=Xm.N.B.r.P V V $.s L u.x.u.u.u.u.E E L L L c c c P P P I ) i.b.D.M.M.s.p.r.] ) J f 1.-X0X7X>X>XeXm O   ; , X > ~ Z -.-.c R -XuX2X,X,X<Xh.=.z @.5.o.T.W.(.jXjXDX",
"% 6 R.bXHXHXnX`.K.O.@.n T W { n.s.u.u.u.u.u.u.u.u.u.u.u.u.u.u.u.u.r.>.L L L L Y u.u.x.x.x.u.>.=.K @.@.K K K K L L L E h.<XaX2X-XsXM.N O . * * = 3 #.5.7.U Y p.A.rX7X7X,X-Xj.d.W ,.t.d.d.f.h.j.j.j.j.j.j.j.j.j.j.j.j.j.j.j.j.j.j.j.j.j.k.k.t.t.>.>.-.=.&.z x j 2 F 3 F F F Z G G 0.a.p.p.p.i.] Y D C C C G 7.0.a.a.a.0.9.7.U G C D D D D D D D D G U 7.U D U a.S.*X@X*X0Xh.i   < # @ # 1 _ i.] J T d.-X,X,X:X>X6X>.=.=.&.&.&.*.-.u.u.u.u.u.u.u.u.u.u.r.>.L L K c d 1.-X0X7X>X>XeXm O   ; , X > ~ Z -.-.c R -XuX2X,X,X-Xu.K h j z K L >.r.u.u.>.>.x.l.u.u.u.u.x.x.u.u.r.>.>.>.Y L >.>.>.Y L L L v d 1.-X0X7X:X>XeXm O   ; , X > ~ Z -.-.c R -XuX2X,X,X-Xu.K h j A a I s.Z.b.i.a.V.G G S F F 3 F F F Z G U ] g.m.=Xm.N.B.r.H V V $.s L u.x.u.u.u.u.E E L L L K c c P P P I ) i.M.D.M.M.s.p.r.] ) Y f 1.-X0X7X:X>XeXm O   ; , X > ~ Z -.-.c R -XuX2X,X,X<Xx.=.z @.5.o.T.W.(.jXjXDX",
"% 6 R.bXHXHXnX`.K.X.Z n v W [ n.s.u.u.u.u.u.u.u.u.u.u.u.u.u.u.u.u.r.>.L L L L >.u.u.x.x.x.u.>.=.K @.@.A K K K K L L E h.<XaX2X-XsXM.N O . * * = 3 #.5.7.U Y p.A.rX7X,X,X-Xj.d.W ,.t.d.d.f.h.j.j.j.j.j.j.j.j.j.j.j.j.j.j.j.j.j.j.j.j.j.k.k.t.t.>.>.-.=.&.z x j 2 F 3 F F F F G G 0.a.p.p.p.i.] Y D C C C G 7.0.a.a.a.0.9.7.U G C D D D D D D D D G U 7.U C U a.S.*X@X*X0Xh.i X < # @ # 1 _ i.] J T d.-X,X,X:X>X6X>.=.=.&.&.&.*.-.u.u.u.u.u.u.u.u.u.u.r.>.L L K c d 1.-X0X7X:X>XeXm O   ; , X > ~ Z -.-.c R -XuX2X,X,X-Xu.K h j z K L >.>.r.r.>.>.u.u.u.u.u.u.u.u.r.>.>.>.E L L L L L L L L L L L d 1.-X0X7X:X>XeXm O   ; , X > ~ Z -.-.c R -XuX2X,X,X-Xu.K h j A a I s.Z.b.i.a.V.G G S F F 3 F F F Z G U ] g.m.=Xm.N.B.r.H V V G s L u.x.u.u.u.u.>.Y L L L K c c P P P I ) p.M.D.M.M.s.p.r.] ) Y f 1.-X0X7X:X>XeXm O   ; , X > ~ Z -.-.c R -XuX2X,X,X<Xx.=.z @.5.o.T.W.(.jXjXDX",
"% 6 R.bXHXHXnX`.L.X.l n v T [ [ s.u.u.u.u.u.u.u.u.u.u.u.u.u.u.u.u.r.>.L L L L >.u.u.x.x.x.u.>.>.@.@.@.@.K K K L L R R f.<XaX2X-XsXM.N O . * * = 3 #.5.7.U ) p.A.rX7X,X,X-Xj.d.W ,.t.d.d.f.h.j.j.j.j.j.j.j.j.j.j.j.j.j.j.j.j.j.j.j.j.j.f.f.t.t.>.>.>.=.&.A z j 2 F 3 F F F S G G 0.a.p.p.p.i.] Y D C C C G 7.0.a.a.a.0.9.7.U G D D D D D D D D D G U 7.U C U a.S.*X@X*X0Xh.i   < # @ # 1 _ i.] J T d.-X,X,X:X>X6X>.=.=.&.&.&.*.-.u.u.u.u.u.u.u.u.u.u.r.>.L L K c d 1.-X0X7X:X>XeXm O   ; , X > ~ Z -.-.c R -XuX2X,X,X-Xu.K h j z c L L >.>.>.>.>.u.u.u.u.u.u.u.u.>.>.>.>.L L L L K L L L L L L L d 1.-X0X7X:X>XeXm O   ; , X > ~ Z -.-.c E -XuX2X1X,X-Xu.K h j A a I s.Z.b.i.a.V.G G Z F F 4 F F F Z G U ] g.m.=Xm.N.B.r.H V Z $.s L u.x.u.u.u.u.>.Y L L L K c c P P P I ) p.M.D.M.b.s.p.r.] ) Y f 1.-X0X7X:X>XeXm O   ; , X > ~ Z -.-.c R -XuX2X,X,X<Xh.L z @.5.o.P.W.(.hXDXDX",
"% 6 R.bXHXHXnX`.L.X.l g f T [ [ s.u.u.u.u.u.u.u.u.u.u.u.u.u.u.u.u.r.>.L L L L >.u.u.x.x.x.u.>.>.@.@.@.@.K K K L L R E f.<XaX2X-XsXM.N O . * * = 3 #.5.7.U ) p.A.rX7X,X,X-Xj.d.W ,.t.d.d.f.h.j.j.j.j.j.j.j.j.j.j.j.j.j.j.j.j.j.j.j.j.j.f.f.t.t.>.>.>.=.&.A z j 2 F 3 F F F S G G 0.a.p.p.p.i.] ) D C C C G 7.0.a.a.a.0.9.7.U G D D D D D D D D D G U 7.U D U a.S.*X@X*X0Xh.i   < # @ # 1 _ i.] J T d.-X,X,X:X>X6X>.=.=.&.&.&.*.-.u.u.u.u.u.u.u.u.u.u.r.>.L L K c d 1.-X0X7X:X>XeXm O   ; , X > ~ Z -.-.c R -XuX2X,X,X-Xu.K h j z k c L >.>.>.>.L u.u.u.u.u.u.u.u.>.>.>.L L L L K c c c c L L L L d 1.-X0X7X>X>XeXm O   ; , X > ~ Z -.-.c E :XuX2X1X,X-Xu.K h j A a I s.Z.b.i.a.V.G G Z F F 4 F F F Z D P ] g.m.=Xm.N.B.r.H V Z $.s L u.x.u.u.u.u.>.Y L L L L c c P P P I ) p.M.D.M.b.p.i.r.] ) Y f 1.-X0X7X:X>XeXm O   ; , X > ~ Z q.-.c R -XuX2X,X,X<Xh.L z @.5.o.P.W.(.hXDXDX",
"% 6 R.bXHXHXnX`...X.4 g f J ] [ s.u.u.u.u.u.u.u.u.u.u.u.u.u.u.u.u.>.>.L L L L Y u.u.x.x.x.u.>.=.&.@.@.K K K K L R R E f.<XaX2X-XsXM.N O . * * = 3 #.5.7.U Y p.A.,X7X,X>X-Xj.d.W ,.t.d.d.f.h.j.j.j.j.j.j.j.j.j.j.j.j.j.j.j.j.j.j.j.j.j.f.f.t.t.>.>.>.=.&.A z l 4 F 3 F F F S G G 0.a.p.p.p.i.] ) D C C C G 7.0.a.a.a.0.9.7.U G D D D D D D D D D G ( 7.U D U a.S.*X@X*X0Xh.i X < # @ # 1 _ i.] J T d.-X,X>X:X>X6X>.=.=.&.&.&.*.-.u.u.u.u.u.u.u.u.u.u.,.>.L L K c d 1.-X0X7X:X>XeXm O   ; , X > ~ Z -.-.c R -XuX2X,X,X-Xu.K h j z k c L Y >.>.L L r.r.r.r.r.r.r.r.>.>.L L L L c c g a c c K L L L d 1.-X0X7X>X>XeXm O   ; , X > ~ Z -.-.c R -XuX2X,X,X-Xu.K h j A a I b.Z.b.i.a.V.G G F F F F F F F Z D P ] g.m.=Xm.N.B.r.H V V $.s L u.x.u.u.u.l.>.L L L L L c c P P P I ) p.M.D.M.b.p.i.i.] ) Y f 1.-X0X7X:X>XeXm O   ; , X > ~ Z q.-.c R -XuX2X1X,X<Xh.L z @.5.o.T.W.(.hXDXDX",
"% 6 R.bXHXHXnX`...X.4 x f J ` ` s.u.u.u.u.u.u.u.u.u.u.u.u.u.u.u.u.>.>.L L L L Y u.u.x.x.x.u.>.=.K @.A K K K K L R R R f.<X0X2X-XpXM.N O . * * = 3 #.5.7.U Y p.A.rX7X,X>X-Xj.d.W ,.t.d.d.f.h.j.j.j.j.j.j.j.j.j.j.j.j.j.j.j.j.j.j.j.j.j.f.d.t.t.r.r.>.=.&.A z l 4 F 3 F F F S G G 0.a.p.p.p.i.] ) D C C C G 7.0.a.a.a.0.9.7.U G D D D D D D D D D G ( 7.U D U a.S.*X@X*X0Xh.i X < # @ # 1 _ i.] J T d.-X,X>X:X>X6X>.>.L L K &.=.-.u.u.u.u.u.u.u.u.u.u.t.>.L L K v d 1.-X0X7X:X>XeXm O   ; , X > ~ Z -.-.c R -XuX2X,X,X-Xu.K h j z k c K Y =.=.Y L r.r.r.r.r.r.r.r.=.=.Y L K K H c a s k c K K L L d 1.-X0X7X>X>XeXm O   ; , X > ~ Z -.-.c R :XuX2X,X,X-Xu.K h j z a I s.Z.b.i.a.V.G G S F F F F F F Z D P ] g.m.=Xm.N.B.r.H M S $.s L u.x.u.u.u.u.>.L L L L L c c P P P I ) p.M.D.M.b.p.i.i.] ) Y f 1.-X0X7X:X>XeXm O   ; , X > ~ Z -.-.c R -XuX2X1X,X<Xh.L z @.5.w P.W.(.jXDXDX",
"u 6 Y.bXnXnXnX`.K.X.l x c Y 9.0.p.u.u.u.u.u.u.u.u.u.u.u.u.u.u.u.>.>.>.>.>.>.>.>.u.u.x.x.x.u.>.=.U G G U U U K L L L R f.<X9X9X$XpXM.N O . * * = 3 #.5.7.U Y p.A.rX7X,X,X-Xj.d.W ,.t.d.d.f.h.j.j.j.j.j.j.j.j.j.j.j.j.j.j.j.j.j.j.k.B.m.g.g.] I H ) =.8.U U D Z Z F 3 F F F S G G 0.a.p.p.p.i.] Y D C C C G 7.0.a.a.a.0.9.7.U G D D D D D D D D D G U 7.U C U a.S.*X@X*X0Xh.i X < # @ # 1 _ i.] J J d.-X,X,X-X>X7Xf.t.,.E E >.t.u.x.x.x.u.u.u.r.>.u.u.r.>.L L v v d 1.-X0X7X:X>XeXm O   ; , X > ~ Z -.-.c R -XuX2X,X,X-Xu.K h j A U U U U U U U U 8.9.i.a.a.i.9.8.U U U U U U U U D D U U U =.8.=.f 1.-X0X7X:X>XeXm O   ; , X > ~ Z -.-.c R -XuX2X,X,X-Xu.c h j z a I s.Z.b.i.a.V.G G S F F F F F F Z G U ] g.m.=Xm.N.B.r.H V V $.s L u.x.u.u.u.u.>.>.>.>.Y L L L m m m H I r.p.b.p.p.i.r.) Y P P f 1.-X0X7X:X>XeXm O   ; , X > ~ Z -.-.c R -XuX2X,X,X:Xh.L z @.5.^ I.W.(.hXCXSX",
"u 6 Y.bXnXnXnX`.K.X. .x c Y 9.0.s.u.u.u.u.u.u.u.u.u.u.u.u.u.u.u.r.>.r.u.r.r.r.r.u.u.x.x.x.u.>.=.U ~ ~ ( U U K L R b R 2.%X9X5X$XpXM.N O . * * = 3 #.5.7.U Y p.A.rX7X,X,X-Xj.t.W ,.t.d.d.f.h.j.j.j.j.j.j.j.j.j.j.j.j.j.j.j.j.j.j.g.m.m.B.g.] I P ) ( ( U U G G S F 3 F F F S G G 0.a.p.p.p.i.] Y D C C C G 7.0.a.a.a.0.9.7.U G D D D D D D D D D G U 7.U C U a.S.*X@X*X0Xh.i   < # @ # 1 _ i.] J J t.-X,X,X-X,X7Xf.d.,.W W ,.d.f.x.x.x.u.u.u.r.>.u.u.r.>.L L v v d 1.-X0X7X>X>XeXm O   ; , X > ~ Z -.-.c R -XuX2X,X,X-Xu.K h j Z U U U U U U U U 8.9.0.a.a.0.9.8.U U U U U U U U D G G U U 7.7.8.f 1.-X0X7X:X>XeXm O   ; , X > ~ Z -.-.c R -XuX2X,X,X-Xu.c h j z a I s.Z.b.i.a.V.G G S F F F F F F Z G U ] g.m.=Xm.N.B.r.H V V $.s L u.x.u.u.u.u.>.>.>.>.Y L L L m m m H I r.p.b.p.p.i.r.) I P P f 1.-X0X7X:X>XeXm O   ; , X > ~ Z -.-.c R -XuX2X,X,X:Xh.L z @.5.^ I.Y.(.kXjXDX",
"u 6 Y.bXnXnXnX`.K.X. .x c Y 9.0.s.u.u.u.u.u.u.u.u.u.u.u.u.u.u.u.u.u.u.u.u.u.u.u.u.l.x.x.x.u.>.=.U ~ ~ ( U U K L R b R 2.%X9X5X$XpXM.N O . * * = 3 #.5.7.U Y p.A.rX7X,X,X-Xh.t.W ,.t.d.d.f.h.j.j.j.j.j.j.j.j.j.j.j.j.j.j.j.j.j.j.g.m.m.B.g.] I P ) ( ( U U G G S F 3 F F F Z G G 0.a.p.p.p.i.] Y D C C C G 7.0.a.a.a.0.9.7.U G D D D D D D D D D G U 7.U C U a.S.*X@X*X0Xh.i X < # @ # 1 _ i.] J J ,.-X,X,X-X,X7Xf.f.t.,.,.t.d.f.x.x.u.u.u.u.r.>.u.u.u.>.L L K c d 1.-X0X7X:X>XeXm O   ; , X > ~ Z -.-.c E -XuX2X,X,X-Xu.K h j Z G G G G G G G U 7.9.0.0.0.0.9.7.U G U G G G G G D G G U U ( 7.8.f 1.-X0X7X>X>XeXm O   , , X > ~ Z -.-.c R -XuX2X,X,X-Xu.K h j A a I s.Z.b.i.a.V.G G F F F F F F F Z G U ] g.m.=Xm.N.B.r.P V V $.s L u.x.u.u.u.u.>.>.>.>.Y L L L m m m H Y r.p.b.p.p.p.] ) I P P f 1.-X0X7X:X>XeXm O   ; , X > ~ Z -.-.c R -XuX2X,X,X<Xh.L z @.5.^ I.Y.(.kXjXDX",
"u 6 Y.bXnXnXnX`.K.X. .x c Y 9.0.s.u.u.u.u.u.u.u.u.u.u.u.u.u.u.u.u.u.u.u.u.u.u.u.u.x.x.x.x.u.>.=.U ~ ~ ( U U K K R b R 2.%X9X5X$XpXM.N O . * * = 3 #.5.7.U Y p.A.rX7X,X,X-Xh.t.W ,.t.d.d.f.h.j.j.j.j.j.j.j.j.j.j.j.j.j.j.j.j.j.j.g.m.m.B.g.] I P ) ( ( U U G G S F 3 F F F Z G G 0.a.p.p.p.i.] Y D C C C G 7.0.a.a.a.0.9.7.U G C D D D D D D D D G U 7.U C U V.S.*X@X*X0Xh.i X < # @ # 1 _ i.] J J ,.-X,X,X-X>X7Xh.f.d.,.,.d.f.h.x.x.u.u.u.u.r.>.u.u.r.>.L L K c d 1.-X0X7X:X>XeXm O   ; , X > ~ Z -.-.c E :XuX2X,X,X-Xu.K h j Z G G G G G G G G ( 7.9.0.0.9.7.( G G G G G G D D D G G U U ( 7.8.f 1.-X0X7X:X>XeXm O   , , X > ~ Z -.-.c R -XuX2X1X,X-Xu.K h j A a I s.Z.b.i.a.V.G G F F F F F F F Z D P ] g.m.=Xm.N.B.r.H V V G s L u.x.u.u.u.u.r.>.>.>.Y L L L m m m H Y r.p.b.p.p.p.r.) I P P f 1.-X0X7X:X>XeXm O   ; , X > ~ Z -.-.c R -XuX2X1X,X<Xh.L z @.5.^ I.Y.(.kXjXDX",
"u 6 Y.bXnXnXnX`.K.X. .x c Y 9.0.s.u.u.u.u.u.u.u.u.u.u.u.u.u.u.u.u.u.u.u.u.u.u.u.u.u.x.x.x.u.>.>.U ~ ~ U U U U L L b R 2.%X9X5X$XpXM.N O . * * = 3 #.5.7.U Y p.A.rX7X,X,X-Xj.d.W ,.t.d.d.f.f.j.j.j.j.j.j.j.j.j.j.j.j.j.j.j.j.j.j.g.m.m.B.g.[ E P 8.( ( U G G G S F 3 F F F S G G 0.a.p.p.p.i.] Y D C C C G 7.0.a.a.a.0.9.7.U G D D D D D D D D D G U 7.U D U a.S.*X@X*X0Xh.i   < # @ # 1 _ i.] J J t.-X,X,X-X,X7Xj.f.d.d.d.d.h.h.x.x.u.u.u.u.r.>.u.u.r.>.L L K c d 1.-X0X7X:X>XeXm O   ; , X > ~ Z -.-.c R -XuX2X,X,X-Xu.c h j l C C C C C C C C U ( 8.9.9.8.( U C C C C C C C C D G G U U ( 7.=.f 1.-X0X7X:X>XeXm O   ; , X > ~ Z q.-.c R -XuX2X1X,X-Xu.K h j A a I s.Z.b.i.a.V.G G F F F 3 3 3 F Z D P ] g.m.=Xm.N.B.r.H V V $.s L u.x.u.u.u.u.>.>.>.>.>.L L L m m m N I r.p.b.p.p.i.r.) I I P f 1.-X0X7X:X>XeXm O   ; , X > ~ Z -.-.c E -XuX2X,X,X<Xh.=.z @.5.^ I.Y.(.hXCXSX",
"u 6 Y.bXnXnXnX`.K.X. .x c Y 9.0.s.u.u.u.u.u.u.u.u.u.u.u.u.u.u.u.u.u.u.u.x.l.u.u.u.u.x.x.x.u.>.>.U ~ ~ U U U U L L b R 2.%X9X5X$XpXM.N O . * * = 3 #.5.7.U Y p.A.,X7X,X,X-Xj.d.W ,.t.d.d.f.f.j.j.j.j.j.j.j.j.j.j.j.j.j.j.j.j.j.j.g.m.m.B.g.[ E P 8.8.( U G G G F F 3 F F F F G G 0.a.p.p.p.i.] Y D C C C G 7.0.a.a.a.0.9.7.U G D D D D D D D D D G U 7.U C U a.S.*X@X*X0Xh.i X < # @ # 1 _ i.] J J t.-X,X,X-X>X7Xc.j.f.d.d.f.j.c.x.x.u.u.u.u.r.>.u.u.r.>.L L K c d 1.-X0X7X:X>XeXm O   ; , X > ~ Z -.-.c R -XuX2X,X,X-Xu.c h j l V C C C C C C C G U 7.9.9.7.U G C C C C C C C C D G G U U 7.7.8.f 1.-X0X7X:X>XeXm O   ; , X > ~ Z q.-.c R -XuX2X,X,X-Xu.K h j A a I s.Z.b.i.a.V.G G Z F F F 3 3 F Z D P ] g.m.=Xm.N.B.r.H V Z $.s L u.x.u.u.u.u.>.>.>.>.>.L L L a m m N I r.p.b.p.p.i.r.) Y I J f 1.-X0X7X>X>XeXm O   ; , X > ~ Z -.-.c E :XuX2X,X,X<Xh.=.z @.5.^ I.Y.(.jXCXSX",
"u 6 Y.bXnXnXnX`.K.X.4 x c Y 9.0.s.u.u.u.u.u.u.u.u.u.u.u.u.u.u.u.x.x.x.x.x.x.x.x.u.u.x.x.x.u.>.>.U ~ ~ U U U U L L b R 2.%X9X5X$XpXM.N O . * * = 3 #.5.7.U ) p.A.rX7X,X>X-Xh.d.W ,.t.d.d.f.h.j.j.j.j.j.j.j.j.j.j.j.j.j.j.j.j.j.j.g.m.m.B.g.] E P 8.8.8.U G G G F F 3 F F F F G G 0.a.p.p.p.i.] Y D C C C G 7.0.a.a.a.0.9.7.U G D D D D D D D D D G U 7.U C U a.S.*X@X*X0Xh.i   < # @ # 1 _ i.] J J t.-X,X,X-X>X7Xc.j.h.f.f.h.j.c.x.x.x.u.u.u.r.>.u.u.>.>.L L K n d 1.-X0X7X:X>XeXm O   ; , X > ~ Z -.-.c R -XuX2X,X,X-Xu.K h j l V V V V V V V V G U ( 7.7.( U G V V V V V V V V D G G U U 7.7.8.f 1.-X0X7X:X>XeXm O   ; , X > ~ Z q.-.c R -XuX2X,X,X-Xu.K h j A a I s.Z.b.i.a.V.G S Z F F F F F F Z D P ] g.m.=Xm.N.B.r.H V V $.s L u.x.u.u.u.u.>.>.>.>.Y L L L a m m N I r.p.M.p.p.i.r.) Y P P f 1.-X0X7X>X>XeXm O   ; , X > ~ Z -.-.c R -XuX2X,X,X<Xh.=.z @.5.^ I.W.(.jXCXSX",
"u 6 Y.bXnXnXnX`.K.X.4 x c Y 9.0.s.u.u.u.u.u.u.u.u.u.u.u.u.u.u.u.x.x.x.x.x.x.x.x.u.u.x.x.x.u.>.-.U ~ ~ U U U U L L b R 2.%X9X5X$XpXM.N O . * * = 3 #.5.7.U ) p.A.rX7X,X>X-Xh.d.W ,.t.d.d.f.h.j.j.j.j.j.j.j.j.j.j.j.j.j.j.j.j.j.j.g.m.m.B.g.] E P 8.8.8.U G G G S F 3 F F F F G G 0.a.p.p.p.i.] Y D C C C G 7.0.a.a.a.0.9.7.U G D D D D D D D D D G U 7.U C U a.S.*X@X*X0Xh.i   < # @ # 1 _ i.] J J t.-X,X,X-X,X7XA.c.j.f.f.j.c.A.x.x.l.u.u.u.r.>.u.u.>.>.L L K n d 1.-X0X7X:X>XeXm O   ; , X > ~ Z -.-.c R -XuX2X,X,X-Xu.K h j Z V V V M V V V V D G U 7.7.U G D V V V V V V V V D G G U U 7.7.8.f 1.-X0X7X:X>XeXm O   ; , X > ~ Z -.-.c R -XuX2X1X,X-Xu.K h j A a I s.Z.b.i.a.V.G Z Z F F F F F F Z D P ] g.m.=Xm.N.B.r.H V S $.s L u.x.u.u.u.u.>.>.>.>.Y L L L a m m N I r.p.M.p.p.i.r.) Y P P f 1.-X0X7X>X>XeXm O   ; , X > ~ Z -.-.c R :XuX2X,X,X<Xh.=.z @.5.^ I.W.(.jXCXSX",
"- X.[.NXHXHXHXVXK.X.4 x x H / _ i.r.u.u.u.u.x.x.>.r.u.u.u.u.x.x.x.x.x.x.x.x.x.x.x.u.u.u.x.x.r.L V S S C D U K K L b R 2.%X9X5X$XpXM.N O . * * = 3 #.5.7.U ) p.A.:X,X,X,XA.d.R f R R W ,.d.f.j.j.j.j.j.j.j.j.j.j.j.j.j.j.j.j.j.j.g.m.m.B.g.[ E P Y U U G C V V 4 F 3 F F F S G G 0.a.p.s.p.i.] Y D C C C G 7.0.a.a.a.0.9.7.U G D D D D D D D D D G U 7.U C U a.S.*X@X*X0Xh.i   < # @ # 1 _ i.] J J t.-X7X,X-X>X7Xj.j.j.j.j.j.j.h.u.u.x.x.x.u.>.>.>.>.>.>.E L L L d 1.-X0X7X:X>XeXm O   ; , X > ~ Z q.-.c R -XuX2X1X,X-Xu.K h j Z C D D D D D D D U U U U U U U U D D D D D D D D D G G U U 7.7.8.f 1.-X0X7X:X>XeXm O   ; , X > ~ Z -.-.c R -XuX2X,X,X-Xu.c h j A a I s.Z.b.i.a.V.G G S F F F F F F Z D P ] g.m.=Xm.N.B.r.H V V $.s L u.x.u.u.u.u.t.>.L >.u.r.L a P P N H I ) i.p.p.p.i.r.) Y P P f 1.-X0X7X:X>XeXm O   ; , X > ~ Z -.-.c R -XuX2X;X:X-Xh.=.A @.q.w..XQ.(.jXCXSX",
"- X.[.NXHXHXnXVXK.X.4 x x H / ( r.r.u.u.u.u.x.x.>.r.u.u.u.u.x.x.x.x.x.x.x.x.x.x.x.u.u.u.x.x.>.L V S V C D U K L L b R 2.%X9X5X$XpXM.N O . * * = 3 #.5.7.U ) p.A.:X,X,X,XA.d.R f R R W ,.d.f.j.j.j.j.j.j.j.j.j.j.j.j.j.j.j.j.j.j.g.m.m.B.g.[ E P Y U U G C V V 4 F 3 F F F S G G 0.a.p.s.p.i.] Y D C C C G 7.0.a.a.a.0.9.7.U G D D D D D D D D D G U 7.U C U a.S.*X@X*X0Xh.i X < # @ # 1 _ i.] J J t.-X7X,X-X,X7Xj.j.j.j.j.j.j.h.u.u.x.x.x.u.>.>.>.>.>.>.Y L L L d 1.-X0X7X:X>XeXm O   ; , X > ~ Z q.-.c R :XuX2X1X,X-Xu.K h j Z C D D D G D D D U U U U U U U U D D D D D D D D D G G U U 7.7.8.f 1.-X0X7X>X>XeXm O   ; , X > ~ Z -.-.c R -XuX2X,X,X-Xu.K h j A a I s.Z.b.i.a.V.G G S F F F F F F Z D P ] g.m.=Xm.N.B.r.P V V $.s L u.x.u.u.u.u.u.>.L >.u.u.L c P H N H I ) i.p.p.p.i.r.) Y P P f 1.-X0X7X:X>XeXm O   , , X > ~ Z -.-.c R -XuX2X;X:X-Xh.=.@.*.q.w..XQ.(.jXCXSX",
"- X.[.NXnXHXnXbXK.X.4 x x H / ( r.>.>.u.u.u.u.u.>.r.u.u.u.u.x.x.x.x.x.x.x.x.x.x.x.u.u.u.x.x.r.L V S S D D U K L L b R 2.%X9X5X$XpXM.N O . * * = 3 #.5.7.U ) p.A.:X,X,X,XA.d.T f R R W ,.d.f.h.j.j.j.j.j.j.j.j.j.j.j.j.j.j.j.j.j.g.m.m.B.g.[ E P Y U U D C V V 4 F 3 F F F S G G 0.a.p.s.p.i.] Y D C C C G 7.0.a.a.a.0.9.7.U G C D D D D D D D D G U 7.U C U a.S.*X@X*X0Xh.i X < # @ # 1 _ i.] J J t.-X7X,X-X>X7Xj.j.j.j.j.j.j.h.f.x.x.x.x.u.>.>.>.>.>.>.Y L L L d 1.-X0X7X:X>XeXm O   ; , X > ~ Z -.-.c R -XuX2X1X,X-Xu.K h j Z C D D D G D D D U G G G G G G G D D D D D D D D D G G U U 7.7.8.f 1.-X0X7X:X>XeXm O   ; , X > ~ Z -.-.c R -XuX2X,X,X-Xu.c h j A a I b.Z.b.i.a.V.G S F F F F 3 F F Z G U ] g.m.=Xm.N.B.r.H V V $.s L u.x.u.u.u.u.u.>.>.>.u.u.L c P H H H I ) i.p.p.p.i.r.) Y P P f 1.-X0X7X>X>XeXm O   ; , X > ~ Z -.-.c E -XuX2X;X,X:Xx.=.&.*.q.w..XQ.(.jXCXSX",
"- X.[.NXnXnXnXbXK.X.4 x x H / ( 8.>.>.>.u.u.u.u.>.r.u.u.u.u.x.x.x.x.x.x.x.x.x.x.x.u.u.u.x.x.r.Y V S S D D U K L R b R 2.%X9X5X$XpXM.N O . * * = 3 #.5.7.U Y p.A.:X,X,X,XA.d.T f R R W W d.f.h.j.j.j.j.j.j.j.j.j.j.j.j.j.j.j.j.j.g.m.m.B.g.[ I P Y U U D C V V 4 F 3 F F F S G G 0.a.p.n.p.i.] Y D C C C G 7.0.a.a.a.0.9.7.U G C D D D D D D D D G U 7.U C U a.S.*X@X*X0Xh.i X < # @ # 1 _ i.] J J t.-X,X,X-X>X7Xj.j.j.j.j.j.j.h.f.x.x.x.x.u.>.>.>.>.>.>.R L L L d 1.-X0X7X:X>XeXm O   ; , X > ~ Z -.-.c R -XuX2X1X,X-Xu.K h j Z C D D D G G D D G G G G G G G D D D D D D D D D D G G U U 7.7.8.f 1.-X0X7X:X>XeXm O   ; , X > ~ Z -.-.c R -XuX2X,X,X-Xu.c h j A a I s.Z.b.i.a.V.G G F F F F F F F Z G U ] g.m.=Xm.N.B.r.H V V G s L u.x.u.u.u.u.u.>.>.>.u.u.>.c P H H H I ) i.p.p.p.i.r.) Y P P f 1.-X0X7X:X>XeXm O   ; , X > ~ Z -.-.c E :XuX2X1X,X<Xx.>.&.-.a.w..XQ.(.jXCXSX",
"- X.[.bXnXnXnXbXK.X.3 h x C / ( =.>.>.>.>.u.u.u.>.r.u.u.u.x.x.x.x.x.x.x.x.x.x.x.x.u.u.u.x.x.r.Y V S S D G U K L L b R 2.%X9X5X$XpXM.N O . * * = 3 #.5.7.U Y p.A.>X,X,X,XA.d.R f R R W W d.k.h.j.j.j.j.j.j.j.j.j.j.j.j.j.j.j.j.j.g.m.m.B.g.] I P Y U U D C V V 4 F 4 F F F F S G 0.a.p.n.p.i.] Y D C C C G 7.0.a.a.a.0.9.7.U G D D D D D D D D D G U 7.U C U a.S.*X@X*X0Xh.i   < # @ # 1 _ i.] J J ,.-X,X,X-X,X7Xj.j.j.j.j.j.j.h.u.u.x.x.x.u.>.>.>.>.>.>.Y L L L d 1.-X0X7X:X>XeXm O   ; , X > ~ Z -.-.c R -XuX2X,X,X-Xu.c h j l C D D D D D D D C C C C C C C C D D D D D D D D D G G U U 7.7.8.f 1.-X0X7X:X>XeXm O   ; , X > ~ Z -.-.c R -XuX2X,X,X-Xu.K h j A a I s.Z.b.i.a.V.G G S F F F F F F Z G U ] g.m.=Xm.N.B.r.H V Z $.s L u.x.u.u.u.u.u.u.>.u.h.u.>.K P H H H I ) i.p.p.p.i.r.) Y P P f 1.-X0X7X:X>XeXm O   ; , X > ~ Z -.-.c R -XuX2X1X2X,Xc.>.*.-.V.w..XQ.(.jXCXSX",
"- X.[.bXnXnXnXbXK.X.3 h x C / ( Y L >.>.>.>.r.u.>.>.u.u.u.l.x.x.x.x.x.x.x.x.x.x.x.u.u.u.x.x.r.L V S S D G U K L L b R 2.%X9X5X$XpXM.N O . * * = 3 #.5.7.U Y p.A.:X,X,X,XA.d.R f R R W W d.k.h.j.j.j.j.j.j.j.j.j.j.j.j.j.j.j.j.j.g.m.m.B.g.] I P Y U U D C V V 4 F 4 F F F F S G 0.a.p.p.p.i.] Y D C C C G 7.0.a.a.a.0.9.7.U G D D D D D D D D D G U 7.U C U a.S.*X@X*X0Xh.i   < # @ # 1 _ i.] J J t.-X,X,X-X,X7Xj.j.j.j.j.j.j.h.u.u.x.x.x.u.>.>.>.>.>.>.Y L L L d 1.-X0X7X>X>XeXm O   ; , X > ~ Z -.-.c R -XuX2X,X,X-Xu.c h j l C D D D D D D D C C C C C C C C D D D D D D D D D G G U U 7.7.8.f 1.-X0X7X:X>XeXm O   ; , X > ~ Z q.-.c R -XuX2X,X,X-Xu.K h j A a I s.Z.b.i.a.V.G G F F F F F F F Z D P ] g.m.=Xm.N.B.r.H V Z $.s L u.x.u.u.u.u.x.u.r.u.x.x.>.L P H H H I ) i.p.p.p.i.r.) Y P P f 1.-X0X7X:X>XeXm O   ; , X > ~ Z -.-.c R -XuX2X2XaX7XS.r.=.-.V.w..XQ.(.jXCXSX",
"- X.[.bXnXnXnXbXK.X.3 h x H / ( Y L L >.>.>.>.r.>.r.u.u.u.u.x.x.x.x.x.x.x.x.x.x.x.u.u.u.x.x.r.L V S S D G U K L L b R 2.%X9X5X$XpXM.N O . * * = 3 #.5.7.U Y p.A.:X,X,X,XA.d.R f R R W W d.f.j.j.j.j.j.j.j.j.j.j.j.j.j.j.j.j.j.j.g.m.m.B.g.] I P Y U U D C V V 4 F 3 F F F F G G 0.a.p.p.p.i.] Y D C C C G 7.0.a.a.a.0.9.7.U G D D D D D D D D D G ( 7.U C U a.S.*X@X*X0XM.i   < # @ # 1 _ i.] J J t.-X,X,X-X,X7Xj.j.j.j.j.j.j.h.u.u.x.x.x.u.>.>.>.>.>.>.Y L L L d 1.-X0X7X>X>XeXm O   ; , X > ~ Z -.-.c R -XuX2X,X,X-Xu.K h j l C D D D D D D D V V V V V V V V D D D D D D D D D G G U U 7.7.8.f 1.-X0X7X:X>XeXm O   ; , X > ~ Z q.-.c R -XuX2X1X,X-Xu.K h j A a I s.Z.b.i.a.V.G G S F F F F F F Z D P ] g.m.=Xm.N.B.r.H V V $.s L u.x.u.u.u.u.x.u.r.u.x.x.>.L P H H H I ) i.p.p.p.p.r.) Y P P f 1.-X0X7X:X>XeXm O   ; , X > ~ Z -.-.c R -XuX2X2XaXaXS.r.-.-.V.w..XQ.(.jXCXSX",
"- X.[.bXnXnXnXbXK.X.3 h x H / ( U L L =.=.>.>.>.>.t.u.u.u.f.x.x.x.x.x.x.x.x.x.x.x.u.r.u.x.x.r.K V S S D G U K K L b R 2.%X9X5X$XpXM.N O . * * = 3 #.5.7.U Y p.A.:X>X,X>XA.t.R f R R W ,.t.f.h.j.j.j.j.j.j.j.j.j.j.j.j.j.j.j.j.j.g.B.B.B.p.] Y P U U G G V S V 4 F F S S G G G G i.a.p.s.p.i.] Y D C C C G 7.0.a.a.a.0.9.7.U G D D D D D D D D D G ( 7.U C U a.S.*X@X*X0XM.i   < # @ # 1 _ i.] J J ,.-X,X,X-X,X7Xj.j.j.j.j.j.j.h.u.u.x.x.h.u.r.>.r.r.r.>.Y L Y L d 1.-X0X7X>X>XeXm O   ; , X > ~ Z -.-.c R -XuX2X,X,X-Xu.K h j Z C D D D D D D D V V V V V V V V D D D D D D D D D G G U U 7.7.8.f 1.-X0X7X:X>XeXm O   ; , X > ~ Z -.-.c R -XuX2X1X,X-Xu.K h j A a I s.Z.b.i.a.V.G S S F F 3 F F F Z D P ] g.m.=Xm.N.B.r.H M S $.s L u.x.u.u.u.u.x.u.u.u.x.x.r.L H H H H P ) i.a.p.a.i.r.) U P P f 1.-X0X7X:X>XeXm O   ; , X > ~ C -.-.c R -XuX2X2XaXaXS.u.-.y.C.w..XQ.(.jXCXSX",
"5 O.[.NXnXnXnX`.L.X.4 x x H / ~ 0.-.=.=.-.y.u.l.>.,.t.f.f.j.j.j.k.k.f.f.f.f.u.u.>.>.-.=.=.&.&.K S S S D G U K L L b R 2.%X9X5X$XpXM.N O . * * = 3 #.5.7.U Y p.A.yXS.S.yX>XE c L c K L L >.,.u.u.f.f.f.f.f.f.f.f.f.f.f.f.f.f.f.k.g.M.M.b.p.r.Y P U G G S F 4 4 4 G U U U U ( ) ) i.a.p.b.p.i.] Y D C C C G 7.0.a.a.a.0.9.7.U G D D D D D D D D D G U 7.U C U a.S.*X@X*X0Xh.i   < # @ # 1 _ i.] J J t.-X,X,X-X,X7Xj.j.h.f.d.d.t.t.r.p.p.s.p.i.) Y Y Y Y Y Y Y Y Y f 1.-X0X7X:X>XeXm O   ; , X > ~ Z -.-.c R -XuX2X,X,X-Xu.K h j Z C D D D D D D D D D D D D D D D D D D D D D D D D G G U U 7.7.8.f 1.-X0X7X:X>XeXm O   ; , X > ~ Z -.-.c R -XuX2X,X,X-Xu.c h j z a I s.Z.b.i.a.V.G G S F F F F F F Z G U ] g.m.=Xm.N.B.r.H V V $.s L u.x.u.u.u.u.u.r.>.r.u.u.>.c D D C D U 8.i.a.i.9.9.8.8.( U Y f 1.-X0X7X:X>XeXm O   ; , X > _ H t.,.v R -XaX,X,X<X-Xc.h.t.>.) w..XQ.(.jXCXSX",
"5 O.[.NXnXnXnX`.L.X.4 x x H / ~ q.*.*.*.=.y.y.l.>.,.t.d.k.j.j.j.k.k.k.k.f.f.f.u.>.>.-.=.*.&.@.@.S S S D G U K L L b R 2.%X9X5X$XpXM.N O . * * = 3 #.5.7.U Y p.A.yXD.S.yX>X=.c L c K L L >.>.u.u.f.f.f.f.f.f.f.f.f.f.f.f.f.f.f.f.g.b.M.b.p.r.U G U G Z F F 4 4 4 D P I I Y ) ) ] i.p.p.b.p.i.) Y D C C C G 7.0.a.a.a.0.9.7.U G D D D D D D D D D G U 7.U C U a.S.*X@X*X0Xh.i   < # @ # 1 _ i.] J J t.-X,X,X-X,X7Xj.j.h.f.d.d.t.t.p.p.p.b.p.i.) Y Y Y Y Y Y Y Y J f 1.-X0X7X:X>XeXm O   ; , X > ~ Z -.-.c R -XuX2X,X,X-Xu.K h j Z C D D D G D D D D D D D D D D D D D D D D D D D D G G U U 7.7.8.f 1.-X0X7X:X>XeXm O   ; , X > ~ Z -.-.c R -XuX2X,X,X-Xu.c h j z a I s.Z.b.i.a.V.G G S F F F F F F Z G U ] g.m.=Xm.N.B.r.H V V $.s L u.x.u.u.u.u.u.r.>.r.u.u.>.c D C C C G 7.0.a.0.9.9.8.7.U U Y f 1.-X0X7X>X>XeXm O   ; , X > _ J t.,.v R :XiX,X,X,X-Xc.h.d.,.] w..XQ.(.jXCXSX",
"5 O.[.NXnXnXnX`.L.X.4 h x H / ~ 8.*.*.&.*.-.y.u.>.t.t.k.k.j.j.j.k.k.k.k.f.f.u.u.>.>.-.=.*.&.@.@.S S S D G U K L L b R 2.%X9X5X$XpXM.N O . * * = 3 #.5.7.U ) p.A.yXD.S.yX>XE c L c K L L >.r.u.u.f.f.f.f.f.f.f.f.f.f.f.f.f.f.f.f.g.M.M.b.p.r.U G U G Z F F 4 4 4 D P P I Y ) ) ] i.p.p.b.p.i.) Y D C C C G 7.0.a.a.a.0.9.7.U G D D D D D D D D D G U 7.U C U a.S.*X@X*X0Xh.i X < # @ # 1 _ i.] J J t.-X,X,X-X,X7Xj.j.h.f.d.d.t.t.p.p.p.s.p.i.) Y Y Y Y Y Y Y I I f W -X0X7X:X>XeXm O   ; , X > ~ Z -.-.c E -XuX2X,X,X-Xu.K h j Z C D D D G D D D D D D D D D D D D D D D D D D D D G G U U 7.7.8.f 1.-X0X7X>X>XeXm O   , , X > ~ Z -.-.c R -XuX2X,X,X-Xu.K h j A a I s.Z.b.i.a.V.G S F F F F 3 F F Z G U ] g.m.=Xm.N.B.r.P V V $.s L u.x.u.u.u.u.u.r.>.r.u.u.>.c D C C C G 7.0.a.0.9.9.7.7.( U Y f 1.-X0X7X:X>XeXm O   ; , X > _ J t.,.v R -XiX,X,X>X-Xc.h.d.W ] w..XQ.(.jXCXSX",
"5 O.[.NXnXnXnX`.K.X.4 x x H / ~ 7.*.&.&.&.-.y.u.>.t.t.k.k.j.j.j.k.k.k.k.f.f.u.u.>.>.-.=.*.&.@.@.S S S D D U K L L b R 2.%X9X5X$XpXM.N O . * * = 3 #.5.7.U ) p.A.yXD.S.yX>XE c L c K L L >.r.u.u.f.f.f.f.f.f.f.f.f.f.f.f.f.f.f.f.g.M.M.b.p.8.U G U G Z F F 4 4 4 D P P I Y ) ) ] i.p.p.s.p.i.) Y D C C C G 7.0.a.a.a.0.9.7.U G C D D D D D D D D G U 7.U C U V.S.*X@X*X0Xh.i X < # @ # 1 _ i.] J J t.-X,X,X-X>X7Xj.j.h.f.d.d.t.t.p.p.p.s.p.i.) Y Y Y Y Y I I I I f W -X0X7X:X>XeXm O   ; , X > ~ Z -.-.c E :XuX2X,X,X-Xu.c h j Z C D D D G G D D D D D D D D D D D D D D D D D D D G G U U 7.7.8.f 1.-X0X7X:X>XeXm O   , , X > ~ Z -.-.c R -XuX2X1X,X-Xu.K h j A a I s.Z.b.i.a.V.G S F F F F F F F Z G U ] g.m.=Xm.N.B.r.H V V G s L u.x.u.u.u.u.u.r.>.u.u.u.>.c D C C C G 7.0.a.0.9.9.7.7.( U Y f 1.-X0X7X:X>XeXm O   ; , X > _ J ,.,.v R -XiX7X,X,X-Xc.h.d.W ] w..XQ.(.jXCXSX",
"5 O.[.NXnXnXnX`.K.X.3 h x H / ~ *.@.@.A &.=.>.r.>.t.t.f.k.k.j.j.k.k.k.k.f.f.u.u.>.>.-.=.*.&.@.@.S S S C G U K L L b R 2.%X9X5X$XpXM.N O . * * = 3 #.5.7.U ) p.A.yXS.S.yX>XE c L c K L L >.r.u.u.f.f.f.f.f.f.f.f.f.f.f.f.f.f.f.f.g.M.M.b.p.8.U G U G Z F F 4 4 4 D P P I Y ) ) ] i.p.p.s.p.i.) Y D C C C G 7.0.a.a.a.0.9.7.U G D D D D D D D D D G U 7.U D U a.S.*X@X*X0XM.i   < # @ # 1 _ i.] J J t.-X,X,X-X,X7Xj.j.h.f.d.d.t.t.p.p.p.s.p.i.) Y I I Y Y Y Y I I f 1.-X0X7X:X>XeXm O   ; , X > ~ Z -.-.c R -XuX2X,X,X-Xu.c h j l C D D D D D D D D D D D D D D D D D D D D D D D D G G U U 7.7.8.f 1.-X0X7X:X>XeXm O   ; , X > ~ Z q.-.c R -XuX2X1X,X-Xu.K h j A a I s.Z.b.i.a.V.G G S F F F F F F Z D P ] g.m.=Xm.N.B.r.H V V $.s L u.x.u.u.u.u.u.r.>.u.u.u.>.c D C C C G 7.0.a.0.9.9.7.7.( U Y f 1.-X0X7X:X>XeXm O   ; , X > _ J ,.,.v R -XiX,X,X,X-Xc.h.d.,.] w..XQ.(.jXCXSX",
"5 O.[.NXnXnXnX`.K.X.3 h x H / ~ *.@.A A K =.-.r.>.t.t.f.k.k.j.j.k.k.k.k.f.f.f.u.>.>.-.=.*.&.@.@.S S V C G U K K L b R 2.%X9X5X$XpXM.N O . * * = 3 #.5.7.U ) p.A.yXS.S.yX>XE c L c K L L >.r.u.u.f.f.f.f.f.f.f.f.f.f.f.f.f.f.f.f.g.b.b.b.p.8.U G U G G F F 4 4 4 D P P I Y ) ) ] i.p.p.s.p.i.) Y D C C C G 7.0.a.a.a.0.9.7.U G D D D D D D D D D G U 7.U C U a.S.*X@X*X0Xh.i   < # @ # 1 _ i.] J J t.-X,X,X-X>X7Xj.j.h.f.d.d.t.t.p.p.p.s.p.i.) Y I I Y Y Y Y I I f 1.-X0X7X>X>XeXm O   ; , X > ~ Z -.-.c R -XuX2X,X,X-Xu.c h j l C D D D D D D D D D D D D D D D D D D D D D D D D G G U U 7.7.8.f 1.-X0X7X:X>XeXm O   ; , X > ~ Z q.-.c R -XuX2X,X,X-Xu.K h j A a I s.Z.b.i.a.V.G G F F F F F F F Z D P ] g.m.=Xm.N.B.r.H V Z $.s L u.x.u.u.u.u.u.>.>.u.u.u.>.c D C C C G 7.0.a.0.9.9.7.7.( U Y f 1.-X0X7X:X>XeXm O   ; , X > _ J ,.,.v R -XiX7X,X,X-Xc.h.d.,.] w..XQ.(.jXCXSX",
"5 O.[.NXnXnXvX`.K.X.3 h x H / ~ G A z z A &.=.>.>.t.t.f.k.k.j.j.k.k.k.k.f.f.f.u.>.>.-.=.*.&.@.@.S S V C G U K L R b R 2.%X9X5X$XpXM.N O . * * = 3 #.5.7.U ) p.A.yXc.S.yX6XE c L c K L L >.r.u.u.f.f.f.f.f.f.f.f.f.f.f.f.f.f.f.f.g.b.M.b.p.8.U G U G Z F F 4 4 4 D P P I Y ) ) ] i.p.p.s.p.i.) Y D C C C G 7.0.a.a.a.0.9.7.U G D D D D D D D D D G U 7.U C U a.S.*X@X*X0XM.i   < # @ # 1 _ i.] J J t.-X,X,X-X>X7Xj.j.h.f.d.d.t.t.p.p.p.s.p.i.) Y I I I Y Y Y Y I f 1.-X0X7X>X>XeXm O   ; , X > ~ Z -.-.c R -XuX2X,X,X-Xu.K h j l C D D D D D D D D D D D D D D D D D D D D D D D D G G U U 7.7.8.f 1.-X0X7X:X>XeXm O   ; , X > ~ Z q.-.c R -XuX2X,X,X-Xu.K h j A a I s.Z.b.i.a.V.G G S F F 3 F F F Z D P ] g.m.=Xm.N.B.r.H V V $.s L u.x.u.u.u.u.u.r.>.u.u.u.>.c D C C C G 7.0.a.0.9.9.9.7.( U Y f 1.-X0X7X:X>XeXm O   ; , X > _ J ,.,.v R -XiX,X,X,X-Xc.h.d.,.] w..XQ.(.jXCXSX",
"5 O.[.NXnXnXvX`.K.X.3 h x H / ~ G A z z A K =.>.r.t.t.f.k.k.j.j.k.k.k.k.f.f.f.u.>.>.-.=.*.&.@.@.V S V C G U K L R b R 2.%X9X5X$XpXM.N O . * * = 3 #.5.7.U Y p.A.yXc.S.yX6X>.c L c K L L >.r.u.u.f.f.f.f.f.f.f.f.f.f.f.f.f.f.f.f.g.b.b.b.p.8.U G U G Z F F 4 4 4 D P P I Y ) ) ] i.p.p.b.p.i.) Y D C C C G 7.0.a.a.a.0.9.7.U G D D D D D D D D D G U 7.U C U a.S.*X@X*X0XM.i   < # @ # 1 _ i.] J J t.-X,X,X-X,X7Xj.j.h.f.d.d.t.t.p.p.p.b.p.i.) Y I I I I Y Y Y I f 1.-X0X7X>X>XeXm O   ; , X > ~ Z -.-.c R -XuX2X,X,X-Xu.K h j Z C D D D D D D D D D D D D D D D D D D D D D D D D G G U U 7.7.8.f 1.-X0X7X:X>XeXm O   ; , X > ~ Z -.-.c R -XuX2X1X,X-Xu.K h j A a I s.Z.b.i.a.V.G G S F F 3 F F F Z D P ] g.m.=Xm.N.B.r.H V S $.s L u.x.u.u.u.u.u.r.>.r.u.u.>.c D C C C G 7.0.a.0.9.9.8.7.7.U Y f 1.-X0X7X:X>XeXm O   ; , X > _ P ,.,.v R -XiX,X7X,X:Xc.h.d.,.] w..XQ.(.jXCXSX",
"5 O.[.NXnXnXnX`...X. .x n H / / C z A A &.=.=.=.L R E ,.d.k.j.j.k.k.k.k.f.f.u.u.=.=.&.K A z z A S S V D G K K K L b R 2.%X9X5X$XpXM.N O . * * = 3 #.5.7.U Y p.A.yXD.S.yXF.>.c L L L >.>.u.u.x.x.W ,.d.j.j.j.h.f.f.f.f.f.f.f.f.f.p.p.p.i.r.Y D V G G S F F F F F D P P I Y ) ) ] i.p.p.s.p.i.) Y D C C C G 7.0.a.a.a.0.9.7.U G D D D D D D D D D G U 7.U D U a.S.*X@X*X0XM.i X < # @ # 1 _ i.] J J t.-X7X,X-X>X7Xj.j.h.f.d.d.t.t.s.b.b.b.p.r.Y P P P P I Y ) ) ] f 1.-X0X7X:X>XeXm O   ; , X > ~ Z q.-.c R -XuX2X1X,X-Xu.K h j Z C D D D D D D D D D D D D D D D D D D D D D D D U U U U U U U Y f 1.-X0X7X:X>XeXm O   ; , X > ~ Z -.-.c R -XuX2X1X,X-Xu.K h j A a I s.Z.b.i.a.V.G G S F F 3 F F F Z D P ] g.m.=Xm.N.B.r.H V V $.s L u.x.u.u.u.u.u.u.>.r.u.u.>.H D G G U U 7.7.7.7.7.7.U U G G H f 1.-X0X7X:X>XeXm O   ; , X > _ J ,.,.v R -XiX,X,X>X-Xc.h.d.,.] w..XQ.(.jXCXSX",
"5 O.[.NXnXnXnX`...X. .x c H / / C z A A &.=.=.=.L R E ,.d.k.j.j.k.k.k.k.f.f.u.u.=.=.&.&.A z z A S S V C G U K L R b R 2.%X9X5X$XpXM.N O . * * = 3 #.5.7.U Y p.A.yXc.S.yXF.=.c L L L E >.t.u.u.x.W ,.d.j.j.j.h.f.f.f.f.f.f.f.f.f.i.p.p.i.r.Y D V G G S F F F F F D P I I Y ) ) ] i.p.p.s.p.i.) Y D C C C G 7.0.a.a.a.0.9.7.U G D D D D D D D D D G U 7.U C U a.S.*X@X*X0Xh.i X < # @ # 1 _ i.] J J t.-X7X,X-X,X7Xj.j.h.f.d.d.,.,.s.b.b.s.p.] Y P P P P I Y ) ) ] f 1.-X0X7X:X>XeXm O   , , X > ~ Z q.-.c R -XuX2X1X,X-Xu.K h j Z C D D D G D D D D D D D D D D D D D D D D D D D U U U U U U U Y f 1.-X0X7X>X>XeXm O   ; , X > ~ Z -.-.c R -XuX2X,X,X-Xu.K h j A a I s.Z.b.i.a.V.G G S F F 3 F F F Z D P ] g.m.=Xm.N.B.r.P V V $.s L u.x.u.u.u.u.u.u.>.r.u.u.>.H D G G U U 7.7.8.7.7.7.U U G G H f 1.-X0X7X:X>XeXm O   ; , X > _ J ,.,.v R -XiX,X,X>X-Xc.h.d.,.] w..XQ.(.jXCXSX",
"5 O.[.NXnXnXnX`.L.X. .x c H / ! C z A A K =.=.=.L R E ,.d.k.j.j.k.k.k.k.f.f.u.u.=.=.=.K A z z A S S S D G U K K R b R 2.%X9X5X$XpXM.N O . * * = 3 #.5.7.U Y p.A.yXD.S.yX6X=.c L L L L >.>.u.u.h.W ,.d.j.j.j.h.f.f.f.f.f.f.f.f.f.p.p.p.i.r.Y D V G S F F F F 3 F P P I I Y ) ) ] i.p.p.s.p.i.) Y D C C C G 7.0.a.a.a.0.9.7.U G C D D D D D D D D G U 7.U D U a.S.*X@X*X0Xh.i   < # @ # 1 _ i.] J J t.-X,X,X-X>X7Xj.j.h.f.d.d.,.t.p.p.b.p.i.) I P P P P I Y ) ) ] f 1.-X0X7X>X>XeXm O   ; , X > ~ Z -.-.c R -XuX2X1X2X:Xf.K j j @.C D D D G D D D D D D D D D D D D D D D D D D D U U U U U U U U f 1.-X0X7X:X>XeXm O   ; , X > ~ Z -.-.c R -XuX2X,X,X-Xu.K h j A a I s.Z.b.i.a.V.G G S F F 3 F F F Z G U ] g.m.=Xm.N.B.r.H V V $.s L u.x.u.u.u.u.u.r.>.r.u.u.>.c D G G U U 7.7.7.7.7.7.U U G G H f 1.-X0X7X:X>XeXm O   ; , X > _ J ,.,.v W -XiX,X7X>X-Xc.h.d.,.] w..XQ.(.jXCXSX",
"5 O.[.NXnXnXnX`.L.X. .x c H / / C z A A K =.=.=.L R E ,.d.k.j.j.k.k.k.k.f.f.u.u.=.=.=.K A z z A S S S D G U U K R b R 2.%X9X5X$XpXM.N O . * * = 3 #.5.7.U Y p.A.yXD.S.yX6X>.c L c K L L >.u.u.u.W ,.d.j.j.j.h.f.f.f.f.f.f.f.f.f.p.p.p.i.r.Y D V C Z Z F F F F F P P I I Y ) ) ] i.p.p.s.p.i.) Y D C C C G 7.0.a.a.a.0.9.7.U G C D D D D D D D D G U 7.U C U a.S.*X@X*X0Xh.i X < # @ # 1 _ i.] J J t.-X,X,X-X>X7Xj.j.h.f.d.d.t.t.p.p.p.p.r.) P H P P P I Y ) ) ] f 1.-X0X7X:X>XeXm O   ; , X > ~ Z -.-.c R -XuX2X2X0X<Xh.L j l @.C D D D G G D D D D D D D D D D D D D D D D D D U U U U U U U U f 1.-X0X7X:X>XeXm O   ; , X > ~ Z -.-.c R -XuX2X,X,X-Xu.K h j z a I s.Z.b.i.a.V.G G S F F 3 F F F Z G U ] g.m.=Xm.N.B.r.H V V G s L u.x.u.u.u.u.u.r.>.r.u.u.>.c D G G U U 7.7.7.8.7.7.U U G G H f 1.-X0X7X:X>XeXm O   ; , X > _ J ,.,.v W -XiX,X7X>X-Xc.h.d.,.] w..XQ.(.jXCXSX",
"5 O.[.NXnXnXnX`...X. .x c H / / C z z A K =.=.=.L R E ,.d.k.j.j.k.k.k.k.f.f.f.u.=.=.=.K A z z A S S S D G U K L L b R 2.%X9X5X$XpXM.N O . * * = 3 #.5.7.U Y p.D.yXS.S.yX>XY c L c c L L >.>.u.u.W ,.d.j.j.j.h.f.f.f.f.f.k.k.k.d.p.p.p.p.r.Y P V G G F F F F F F D P P I Y ) ) ] i.p.p.s.p.i.) Y D C C C G 7.0.a.a.a.0.9.7.U G D D D D D D D D D G U 7.U C U a.S.*X@X*X0Xh.i   < # @ # 1 _ i.] J J t.-X,X,X-X,X7Xj.j.h.f.d.d.t.t.r.i.i.i.r.Y P m P P P I Y ) ) ] f 1.-X0X7X:X>XeXm O   ; , X > ~ Z -.-.c R -XuX2XtXaX,Xx.L z z @.C D D D D D D D D D D D D D D D D D D D D D D D U U U U U U U U f 1.-X0X7X:X>XeXm O   ; , X > ~ Z -.-.c R -XuX2X,X,X-Xu.c h j z a I s.Z.b.i.a.V.G G Z F F 4 F F F Z G U ] g.m.=Xm.N.B.r.H V Z $.s L u.x.u.u.u.u.u.>.>.r.u.u.>.c D G G U U 7.7.7.7.7.7.U U G G H f 1.-X0X7X:X>XeXm O   ; , X > _ J ,.,.v W :XiX7X,X,X-Xc.h.d.,.] w..XQ.(.jXCXSX",
"5 O.[.NXnXnXnX`...X. .x c H / / C z z A K &.=.=.L R E ,.d.k.j.j.k.k.k.k.f.f.f.u.=.=.=.K A z z A S S S D G U K L L b R 2.%X9X5X$XpXM.N O . * * = 3 #.5.7.U Y p.D.yXS.S.yX>XE c L c c c L Y >.>.t.W ,.d.j.j.j.f.f.f.f.f.f.k.k.k.f.p.p.p.i.r.Y D V G G F F F F F F D P P I Y ) ) ] i.p.p.s.p.i.) ) D C C C G 7.0.a.a.a.0.9.7.U G D D D D D D D D D G U 7.U D U a.S.*X@X*X0Xh.i   < # @ # 1 _ i.] J J t.-X,X,X-X,X7Xj.j.h.f.d.d.t.t.] r.i.r.) I N m P P P I Y ) ) ] f 1.-X0X7X:X>XeXm O   ; , X > ~ Z -.-.c R -XuX2XuXaX7Xx.=.z A $.C D D D D D D D D D D D D D D D D D D D D D D D U U U U U U U U f 1.-X0X7X:X>XeXm O   ; , X > ~ Z q.-.c R -XuX2X,X,X-Xu.c h j z a I s.Z.b.i.a.V.G G Z F F 4 F F F Z D P ] g.m.=Xm.N.B.r.H V Z $.s L u.x.u.u.u.u.u.>.>.r.u.u.>.c D G G U U 7.7.7.7.7.7.U U G G H f 1.-X0X7X>X>XeXm O   ; , X > _ J ,.,.v W :XiX,X,X<X-Xc.h.d.,.] w..XQ.(.jXCXSX",
"5 O.[.NXnXnXnX`...X. .x c H / / C z z A &.=.=.=.L R E W d.k.j.j.k.k.k.k.f.f.f.u.=.=.&.K A A z A S S S D D U K L L b R 2.%X9X5X$XpXM.N O . * * = 3 #.5.7.U Y p.D.yXS.S.yXF.>.c L c c c L L >.>.>.W ,.d.j.j.j.h.f.f.f.f.f.f.f.f.f.p.p.p.i.r.) D V G G S F F F F F D P P I Y ) ) ] i.p.p.s.p.i.) ) D C C C G 7.0.a.a.a.0.9.7.U G D D D D D D D D D G ( 7.U D U a.S.*X@X*X0Xh.i X < # @ # 1 _ i.] J J t.-X,X,X-X,X7Xj.j.h.f.d.d.t.t.] r.r.r.) P N a P P P I Y ) ) ] f 1.-X0X7X:X>XeXm O   ; , X > ~ Z -.-.c R -XuX2XuXuXaXS.=.A @.*.C D D D D D D D D D D D D D D D D D D D D D D D U U U U U U U U f 1.-X0X7X:X>XeXm O   ; , X > ~ Z q.-.c R -XuX2X1X,X-Xu.K h j A a I b.Z.b.i.a.V.G G F F F F F F F Z D P ] g.m.=Xm.N.B.r.H V V $.s L u.x.u.u.u.l.u.u.>.r.u.u.>.c D G G U U 7.7.7.7.7.7.U U G G H f 1.-X0X7X>X>XeXm O   ; , X > _ J ,.,.v R -XiX7X,X<X-Xc.h.d.W ] w..XQ.(.jXCXSX",
"5 O.[.NXnXnXnX`...X. .x c H / ! C A A A K &.=.=.L L E ,.u.f.h.j.f.f.f.f.f.u.u.u.=.=.*.K A A A A S S S D D K K L L b R 2.%X9X5X$XpXM.N O . * * = 3 #.5.7.U Y p.A.aXA.A.yX>X=.k K k k k K L >.>.>.E ,.d.h.j.h.h.f.f.f.f.f.f.f.f.f.p.p.p.i.r.( D V G G S S F F F S P P P I Y ) ) ] i.p.p.s.p.i.) ) D C C C G 7.0.a.a.a.0.9.7.U G D D D D D D D D D G ( 7.U D U a.S.*X@X*X0Xh.i X < # @ # 1 _ i.] J J ,.-X,X,X-X,X7Xj.j.h.f.d.d.t.t.] 8.r.8.( P m a P P P U Y ( ) ] f 1.-X0X7X:X>XeXm O   ; , X > ~ A -.-.c R :XuX3XuXuXaXA.>.K @.-.D D D D D D D D D D D D D D D D D D D D D D D D U U U U U U U Y f 1.-X0X7X:X>XeXm O   ; , X > ~ Z -.-.c R -XuX2X1X,X-Xu.K h j A a I s.Z.b.i.a.V.G G S F F F F F F Z D P ] g.m.=Xm.N.B.r.H M S $.s L u.x.u.u.u.x.u.u.>.u.u.u.>.c D G G U U 7.7.7.7.7.7.U U G G H f 1.-X0X7X>X>XeXm O   ; , X > _ J ,.,.v R -XiX,X,X,X-Xc.h.d.,.] w..XQ.(.jXCXSX",
"5 O.[.NXnXnXnX`.K.X. .x k C S S V V V C G G U U U U ( 9.i.s.C.Z.C.C.C.C.C.C.Z.C.U U U U U U U U S S S D G U K L L b R 2.%X9X5X$XpXM.N O . * * = 3 #.5.7.U Y p.-XtX1X2XuXS.c h &.l z A K K =.E E >.>.u.h.x.x.h.u.u.h.x.x.h.u.>.>.s.b.C.V.a.9.U G D G G G G G G D m P I ) ] ) ) Y i.p.p.s.p.i.) Y D C C C G 7.0.a.a.a.0.9.7.U G D D D D D D D D D G U 7.U C U a.S.*X@X*X0Xh.i X < # @ # 1 _ i.] J J t.-X,X,X-X,X7X-Xj.h.j.-X-Xf.E U U U U U U U U D G U U U 7.8.) f 1.-X0X7X:X>XeXm O   ; , X > ~ C -.>.c W ;XfX3X4X;X;Xj.E K &.q.9.8.Y P H P P U P P P P H H H H H c K K L L Y =.r.>.>.=.Y L Y L d 1.-X0X7X:X>XeXm O   ; , X > ~ Z -.-.c R -XuX2X,X,X-Xu.K h j A a I s.Z.b.i.a.V.G G S F F F F F F Z G U ] g.m.=Xm.N.B.r.H V V $.k L >.u.x.x.u.u.x.u.u.u.x.x.r.L D D D D D D D D U U U U U U U U f 1.-X0X7X:X>XeXm O   ; , X > _ J ,.,.v R -XiX,X,X,X-Xc.h.d.,.] w..XQ.(.jXCXSX",
"5 O.[.NXnXnXnX`.K.X. .x c C S ! V V C C G G U U U U 7.9.0.V.V.C.V.a.V.V.V.V.V.V.U U U U U U U U S S S D G U K L L b R 2.%X9X5X$XpXM.N O . * * = 3 #.5.7.U Y p.=XtX3X2XuXA.c h @.l %.Z A &.=.E E >.>.u.x.x.x.x.u.u.l.x.x.x.u.>.=.a.V.V.a.0.7.U G D D D D D D D D m P I ) ] ) ) Y i.p.p.s.p.i.) Y D C C C G 7.0.a.a.a.0.9.7.U G D D D D D D D D D G U 7.U C U a.S.*X@X*X0Xh.i   < # @ # 1 _ i.] J J t.-X,X,X-X,X7X-Xj.f.j.-X-Xf.E U U U U U U U U D G G U U 7.7.8.f 1.-X0X7X>X>XeXm O   ; , X > ~ D >.>.v W 1XfX3X4X1X;Xj.E L =.y.r.r.Y P P P I Y P P P P P P P H K c L L L L >.>.>.>.>.>.Y L L L d 1.-X0X7X:X>XeXm O   ; , X > ~ Z -.-.c R -XuX2X,X,X-Xu.K h j A a I s.Z.b.i.a.V.G G S F F F F F F Z G U ] g.m.=Xm.N.B.r.H V V $.k L >.u.x.x.u.u.x.u.u.u.x.x.r.L D D D D D D D D U U U U U U U U f 1.-X0X7X:X>XeXm O   ; , X > _ J ,.,.v R -XiX,X,X,X:Xc.h.d.,.] w..XQ.(.jXCXSX",
"5 O.[.NXnXnXnX`.K.O.%.z c H S ! V V C C G G U U U U 7.9.0.a.a.V.9.9.9.9.9.9.9.9.G G G G G G G G S S S D G U K L L b R 2.%X9X5X$XpXM.N O . * * = 3 #.5.7.U Y p.=XtX3X3XuXA.c h @.l l Z @.&.=.E >.>.>.u.x.x.x.u.u.u.u.x.x.x.u.>.=.a.a.a.a.0.7.G C D D D D D D D D m P I ) ] ) ) Y i.p.p.s.p.i.) Y D C C C G 7.0.a.a.a.0.9.7.U G D D D D D D D D D G U 7.U C U a.S.*X@X*X0Xh.i X < # @ # 1 _ i.] J J t.-X,X,X-X>X7XA.j.f.j.-Xc.d.E U G G G U U U G D G G U U 7.7.8.f 1.-X0X7X:X>XeXm O   ; , X > ~ D >.>.v W 1XfX3X1X1X1Xj.E L =.y.i.r.) I P I Y Y P P P P P P P P K L L L L >.>.>.>.>.>.>.Y L L L d 1.-X0X7X:X>XeXm O   ; , X > ~ Z -.-.c R -XuX2X,X,X-Xu.K h j A a I s.Z.b.i.a.V.G G F F F F F F F Z G U ] g.m.=Xm.N.B.r.P V V $.k L >.u.x.h.u.u.x.u.u.u.x.x.r.L D D D D D D D D U U U U U U U U f 1.-X0X7X>X>XeXm O   , , X > _ J ,.,.v W -XiX,X,X,X-Xc.h.d.,.] w..XQ.(.jXCXSX",
"5 O.[.NXnXnXnX`.K.O.%.:.c H / ! V V C C G G U U U U ( 7.9.0.0.a.U U U U U U U U G G G G G G G G S S S D G U K L L b R 2.%X9X5X$XpXM.N O . * * = 3 #.5.7.U Y p.=XtX3X3XuXA.c h @.l l @.@.&.=.E E >.>.u.x.x.x.u.u.u.u.x.x.x.u.>.=.i.i.a.0.9.( G C D D D D D D D D m P I ) ] ) ) Y i.p.p.b.p.i.) Y D C C C G 7.0.a.a.a.0.9.7.U G C D D D D D D D D G U 7.U C U V.S.*X@X*X0Xh.i X < # @ # 1 _ i.] J J t.-X,X,X-X,X7Xc.f.d.f.c.c.t.R P G G G G G G G D G G U U 7.7.8.f 1.-X0X7X:X>XeXm O   ; , X > ~ D >.>.v W 1XfX3X3X3X1X#X,.L -.y.i.i.] Y I Y Y ) P P P P P P P P L L L L >.>.>.>.>.>.>.>.L L L L d 1.-X0X7X:X>XeXm O   ; , X > ~ Z -.-.c R -XuX2X,X,X-Xu.K h j A a I s.Z.b.i.a.V.G G F F F F F F F Z D P ] g.m.=Xm.N.B.r.H V V G k L >.u.x.h.u.u.x.u.u.u.x.x.r.L D D D D D D D D U U U U U U U Y f 1.-X0X7X:X>XeXm O   , , X > _ J ,.,.v R -XiX,X7X,X:Xc.h.d.,.] w..XQ.(.jXCXSX",
"5 O.[.NXnXnXnX`.K.O.%.:.L P _ / V V C C G G U U U U ( 7.7.9.9.9.G G G G G G G G C C C C C C C D S S V D G U K L L b R 2.%X9X5X$XpXM.N O . * * = 3 #.5.7.U Y p.=XtX3X3XuXS.c h @.l l @.@.&.=.Y E >.>.u.x.x.x.u.u.u.u.x.x.x.u.>.=.9.0.0.0.9.U C V D D D D D D D D m P I ) ] ) ) Y i.p.p.s.p.i.) Y D C C C G 7.0.a.a.a.0.9.7.U G D D D D D D D D D G U 7.U D U a.S.*X@X*X0Xh.i   < # @ # 1 _ i.] J J t.-X,X,X-X,X7Xj.f.d.f.j.j.,.L C C C C C C C C D G G U U 7.7.8.f 1.-X0X7X:X>XeXm O   ; , X > ~ D >.>.v W 1XfX3X3X3X2X#X,.=.-.z.p.p.r.) Y Y ) r.P P P P P P P P Y L L E >.>.>.>.>.>.>.>.R L L L d 1.-X0X7X:X>XeXm O   ; , X > ~ Z -.-.c E -XuX2X1X,X-Xu.K h j A a I s.Z.b.i.a.V.G G F F F 3 3 3 F Z D P ] g.m.=Xm.N.B.r.H V V $.k L >.u.x.x.u.u.x.u.u.u.x.x.r.L D D D D D D D D U U U U U U U Y f 1.-X0X7X:X>XeXm O   ; , X > _ P ,.,.v W :XiX,X,X>X:Xc.h.d.,.] w..XQ.(.jXCXSX",
"5 O.[.NXnXnXnX`.K.O.%.&.L Y ( ~ V V C C G G U U U U U ( 7.7.( 7.G G G G G G G G C C C C C C C V S S V D G U K L L b R 2.%X9X5X$XpXM.N O . * * = 3 #.5.7.U ) p.=XtX3X3XuXS.c h @.l l @.@.K L L E >.>.u.x.x.x.u.u.u.u.x.x.x.u.>.>.9.9.9.9.7.G C M D D D D D D D D m P I ) ] ) ) Y i.p.p.s.p.i.) Y D C C C G 7.0.a.a.a.0.9.7.U G D D D D D D D D D G U 7.U C U a.S.*X@X*X0Xh.i X < # @ # 1 _ i.] J J t.-X,X,X-X,X7Xj.d.,.d.j.j.,.K C C C C C C C C D G G U U 7.7.8.f 1.-X0X7X:X>XeXm O   ; , X > ~ D >.>.v W 1XfX3X3XtX2X-Xt.>.y.l.b.p.i.] ) ) ] r.P P P P P P P P Y Y >.>.>.r.u.u.>.>.>.>.R L L L d 1.-X0X7X>X>XeXm O   ; , X > ~ Z -.-.c E :XuX2X1X,X-Xu.K h j A a I s.Z.b.i.a.V.G G Z F F F 3 3 F Z D P ] g.m.=Xm.N.B.r.H V Z $.k L >.u.x.x.u.u.x.u.u.u.x.x.r.L D D D D D D D D U U U U U U U Y f 1.-X0X7X:X>XeXm O   ; , X > _ J ,.,.v W -XiX,X,X>X:Xc.h.d.W ] w..XQ.(.jXCXSX",
"5 O.[.NXnXnXnX`.K.O.%.;.=.Y _ _ V V C C G G U U U U U U U U U U U U U U U U U U V V V V V V V V S S S D G U K L L b R 2.%X9X5X$XpXM.N O . * * = 3 #.5.7.U Y p.=XtX3X3XuXS.c h @.l %.l @.K L R E >.>.u.x.x.x.u.u.u.u.x.x.x.u.>.=.8.9.9.9.7.G V p D D D D D D D D m P I ) ] ) ) Y i.p.p.s.p.i.) Y D C C C G 7.0.a.a.a.0.9.7.U G D D D D D D D D D G U 7.U C U a.S.*X@X*X0Xh.i   < # @ # 1 _ i.] J J t.-X7X>X-X,X7Xh.d.W d.h.f.W K M V V V V V V V D G G U U ( 7.8.f 1.-X0X7X:X>XeXm O   ; , X > ~ D -.>.v W 1XfX3X3XtXtX-Xt.>.y.l.b.s.i.r.] ] r.i.P P P P P P P P E >.>.>.r.u.u.u.r.>.>.>.R L L L d 1.-X0X7X>X>XeXm O   ; , X > ~ Z -.-.c R -XuX2X,X,X-Xu.K h j A a I s.Z.b.i.a.V.G S Z F F F F F F Z D P ] g.m.=Xm.N.B.r.H V V $.k L >.u.x.x.u.u.x.u.u.u.x.x.r.L D D D D D D D D U U U U U U U U f 1.-X0X7X:X>XeXm O   ; , X > _ J ,.,.v W -XiX,X,X>X-Xc.h.d.,.] w..XQ.(.jXCXSX",
"5 O.[.NXnXnXnX`.E.O.%.;.=.Y _ _ V V C C G G U U U ( U U U U G G U U U U U U U U M M V V V V V V S S S D D U K L L b R 2.%X9X5X$XpXM.N O . * * = 3 #.5.7.U Y p.=XtX3X2XuXS.c h @.l %.Z @.K L L E >.>.u.x.x.x.u.u.u.u.x.x.x.u.>.=.8.9.9.8.( G V p D D D D D D D D m P I ) ] ) ) Y i.p.p.s.p.i.) Y D C C C G 7.0.a.a.a.0.9.7.U G D D D D D D D D D G U 7.U C U a.S.*X@X*X0Xh.i   < # @ # 1 _ i.] J J t.-X7X>X-X>X7Xf.d.W t.f.f.W v M M V V V V V V D G G U U ( 7.8.f 1.-X0X7X:X>XeXm O   ; , X > ~ D -.>.v W 1XfX3X3XgXtX-Xf.>.y.l.C.b.i.r.] ] r.i.P P P P P P P P >.>.>.>.r.u.u.u.r.>.>.>.E L L L d 1.-X0X7X>X>XeXm O   ; , X > ~ Z -.-.c R :XuX2X,X,X-Xu.K h j z a I s.Z.b.i.a.V.G Z Z F F F F F F Z D P ] g.m.=Xm.N.B.r.H V S $.k L >.u.x.x.u.u.x.u.u.u.x.x.r.L H D D D D D D D U U U U U U U U f 1.-X0X7X:X>XeXm O   ; , X > _ J ,.,.v W :XiX,X,X,X-Xc.h.d.,.] w..XQ.(.jXCXSX",
"5 O.[.NXnXnXnX`.K.O.%.:.K U / ! G D D D D D D D D G G U U 7.7.7.D D D D D D D D D D D D D D D G ~ ~ ~ U U U U L L b R 2.%X9X5X$XpXM.N O . * * = 3 #.5.7.U Y p.=XtX3X2XuXS.c h @.l l Z A &.=.E >.L Y >.u.u.u.u.r.u.u.x.x.x.u.>.=.U ( 7.7.7.U C V D D D D D D D D m P I ) ] ) ) Y b.i.r.i.b.b.] P D C C C G 7.0.a.a.a.0.9.7.U G D D D D D D D D D G U 7.U C U a.S.*X@X*X0Xh.i   < # @ # 1 _ i.] J J t.-X,X,X-X,X7Xj.d.W ,.d.d.W L H D D D D D D D D G G U U ( 7.=.f 1.-X0X7X:X>XeXm O   ; , X > ~ D >.>.v W 1XfX3X3X1X1X-XA.x.l.z.i.i.i.i.i.i.i.i.) Y I P P I Y Y E >.>.>.r.u.u.u.u.u.>.>.L L K c d 1.-X0X7X:X>XeXm O   ; , X > ~ Z -.-.c R -XuX2X,X,X-Xu.c h j z a I s.Z.b.i.a.V.G G S F F F F F F Z D P ] g.m.=Xm.N.B.r.H V V $.H L >.u.u.u.u.u.u.u.x.x.x.u.>.=.U U G G C C V V D G G U U 7.7.8.f 1.-X0X7X:X>XeXm O   ; , X > _ J ,.,.v R -XiX,X,X<X-Xc.h.d.,.] w..XQ.(.jXCXSX",
"5 O.[.NXnXnXnX`.K.O.%.:.K K / ! G D D D D D D D D G G U U 7.7.7.D D D D D D D D D D D D D D D G ~ ~ ~ U U U K L L b R 2.%X9X5X$XpXM.N O . * * = 3 #.5.7.U Y p.=XtX3X2XuXA.c h @.l l Z A &.=.E >.L Y >.u.u.u.u.r.u.u.x.x.x.u.>.=.U ( 7.7.7.U C V D D D D D D D D m P I ) ] ) ) Y b.i.r.p.b.b.] P D C C C G 7.0.a.a.a.0.9.7.U G D D D D D D D D D G U 7.U C U a.S.*X@X*X0Xh.i X < # @ # 1 _ i.] J J t.-X,X,X-X,X7Xj.t.W W d.d.W J H D D D D D D D D G G U U 7.7.8.f 1.-X0X7X:X>XeXm O   ; , X > ~ D >.>.v W 1XfX3X3X1X1X-XA.x.u.z.i.i.i.i.i.i.i.i.] ) I P P I ) ] >.>.>.>.u.u.u.u.u.u.>.>.L L K c d 1.-X0X7X:X>XeXm O   , , X > ~ Z -.-.c R -XuX2X,X,X-Xu.c h j z a I s.Z.b.i.a.V.G G S F F F F F F Z D P ] g.m.=Xm.N.B.r.P V V $.H L >.u.u.u.u.u.u.u.x.x.x.u.>.=.U U G G C C V V D G G U U 7.7.8.f 1.-X0X7X>X>XeXm O   ; , X > _ P ,.,.v R -XiX,X,X<X-Xc.h.d.,.] w..XQ.(.jXCXSX",
"5 O.[.NXnXnXnX`.K.O.%.:.K H / ! G D D D D D D D D G G U U 7.7.7.D D D D D D D D D D D D D D D G ~ ~ ~ U U U K L L b R 2.%X9X5X$XpXM.N O . * * = 3 #.5.7.U Y p.=XtX3X3XuXA.c h @.l %.l A K L E >.L Y >.u.u.u.u.r.u.x.x.x.x.u.>.=.U ( 7.8.7.U D V D D D D D D D D m P I ) ] ) ) Y b.i.r.i.b.b.] P D C C C G 7.0.a.a.a.0.9.7.U G C D D D D D D D D G U 7.U C U a.S.*X@X*X0Xh.i X < # @ # 1 _ i.] J J t.-X,X,X-X,X7Xj.t.E E t.d.W K H D D D D D D D D G G U U 7.7.8.f 1.-X0X7X:X>XeXm O   ; , X > ~ D >.>.v W 1XfX3X3X3X1X-Xc.l.u.z.i.p.p.p.p.p.p.p.r.) Y I I Y ) r.>.>.>.r.u.u.u.u.u.u.r.>.L L K c d 1.-X0X7X>X>XeXm O   ; , X > ~ Z -.-.c E -XuX2X1X,X-Xu.K h j A a I b.Z.b.i.a.V.G S F F F F 3 F F Z G U ] g.m.=Xm.N.B.r.H V V $.H L >.u.u.u.u.u.u.u.x.x.x.u.>.=.U U G G C C C V D G G U U 7.7.8.f 1.-X0X7X:X>XeXm O   ; , X > _ P ,.,.v R -XiX,X,X>X-Xc.h.d.,.] w..XQ.(.jXCXSX",
"5 O.[.NXnXnXnX`.K.O.%.:.K H / ! G D D D D D D D D G G U U 7.7.7.D D D D D D D D D D D D D D D G ~ ~ ~ U U U K L L b R 2.%X9X5X$XpXM.N O . * * = 3 #.5.7.U Y p.=XtX3X3XuXA.c h @.l %.l A K L E E L Y >.u.u.u.u.r.u.x.x.x.x.u.>.=.U ( 7.8.7.U D V D D D D D D D D m P I ) ] ) ) Y b.i.r.i.b.b.] P D C C C G 7.0.a.a.a.0.9.7.U G C D D D D D D D D G U 7.U C U a.S.*X@X*X0Xh.i X < # @ # 1 _ i.] J J ,.-X,X,X-X,X7Xf.,.R R ,.,.R v H D D D D D D D D G G U U 7.7.8.f 1.-X0X7X:X>XeXm O   ; , X > ~ D >.>.v W 1XfX3X3X3X1X-Xc.l.u.z.p.p.p.p.p.p.p.p.r.] ) Y Y ) ] r.r.>.u.u.u.u.u.x.u.u.r.>.L L K c d 1.-X0X7X:X>XeXm O   ; , X > ~ Z -.-.c E :XuX2X1X,X-Xu.K h j A a I s.Z.b.i.a.V.G G F F F F F F F Z G U ] g.m.=Xm.N.B.r.H V V G H L >.u.u.u.u.u.u.u.x.x.x.u.>.=.U U G G C C V V D G G U U 7.7.8.f 1.-X0X7X:X>XeXm O   ; , X > _ J ,.,.v R -XiX,X,X,X-Xc.h.d.,.] w..XQ.(.jXCXSX",
"5 O.[.NXnXnXnX`.K.O.%.:.K H / / G D D D D D D D D G G U U 7.7.7.D D D D D D D D D D D D D D D G ~ ~ ~ U U U K L L b R 2.%X9X5X$XpXM.N O . * * = 3 #.5.7.U Y p.=XtX3X3XuXS.c h @.l %.@.@.K L R E L L >.u.u.u.u.r.u.u.x.x.x.u.>.>.U ( 7.7.7.U C V D D D D D D D D m P I ) ] ) ) Y b.i.r.i.b.b.] P D C C C G 7.0.a.a.a.0.9.7.U G D D D D D D D D D G U 7.U C U a.S.*X@X*X0Xh.i   < # @ # 1 _ i.] J J t.-X,X,X-X,X7Xd.W T R W ,.R v H D D D D D D D D G G U U 7.7.8.f 1.-X0X7X:X>XeXm O   ; , X > ~ D -.>.v W 1XfX3X3X1X1X-Xc.l.u.z.s.b.b.b.b.b.b.b.i.r.] ) ) ] r.i.r.u.u.u.u.x.x.x.u.u.r.>.L L K c d 1.-X0X7X:X>XeXm O   ; , X > ~ Z -.-.c R -XuX2X1X,X-Xu.K h j A a I s.Z.b.i.a.V.G G S F F F F F F Z G U ] g.m.=Xm.N.B.r.H V Z $.H L >.u.u.u.u.u.u.u.x.x.x.u.>.=.U U G G C C V V D G G U U 7.7.8.f 1.-X0X7X:X>XeXm O   ; , X > _ J ,.,.v R -XiX,X,X,X-Xc.h.d.,.] w..XQ.(.jXCXSX",
"5 O.[.NXnXnXnX`.K.O.%.:.K H / / G D D D D D D D D G G U U 7.7.7.D D D D D D D D D D D D D D D G ~ ~ ~ U U U K L L b R 2.%X9X5X$XpXM.N O . * * = 3 #.5.7.U Y p.=XtX3X3XuXS.z h @.l %.@.@.K L R E L Y >.u.u.u.u.r.u.u.x.x.x.u.>.>.U ( 7.7.7.U C V D D D D D D D D m P I ) ] ) ) Y b.i.r.i.b.b.] P D C C C G 7.0.a.a.a.0.9.7.U G D D D D D D D D D G U 7.U C U a.S.*X@X*X0Xh.i   < # @ # 1 _ i.] J J t.-X,X,X-X>X7Xd.W T T W W T f H D D D D D D D D G G U U 7.7.8.f 1.-X0X7X>X>XeXm O   ; , X > ~ D -.>.v W 1XfX3X3X1X1X-Xc.l.z.z.b.b.b.b.b.b.b.b.p.i.r.) ) r.i.p.u.u.u.u.x.x.x.x.u.u.r.>.L L K c d 1.-X0X7X:X>XeXm O   ; , X > ~ Z -.-.c R -XuX2X,X,X-Xu.K h j A a I s.Z.b.i.a.V.G G F F F F F F F Z D P ] g.m.=Xm.N.B.r.H V Z $.K L >.u.u.u.u.u.u.u.x.x.x.u.>.=.U U G G C C V V D G G U U 7.7.8.f 1.-X0X7X:X>XeXm O   ; , X > _ J t.,.v R -XiX,X,X,X:Xc.h.d.,.] w..XQ.(.jXCXSX",
"5 O.[.NXnXnXnX`.K.O.%.:.K H / / G D D D D D D D D G G U U 7.7.7.D D D D D D D D D D D D D D D G ~ ~ ~ U U U U L R b R 2.%X9X5X$XpXM.N O . * * = 3 #.5.7.U Y p.=XtX3X3XuXS.c h @.l l @.A K L E >.L >.>.u.u.u.u.r.u.u.x.x.x.u.>.=.U ( 7.7.7.U C V D D D D D D D D m P I ) ] ) ) Y b.i.r.i.b.b.] P D C C C G 7.0.a.a.a.0.9.7.U G D D D D D D D D D G ( 7.U C U a.S.*X@X*X0XM.i   < # @ # 1 _ i.] J J t.-X,X,X-X>X7Xd.R v T W W T f H D D D D D D D D G G U U 7.7.8.f 1.-X0X7X>X>XeXm O   ; , X > ~ D >.>.v W 1XfX3X3X1X1X-Xc.l.u.z.C.M.M.M.M.M.M.M.p.i.r.] ] r.i.p.u.u.u.x.x.x.x.Z.u.u.,.>.L L K c d 1.-X0X7X:X>XeXm O   ; , X > ~ Z -.-.c R -XuX2X,X,X-Xu.K h j A a I s.Z.b.i.a.V.G G S F F F F F F Z D P ] g.m.=Xm.N.B.r.H V V $.K L >.u.u.u.u.u.u.x.x.x.x.u.>.>.U U G G C C V V D G G U U ( 7.8.f 1.-X0X7X:X>XeXm O   ; , X > _ J t.,.v W -XiX,X,X,X:Xc.h.d.,.] w..XQ.(.jXCXSX",
"& X.[.bXnXnXvX`.K.O.%.:.n K / / G D D D D D D D D G G U U 7.7.7.D D D D D D D D D D D D D D D G G G G U U U K L R R R f.<X9X9X$XpXM.N O . * * = 3 #.5.7.U Y p.-X3X1X2XuXS.c h @.l l A A K Y =.=.Y =.r.u.u.u.y.r.u.l.l.l.l.u.r.8.U ( 7.7.7.U C V D D D D D D D D m P I ) ] ) ) Y b.i.r.i.b.b.] P D C C C G 7.0.a.a.a.0.9.7.U G D D D D D D D D D G ( 7.U C U a.S.*X@X*X0XM.i   < # @ # 1 _ i.] J J d.-X,X,X-X>X7Xt.R v K R E K a D D D D D D D D D G G U U 7.7.8.f 1.-X0X7X>X>XeXm O   ; , X > ~ K >.>.v W ;XuX3X3X1X;X-Xc.x.u.u.Z.Z.M.Z.M.Z.M.Z.s.p.r.r.] r.p.u.u.u.u.x.x.x.D.S.u.u.,.>.L L K c d 1.-X0X7X:X>XeXm O   ; , X > ~ Z -.-.c R -XuX2X,X,X-Xu.K h j A a I s.Z.b.i.a.V.G S S F F 3 F F F Z D P ] g.m.=Xm.N.B.r.H M S $.K L >.u.u.u.u.u.u.x.x.x.x.u.>.>.U U G G C C V V D G G U U ( 7.8.f 1.-X0X7X:X>XeXm O   ; , X > _ H t.,.v W :XaX,X,X<X:Xc.h.t.>.8.w..XQ.(.jXCXSX",
"& ..E.lXAXHXvX}.T.o.&.:.b c G G G D D G D D D D D D D D D D D D D D D D D D D D D D D D G G G C A A A A z k k c R L R f.<X0X2X-XpXM.N O . * * = 3 #.5.7.U Y p.-X9X%X9XqX$Xn g L k k k C D G U U U U U U U U U U 8.8.8.8.8.8.8.8.U U G G C C V V D D D D D D D D P Y ) r.i.i.r.] Y ) ) ] ) I P m D C C C G 7.0.a.a.a.0.9.7.U G D D D D D D D D D G U 7.U D U a.S.*X@X*X0Xh.i X < # @ # 1 _ i.] J J d.-X,X,X-X>X6Xc c c c z z z z D D D D D D D D D G G U U 7.7.8.f 1.-X0X7X:X>XeXm O   ; , X > _ H ,.,.v W <XuX,X,X,X<X-XA.h.h.f.f.f.f.f.f.f.f.f.f.f.f.f.f.f.f.u.u.u.u.u.u.u.u.u.x.x.u.u.>.E L L d 1.-X0X7X:X>XeXm O   ; , X > ~ Z q.-.c R -XuX2X1X,X-Xu.K h j A a I s.Z.b.i.a.V.G G S F F F F F F Z G U ] g.m.=Xm.N.B.] P V V $.k c L L >.Y L L u.u.x.x.x.u.>.=.8.7.7.U U G G D D G G U U ( 7.=.f 1.-X0X7X:X>XeXm O   ; , X > ~ C -.-.c R -XuX2X,X,X:Xh.L c K 7.e.I.W.(.jXSXSX",
"% ..E.lXAXAXvX}.O.o.:.b b n C V G D G G D D D D D D D D D D D D D D D D D D D D D D D D G G D C A z z z z z c c R R E f.<XaX2X-XsXM.N O . * * = 3 #.5.7.U Y p.A.9X%X9XqX&Xn g L a k C C G G ~ ~ U U U U U U U U 7.7.7.7.7.7.7.7.U U G G C C V V D D D D D D D D P Y ) r.i.i.r.] Y ) ) ] ) I P m D C C C G 7.0.a.a.a.0.9.7.U G D D D D D D D D D G U 7.U C U a.S.*X@X*X0Xh.i X < # @ # 1 _ i.] J J d.-X,X,X:X>X6Xc c z z z z z z C D D D D D D D D G G U U 7.7.8.f 1.-X0X7X:X>XeXm O   ; , X > _ J ,.,.v W -XiX,X,X,X:X-Xc.j.f.f.f.f.f.f.f.f.f.f.f.f.f.f.f.f.f.f.u.u.u.u.u.u.u.u.x.l.u.u.>.>.L L d 1.-X0X7X>X>XeXm O   ; , X > ~ Z q.-.c R :XuX2X,X,X-Xu.K h j A a I s.Z.b.i.a.V.G G S F F 3 F F F Z G U ] g.m.=Xm.N.B.r.P V Z $.k c L L >.Y L L u.u.x.x.x.u.>.=.8.7.7.U U G G D D G G U U 7.7.8.f 1.-X0X7X:X>XeXm O   ; , X > ~ Z -.-.c R -XuX2X,X,X<Xh.L z @.5.e.I.W.(.hXSXSX",
"% ..E.lXAXnXvX}... .x n n g V S G D D D D D D D D D D D D D D D D D D D D D D D D D D D D G D C A A A A A K K K R R E f.<XaX2X-XsXM.N O . * * = 3 #.5.7.U Y p.A.9X%X9XqX&Xn g L a k C C G G ~ ~ G U U U U U U U 7.7.7.7.7.7.8.8.U U G G C C C V D D D D D D D D P Y ) r.i.i.r.] Y ) ) ] ) I P m D C C C G 7.0.a.a.a.0.9.7.U G D D D D D D D D D G U 7.U C U a.S.*X@X*X0Xh.i   < # @ # 1 _ i.] J J d.-X,X,X:X>X6Xc c z z z z l z C D D D D D D D D G G U U ( 7.8.f 1.-X0X7X:X>XeXm O   ; , X > _ J ,.,.v W :XiX,X,X,X-X-Xc.j.h.f.f.f.f.f.f.f.f.f.f.f.f.f.f.f.f.f.u.u.u.u.u.u.u.u.x.l.u.u.>.E L L d 1.-X0X7X:X>XeXm O   ; , X > ~ Z -.-.c R -XuX2X,X,X-Xu.K h j A a I s.Z.b.i.a.V.G G S F F F F F F Z D P ] g.m.=Xm.N.B.r.H V V $.k v L L >.Y L L u.x.x.x.x.u.>.=.8.7.7.U U G G D D G G U U 7.7.8.f 1.-X0X7X:X>XeXm O   ; , X > ~ Z -.-.c E -XuX2X,X,X<Xh.=.z @.5.e.I.W.(.hXSXSX",
"% ..E.lXAXnXvX}... .x n d g V V G D D D D D D D D D D D D D D D D D D D D D D D D D D D D D D C A A A A K K K K R R E f.<XaX2X-XsXM.N O . * * = 3 #.5.7.U Y p.A.9X%X9XqX&Xn g L a k C C G G ~ ~ ~ U U U U U U U 7.7.7.7.7.7.7.8.U U G G C C V V D D D D D D D D P Y ) r.i.i.r.] Y ) ) ] ) I P m D C C C G 7.0.a.a.a.0.9.7.U G D D D D D D D D D G U 7.U C U a.S.*X@X*X0Xh.i   < # @ # 1 _ i.] J T d.-X,X,X:X>X6Xc c z z z z l z C D D D D D D D D G G U U ( 7.8.f 1.-X0X7X:X>XeXm O   ; , X > _ J ,.,.v W :XiX,X,X,X-X-Xc.j.f.f.f.f.f.f.f.f.f.f.f.f.f.f.f.f.f.f.u.u.u.u.u.u.u.u.x.l.u.r.>.E L L d 1.-X0X7X:X>XeXm O   ; , X > ~ Z -.-.c R -XuX2X,X,X-Xu.K h j z a I s.Z.b.i.a.V.G G S F F F F F F Z D P ] g.m.=Xm.N.B.r.H V V $.k c L L >.L L L u.u.x.x.x.u.>.=.8.7.7.U U G G D D G G U U 7.7.8.f 1.-X0X7X:X>XeXm O   ; , X > ~ Z -.-.c E :XuX2X,X,X<Xh.=.z @.5.e.I.W.(.hXSXSX",
"& ..E.lXAXnXvX}.O. .x n n n V S G D D D D D D D D D D D D D D D D D D D D D D D D D D D D D D C &.@.&.&.&.K K L Y L E f.<XaX2X-XsXM.N O . * * = 3 #.5.7.U Y p.A.9X%X9XqX&Xd g L a k C C G G ~ ~ U U U U U U U U 7.7.7.7.7.7.8.8.U U G G C C V V D D D D D D D D P Y ) r.i.i.r.] Y ) ) ] ) I P m D C C C G 7.0.a.a.a.0.9.7.U G D D D D D D D D D G U 7.U C U a.S.*X@X*X0Xh.i   < # @ # 1 _ i.] J T d.-X,X,X:X>X6Xc c z z z z l z C D D D D D D D D G G U U ( 7.=.f 1.-X0X7X:X>XeXm O   ; , X > _ J ,.,.v R -XiX,X,X,X-X-Xc.j.f.f.f.f.f.f.f.f.f.f.f.f.f.f.f.f.f.f.u.u.u.u.u.u.u.u.x.x.u.u.>.>.L L d 1.-X0X7X:X>XeXm O   ; , X > ~ Z -.-.c R -XuX2X,X,X-Xu.c h j z a I s.Z.b.i.a.V.G G F F F 3 3 3 F Z D P ] g.m.=Xm.N.B.r.H V V $.k v L L E Y L L u.u.x.x.x.u.>.>.8.7.7.U U G G D D G G U U 7.7.8.f 1.-X0X7X:X>XeXm O   ; , X > ~ Z -.-.c R -XuX2X,X,X<Xx.=.z @.5.e.I.W.(.jXSXSX",
"& ..E.lXAXnXvX}.O.6.:.b b n G S G D D D D D D D D D D D D D D D D D D D D D D D D D D D D D D C &.&.&.&.&.=.=.L L L E f.<XaX2X-XsXM.N O . * * = 3 #.5.7.U Y p.A.9X%X9XqX&Xd g L a k C C G G ~ ~ U U U U U U U U 7.7.8.8.7.7.7.7.U U G G C C V V D D D D D D D D P I ) r.i.i.r.] Y ) ) ] ) I P m D C C C G 7.0.a.a.a.0.9.7.U G D D D D D D D D D G U 7.U C U a.S.*X@X*X0Xh.i   < # @ # 1 _ i.] J T d.-X,X,X:X>X6Xc c c z z z l z C D D D D D D D D G G U U 7.7.8.f 1.-X0X7X>X>XeXm O   ; , X > _ J ,.,.v R -XiX,X,X,X-X-Xc.j.f.f.f.f.f.f.f.f.f.f.f.f.f.f.f.f.f.f.u.u.u.u.u.u.u.u.x.h.u.r.>.>.L L d 1.-X0X7X:X>XeXm O   ; , X > ~ Z -.-.c R -XuX2X,X,X-Xu.c h j z a I s.Z.b.i.a.V.G G F F F F F 3 F Z D P ] g.m.=Xm.N.B.r.H V V $.k c L L E Y L L u.u.x.x.x.u.>.>.8.7.7.U U G G D D G G U U 7.7.8.f 1.-X0X7X>X>XeXm O   ; , X > ~ Z -.-.c R -XuX2X,X,X<Xx.=.z @.5.e.I.W.(.jXSXSX",
"& ..E.lXAXnXvX}.I.e.;.4.4.=.7.7.G D D D D D D D D D D D D D D D D D D D D D D D D D D D D D D C *.*.*.*.*.=.=.=.L L E h.,XaX2X-XsXM.N O . * * = 3 #.5.7.U Y p.-X9X%X5XqX&Xn g L a k C C G G ~ ~ U U U U U U U U 7.8.8.8.7.7.7.7.U U G G C C V V D D D D D D D D P Y ) r.i.i.r.] Y ) ) ] ) I P m D C C C G 7.0.a.a.a.0.9.7.U G C D D D D D D D D G U 7.U D U a.S.*X@X*X0Xh.i X < # @ # 1 _ i.] J T d.-X,X,X:X>X6Xc c z z z z z z C D D G D D D D D G G U U 7.7.8.f 1.-X0X7X>X>XeXm O   ; , X > _ J ,.,.v R -XiX,X,X,X-X-Xc.j.f.f.f.f.f.f.f.f.f.f.f.f.f.f.f.f.f.f.u.u.u.u.u.u.u.u.x.x.u.u.>.>.L L d 1.-X0X7X:X>XeXm O   ; , X > ~ Z -.-.c R -XuX2X1X,X-Xu.K h j A a I b.Z.b.i.a.V.G G F F F F F F F Z G U ] g.m.=Xm.N.N.r.H M V G k v L L E Y L L u.u.x.x.x.u.>.=.8.7.7.U U G G D D G G U U 7.7.8.f 1.-X0X7X>X>XeXm O   ; , X > ~ Z -.-.c R -XuX2X,X,X<Xx.L z @.5.e.I.W.(.jXSXSX",
"% ..E.lXAXnXvX}.!.e.<.4.4.>.9.q.G D D D D D D D D D D D D D D D D D D D D D D D D D D D D D D C *.*.*.*.*.=.=.=.Y L E h.<XaX2X-XsXM.N O . * * = 3 #.5.7.U Y p.-X9X%X5XqX&Xn g L a k C C G / ~ ~ U U U U U U U U 7.8.8.8.7.7.7.7.U U G G C C V V D D D D D D D D P Y ) r.i.i.r.] Y ) ) ] ) I P m D C C C G 7.0.a.a.a.0.9.7.U G C D D D D D D D D G U 7.U D U a.S.*X@X*X0Xh.i X < # @ # 1 _ i.] J T 1.-X,X,X:X>X6Xc c z z z z z z C G G G D D D D D G G U U 7.7.8.f 1.-X0X7X>X>XeXm O   ; , X > _ J ,.,.v R -XiX,X7X,X-X-Xc.j.f.f.f.f.f.f.f.f.f.f.f.f.f.f.f.f.f.f.u.u.u.u.u.u.u.u.x.x.u.u.>.>.L L d 1.-X0X7X:X>XeXm O   ; , X > ~ Z -.-.c R -XuX2X1X,X-Xu.K h j A a I s.Z.b.i.a.V.G G S F F F F F F Z D U ] g.m.=Xm.N.N.r.P V V G k c L L >.Y L L u.u.x.x.x.u.>.=.8.7.7.U U G G D D G G U U 7.7.8.f 1.-X0X7X>X>XeXm O   ; , X > ~ Z -.-.c R -XuX2X,X,X<Xh.L z @.5.e.I.W.(.jXSXSX",
"% | E.lXAXnXvX}.!.e.;.4.2.u.7.S G D D D D D D D D D D D D D D D D D D D D D D D V C G C p V U 0.z.z.z.z.y.=.K c L L E f.<XaX2X-XsXM.N O . * * = 3 #.5.7.U Y p.-X9X%X5XqX&Xn g L c H D D G G G G G D D D D D D D U U U U U U U U D D D D D D D D D D D D D D D D H I r.b.Z.M.s.p.] ) ) Y I P P P D C C C G 7.0.a.a.a.0.9.7.U G D D D D D D D D D G U 7.U D U a.S.*X@X*X0Xh.i X < # @ # 1 _ i.] J T d.-X,X<X:X>X6Xc c c z z z z z C D G G G G D D D G G U U 7.7.8.f 1.-X0X7X:X>XeXm O   ; , X > _ J ,.,.v W :XiX,X7X,X-X-Xc.j.f.f.j.j.j.j.j.j.j.j.j.j.j.j.j.j.j.h.x.x.x.x.x.x.x.x.x.x.u.u.>.>.L L d 1.-X0X7X:X>XeXm O   ; , X > ~ Z -.-.c R -XuX2X,X,X-Xu.K h j A a I s.Z.b.i.a.V.G G S F F F F F F Z G U ] g.m.=Xm.N.B.r.H V S $.k c L L >.Y L L u.u.x.x.x.u.>.=.U ( 7.7.7.U C V D G G U U 7.7.8.f 1.-X0X7X:X>XeXm O   ; , X > ~ Z q.-.c R -XuX2X,X,X<Xh.L z @.5.o.P.W.(.kXjXDX",
"% | E.lXAXvXvX}.!.e.;.4.2.u.7.S G D D D D D D D D D D D D D D D D D D D D D D D M C G C p V U 0.z.z.z.z.y.=.K c L L E f.<XaX2X-XsXM.N O . * * = 3 #.5.7.U Y p.-X9X%X5XqX&Xn g L c H D D G G S G G D D D D D D D U U U U U U U U D D D D D D D D D D D D D D D D H I r.b.Z.M.p.i.] ) ) Y I P P P D C C C G 7.0.a.a.a.0.9.7.U G D D D D D D D D D G U 7.U C U a.S.*X@X*X0Xh.i X < # @ # 1 _ i.] J T d.-X,X<X:X>X6Xc c c z z z z z C D G G D D D D D G G U U 7.7.8.f 1.-X0X7X:X>XeXm O   , , X > _ J ,.,.v W :XiX,X,X,X-X-Xc.j.h.f.j.j.j.j.j.j.j.j.j.j.j.j.j.j.j.h.x.x.x.x.x.x.x.x.x.x.u.u.>.>.L L d 1.-X0X7X:X>XeXm O   ; , X > ~ Z -.-.c R -XuX2X,X,X-Xu.K h j A a I s.Z.b.i.a.V.G G Z F F 3 F F F Z G U ] g.m.=Xm.N.B.r.H V S $.k c L L >.L L L u.u.x.x.x.u.>.=.U ( 7.7.7.U C V D G G U U 7.7.8.f 1.-X0X7X:X>XeXm O   , , X > ~ Z q.-.c R :XuX2X,X,X<Xh.L z @.5.o.T.W.(.hXDXDX",
"% | E.lXAXvXvX}.!.e.;.4.2.u.7.G G D D D D D D D D D D D D D D D D D D D D D D D M C G C p V U 0.z.z.z.z.y.=.K c R R E f.<XaX2X-XsXM.N O . * * = 3 #.5.7.U Y p.A.9X%X5XqX&Xn g L c H H D G G G G G D D D D D D D U G G G G G G G D D D D D D D D D D D D D D D D C I r.b.Z.M.s.p.] ) ) Y I P P P D C C C G 7.0.a.a.a.0.9.7.U G D D D D D D D D D G ( 7.U C U a.S.*X@X*X0Xh.i   < # @ # 1 _ i.] J T d.-X,X,X:X>X6Xc c z z z z z z C D D D D D D D D G G U U 7.7.8.f 1.-X0X7X>X>XeXm O   ; , X > _ J ,.,.v R -XiX,X7X,X-X-Xc.j.h.f.j.j.j.j.j.j.j.j.j.j.j.j.j.j.j.h.x.x.x.x.x.x.x.x.x.x.u.u.>.>.L L d 1.-X0X7X:X>XeXm O   ; , X > ~ Z -.-.c R -XuX2X,X,X-Xu.K h j A a I s.Z.b.i.a.V.G Z Z F F F F F F Z D P ] g.m.=Xm.N.B.r.H V S $.k c L L >.Y L L u.x.x.x.x.u.>.=.U ( 7.8.7.U C V D G G U U ( 7.8.f 1.-X0X7X>X>XeXm O   ; , X > ~ Z -.-.c R -XuX2X,X,X<Xh.L z @.5.o.P.W.(.hXDXDX",
"% | E.lXAXvXvX}.!.e.=.4.2.u.7.G G D D D D D D D D D D D D D D D D D D D D D D D M C G C p V U 0.z.z.z.z.y.=.K c R R E f.<XaX2X-XsXM.N O . * * = 3 #.5.7.U Y p.A.9X%X5XqX&Xn g L c H H D G G G G G D D D D D D D G G G G G G G D D D D D D D D D D D D D D D D D H I r.b.Z.M.s.i.] ) ) Y I P P P D C C C G 7.0.a.a.a.0.9.7.U G D D D D D D D D D G U 7.U C U a.S.*X@X*X0Xh.i   < # @ # 1 _ i.] J T d.-X,X,X:X>X6Xc c z z z z z z C D D D D D D D D G G U U 7.7.8.f 1.-X0X7X:X>XeXm O   ; , X > _ J ,.,.v R :XiX,X7X,X-X-Xc.j.f.f.j.j.j.j.j.j.j.j.j.j.j.j.j.j.j.h.x.x.x.x.x.x.x.x.x.x.u.u.>.>.L L d 1.-X0X7X:X>XeXm O   ; , X > ~ Z -.-.c R -XuX2X,X,X-Xu.K h j A a I s.Z.b.i.a.V.G G Z F F F F F F Z D P ] g.m.=Xm.N.B.r.H V V $.k c L L >.Y L L u.x.x.x.x.u.>.=.U ( 7.7.7.U D V D G G U U ( 7.8.f 1.-X0X7X:X>XeXm O   ; , X > ~ Z -.-.c R -XuX2X,X,X<Xh.L z @.5.o.T.W.(.hXDXDX",
"% | E.lXAXAXvX}.!.e.;.4.2.u.7.G G D D D D D D D D D D D D D D D D D D D D D D D M C G C p V U 0.z.z.z.z.q.=.K c R R E f.<XaX2X-XsXM.N O . * * = 3 #.5.7.U Y p.A.9X%X9XqX&Xn g L H D D D G G S G G D D D D D D D C C C C C C C C D D D D D D D D D D D D D D D D H I r.b.Z.M.s.i.] ) ) Y I P P P D C C C G 7.0.a.a.a.0.9.7.U G D D D D D D D D D G U 7.U C U a.S.*X@X*X0Xh.i   < # @ # 1 _ i.] J T d.-X,X,X:X>X6Xc c z z z z z z C D D D D D D D D G G U U 7.7.8.f 1.-X0X7X:X>XeXm O   ; , X > _ J ,.,.v R -XiX,X,X,X-X-Xc.j.f.f.j.j.j.j.j.j.j.j.j.j.j.j.j.j.j.h.x.x.x.x.x.x.x.x.x.l.u.u.>.E L L d 1.-X0X7X:X>XeXm O   ; , X > ~ Z -.-.c E -XuX2X1X,X-Xu.K h j A a I s.Z.b.i.a.V.G G S F F 3 3 3 F Z D P ] g.m.=Xm.N.N.r.H V F $.k c L L >.Y L L u.u.x.x.x.u.>.>.U ( 7.8.7.U C V D G G U U 7.7.8.f 1.-X0X7X:X>XeXm O   ; , X > ~ Z -.-.c R -XuX2X,X,X<Xx.=.z @.5.o.P.W.(.kXjXDX",
"% | E.lXAXnXvX}.!.e.;.4.2.u.7.G G D D D D D D D D D D D D D D D D D D D D D D D M C G C p V U 0.z.z.z.z.q.=.K c L R E f.<XaX2X-XsXM.N O . * * = 3 #.5.7.U Y p.A.9X%X5XqX&Xn g L H H D D G G S G G D D D D D D D C C C C C C C C D D D D D D D D D D D D D D D D H I r.b.Z.M.s.i.] ) ) Y I P P P D C C C G 7.0.a.a.a.0.9.7.U G D D D D D D G D D G U 7.U C U a.S.*X@X*X0Xh.i   < # @ # 1 _ i.] J T d.-X,X,X:X>X6Xc c z z z z z z C D D D D D D D D G G U U 7.7.8.f 1.-X0X7X:X>XeXm O   ; , X > _ J ,.,.v R -XiX,X,X,X-X-Xc.j.f.f.j.j.j.j.j.j.j.j.j.j.j.j.j.j.j.h.x.x.x.x.x.x.x.x.x.l.u.t.>.>.L L d 1.-X0X7X>X>XeXm O   ; , X > ~ Z -.-.c E :XuX2X1X,X-Xu.K h j A a I s.Z.b.i.a.V.G G F F F F F 3 F Z D P ] g.m.=Xm.N.B.r.H V Z $.k c L L >.>.L L u.u.x.x.x.u.>.>.U ( 7.8.( U C V D G G U U 7.7.8.f 1.-X0X7X:X>XeXm O   ; , X > ~ Z -.-.c R -XuX2X,X,X<Xx.L z @.5.o.T.W.(.hXjXDX",
"% | E.lXAXnXvX}.!.e.;.4.2.u.8.G G D D D D D D D D D D D D D D D D D D D D D D D M C G C p V U 0.z.z.z.z.q.=.K c L L E f.<XaX2X-XsXM.N O . * * = 3 #.5.7.U Y p.A.9X%X5XqX&Xn g L c H D D G G S G G D D D D D D D V V V V V V V V D D D D D D D D D D D D D D D D C I r.b.Z.M.s.p.] ) ) Y I P P P D C C C G 7.0.a.a.a.0.9.7.U G D D D D D D D D D G U 7.U D U a.S.*X@X*X0Xh.i   < # @ # 1 _ i.] J T d.-X,X>X:X>X6Xc c z z z z z z C D D D D D D D D G G U U 7.7.8.f 1.-X0X7X:X>XeXm O   ; , X > _ J ,.,.v W -XiX7X,X,X-X-Xc.j.f.f.j.j.j.j.j.j.j.j.j.j.j.j.j.j.j.h.x.x.x.x.x.x.x.x.x.x.u.u.>.=.L L d 1.-X0X7X>X>XeXm O   ; , X > ~ Z -.-.c R -XuX2X,X,X-Xu.K h j A a I s.Z.b.i.a.V.G G F F F F F F F Z G U ] g.m.=Xm.N.B.r.H V S $.k v L L >.=.L L u.u.x.x.x.u.>.=.U ( 7.7.7.U C V D G G U U 7.7.8.f 1.-X0X7X:X>XeXm O   ; , X > ~ Z -.-.c R -XuX2X,X,X<Xx.=.z @.5.o.T.W.(.hXDXDX",
"% | E.lXAXnXvX}.!.e.;.4.2.u.8.G G D D D D D D D D D D D D D D D D D D D D D D D M C G C p V U 0.z.z.z.z.q.=.K c L L E f.<XaX2X-XsXM.N O . * * = 3 #.5.7.U Y p.A.9X%X9XqX&Xn g L c H D D G G S G G D D D D D D D V V V V V V V V D D D D D D D D D D D D D D D D N I r.b.M.M.s.p.] ) ) Y U P P P D C C C G 7.0.a.a.a.0.9.7.U G D D D D D D D D D G U 7.U D U a.S.*X@X*X0XM.i   < # @ # 1 _ i.] J T d.-X,X>X:X>X6Xc c z z z z z z C D D D D D D D D G G U U 7.7.8.f 1.-X0X7X:X>XeXm O   ; , X > _ P ,.,.v W :XiX7X7X,X-X-Xc.j.f.f.j.j.j.j.j.j.j.j.j.j.j.j.j.j.j.h.x.x.x.x.x.x.x.x.x.u.u.t.>.>.L L d 1.-X0X7X>X>XeXm O   ; , X > ~ Z -.-.c R :XuX2X,X,X-Xu.K h j z a I s.Z.b.i.a.V.G G S F F F F F F Z G U ] g.m.=Xm.N.B.r.H V S $.k c K L =.=.L L u.h.x.x.h.u.>.>.U ( 8.8.( U D C D G U U U 7.8.) f 1.-X0X7X:X>XeXm O   ; , X > ~ Z -.-.c R -XuX2X,X,X<Xh.L z @.5.o.T.W.(.hXDXDX",
"% | E.`.AXnXbX|.I.q.<.1.2.f.8.G D D D D D D D D D D D D D D D D D D D D D D D D D G G U U 7.7.7.z.q.q.q.-.-.=.=.L L E h.<XaX2X-XsXM.N O . * * = 3 #.5.7.U Y p.A.9X%X9XqX&Xn g L c H D D G G G G G D D D D D D D D D D D D D D D D D D D D D D D D D D D D D D P N B W [ p.p.p.i.Y Y U U U U U U D C C C G 7.0.a.a.a.0.9.7.U G D D D D D D D D D G U 7.U C U a.S.*X@X*X0Xh.i   < # @ # 1 _ i.] J T d.-X,X,X:X>X6Xc c c z z z z z V V C C G G U U U U U U U U U Y f 1.-X0X7X:X>XeXm O   ; , X > _ J ,.,.v W :XiX7X,X,X-X-XA.j.h.f.j.j.j.j.j.j.j.j.j.j.j.j.j.j.j.h.x.x.x.x.x.x.x.x.x.x.u.u.>.>.L L d 1.-X0X7X:X>XeXm O   ; , X > ~ Z -.-.c R -XuX2X,X,X-Xu.c h j z a I s.Z.b.i.a.V.G G S F F F F F F Z G U ] g.m.=Xm.N.N.] P V V $.A z A K K =.=.=.t.u.f.h.j.f.d.t.Y ( ) ) ) P H m Y U Y U Y U Y Y f 1.-X0X7X:X>XeXm O   ; , X > ~ Z -.-.c R -XuX2X2XaX,Xx.L k l #.e T.W.(.kXhXDX",
"% | E.`.vXvXbX|..Xe.<.1.2.f.] P D D D D D D D D D D D D D D D D D D D D D D D D D G G U U 7.7.7.q.-.q.q.-.=.=.=.L L E h.<XaX2X-XsXM.N O . * * = 3 #.5.7.U Y p.A.9X%X9XqX&Xn g L c H D D G G G G G D D D D D D D D D D D D D D D D D D D D D D D D D D D D D D P B B [ [ g.p.p.i.Y U U U U G G G C C C C G 7.0.a.a.a.0.9.7.U G D D D D D D D D D G U 7.U D U a.S.*X@X*X0Xh.i   < # @ # 1 _ i.] J T d.-X,X,X:X>X6Xc k c z z z z z V V C C G G U U U U U U U U U Y f 1.-X0X7X>X>XeXm O   ; , X > _ J ,.,.v W -XiX,X,X,X-X-Xc.j.h.f.j.j.j.j.j.j.j.j.j.j.j.j.j.j.j.h.x.x.x.x.x.x.x.x.x.h.u.u.>.>.L L d 1.-X0X7X:X>XeXm O   ; , X > ~ Z -.-.c R -XuX2X,X,X-Xu.c h j z a I s.Z.b.i.a.V.G G S F F F F F F Z G U ] g.m.=Xm.N.N.] H V V $.A z A A K &.=.=.r.u.f.j.j.k.d.d.Y ) ] ] ) I P N Y Y Y Y I I Y J f 1.-X0X7X>X>XeXm O   ; , X > ~ Z -.-.c R -XuX2X2XaX,Xx.L k l #.e T.W.(.kXhXDX",
"% | E.`.vXvXbX|..Xe.<.1.2.f.] G D D D D D D D D D D D D D D D D D D D D D D D D D G G U U 7.7.7.q.q.q.-.=.=.=.L L L E h.,XaX,X-XsXM.N O . * * = 3 #.5.7.U Y p.-X9X%X5XqX&Xn g L c H D D G G G G G D D D D D D D D D D D D D D D D D D D D D D D D D D D D D D P B B [ { g.g.p.p.P P U G G G Z G C C C C G 7.0.a.a.a.0.9.7.U G D D D D D D D D D G U 7.U D U a.S.*X@X*X0Xh.i X < # @ # 1 _ i.] J T d.-X,X,X:X>X6Xc k z z z z z z V V C C G G U U U U U U U U U U f 1.-X0X7X:X>XeXm O   ; , X > _ J ,.,.v W :XiX,X,X,X-X-Xc.j.h.f.j.j.j.j.j.j.j.j.j.j.j.j.j.j.j.h.x.x.x.x.x.x.x.x.x.u.u.u.>.>.L L d 1.-X0X7X>X>XeXm O   , , X > ~ Z -.-.c R -XuX2X,X,X-Xu.K h j A a I b.Z.b.i.a.V.G S F F F F 3 F F Z G U ] g.m.=Xm.N.B.r.H V V $.A z A A K =.=.=.r.u.f.j.j.k.d.d.] ] r.r.] Y P H Y Y Y I I I I J f 1.-X0X7X:X>XeXm O   ; , X > ~ Z -.-.c E -XuX2X2XaX,Xx.L k l #.e T.W.(.kXhXDX",
"% | E.`.vXvXbX|..Xe.<.1.2.f.] G D D D D D D D D D D D D D D D D D D D D D D D D D G G U U 7.7.7.q.-.-.-.*.=.L L L L E h.<XaX2X-XsXM.N O . * * = 3 #.5.7.U Y p.-X9X%X5XqX&Xn g L c H D D G G G G G D D D D D D D D D D D D D D D D D D D D D D D D D D D D D D P B W [ { g.B.g.p.P P P D G G G G C C C C G 7.0.a.a.a.0.9.7.U G D D D D D D D D D G U 7.U D U a.S.*X@X*X0Xh.i X < # @ # 1 _ i.] J T d.-X,X,X:X>X6Xc k z z z z z z V V C C G G U U U U U U U U U U f 1.-X0X7X:X>XeXm O   ; , X > _ J ,.,.v W :XiX,X,X,X-X-Xc.j.f.f.j.j.j.j.j.j.j.j.j.j.j.j.j.j.j.h.x.x.x.x.x.x.x.x.x.h.u.u.>.>.L L d 1.-X0X7X:X>XeXm O   , , X > ~ Z -.-.c R -XuX2X1X,X-Xu.K h j A a I s.Z.b.i.a.V.G S F F F F F F F Z G U ] g.m.=Xm.N.B.r.H V V $.A z A A K =.=.=.r.u.f.j.j.k.d.t.] r.r.i.r.) I P Y Y Y I I I I J f 1.-X0X7X:X>XeXm O   ; , X > ~ Z -.-.c E :XuX2X2XaX,Xx.L k l #.e T.W.(.kXhXDX",
"% | E.`.vXvXbX|..Xq.<.1.2.f.] G D D D D D D D D D D D D D D D D D D D D D D D D D G G U U 7.7.7.q.-.*.*.&.K K K L R W f.<XaX2X-XsXM.N O . * * = 3 #.5.7.U Y p.-X9X%X9XqX&Xd g L H D D D G G S G G D D D D D D D D D D D D D D D D D D D D D D D D D D D D D D P T W [ g.B.M.M.b.H C D C C V V V C C C C G 7.0.a.a.a.0.9.7.U G D D D D D D D D D G U 7.U C U V.S.*X@X*X0XM.i   < # @ # 1 _ i.] J T d.-X,X<X:X>X6Xc c z z z z z z V V C C G G U U U U U U U U U U f 1.-X0X7X:X>XeXm O   ; , X > _ J ,.,.v R -XiX,X,X,X-X-Xc.j.f.f.j.j.j.j.j.j.j.j.j.j.j.j.j.j.j.h.x.x.x.x.x.x.x.x.x.u.u.r.>.>.L L d 1.-X0X7X:X>XeXm O   ; , X > ~ Z q.-.c R -XuX2X1X,X-Xu.K h j A a I s.Z.b.i.a.V.G G S F F F F F F Z G U ] g.m.=Xm.N.N.r.H V S $.A z z A K =.=.=.t.u.f.j.j.k.d.t.] i.i.i.i.] Y P I I I I Y Y I I f 1.-X0X7X:X>XeXm O   ; , X > ~ Z -.-.c R -XuX2X2XaX,Xx.L z z #.e T.W.(.kXhXDX",
"% | E.`.vXvXbX|..Xq.<.1.2.f.] G D D D D D D D D D D D D D D D D D D D D D D D D D G G U U 7.7.7.-.*.*.&.&.K K K L R E f.<XaX2X-XsXM.N O . * * = 3 #.5.7.U Y p.-X9X%X5XqX&Xd g L H H D D G G S G G D D D D D D D D D D D D D D D D D D D D D D D D D D D D D D P E [ { g.N.M.M.M.C C C C V V V V C C C C G 7.0.a.a.a.0.9.7.U G D D D D D D D D D G U 7.U C U a.S.*X@X*X0Xh.i   < # @ # 1 _ i.] J T d.-X,X<X:X>X6Xc c z z z z z z V V C C G G U U U U U U U U U U f 1.-X0X7X:X>XeXm O   ; , X > _ J ,.,.v R -XiX,X,X,X-X-Xc.j.f.f.j.j.j.j.j.j.j.j.j.j.j.j.j.j.j.h.x.x.x.x.x.x.x.x.x.l.u.u.>.>.L L d 1.-X0X7X:X>XeXm O   ; , X > ~ Z q.-.c R -XuX2X,X,X-Xu.K h j A a I s.Z.b.i.a.V.G G F F F F F F F Z G U ] g.m.=Xm.N.N.r.H V S $.A z z A K =.=.=.t.u.f.j.j.k.d.t.r.i.p.p.i.r.) I I I I I Y Y I I f 1.-X0X7X:X>XeXm O   ; , X > ~ Z -.-.c R -XuX2X2XaX,Xx.L z l #.e T.W.(.kXhXDX",
"% | E.`.vXvXbX|.I.q.<.1.2.f.] P D D D D D D D D D D D D D D D D D D D D D D D D D G G U U 7.7.7.*.*.&.&.K K c c R R E f.<XaX2X-XsXM.N O . * * = 3 #.5.7.U Y p.A.9X%X9XqX&Xn g L c H D D G G S G G D D D D D D D D D D D D D D D D D D D D D D D D D D D D D D P E [ { m.M.M.M.M.m C C V V V V V C C C C G 7.0.a.a.a.0.9.7.U G D D D D D D D D D G ( 7.U C U a.S.*X@X*X0XM.i   < # @ # 1 _ i.] J T d.-X,X<X:X>X6Xc c z z z z z z V V C C G G U U U U U U U U U U f 1.-X0X7X:X>XeXm O   ; , X > _ J ,.,.v R -XiX,X,X,X-X-Xc.j.f.f.j.j.j.j.j.j.j.j.j.j.j.j.j.j.j.h.x.x.x.x.x.x.x.x.x.x.u.u.>.>.L L d 1.-X0X7X:X>XeXm O   ; , X > ~ Z q.-.c R -XuX2X,X,X-Xu.K h j A a I s.Z.b.i.a.V.G G S F F 3 F F F Z G U ] g.m.=Xm.N.B.r.H j S $.A z z A &.&.=.=.t.u.f.j.j.k.d.t.i.p.p.p.p.r.) Y Y I Y Y Y Y Y J f 1.-X0X7X:X>XeXm O   ; , X > ~ Z -.-.c R -XuX2X2XaX,Xx.L z l #.e T.W.(.kXhXDX",
"% | E.`.vXvXbX|.I.q.<.1.2.f.r.P D D D D D D D D D D D D D D D D D D D D D D D D D G G U U 7.7.7.*.&.&.&.K K c c L R E f.<XaX2X-XsXM.N O . * * = 3 #.5.7.U Y p.A.9X%X5XqX&Xn g L c H D D G G S G G D D D D D D D D D D D D D D D D D D D D D D D D D D D D D D P W [ g.B.M.M.D.Z.m M C V V V V V C C C C G 7.0.a.a.a.0.9.7.U G D D D D D D D D D G U 7.U C U a.S.*X@X*X0XM.i   < # @ # 1 _ i.] J T d.-X,X<X:X>X6Xc c z z z z z z V V C C G G U U U U U U U U U U f 1.-X0X7X:X>XeXm O   ; , X > _ J ,.,.v R -XiX,X7X,X-X-Xc.j.f.f.j.j.j.j.j.j.j.j.j.j.j.j.j.j.j.h.x.x.x.x.x.x.x.x.x.x.u.u.>.>.L L d 1.-X0X7X:X>XeXm O   ; , X > ~ Z -.-.c R -XuX2X1X,X-Xu.K h j A a I s.Z.b.i.a.V.G G S F F 3 F F F Z D P ] g.m.=Xm.N.B.r.H V S $.Z z z A K &.=.=.t.u.f.j.j.k.d.t.p.p.p.s.p.i.] Y Y Y Y Y Y Y Y J f 1.-X0X7X:X>XeXm O   ; , X > ~ Z -.-.c R -XuX2X2XaX,Xx.L z l #.e T.W.(.kXhXDX",
"% | E.`.vXvXbX|.I.e.<.4.1.,.r.i.8.7.7.U U G G D D D D D D D D D D D D D D D D D U U U U U U U U A @.@.K K K K L R R E f.<XaX2X-XsXM.N O . * * = 3 #.5.7.U Y p.A.9X%X5XqX&Xn g L c H D D G G G G G D D D D D D D D D D D D D D D D D D D D D D D D G G U U 7.7.) [ { g.B.N.N.M.s.P D D D G G S G C C C C G 7.0.a.a.a.0.9.7.U G D D D D D D D D D G U 7.U C U a.S.*X@X*X0XM.i X < # @ # 1 _ i.] J J d.-X,X,X:X>X6Xc c z z z z z z U G D D G U 8.9.U U U U U U U U f 1.-X0X7X:X>XeXm O   ; , X > _ J t.,.v R -XiX,XaXaX,X-Xc.f.d.t.f.f.f.f.f.f.f.f.j.j.j.j.j.j.j.h.x.x.x.x.x.x.x.x.x.x.u.u.>.E L L d 1.-X0X7X:X>XeXm O   ; , X > ~ Z -.-.c R -XuX2X,X,X-Xu.K h j z a I s.Z.b.i.a.V.G G S F F 3 F F F Z D P ] g.m.=Xm.N.B.] H V F $.Z z A A K =.=.=.u.u.f.f.k.k.k.k.p.p.p.s.p.i.) Y Y Y Y Y Y Y Y J f 1.-X0X7X:X>XeXm O   ; , X > ~ Z q.-.c R -XuX2X,X,X-Xu.K h j F q P.W.(.kXhXSX",
"% | E.`.vXvXbX|.I.e.<.4.1.,.r.i.8.7.7.U U G G D D D D D D D D D D D D D D D D D U U U U U U U U A @.@.K K K K L R R E f.<XaX2X-XsXM.N O . * * = 3 #.5.7.U Y p.A.9X%X5XqX&Xn g L c H D D G G G G G D D D D D D D D D D D D D D D D D D D D D D D D G G U U 7.7.) [ { g.B.N.N.M.s.P P D D G G G G C C C C G 7.0.a.a.a.0.9.7.U G D D D D D D D D D G U 7.U C U a.S.*X@X*X0Xh.i X < # @ # 1 _ i.] J J d.-X,X,X:X>X6Xc c z z z z z z U G D D G U 8.9.U U U U U U U U f 1.-X0X7X:X>XeXm O   ; , X > _ J t.,.v R :XiX,XaXaX,X-Xc.f.d.t.f.f.f.f.f.f.f.f.j.j.j.j.j.j.j.h.x.x.x.x.x.x.x.x.x.l.u.u.>.>.L L d 1.-X0X7X>X>XeXm O   ; , X > ~ Z -.-.c R -XuX2X,X,X-Xu.K h j A a I s.Z.b.i.a.V.G G S F F 3 F F F Z D P ] g.m.=Xm.N.B.] H V F $.Z z A A K =.=.=.u.u.f.f.k.k.k.k.p.p.p.s.p.i.) Y Y Y Y Y Y Y Y J f 1.-X0X7X:X>XeXm O   ; , X > ~ Z q.-.c R :XuX2X,X,X-Xu.K h j F q P.W.(.kXhXSX",
"% | E.`.vXvXbX|.I.6.<.4.Q W r.9.8.7.7.U U G G D D D D D D D D D D D D D D D D D U U U U U U U U @.@.@.&.K K K L R R E f.<XaX,X-XsXM.N O . * * = 3 #.5.7.U Y p.A.9X%X5XqX&Xn g L c H D D G G G G G D D D D D D D D D D D D D D D D D D D D D D D D G G U U 7.7.) [ { g.N.N.N.M.b.P P D D G G Z C C C C C G 7.0.a.a.a.0.9.7.U G D D D D D D D D D G U 7.U C U a.S.*X@X*X0Xh.i   < # @ # 1 _ i.] J J d.-X,X,X:X>X6Xc c z z z z z z U G D D G U 8.9.U U U U U U U U f 1.-X0X7X:X>XeXm O   ; , X > _ J t.,.v R -XiX7XaX7X,X:Xc.f.d.t.f.f.f.f.f.f.f.f.j.j.j.j.j.j.j.h.x.x.x.x.x.x.x.x.x.l.u.u.>.E L L d 1.-X0X7X:X>XeXm O   ; , X > ~ Z -.-.c R -XuX2X,X,X-Xu.c h j A a I s.Z.b.i.a.V.G G S F F 3 F F F Z D P ] g.m.=Xm.N.B.r.H V S $.Z z A A K =.=.=.u.f.f.f.k.k.k.k.p.p.p.s.p.i.) Y Y Y Y Y Y Y I I f 1.-X0X7X:X>XeXm O   ; , X > ~ Z -.-.c R -XuX2X,X,X-Xu.K h j F q P.W.(.kXhXSX",
"% | E.`.vXvXbX|.T.5.>.Q Q W ] 8.8.7.7.U U G G D D D D D D D D D D D D D D D D D U U U U U U U U A @.@.K K K K K R R E f.<XaX2X-XsXM.N O . * * = 3 #.5.7.U Y p.A.9X%X5XqX&Xn g L c H D D G G G G G D D D D D D D D D D D D D D D D D D D D D D D D G G U U 7.7.) [ { g.N.N.N.M.M.P P D D C C Z C D C C C G 7.0.a.a.a.0.9.7.U G D D D D D D D D D G U 7.U C U V.S.*X@X*X0Xh.i X < # @ # 1 _ i.] J T d.-X,X,X:X>X6Xc c z z z z z z U G D D G U 8.9.U U U U U U U U f 1.-X0X7X:X>XeXm O   ; , X > _ J ,.,.v R -XiX7XaXaX,X:Xc.f.d.t.f.f.f.f.f.f.f.f.j.j.j.j.j.j.j.h.x.x.x.x.x.x.x.x.x.l.u.r.>.E L L d 1.-X0X7X:X>XeXm O   ; , X > ~ Z -.-.c R -XuX2X,X,X-Xu.c h j A a I s.Z.b.i.a.V.G G S F F 3 F F F Z D P ] g.m.=Xm.N.B.r.H V S $.Z z z A K =.=.=.u.f.f.f.k.k.k.k.p.p.p.s.p.i.) Y I Y Y Y Y Y I I f 1.-X0X7X:X>XeXm O   ; , X > ~ Z -.-.c R -XuX2X,X,X-Xu.K h j F q P.W.(.kXhXSX",
"% | E.`.vXvXbX|.O.5.=.Q Q R ) _ 8.7.7.U U G G D D D D D D D D D D D D D D D D D U U U U U U U U @.@.@.A K K K L Y L E f.<XaX2X-XsXM.N O . * * = 3 #.5.7.U Y p.A.9X%X9XqX&Xn g L H D D D G G S G G D D D D D D D D D D D D D D D D D D D D D D D D G G U U 7.7.) [ { g.B.M.M.M.M.P P D D G G S C C C C C G 7.0.a.a.a.0.9.7.U G D D D D D D D D D G U 7.U D U a.S.*X@X*X0Xh.i   < # @ # 1 _ i.] J T d.-X,X,X:X>X6Xc c z z z z z z U G D D G U 8.9.U U U U U U U U f 1.-X0X7X:X>XeXm O   ; , X > _ J ,.,.v R -XiX7XaX7X,X-Xc.f.d.t.f.f.f.f.f.f.f.f.j.j.j.j.j.j.j.h.x.x.x.x.x.x.x.x.x.x.u.u.>.>.L L d 1.-X0X7X:X>XeXm O   ; , X > ~ Z -.-.c R -XuX2X,X,X-Xu.K h j A a I s.Z.b.i.a.V.G G Z F F 4 F F F Z D P ] g.m.=Xm.N.B.r.H V V $.Z z z A &.=.=.=.u.f.f.f.k.k.k.k.p.p.p.p.p.i.) Y I I Y Y Y Y I I f 1.-X0X7X:X>XeXm O   ; , X > ~ Z -.-.c R -XuX2X,X,X-Xu.K h j F q P.W.(.kXhXSX",
"% | E.`.vXvXbX|.O.5.b Q Q R Y ( 8.7.7.U U G G D D D D D D D D D D D D D D D D D U U U U U U U U @.@.@.K K K K L Y L E f.<XaX2X-XsXM.N O . * * = 3 #.5.7.U Y p.A.9X%X5XqX&Xn g L H H D D G G S G G D D D D D D D D D D D D D D D D D D D D D D D D G G U U 7.7.) [ { g.B.M.M.M.b.P P D D G G G G C C C C G 7.0.a.a.a.0.9.7.U G D D D D D D D D D G U 7.U C U a.S.*X@X*X0Xh.i   < # @ # 1 _ i.] J T d.-X,X,X:X>X6Xc c z z z z z z U G D D G U 8.9.U U U U U U U U f 1.-X0X7X>X>XeXm O   ; , X > _ J ,.,.v R -XiX,XaX7X,X-Xc.f.d.t.f.f.f.f.f.f.f.f.j.j.j.j.j.j.j.h.x.x.x.x.x.x.x.x.x.h.u.r.>.>.L L d 1.-X0X7X:X>XeXm O   ; , X > ~ Z q.-.c R -XuX2X,X,X-Xu.K h j A a I s.Z.b.i.a.V.G G Z F F 4 F F F Z D P ] g.m.=Xm.N.B.r.H V V $.Z z z A &.=.=.=.u.f.f.f.k.k.k.k.p.p.p.p.p.i.) Y I I Y Y Y Y I I f 1.-X0X7X>X>XeXm O   ; , X > ~ Z -.-.c R -XuX2X,X,X-Xu.K h j F q P.W.(.kXhXSX",
"% | E.`.vXvXbX|.O.#.b b Q T Y ( 8.7.7.U U G G D D D D D D D D D D D D D D D D D U U U U U U U U @.@.@.K K K K L L L E f.<XaX2X-XsXM.N O . * * = 3 #.5.7.U Y p.A.9X%X5XqX&Xn g L c H D D G G S G G D D D D D D D D D D D D D D D D D D D D D D D D G G U U 7.7.) [ { g.B.M.M.M.b.P P D D G G G G C C C C G 7.0.a.a.a.0.9.7.U G C D D D D D D D D G U 7.U C U a.S.*X@X*X0Xh.i X < # @ # 1 _ i.] J T d.-X,X,X:X>X6Xc c z z z z z z U G D D G U 8.9.U U U U U U U U f 1.-X0X7X>X>XeXm O   ; , X > _ J ,.,.v R -XiX,XaX7X,X-Xc.f.d.t.f.f.f.f.f.f.f.f.j.j.j.j.j.j.j.h.x.x.x.x.x.x.x.x.x.x.u.u.>.>.L L d 1.-X0X7X:X>XeXm O   ; , X > ~ Z q.-.c R -XuX2X1X,X-Xu.K h j A a I b.Z.b.i.a.V.G G F F F F F F F Z G P ] g.m.=Xm.N.N.r.H M V $.Z z z A &.=.=.=.u.u.f.f.k.k.k.k.p.p.p.p.p.i.) Y I I I Y Y Y Y I f 1.-X0X7X>X>XeXm O   ; , X > ~ Z -.-.c R -XuX2X,X,X-Xu.K h j F q P.W.(.kXhXSX",
"% | E.`.AXnXbX}.O.6.K b Q T I ( 8.7.7.U U G G D D D D D D D D D D D D D D D D D U U U U U U U U $.@.@.A K K K L Y L R f.<X0X2X-XpXM.N O . * * = 3 #.5.7.U Y p.A.9X%X9XqX&Xn g L c H D D G G S G G D D D D D D D D D D D D D D D D D D D D D D D D G G U U 7.7.) [ { g.B.M.M.M.b.P P D D G G G G C C C C G 7.0.a.a.a.0.9.7.U G C D D D D D D D D G U 7.U C U a.S.*X@X*X0Xh.i X < # @ # 1 _ i.] J T 1.-X,X,X:X>X6Xc c z z z z z z U U D D U U 8.9.U U U U U U U Y f 1.-X0X7X>X>XeXm O   ; , X > _ H ,.>.v R -XaX,XaX7X,X-Xc.f.u.t.f.f.f.f.f.f.f.f.j.j.j.j.j.j.j.h.x.x.x.x.x.x.x.x.x.x.u.u.>.>.L L d 1.-X0X7X:X>XeXm O   ; , X > ~ Z -.-.c R -XuX2X1X,X-Xu.K h j z a I s.Z.b.i.a.V.G G S F F F F F F Z G U ] g.m.=Xm.N.N.r.P V V $.A z A A &.=.=.=.u.u.f.k.k.k.k.k.p.p.p.p.p.i.) Y I Y I Y Y Y I I f 1.-X0X7X>X>XeXm O   ; , X > ~ Z -.-.c R -XuX2X,X,X-Xu.K h j F q P.W.(.kXhXSX",
"% 6 R.bXHXnXvX`.K.O.*.b R W [ n.i.0.0.0.9.( D V D D D D D D D D D D D D D D D D 0.a.a.a.a.9.7.U G G G U U U K L L b R f.<X9X9X$XpXM.N O . * * = 3 #.5.7.U Y p.-X9X%X9XqX&Xd g L c H D D G G S G G D D D D D D D D D D D D D D D D D D D D D D D D G G U U 7.7.) [ { g.B.N.N.M.b.H D D D G C Z G C C C C G 7.0.a.a.a.0.9.7.U G D D D D D D D D D G U 7.U D U V.S.*X@X*X0Xh.i X < # @ # 1 _ i.] J T d.-X,X,X:X>X6XK c k k j z z K C H H H P ) i.a.p.a.i.8.) Y P P f 1.-X0X7X:X>XeXm O   ; , X > ~ C -.-.c R -XuX2XaX,X-Xh.u.-.-.-.,.t.d.f.f.h.j.j.j.j.j.j.j.j.j.h.u.u.u.u.u.u.u.u.u.u.>.>.L L K c d 1.-X0X7X:X>XeXm O   ; , X > ~ Z -.-.c R -XuX2X,X,X-Xu.c h j z a I s.Z.b.i.a.V.G G S F F F F F F Z D U ] g.m.=Xm.N.B.r.H V S $.Z C C C D D H H s.h.g.g.g.B.B.g.x.x.Z.x.u.u.>.L E Y Y L L K K v g W $X7XaX>XrXyXm O   ; , X > ~ Z -.-.c R -XuX2X,X,X-Xu.K h j F q P.W.(.kXhXSX",
"% 6 R.bXHXHXnX`.K.O.$.b R W [ n.a.0.0.0.9.( D V D D D D D D D D D D D D D D D D 0.a.a.a.a.9.7.( ~ ~ ~ U U U U L L b R 2.%X9X5X$XpXM.N O . * * = 3 #.5.7.U Y p.-X9X%X9XqX&Xd g L c H D D G G G G G D D D D D D D D D D D D D D D D D D D D D D D D G G U U 7.7.) [ { g.B.N.N.M.b.P D D D G C Z G C C C C G 7.0.a.a.a.0.9.7.U G D D D D D D D D D G U 7.U C U a.S.*X@X*X0Xh.i   < # @ # 1 _ i.] J T d.-X,X,X:X>X6XK c k j j l z K H H N H I ) i.p.p.p.i.r.) Y I J f 1.-X0X7X:X>XeXm O   ; , X > ~ Z -.-.c R -XuX2XtX,X-Xh.r.-.-.-.>.t.d.f.f.h.j.j.j.j.j.j.j.j.j.h.u.u.u.u.u.u.u.u.u.u.>.>.L L K v d 1.-X0X7X:X>XeXm O   ; , X > ~ Z -.-.c R -XuX2X,X,X-Xu.c h j z a I s.Z.b.i.a.V.G G S F F F F F F Z D P ] g.m.=Xm.N.B.r.H V S $.S G G G D D P P b.h.g.g.g.B.B.g.x.x.x.x.u.u.>.L >.Y L L L c c c g W $X7XaX>XrXyXm O   , , X > ~ Z -.-.c R -XuX2X,X,X-Xu.K h j F q P.W.(.kXhXSX",
"% 6 R.bXHXHXnX`.K.O.$.b R W [ n.a.0.0.0.9.U D V D D D D D D D D D D D D D D D D 0.0.a.a.a.9.7.( ~ ~ ~ U U U U L L b R 2.%X9X5X$XpXM.N O . * * = 3 #.5.7.U Y p.A.9X%X9XqX&Xn g L c H D D G G G G G D D D D D D D D D D D D D D D D D D D D D D D D G G U U 7.7.) [ { g.B.N.N.M.b.P P D D G G G G C C C C G 7.0.a.a.a.0.9.7.U G D D D D D D D D D G U 7.U C U a.S.*X@X*X0Xh.i X < # @ # 1 _ i.] J T d.-X,X,X:X>X6XK c k j j l z K H H N H P ) i.p.p.p.i.r.) Y P P f W -X0X7X:X>XeXm O   ; , X > ~ Z -.-.c E -XuX2XtX,X-Xh.r.-.-.-.>.t.d.d.f.h.j.j.j.j.j.j.j.j.j.h.u.u.u.u.u.u.u.u.u.u.r.>.L L K c d W -X0X7X:X>XeXm O   , , X > ~ Z -.-.c R -XuX2X,X,X-Xu.K h j A a I s.Z.b.i.a.V.G G S F F F F F F Z G P ] g.m.=Xm.N.B.r.H V S $.S G G G D D P P b.h.g.g.g.B.m.g.x.x.x.x.u.u.>.L >.E L L L K c c g W $X7XaX>XyXyXm O   , , X > ~ Z -.-.c R -XuX2X,X,X-Xu.K h j F q P.W.(.kXhXSX",
"% 6 R.bXHXHXnX`.K.O.$.b R W [ n.a.0.0.0.9.( D V D D D D D D D D D D D D D D D D 0.a.a.a.a.9.7.( ~ ~ ~ U U U U L L b R 2.%X9X5X$XpXM.N O . * * = 3 #.5.7.U Y p.A.9X%X9XqX$Xn g L c H D D G G G G G D D D D D D D D D D D D D D D D D D D D D D D D G G U U 7.7.) [ { g.B.N.N.M.b.P P D D G G G G C C C C G 7.0.a.a.a.0.9.7.U G D D D D D D D D D G U 7.U C U a.S.*X@X*X0Xh.i X < # @ # 1 _ i.] J T d.-X,X,X:X>X6XK c k j j z z K H H N H P ) i.p.p.p.i.r.) Y P P f W -X0X7X:X>XeXm O   ; , X > ~ Z -.-.c E :XuX2XtX,X-Xh.r.-.-.-.>.t.d.d.f.h.j.j.j.j.j.j.j.j.j.h.u.u.u.u.u.u.u.u.u.u.r.>.L L K c d 1.-X0X7X:X>XeXm O   , , X > ~ Z -.-.c R -XuX2X1X,X-Xu.K h j A a I s.Z.b.i.a.V.G G F F F 3 F F F Z G U ] g.m.=Xm.N.B.r.H V S $.S G G G D D P P b.M.g.g.g.g.m.g.x.x.x.x.u.u.>.L >.Y L L L c c v g W $X7XaX>XyXyXm O   ; , X > ~ Z -.-.c R -XuX2X1X,X-Xu.K h j F q P.W.(.kXhXSX",
"% 6 R.bXHXHXnX`.K.O.$.n R W [ n.i.0.0.0.9.U D V D D D D D D D D D D D D D D D D 0.a.a.a.a.9.7.( ~ ~ ~ U U U K L L b R 2.%X9X5X$XpXM.N O . * * = 3 #.5.7.U Y p.A.9X%X5XqX$Xn g L c C D D G G S G G D D D D D D D D D D D D D D D D D D D D D D D D G G U U 7.7.) [ { g.B.M.N.M.b.P P D D G G S G C C C C G 7.0.a.a.a.0.9.7.U G D D D D D D D D D G U 7.U C U a.S.*X@X*X0Xh.i   < # @ # 1 _ i.] J T d.-X,X<X:X>X6XK c k j j l z A H H H H I ) i.p.p.p.i.r.) Y P P f 1.-X0X7X:X>XeXm O   ; , X > ~ Z -.-.c R -XuX2XtX,X-Xx.u.-.-.-.,.t.d.d.f.h.j.j.j.j.j.j.j.j.j.h.u.u.u.u.u.u.u.u.u.u.r.>.L L K c d 1.-X0X7X:X>XeXm O   ; , X > ~ Z q.-.c R -XuX2X1X,X-Xu.K h j A a I s.Z.b.i.a.V.G G F F F 3 3 F F Z G P ] g.m.=Xm.N.N.r.P V S $.S G G G D D P P b.h.g.g.g.B.B.g.x.x.x.x.u.u.>.L >.Y L L L v c v g Q -X0X7X,XyXyXm O   ; , X > ~ Z q.-.c R -XuX2X1X,X-Xu.K h j F q P.W.(.kXhXSX",
"% 6 R.bXHXHXnX`.K.O.$.L R W [ n.i.0.0.0.9.U D V D D D D D D D D D D D D D D D D 0.a.a.a.a.9.7.( ~ ~ ~ U U U K L L b R 2.%X9X5X$XpXM.N O . * * = 3 #.5.7.U Y p.A.9X%X5XqX&Xn g L H D D D G G S G G D D D D D D D D D D D D D D D D D D D D D D D D G G U U 7.7.) [ { g.B.M.M.M.b.P P D D G G G G C C C C G 7.0.a.a.a.0.9.7.U G D D D D D D D D D G U 7.U C U a.S.*X@X*X0Xh.i X < # @ # 1 _ i.] J T d.-X,X<X:X>X6XK c k j j l z A H H H H I ) i.p.s.p.i.r.) Y P P f 1.-X0X7X>X>XeXm O   ; , X > ~ Z -.-.c R -XuX2XtX,X-Xx.u.-.-.-.,.d.d.d.f.f.j.j.j.j.j.j.j.j.j.h.u.u.u.u.u.u.u.u.u.u.r.>.L L K c d 1.-X0X7X:X>XeXm O   ; , X > ~ Z q.-.c R -XuX2X,X,X-Xu.K h j A a I s.Z.b.i.a.V.G G S F F 3 3 F F Z D P ] g.m.=Xm.N.B.r.P V F $.S S G G D D P P b.M.g.g.g.g.B.g.x.x.x.x.u.u.>.L >.Y L L L K c v g Q $X0X7X,XyXyXm O   ; , X > ~ Z q.-.c R -XuX2X,X,X-Xu.K h j F q P.W.(.kXhXSX",
"% 6 R.bXHXHXnX`.K.O.$.L R W [ n.i.0.0.0.9.U D V D D D D D D D D D D D D D D D D 0.a.a.a.a.0.7.( ~ ~ ~ U U U K L L b R 2.%X9X5X$XpXM.N O . * * = 3 #.5.7.U Y p.A.9X%X5XqX&Xn g L H H D D G G G G G D D D D D D D D D D D D D D D D D D D D D D D D G G U U 7.7.) [ { g.B.M.M.M.b.P D D D G G Z C C C C C G 7.0.a.a.a.0.9.7.U G D D D D D D D D D G ( 7.U C U a.S.*X@X*X0Xh.i   < # @ # 1 _ i.] J T d.-X,X<X:X>X6XK c k j j z z A H H H H I ) i.p.p.p.i.r.) Y P P f 1.-X0X7X>X>XeXm O   ; , X > ~ Z -.-.c R -XuX2XtX,X-Xx.y.-.-.-.,.t.d.d.f.f.j.j.j.j.j.j.j.j.j.h.u.u.u.u.u.u.u.u.u.u.,.>.L L K v d 1.-X0X7X:X>XeXm O   ; , X > ~ Z q.-.c R -XuX2X,X,X-Xu.K h j A a I s.Z.b.i.a.V.G S Z F F 3 F F F Z D P ] g.m.=Xm.N.B.r.H V S $.Z C G G D D D P s.p.g.g.g.g.k.g.x.x.x.x.u.u.>.L >.L L L L K c c g Q -X0X7X>XrXyXm O   ; , X > ~ Z q.-.c R -XuX2X,X,X-Xu.K h j F q P.W.(.kXhXSX",
"% 6 R.bXHXHXnX`.K.O.$.b R W [ n.i.0.0.0.9.U D V D D D D D D D D D D D D D D D D 0.a.a.a.a.0.7.( ~ ~ ~ U U U K L L b R 2.%X9X5X$XpXM.N O . * * = 3 #.5.7.U Y p.A.9X%X5XqX&Xn g L H D D D G G S G G D D D D D D D D D D D D D D D D D D D D D D D D G G U U 7.7.) [ { g.B.M.M.M.b.P D D D C C Z C D C C C G 7.0.a.a.a.0.9.7.U G D D D D D D D D D G ( 7.U C U V.S.*X@X*X0Xh.i   < # @ # 1 _ i.] J T d.-X,X<X:X>X6XL c k k j z z A H H H H I ) i.p.p.p.i.r.) Y P P f 1.-X0X7X>X>XeXm O   ; , X > ~ Z -.-.c R -XuX2XtX,X-Xh.y.-.-.-.,.t.d.d.f.h.j.j.j.j.j.j.j.j.j.h.u.u.u.u.u.u.u.u.u.u.>.>.L L K v d 1.-X0X7X:X>XeXm O   ; , X > ~ Z -.-.c R -XuX2X1X,X-Xu.K h j A a I s.Z.b.i.a.V.G Z Z F F F F F F Z D P ] g.m.=Xm.N.B.r.H V S $.S C G G D D P P s.p.g.g.g.g.k.g.x.x.x.x.u.u.>.L >.L L L L K c c g Q $X0X7X>XrXyXm O   ; , X > ~ Z -.-.c R -XuX2X1X,X-Xu.K h j F q P.W.(.kXhXSX",
"% 6 R.bXHXHXnX`.K.O.*.b R W [ n.V.a.a.0.9.9.9.8.U U G G C C V V G G G G D C C C V.V.V.C.V.a.0.7.S S S D G U K L L b R 2.%X9X5X$XpXM.N O . * * = 3 #.5.7.U Y p.A.qX%X$X9X%Xb g v c H D D G G S G G D D D D D D D D D D D D D D D D D D D D D D D C G U 7.9.0.a.p.g.B.g.g.g.g.h.s.P P D D G G S C C C C C G 7.0.a.a.a.0.9.7.U G D D D D D D D D D G U 7.U C U a.S.*X@X*X0Xh.i   < # @ # 1 _ i.] J J d.-X,X,X:X>X6XL c k j j l z A H H H H I ) i.p.p.p.i.r.) Y P P f 1.-X0X7X:X>XeXm O   ; , X > ~ Z q.-.c R -XuX2X,X,X<Xh.L z @.*.>.,.d.j.j.j.h.f.f.f.f.f.f.f.f.f.x.x.u.u.u.u.u.>.u.u.>.>.L L K v d 1.-X0X7X:X>XeXm O   ; , X > ~ Z -.-.c R -XuX2X1X,X-Xu.K h j A a I s.Z.b.i.a.V.G G F F F F F F F Z D P ] g.m.=Xm.N.N.] P V V $.S C G G G D P P s.s.g.B.B.B.B.g.x.x.h.u.u.u.r.>.>.>.>.>.Y L L L d 1.-X0X7X:X>XeXm O   ; , X > ~ Z -.-.c R -XuX2X,X,X-Xu.K h j F q P.W.(.kXhXSX",
"% 6 R.bXHXHXnX`.K.O.*.b R W [ n.n.a.a.0.9.9.8.7.U U G G C C V V C C C C C C C C a.V.V.V.V.a.9.7.S S S D G U K L L b R 2.%X9X5X$XpXM.N O . * * = 3 #.5.7.U Y p.A.qX%X%X9X%Xb g v c H K G G G S G G D D D D D D D D D D D D D D D D D D D D D D D D G U 7.9.0.a.p.g.B.g.g.g.g.h.s.P P D D G G G G C C C C G 7.0.a.a.a.0.9.7.U G D D D D D D D D D G U 7.U C U a.S.*X@X*X0Xh.i X < # @ # 1 _ i.] J J d.-X,X,X:X>X6XL c k j j l z K H P H P I ) i.p.p.p.i.] ) Y P P f 1.-X0X7X:X>XeXm O   , , X > ~ Z q.-.c R :XuX2X,X,X<Xh.L z @.*.>.,.d.j.j.j.h.f.f.f.f.f.f.f.f.f.x.x.u.u.u.u.u.>.u.u.>.>.L L v v d 1.-X0X7X>X>XeXm O   ; , X > ~ Z -.-.c R -XuX2X,X,X-Xu.K h j A a I s.Z.b.i.a.V.G S F F F F F F F Z D P ] g.m.=Xm.N.N.] H V V $.Z Z G G G D H P s.p.g.g.B.B.B.g.x.x.h.u.u.u.r.>.>.>.>.>.>.L L L d 1.-X0X7X>X>XeXm O   ; , X > ~ Z -.-.c R -XuX2X,X,X-Xu.K h j F q P.W.(.kXhXSX",
"% 6 R.bXHXHXnX`.K.O.$.b J E [ n.n.0.0.9.9.8.7.7.U U G G C C V V V V V C C C C C a.a.V.V.V.0.9.7.S S S D D U K L L b R 2.%X9X5X$XpXM.N O . * * = 3 #.5.7.U Y p.-XqX%X%X9X%Xb g v c H D G G G S G G D D D D D D D D D D D D D D D D D D D D D D D D G U 7.9.0.a.p.g.B.B.g.B.B.h.b.P P D D G G S G C C C C G 7.0.a.a.a.0.9.7.U G D D D D D D D D D G U 7.U C U a.S.*X@X*X0Xh.i X < # @ # 1 _ i.] J J d.-X,X,X:X>X6XL c k j j z z K P P P P Y ] p.b.p.p.p.] ) Y P P f 1.-X0X7X>X>XeXm O   ; , X > ~ Z -.-.c R -XuX2X,X,X<Xh.L z @.*.>.,.d.j.j.j.h.f.f.f.f.f.f.f.f.f.x.x.u.u.u.u.r.>.u.u.>.>.L L K c d 1.-X0X7X:X>XeXm O   ; , X > ~ Z -.-.c R -XuX2X,X,X-Xu.K h j A a I b.Z.b.i.a.V.C S F F F F F F F Z G P ] g.m.=Xm.N.B.r.H V V $.S S G G D D D H s.p.g.g.B.B.m.g.x.x.h.u.u.u.r.>.>.>.>.>.>.L L L d 1.-X0X7X:X>XeXm O   ; , X > ~ Z -.-.c R -XuX2X,X,X-Xu.K h j F q P.W.(.kXhXSX",
"% 6 R.bXHXHXnX`.K.O.@.n v E ] ` i.9.9.9.7.7.( U U U G G C C V V M V V V C C D D 0.a.a.V.a.0.8.7.S S S D D U K L R b R 2.%X9X5X$XpXM.N O . * * = 3 #.5.7.U Y p.A.qX%X$X9X%Xb g c c H D G G G S G G D D D D D D D D D D D D D D D D D D D D D D D D G U 7.9.0.a.p.g.B.B.g.B.B.M.b.P P D D G G G G C C C C G 7.0.a.a.a.0.9.7.U G D D D D D D D D D U ( 7.U C U a.S.*X@X*X0Xh.i X < # @ # 1 _ i.] J T d.-X,X,X:X>X6XL c k j j z z K U I P I ) r.p.b.p.p.p.r.) I P P f 1.-X0X7X:X>XeXm O   ; , X > ~ Z -.-.c R -XuX2X,X,X<Xh.L z @.*.>.,.d.j.j.j.h.f.f.f.f.f.f.f.f.f.x.x.h.u.u.u.r.>.u.u.>.>.L L K c d 1.-X0X7X:X>XeXm O   ; , X > ~ Z -.-.c R -XuX2X,X,X-Xu.K h j z a I s.Z.b.i.a.V.C G F F F F F F F Z G U ] g.m.=Xm.N.B.r.H V V $.S S G G D D P P s.h.g.B.B.B.m.g.x.x.h.u.u.u.r.>.r.>.>.>.>.L L L d 1.-X0X7X:X>XeXm O   ; , X > ~ Z -.-.c R -XuX2X,X,X-Xu.K h j F q P.W.(.kXhXSX",
"% 6 R.bXHXHXnX`.K.X.Z n v I ] ` 0.9.9.7.7.U U U U U G G C C V V V V C D G U U ( 0.0.a.a.a.9.7.( S S S D G U K L L b R 2.%X9X5X$XpXM.N O . * * = 3 #.5.7.U Y p.A.qX%X$X9X%Xb g c c H D D G G G G G D D D D D D D D D D D D D D D D D D D D D D D D G U 7.9.0.a.p.g.B.B.B.B.B.p.s.P P D D G G G G C C C C G 7.0.a.a.a.0.9.7.U G D D D D D D D D D G U 7.U C U a.S.*X@X*X0Xh.i   < # @ # 1 _ i.] J T d.-X,X,X:X>X6XL c k k j l z A Y Y I Y ) i.b.M.p.p.i.r.) Y P P f 1.-X0X7X:X>XeXm O   ; , X > ~ Z -.-.c R -XuX2X,X,X<Xh.L z @.*.>.,.d.j.j.j.h.f.f.f.f.f.f.f.f.f.x.x.h.u.u.u.r.>.u.u.r.>.L L K c d 1.-X0X7X:X>XeXm O   ; , X > ~ Z -.-.c R -XuX2X,X,X-Xu.c h j z a I s.Z.b.i.a.V.G G S F F F F F F Z G U ] g.m.=Xm.N.B.r.H V S $.S G G G D D D P b.M.B.B.B.g.B.g.x.x.x.u.u.u.u.>.>.>.>.>.Y L L L d 1.-X0X7X:X>XeXm O   ; , X > ~ Z -.-.c R -XuX2X,X,X-Xu.K h j F q P.W.(.kXhXSX",
"% 6 R.bXHXHXnX`.K.X.l g f B ` ` 9.9.7.7.U U G G U U G G C C V V C G U U 8.9.0.a.9.9.0.a.0.9.U G S S S D G U K L L b R 2.%X9X5X$XpXM.N O . * * = 3 #.5.7.U Y p.A.qX%X%X9X%Xb g c c H D D G G G G G D D D D D D D D D D D D D D D D D D D D D D D D G U 7.9.0.a.p.g.B.B.B.B.B.p.s.P D D G G G G G C C C C G 7.0.a.a.a.0.9.7.U G D D D D D D D D D G U 7.U C U a.S.*X@X*X0Xh.i   < # @ # 1 _ i.] J T d.-X,X,X:X>X6XK c k j j l z A Y Y Y ) r.p.b.Z.p.p.i.r.) Y P P f 1.-X0X7X:X>XeXm O   ; , X > ~ Z -.-.c R -XuX2X,X,X<Xh.L z @.*.>.,.d.j.j.j.h.f.f.f.f.f.f.f.f.f.x.x.u.u.u.u.r.>.u.u.r.>.L L K n d 1.-X0X7X:X>XeXm O   ; , X > ~ Z q.-.c R -XuX2X,X,X-Xu.c h j z a I s.Z.b.i.a.V.G G S F F F F F F Z G U ] g.m.=Xm.N.B.r.H V S $.S S G G D D P P b.M.B.B.g.g.B.g.x.x.x.u.u.u.r.>.>.>.>.>.Y L L L d 1.-X0X7X:X>XeXm O   ; , X > ~ Z q.-.c R -XuX2X,X,X-Xu.K h j F q P.W.(.kXhXSX",
"% 6 R.bXHXHXnX`.K.X.l g d B ` ` 8.7.7.U U G G G U U G G C C V V U ( 7.9.a.V.C.C.9.9.0.0.9.7.U G S S S C G U K L L b R 2.%X9X5X$XpXM.N O . * * = 3 #.5.7.U Y p.-XqX%X%X9X%Xb g c c H D D G G G G G D D D D D D D D D D D D D D D D D D D D D D D D G U 7.8.0.a.p.g.B.B.B.g.g.p.s.P D D D G G G G C C C C G 7.0.a.a.a.0.9.7.U G D D D D D D D D D G U 7.U C U a.S.*X@X*X0XM.i   < # @ # 1 _ i.] J T d.-X,X,X:X>X6XL c k j j z z A ) ) ) ) r.p.M.D.p.p.i.r.) Y P P f 1.-X0X7X:X>XeXm O   ; , X > ~ Z -.-.c R -XuX2X,X,X<Xh.=.z @.*.>.,.d.j.j.j.h.f.f.f.f.f.f.f.f.f.x.x.u.u.u.u.r.>.u.u.r.>.L L K c d 1.-X0X7X:X>XeXm O   ; , X > ~ Z q.-.c R -XuX2X1X,X-Xu.K h j A a I s.Z.b.i.a.V.G G S F F F F F F Z G U ] g.m.=Xm.N.B.r.H V S $.S G G G D D P P s.M.g.g.g.g.B.g.x.x.u.u.u.u.r.>.>.>.>.>.=.L L L d 1.-X0X7X:X>XeXm O   ; , X > ~ Z q.-.c R -XuX2X1X,X-Xu.K h j F q P.W.(.kXhXSX",
"% 6 R.bXHXnXnX`.K.X.l g d N ` _ 8.8.( U U U D D U U U G D C C C 8.8.9.a.C.C.D.D.8.9.9.0.9.8.U G S S V C G U K L L b R 2.%X9X5X$XpXM.N O . * * = 3 #.5.7.U Y p.-XqX%X%X9X%Xb g c c H D D G G G G G D D D D D D D D D D D D D D D G G G D D D D D D U U ( 8.i.a.s.g.B.g.g.g.h.s.s.H D D C C C C C C D C D U 8.i.a.a.a.i.9.( U U D D D D D D D D D G U 7.U C U a.S.*X@X*X0XM.i   < # @ # 1 _ i.] J T 1.-X,X,X:X>X6XL c k k j l z A =.Y ) Y r.p.Z.D.p.p.i.r.) Y P H f 1.-X0X7X:X>XeXm O   ; , X > ~ Z -.-.c R -XuX2X,X,X<Xx.=.z @.*.>.,.d.h.j.h.h.f.f.f.f.f.f.f.f.f.x.x.u.u.p.u.i.r.u.u.r.>.Y L K c d 1.-X0X7X:X>XeXm O   ; , X > ~ Z -.-.c R -XuX2X1X,X-Xu.K h j A a I s.Z.b.i.a.V.G S S F F F F F F Z G P ] g.m.=Xm.N.B.r.H V V $.Z S S G G D D P p.s.h.g.g.g.g.g.x.x.u.u.u.u.>.>.>.>.>.>.L L L L d 1.-X0X7X:X>XeXm O   ; , X > ~ Z -.-.c R -XuX2X1X,X-Xu.K h j F q P.W.(.kXhXSX",
"% 6 R.bXnXnXmX`.P.o.l x x C ! ~ 9.r.8.8.) ) ) ( Y U P P H C m m ( ) i.a.p.p.a.i.) ) ) Y U P P P V S S D D U K K L b R 2.%X9X5X$XpXM.N O . * * = 3 #.5.7.U Y p.-X9X&X&X9X%XR n L =.=.=.U G G / G G D D D D D D D D D D D D D D G G G C C C D D P P P I ] ] { g.g.k.k.k.k.k.f.f.u.H k H z A z A A U U P U ) i.p.b.p.a.i.8.) U P P D D D D D D D D G U 7.U D U a.S.*X@X*X0Xh.i X < # @ # 1 _ i.] J T d.-X,X<X:X>X6XK c k j j l z K =.>.>.>.r.u.u.u.x.x.u.u.r.>.Y L d 1.-X0X7X:X>XeXm O   ; , X > ~ Z -.-.c R -XuX2XuXuXaXS.>.A @.*.L E >.u.u.u.u.t.u.u.u.u.u.u.u.u.u.s.M.Z.b.p.r.r.i.i.r.r.) Y Y Y f 1.-X0X7X:X>XeXm O   ; , X > ~ Z -.-.c R -XuX2X,X,X-Xu.K h j A a I s.Z.b.i.a.V.G G S F F F F F F Z G U ] g.m.=Xm.N.B.] P V S $.F F F F Z Z G D a.p.s.b.b.M.M.h.u.u.u.u.u.u.u.u.u.u.r.>.L L v v d 1.-X0X7X:X>XeXm O   ; , X > ~ Z -.-.c R -XuX2X,X,X-Xu.K h j F q P.W.(.kXhXSX",
"% 6 R.bXnXnXmX}.P.o.l x s V ! ^ 9.r.] r.) ) ) ) Y Y I P P H N N ) ) i.p.s.p.p.i.] ) ) Y I P P P V S S D D U K L L b R 2.%X9X5X$XpXM.N O . * * = 3 #.5.7.U Y p.-X9X&X&X9X%XR d L =.=.=.U G G / G G D D D D D D D D D D D D D D G G G G G C D D P P I E ] [ { g.k.k.k.k.k.f.f.f.u.c k z z z z z z U I I I ) i.s.M.p.p.i.r.) Y P P D D D D D D D D G U 7.U C U a.S.*X@X*X0Xh.i X < # @ # 1 _ i.] J T d.-X,X<X:X>X6XL K k j j l A K =.>.>.>.u.u.u.u.x.l.u.u.>.E L L d 1.-X0X7X>X>XeXm O   ; , X > ~ Z -.-.c R -XuX2XuXuXaXS.=.A @.*.L >.>.u.u.u.u.r.u.u.u.u.u.u.u.u.s.b.M.Z.M.p.i.r.i.i.r.] ) ) Y Y f 1.-X0X7X:X>XeXm O   ; , X > ~ Z -.-.c R -XuX2X,X,X-Xu.K h j A a I s.Z.b.i.a.V.G G S F F 3 F F F Z G U ] g.m.=Xm.N.B.r.P V Z $.F 4 F F F Z S G a.a.s.s.b.b.M.s.u.u.u.u.u.u.u.u.u.u.r.>.L L v v d 1.-X0X7X:X>XeXm O   ; , X > ~ Z -.-.c R -XuX2X,X,X-Xu.K h j F q P.W.(.kXhXSX",
"% 6 R.bXnXnXmX}.P.o.l x s A w ^ 8.] ] ] ] ] ] ] Y ) I I P P N N Y ) i.p.s.p.p.i.] ) ) Y I P P P V S S D D U K L L b R 2.%X9X5X$XpXM.N O . * * = 3 #.5.7.U Y p.A.9X&X&X9X%XR n L =.=.=.U G G / G G D D D D D D D D D D D D D D G G G G G G D D P I I E [ { g.k.B.k.k.k.k.f.f.f.u.c k z z z z z z U I I I ) i.s.M.p.p.i.r.) Y P P D D D D D D D D G U 7.U C U a.S.*X@X*X0Xh.i   < # @ # 1 _ i.] J T d.-X,X,X:X>X6XL K z k k z A &.>.>.>.r.u.u.u.u.x.l.u.r.>.E L L d 1.-X0X7X:X>XeXm O   ; , X > ~ Z -.-.c E -XuX2XuXaX7Xx.=.z A *.L >.>.u.u.u.u.r.u.u.u.u.u.u.u.u.s.b.M.Z.M.p.i.r.i.i.r.] ) ) Y Y f 1.-X0X7X:X>XeXm O   ; , X > ~ Z -.-.c R -XuX2X,X,X-Xu.K h j A a I s.Z.b.i.a.V.G G S F F F F F F Z D P ] g.m.=Xm.N.B.r.H V S #.F 3 F F F Z G G a.a.p.p.s.s.M.s.u.u.u.u.u.u.u.u.u.u.r.>.L L K c d 1.-X0X7X:X>XeXm O   ; , X > ~ Z -.-.c R -XuX2X1X,X-Xu.K h j F q P.W.(.kXhXSX",
"% 6 R.bXnXnXmX}.P.o.l x s V w ^ ( Y ) ) ] r.r.r.) ) Y I I P P P Y ) i.p.s.p.p.i.] ) ) Y I P P P V S S D D U K L L b R 2.%X9X5X$XpXM.N O . * * = 3 #.5.7.U Y p.A.9X&X&X9X%XR n L =.=.=.U G G / G G D D D D D D D D D D D D D D G G G G C D D P P I E ] { { g.m.m.k.k.k.k.f.f.f.u.c c z z z z z z Y I I I ) i.s.M.p.p.i.r.) Y P P D D D D D D D D G U 7.U C U a.S.*X@X*X0Xh.i   < # @ # 1 _ i.] J T d.-X,X,X:X>X6XL K K z z A @.&.>.>.u.u.u.u.u.x.x.l.u.r.>.E L L d 1.-X0X7X:X>XeXm O   ; , X > ~ Z -.-.c E :XuX2XtXaX,Xx.L z z &.L >.>.u.u.u.u.r.u.u.u.u.u.u.u.u.s.b.M.M.b.p.i.r.i.i.r.] ) ) Y J f 1.-X0X7X:X>XeXm O   ; , X > ~ Z -.-.c R -XuX2X,X,X-Xu.K h j A a I s.Z.b.i.a.V.G G S F F F F F F Z D P ] g.m.=Xm.N.B.r.H V S #.F 3 F F F F G G a.a.p.p.s.s.h.s.u.u.u.u.u.u.u.u.u.u.r.>.L L K c d 1.-X0X7X:X>XeXm O   ; , X > ~ Z -.-.c R -XuX2X1X,X-Xu.K h j F q P.W.(.kXhXSX",
"% 6 R.bXnXnXmXMXP.o.l x x A ! ^ ( Y Y ) r.r.i.i.] ] ) ) Y I P P Y ) i.p.s.p.p.i.] ) ) Y I P P P V S S D G U K L L b R 2.%X9X5X$XpXM.N O . * * = 3 #.5.7.U Y p.A.9X&X&X9X%X<.n L =.=.=.U G G / G G D D D D D D D D D D D D D D G G G G G D D P P Y ] ] { g.m.N.m.k.k.k.k.f.f.u.u.c c z z z z z z U I I I ) i.s.M.p.p.i.r.) Y P P D D D D D D D D G U 7.U C U a.S.*X@X*X0Xh.i   < # @ # 1 _ i.] J T d.-X,X,X:X>X6X=.=.K A A @.&.*.r.u.u.u.u.x.x.x.x.x.u.u.>.>.L L d 1.-X0X7X:X>XeXm O   ; , X > ~ Z -.-.c R -XuX2X2X0X,Xh.L j l @.K Y >.u.u.u.u.r.u.u.u.u.u.u.u.u.s.b.M.Z.M.p.i.r.i.i.r.] ) ) ) Y f 1.-X0X7X:X>XeXm O   ; , X > ~ Z -.-.c E -XuX2X1X,X-Xu.K h j A a I s.Z.b.i.a.V.G G F F F 3 3 3 F Z D P ] g.m.=Xm.N.B.r.H V V $.F 3 F F F S G G a.a.p.p.s.s.p.s.u.u.u.u.u.u.u.u.u.u.r.>.L L K c d 1.-X0X7X:X>XeXm O   ; , X > ~ Z -.-.c E -XuX2X1X,X-Xu.K h j F q P.W.(.kXhXSX",
"% 6 R.bXnXnXmXMXP.o.l x x A ! ^ G I Y ) r.i.p.p.r.r.] ) ) Y I I Y ) i.p.s.p.p.i.] ) ) Y I P P P V S S D G U K L L b R 2.%X9X5X$XpXM.N O . * * = 3 #.5.7.U Y p.A.9X&X&X9X%X<.n L =.=.Y U G G / G G D D D D D D D D D D D D D D G G S G G D D P P ) ] [ g.g.B.N.=Xk.k.k.k.f.f.u.u.c c z z z z z z U I I I ) i.s.M.p.p.i.r.) Y P P D D D D D D D D G U 7.U C U a.S.*X@X*X0Xh.i   < # @ # 1 _ i.] J T d.-X,X,X:X>X6X>.=.K K A &.*.-.u.u.u.u.x.x.x.x.x.h.u.t.>.>.L L d 1.-X0X7X:X>XeXm O   ; , X > ~ Z -.-.c R -XuX2X1X2X-Xf.K j j A K Y >.u.u.u.u.r.u.u.u.u.u.u.u.u.s.b.Z.Z.M.p.i.r.i.i.r.] ) ) Y Y f 1.-X0X7X>X>XeXm O   ; , X > ~ Z -.-.c E :XuX2X1X,X-Xu.K h j A a I s.Z.b.i.a.V.G G F F F F F 3 F Z D P ] g.m.=Xm.N.B.r.H V V $.F 3 F F F F G G a.a.p.p.s.s.g.s.u.u.u.u.u.u.u.u.u.u.r.>.L L K c d 1.-X0X7X>X>XeXm O   ; , X > ~ Z -.-.c E :XuX2X,X,X-Xu.K h j F q P.W.(.kXhXSX",
"% 6 R.bXnXnXmXMXP.o.l x x A w ^ D P I ) r.i.p.b.i.r.r.] ) Y Y Y Y ) i.p.s.p.p.i.] ) ) Y I P P P V S S D G U K L L b R 2.%X9X5X$XpXM.N O . * * = 3 #.5.7.U Y p.A.9X&X&X9X%X<.n L Y Y Y U G G G G G D D D D D D D D D D D D D D G G G G G D D P P ] ] i.g.B.N.=X=Xk.k.k.k.f.f.u.u.c c z z z z z z U I P I ) i.s.M.p.p.i.r.) Y P P D D D D D D D D G U 7.U D U a.S.*X@X*X0Xh.i X < # @ # 1 _ i.] J T d.-X,X>X:X>X6X>.=.=.K &.&.*.-.u.u.u.x.x.x.x.Z.x.x.u.u.>.>.L L d 1.-X0X7X:X>XeXm O   ; , X > ~ Z -.-.c R -XuX2X,X,X-Xu.K h j A K Y >.u.u.u.u.r.u.u.u.u.u.u.u.u.b.b.Z.Z.M.p.i.] i.i.r.] ) ) ) Y f 1.-X0X7X>X>XeXm O   ; , X > ~ Z -.-.c R -XuX2X,X,X-Xu.K h j A a I b.Z.b.i.a.V.G G F F F F F F F Z G U ] g.m.=Xm.N.N.r.H M V $.F 3 F F F S G G a.a.p.p.b.b.g.s.u.u.u.u.u.u.u.u.u.u.>.>.L L K c d 1.-X0X7X>X>XeXm O   ; , X > ~ Z -.-.c R -XuX2X,X,X-Xu.K h j F q P.W.(.kXhXSX",
"% 6 R.bXnXnXmXMXP.o.l x x A ! ^ C P I ) r.p.b.b.i.i.r.r.) ) Y Y Y ) i.p.s.p.p.i.] ) ) Y I P P P V S S D G U K K L b R 2.%X9X5X$XpXM.N O . * * = 3 #.5.7.U Y p.A.9X&X&X9X%XR n L =.Y Y U G G G G G D D D D D D D D D D D D D D G C S G G D D P P ] ] i.g.M.N.=X=Xk.k.k.k.f.f.u.u.c c z z z z z z U I P I ) i.s.M.p.p.i.r.) Y P P D D D D D D D D G U 7.U D U a.S.*X@X*X0Xh.i X < # @ # 1 _ i.] J T d.-X,X>X:X>X6X>.=.=.&.&.&.*.-.u.u.u.x.x.x.D.S.x.x.u.u.>.>.L L d 1.-X0X7X:X>XeXm O   ; , X > ~ Z -.-.c R -XuX2X,X,X-Xu.K h j z K L >.u.u.u.u.u.u.u.u.u.u.u.u.u.b.b.M.Z.M.p.i.] i.i.r.] ) ) ) Y f 1.-X0X7X>X>XeXm O   ; , X > ~ Z -.-.c R :XuX2X,X,X-Xu.K h j z a I s.Z.b.i.a.V.G G S F F F F F F Z G U ] g.m.=Xm.N.N.r.P V V $.F 3 F F F S G G V.a.p.n.b.b.B.s.u.u.u.u.u.u.u.u.u.u.r.>.L L c n d 1.-X0X7X>X>XeXm O   ; , X > ~ Z -.-.c R :XuX2X,X,X-Xu.K h j F q P.W.(.kXhXSX",
"% 6 R.bXnXnXmXMXP.o.l x x A ! ^ ( I I I ) i.p.b.p.p.i.r.) Y P P Y ) i.p.b.p.p.i.] ) ) Y I P P P V S S D G U K L L b R 2.%X9X5X$XpXM.N O . * * = 3 #.5.7.U Y p.A.9XwX%X%X&Xf.<.>.>.8.8.U G D S S G D D D D D D D D D D D D D D G G Z C G G U 8.i.Y ] ] { g.g.m.m.k.k.k.k.f.f.f.u.L c k j j z z K U I I I ) i.s.M.p.p.i.r.) Y P P D D D D D D D D G U 7.U D U a.S.*X@X*X0Xh.i X < # @ # 1 _ i.] J T d.-X,X,X:X>X6X>.=.&.&.&.&.*.-.u.u.u.u.u.u.u.u.x.x.u.u.>.>.L L d 1.-X0X7X:X>XeXm O   ; , X > ~ Z q.-.c R -XuX2X,X,X-Xu.K h j z c L E >.>.>.>.>.u.u.u.u.u.u.u.u.s.b.b.b.p.r.Y P Y Y Y Y I I Y J f 1.-X0X7X:X>XeXm O   ; , X > ~ Z -.-.c R -XuX2X,X,X-Xu.c h j z a I s.Z.b.i.a.V.G G S F F F F F F Z G P ] g.m.=Xk.g.g.] ( U Z F F 3 F F F S G G 9.8.r.i.i.p.p.s.u.u.u.u.u.u.u.u.u.u.r.>.L L K c d 1.-X0X7X:X>XeXm O   ; , X > ~ Z -.-.c R -XuX2X,X,X-Xu.K h j F q P.W.(.kXhXSX",
"% 6 R.bXnXnXmX}.P.o.l s x A w ^ ( I I I ) i.s.b.p.p.i.r.) Y P P Y ) i.p.s.p.p.i.] ) ) Y I P P P V S S D G U K L L b R 2.%X9X5X$XpXM.N O . * * = 3 #.5.7.U Y p.A.9XwX%X%X&Xf.<.>.r.r.8.( G G S V G D D D D D D D D D D D D D D G G Z G G G U 8.i.Y ] ] { g.g.m.m.k.k.k.k.f.f.u.u.K c k j j z z K U I I I ) i.s.M.p.p.i.r.) Y P P D D D D D D D D G U 7.U C U a.S.*X@X*X0Xh.i X < # @ # 1 _ i.] J T d.-X,X,X:X>X6X>.=.&.&.&.&.*.-.u.u.u.u.u.u.u.u.x.x.u.u.>.>.L L d 1.-X0X7X:X>XeXm O   ; , X > ~ Z q.-.c R :XuX2X,X,X-Xu.K h j z c L Y >.>.>.>.>.u.u.u.u.u.u.u.u.s.b.b.b.p.r.Y P Y Y Y Y I I Y J f 1.-X0X7X:X>XeXm O   , , X > ~ Z -.-.c R -XuX2X,X,X-Xu.c h j z a I s.Z.b.i.a.V.G G Z F F 3 F F F Z G U ] g.m.=Xk.g.g.] ) U Z F F 3 F F F F G G 9.8.r.i.i.p.p.s.u.u.u.u.u.u.u.u.u.u.r.>.L L K c d 1.-X0X7X:X>XeXm O   , , X > ~ Z -.-.c R -XuX2X,X,X-Xu.K h j F q P.W.(.kXhXSX",
"% 6 R.bXnXnXmXMXP.o.l x x A ! 6.( I I I ) i.s.M.p.p.i.r.) Y P P Y ) i.p.s.p.p.i.] ) ) Y I P P P V S S D D U K L L b R 2.%X9X5X$XpXM.N O . * * = 3 #.5.7.U Y p.-X9XwXwX%X&Xf.<.>.r.r.9.7.( G S S G D D D D D D D D D D D D D D G G Z G G G U 8.i.I ] ] { g.g.m.m.k.k.k.k.f.f.f.u.K c k j j z z K U I I I ) i.s.M.p.p.i.r.) Y P P D D D D D D D D G ( 7.U C U a.S.*X@X*X0Xh.i   < # @ # 1 _ i.] J T d.-X,X,X:X>X6X>.=.=.&.&.&.*.-.u.u.u.u.u.u.u.u.x.x.u.u.>.>.L L d 1.-X0X7X:X>XeXm O   ; , X > ~ Z -.-.c R -XuX2X,X,X-Xu.K h j z c L =.>.>.>.>.>.u.u.u.u.u.u.u.u.s.b.b.b.p.r.Y P Y Y Y Y I I I J f 1.-X0X7X>X>XeXm O   ; , X > ~ Z -.-.c E -XuX2X1X,X-Xu.K h j A a I s.Z.b.i.a.V.G Z Z F F F F F F Z G P ] g.m.=Xk.g.g.] ) U Z F F 3 F F F Z G G 9.8.r.i.p.p.p.s.u.u.u.u.u.u.u.u.u.u.,.>.L L K c d 1.-X0X7X>X>XeXm O   ; , X > ~ Z -.-.c E -XuX2X1X,X-Xu.K h j F q P.W.(.kXhXSX",
"% 6 R.bXnXnXmXMXP.o.l x x A ! 6.( I I I ) i.s.M.p.p.i.r.) Y P P Y ) i.p.s.p.p.i.] ) ) Y I P P P V S S D D U K L R b R 2.%X9X5X$XpXM.N O . * * = 3 #.5.7.U Y p.A.9XwXwX%X&Xf.<.>.u.y.9.9.7.~ G D G D D D D D D D D D D D D D D G G Z G G G U 8.i.I ] ] { g.g.m.m.k.k.k.k.f.f.f.u.K c k j j z z K Y I I I ) i.s.M.p.p.i.r.) Y P P D D D D D D D D G U 7.U C U a.S.*X@X*X0Xh.i   < # @ # 1 _ i.] J T d.-X,X,X:X>X6X>.=.=.&.&.&.*.-.u.u.u.u.u.u.u.u.x.x.u.u.>.>.L L d 1.-X0X7X:X>XeXm O   ; , X > ~ Z -.-.c R -XuX2X,X,X-Xu.K h j z c L Y >.>.>.>.>.u.u.u.u.u.u.u.u.s.b.b.b.p.r.Y P Y Y Y I I I I I f 1.-X0X7X:X>XeXm O   ; , X > ~ Z -.-.c E :XuX2X1X,X-Xu.K h j A a I s.Z.b.i.a.V.G G Z F F F F F F Z G U ] g.m.=Xk.g.g.] ) U Z F F 3 F F F Z G G 9.8.r.i.p.p.p.s.u.u.u.u.u.u.u.u.u.u.,.>.L L K v d 1.-X0X7X:X>XeXm O   ; , X > ~ Z -.-.c E :XuX2X1X,X-Xu.K h j F q P.W.(.kXhXSX",
"% 6 R.bXnXnXmX}.P.o.l x s V ! 6.( I I I ) i.s.M.p.p.i.r.) Y P P Y ) i.p.s.p.p.i.] ) ) Y I P P P V S S D G U K L L b R 2.%X9X5X$XpXM.N O . * * = 3 #.5.7.U Y p.A.9X5XwX%X&Xf.<.>.u.a.i.9.7.~ / G G D D D D D D D D D D D D D D G G G G G G U 8.i.I ] ] { g.g.m.m.k.k.k.k.f.f.f.u.K c k j j l z A U I I I ) i.s.M.p.p.i.r.) Y P P D D D D D D D D G U 7.U C U a.S.*X@X*X0Xh.i   < # @ # 1 _ i.] J T d.-X,X<X:X>XyX>.=.=.&.&.&.*.-.u.u.u.u.u.u.u.u.x.l.u.u.>.E L L d 1.-X0X7X:X>XeXm O   ; , X > ~ Z -.-.c R -XuX2X,X,X-Xu.K h j z c L =.>.r.>.>.>.u.u.u.u.u.u.u.u.s.b.b.b.p.r.Y P I I I I I Y Y J f 1.-X0X7X:X>XeXm O   ; , X > ~ Z -.-.c R -XuX2X1X,X-Xu.K h j A a I s.Z.b.i.a.V.G G F F F 3 3 3 F Z D U ] g.m.=Xk.g.{ ] ) U Z F F 3 F F F S G G 8.8.r.i.p.p.g.s.u.u.u.u.u.u.u.u.u.u.>.>.L L K v d 1.-X0X7X:X>XeXm O   ; , X > ~ Z -.-.c R -XuX2X1X,X-Xu.K h j F q P.W.(.kXhXSX",
"% 6 R.bXnXnXmX}.P.o.l x s V ! ^ ( I I I ) i.s.M.p.p.i.r.) Y P P Y ) i.p.b.p.p.i.] ) ) Y I P P P V S S D G U K L L b R 2.%X9X5X$XpXM.N O . * * = 3 #.5.7.U Y p.-X9X5XwX%X&Xf.<.>.u.u.a.0.7.7.~ ~ G D D D D D D D D D D D D D D G G G G G G U 8.i.I E ] { g.g.m.m.k.k.k.k.f.f.f.u.K c k j j l z A U I I I ) i.s.M.p.p.i.r.) Y P P D D D D D G D D G U 7.U C U a.S.*X@X*X0Xh.i   < # @ # 1 _ i.] J T d.-X,X<X:X>X6X>.=.=.&.&.&.*.-.u.u.u.u.u.u.u.u.x.l.u.t.>.>.L L d 1.-X0X7X>X>XeXm O   ; , X > ~ Z -.-.c R -XuX2X,X,X-Xu.K h j z c L =.>.r.>.>.>.u.u.u.u.u.u.u.u.s.b.b.b.p.] Y P I I I I Y Y Y J f 1.-X0X7X:X>XeXm O   ; , X > ~ Z -.-.c R -XuX2X,X,X-Xu.K h j A a I s.Z.b.i.a.V.G G F F F F F 3 F Z D P ] g.m.=Xk.g.{ ] ( U Z F F 3 F F F S G G 8.8.r.i.p.p.p.s.u.u.u.u.u.u.u.u.u.u.>.>.L L K v d 1.-X0X7X:X>XeXm O   ; , X > ~ Z -.-.c R -XuX2X,X,X-Xu.K h j F q P.W.(.kXhXSX",
"% 6 R.bXnXnXmX}.P.o.l x s A ! ^ ( I P I ) i.s.M.p.p.i.r.) Y P P Y ) i.p.b.p.p.i.] ) ) Y I P P P V S S D G U K L L b R 2.%X9X5X$XpXM.N O . * * = 3 #.5.7.U Y p.-X<X5XwX%X&Xv.<.>.l.l.a.0.9.7.~ ~ G D D D D D D D D D D D D D D G G Z G G G U 8.i.I ] ] { g.g.m.m.k.k.k.k.f.f.f.u.K c k j j z z A U I P I ) i.b.M.p.p.i.r.) Y P P D D D D D D D D G U 7.U D U a.S.*X@X*X0Xh.i   < # @ # 1 _ i.] J T d.-X,X<X:X>X6X>.=.=.&.&.&.*.-.u.u.u.u.u.u.u.u.x.x.u.u.>.=.L L d 1.-X0X7X>X>XeXm O   ; , X > ~ Z -.-.c R -XuX2X,X,X-Xu.K h j z c L Y >.>.>.>.>.u.u.u.u.u.u.u.u.s.b.b.b.p.r.Y P I I Y Y Y Y Y J f 1.-X0X7X:X>XeXm O   ; , X > ~ Z -.-.c R -XuX2X,X,X-Xu.K h j A a I s.Z.b.i.a.V.G G S F F F F F F Z G U ] g.m.=Xk.g.{ ] ( U Z F F 3 F F F S S G 7.8.r.i.p.p.p.s.u.u.u.u.u.u.u.u.u.u.r.>.L L K c d 1.-X0X7X:X>XeXm O   ; , X > ~ Z -.-.c R -XuX2X,X,X-Xu.K h j F q P.W.(.kXhXSX",
"% 6 R.bXnXnXmX}.P.o.l x s V ! ^ ( U P U ) i.p.b.p.a.i.8.) U P P Y ) i.a.n.p.a.i.) ) ) U U P P P V S S D G U K L L b R 2.%X9X5X$XpXM.N O . * * = 3 #.5.7.U Y p.-X,X<X<X%X&Xv.,.>.x.l.u.i.9.7.7.( D D D D D D D D D D D D D D D D U G D D U U 8.r.Y Y ] [ p.g.B.B.g.f.f.f.f.u.u.u.K K k k k l A K U I P I ) i.b.M.p.p.i.r.) Y P P P D D D D D D D G U 7.U D U a.S.*X@X*X0XM.i   < # @ # 1 _ i.] J T d.-X,X<X-X>X6X>.>.L K K &.=.-.u.u.u.u.u.u.u.u.x.u.u.t.>.>.L L d 1.-X0X7X>X>XeXm O   ; , X > ~ Z -.-.c R -XuX2X,X,X-Xu.K h j z K K Y >.r.>.>.=.u.u.u.u.u.u.u.u.p.b.b.b.a.8.Y P Y U Y U Y U Y Y f 1.-X0X7X:X>XeXm O   ; , X > ~ Z -.-.c R -XuX2X,X,X-Xu.K h j A a I s.Z.b.i.a.V.G G S F F F F F Z C D P ] p.N.=Xg.g.p.] ( U G S F F F F S S G G 8.8.8.i.i.p.p.s.u.u.u.u.u.u.u.u.u.u.r.>.L L K c d 1.-X0X7X:X>XeXm O   ; , X > ~ Z -.-.c R -XuX2X,X,X-Xu.K h j F q P.W.(.kXhXSX",
"% 6 R.bXnXnXmXMXP.o.l x x C ! ^ G G U U U 7.8.8.8.8.9.9.i.a.a.a.a.i.8.( U U ( 8.D D D D D D D D S S S D D U K K L b R 2.%X9X5X$XpXM.N O . * * = 3 #.5.7.U ) p.A.;X1X1X;X;Xj.d.t.f.u.u.r.r.-.=.=.0.8.U G D D G U D D D D D D D D U L Y =.=.>.r.r.r.t.u.u.u.h.x.x.p.r.8.Y U U ( =.U D C V V C G U 8.] r.i.i.p.p.b.p.p.i.r.) Y P P D D D D D D D D G U 7.U C U a.S.*X@X*X0Xh.i   < # @ # 1 _ i.] J J t.-X7X,X-X>X7Xf.f.f.f.f.u.u.u.x.x.x.x.x.x.x.x.x.x.u.u.>.>.L L T 1.$X,X,X>X>XyXm O   ; , X > ~ Z -.-.c R -XuX2X,X,X-Xu.K h j A A D D D D D D D i.a.b.C.C.V.a.i.8.8.( U U U P D D G U U U 7.8.) f 1.-X0X7X:X>XeXm O   ; , X > ~ Z q.-.c R -XuX2X1X,X-Xu.K h j A a I s.Z.b.i.a.V.G G F F F F F F C D P P ] p.M.D.M.M.s.p.r.) ( U U G G G V V V V 7.7.U U U 8.i.a.x.x.x.x.x.x.x.x.x.x.u.u.>.>.L L d 1.-X0X7X:X>XeXm O   ; , X > ~ Z q.-.c R -XuX2X,X,X<Xh.L z @.5.o.T.W.(.hXDXDX",
"% 6 R.bXnXnXmXMXP.o.l x x C ! w G G G U U 7.7.7.8.7.9.9.0.a.a.a.a.0.8.( U U 7.7.D D D D D D D G S S S D D U K L L b R 2.%X9X5X$XpXM.N O . * * = 3 #.5.7.U ) p.=X1X1X1X1X;X#Xk.d.f.u.u.t.>.>.=.=.9.8.U G D D G U D D D D D D D D L L L Y >.>.>.>.r.r.u.u.u.u.x.x.a.0.9.( U U 7.7.U G C V V C G U 8.] r.i.i.p.p.b.p.p.i.r.) Y P P D D D D D D D D G U 7.U C U a.S.*X@X*X0Xh.i   < # @ # 1 _ i.] J J t.-X7X,X-X,X7Xf.f.f.f.f.f.f.f.x.x.x.x.x.x.x.x.x.x.u.u.>.>.L L T 1.$X,X,X>X>XyXm O   ; , X > ~ Z -.-.c R -XuX2X,X,X-Xu.K h j Z C D D D D D D D 0.a.V.V.V.V.a.0.7.7.7.U U G G D D G G U U 7.7.8.f 1.-X0X7X>X>XeXm O   ; , X > ~ Z q.-.c R :XuX2X,X,X-Xu.K h j A a I s.Z.b.i.a.V.G S F F F F F F D P P I ) i.b.D.M.M.s.p.r.) ) U U U U G C C V V 7.7.U U ( 8.0.a.x.x.x.x.x.x.x.x.x.l.u.u.>.>.L L d 1.-X0X7X>X>XeXm O   ; , X > ~ Z q.-.c R :XuX2X,X,X<Xh.=.z @.5.o.T.W.(.hXDXDX",
"% 6 R.bXnXnXmX}...o.l x x A w w G G G U U 7.7.7.8.8.9.9.0.a.a.a.a.0.8.( U U 7.7.D D D D D D D G S S S D D U K L L b R 2.%X9X5X$XpXM.N O . * * = 3 #.5.7.U ) p.=X1X1X1X1X;X#Xk.d.f.u.u.>.>.>.=.=.9.8.U G D D G U D D D D D D D D L L L Y >.>.>.>.r.r.u.u.u.u.x.l.a.0.7.( U U 7.7.U G C V V C G U 8.] r.i.i.p.p.s.p.p.i.r.) Y P P D D D D D D D D G U 7.U C U a.S.*X@X*X0Xh.i X < # @ # 1 _ i.] J J t.-X,X,X-X>X7Xf.f.f.f.f.f.f.f.x.x.x.x.x.x.x.x.x.u.u.u.>.>.L L T 1.$X,X,X>X>XyXm O   ; , X > ~ Z -.-.c E -XuX2X,X,X-Xu.K h j Z C D D D D D D D 9.0.a.V.V.a.0.9.7.7.7.U U G G D D G G U U 7.7.8.f 1.-X0X7X:X>XeXm O   ; , X > ~ Z -.-.c R -XuX2X,X,X-Xu.K h j A a I b.Z.b.i.a.V.G S F F F F F F D P P I ) i.M.D.M.M.s.p.r.] ) Y U U G G C C V V 7.7.U U ( 8.0.a.x.x.x.x.x.x.x.x.x.l.u.r.>.E L L d 1.-X0X7X:X>XeXm O   ; , X > ~ Z -.-.c R -XuX2X,X,X<Xx.=.z @.5.o.T.W.(.kXjXDX",
"% 6 R.bXnXnXmXMX..o.l x x A w w G G G U U 7.7.7.8.8.9.9.0.a.a.a.a.0.8.( U U 7.7.D D D D D D D G S S S D D U K L L b R 2.%X9X5X$XpXM.N O . * * = 3 #.5.7.U Y p.-X1X1X1X1X;X#Xk.d.f.u.u.>.>.>.=.=.9.8.U G D D G U D D D D D D D D L L L >.>.>.>.>.>.r.u.u.u.u.x.l.a.0.7.( U U 7.7.U G C V V C G U 8.] r.i.i.p.p.s.p.p.i.r.) Y P P P D D D D D D D G U 7.U C U V.S.*X@X*X0Xh.i X < # @ # 1 _ i.] J J t.-X,X,X-X>X7Xf.f.f.f.f.f.f.f.x.x.x.x.x.x.x.x.x.h.u.u.>.>.L L T 1.$X,X,X>X>XyXm O   ; , X > ~ Z -.-.c E :XuX2X,X,X-Xu.K h j Z C G D D G D D D 9.9.a.a.a.a.9.9.7.7.7.U U G G D D G G U U 7.7.8.f 1.-X0X7X:X>XeXm O   ; , X > ~ Z -.-.c R -XuX2X,X,X-Xu.K h j z a I s.Z.b.i.a.V.C Z F F F F F F D P P I ) p.M.D.M.M.s.p.r.] ) U U U G G C C V V 7.7.U U ( 8.0.a.x.x.x.x.x.x.x.x.x.l.u.r.>.E L L d 1.-X0X7X:X>XeXm O   ; , X > ~ Z -.-.c R -XuX2X,X,X<Xh.=.z @.5.o.T.W.(.kXjXDX",
"% 6 R.bXnXnXmX}...o.l x x Z w w G G G U U 7.7.7.8.8.9.9.0.a.a.a.a.0.8.( U U 7.7.D D D D D D D G S S V C G U K L L b R 2.%X9X5X$XpXM.N O . * * = 3 #.5.7.U Y p.-X1X1X1X1X;X#Xk.d.f.u.u.r.>.>.=.=.9.8.U G D D G U D D D D D D D D L L L Y >.>.>.>.>.r.u.u.u.h.x.x.a.0.8.( U U 7.7.U G C V V C G U ) ] r.i.i.p.p.s.p.p.i.r.) Y P P D D D D D D D D G U 7.U D U a.S.*X@X*X0XM.i   < # @ # 1 _ i.] J J t.-X,X,X-X,X7Xf.f.f.f.f.f.f.f.x.x.x.x.x.x.x.x.x.u.u.u.>.E L L T 1.-X,X>X>X>XyXm O   ; , X > ~ Z -.-.c R -XuX2X,X,X-Xu.c h j l C D D D D D D D 7.9.0.a.a.0.9.7.7.7.7.U U G G D D G G U U 7.7.8.f 1.-X0X7X:X>XeXm O   ; , X > ~ Z -.-.c R -XuX2X,X,X-Xu.c h j z a I s.Z.b.i.a.V.G G S F F F F F D P P I ) p.M.D.M.b.p.i.i.] ) Y U U G G C C V V 7.7.U U ( 8.0.a.x.x.x.x.x.x.x.x.x.x.u.u.>.>.L L d 1.-X0X7X:X>XeXm O   ; , X > ~ Z -.-.c R -XuX2X,X,X<Xh.=.z @.5.o.P.W.(.kXjXDX",
"% 6 R.bXnXnXmX}...o.l x x Z w w G G G U U 7.7.7.8.8.9.9.0.a.a.a.a.0.8.( U U 7.7.D D D D D D D G S S V D G U K L L b R 2.%X9X5X$XpXM.N O . * * = 3 #.5.7.U Y p.-X1X1X1X1X;X#Xk.d.f.u.u.r.>.>.=.=.9.8.U G D D G U D D D D D D D D L L L Y >.>.>.>.>.r.u.u.u.u.x.l.a.0.8.( U U 7.7.U G C V V C G U 8.] r.i.i.p.p.s.p.p.i.r.) Y P P D D D D D D D D G U 7.U C U a.S.*X@X*X0Xh.i   < # @ # 1 _ i.] J J t.-X,X,X-X,X7Xf.f.f.f.f.f.f.f.x.x.x.x.x.x.x.x.x.u.u.u.>.E L L T 1.-X,X,X>X>XyXm O   ; , X > ~ Z -.-.c R -XuX2X,X,X-Xu.c h j l C D D D D D D D 7.8.9.0.0.9.8.7.7.7.7.U U G G D D G G U U 7.7.8.f 1.-X0X7X:X>XeXm O   ; , X > ~ Z -.-.c R -XuX2X,X,X-Xu.c h j z a I s.Z.b.i.a.V.G G S F F F F F D P P I ) p.M.D.M.M.s.i.r.] ) Y U U G G C C V V 7.7.U U ( 8.0.a.x.x.x.x.x.x.x.x.x.h.u.t.>.>.L L d 1.-X0X7X:X>XeXm O   ; , X > ~ Z -.-.c R -XuX2X,X,X<Xh.=.z @.5.o.T.W.(.kXjXDX",
"% 6 R.bXnXnXmX}.P.o.l x x Z ! w G G G U U 7.7.7.7.7.9.9.0.a.a.a.a.0.8.( U U 7.7.D D D D D D D G S S S D G U K L L b R 2.%X9X5X$XpXM.N O . * * = 3 #.5.7.U Y p.A.1X1X1X1X;X#Xk.d.f.u.u.r.>.>.=.=.9.8.U G D D G U D D D D D D D D L L L Y >.>.>.>.>.u.u.u.u.u.x.l.a.0.8.( U U 7.7.U G C V V C G U ) ] r.i.i.p.p.s.p.p.i.r.) Y P P D D D D D D D D G U 7.U C U a.S.*X@X*X0XM.i   < # @ # 1 _ i.] J J t.-X,X,X-X,X7Xf.f.f.f.f.f.f.f.x.x.x.x.x.x.x.x.x.x.u.u.>.E L L T 1.-X,X>X>X>XyXm O   ; , X > ~ Z -.-.c R -XuX2X,X,X-Xu.K h j l C D D D D D D D U 7.9.0.0.9.7.U 7.7.7.U U G G D D G G U U ( 7.8.f 1.-X0X7X:X>XeXm O   ; , X > ~ Z -.-.c R -XuX2X1X,X-Xu.K h j A a I s.Z.b.i.a.V.G G S F F F F F D P P I ) p.M.D.M.M.p.i.i.] ) Y U U G G C C V V 7.7.U U ( 8.0.a.x.x.x.x.x.x.x.x.x.x.u.u.>.>.L L d 1.-X0X7X:X>XeXm O   ; , X > ~ Z -.-.c R -XuX2X,X,X<Xh.L z @.5.o.P.W.(.hXDXDX",
"% 6 R.bXnXnXmX}.P.o.z x x C ! w S G G G U 7.7.7.7.7.9.9.0.a.a.a.a.0.8.( U U 7.7.D D D D D D D G S S S D G U K K L b R 2.%X9X5X$XpXM.N O . * * = 3 #.5.7.U Y p.A.1X1X1X1X;X#Xk.d.f.u.u.r.>.>.=.=.9.8.U G D D G U D D D D D D D D L L L Y >.>.>.>.>.u.u.u.u.u.x.l.a.0.8.( U U 7.7.U G C V V C G U ) ] r.i.i.p.p.s.p.p.i.r.) Y P P D D D D D D D D G U 7.U C U a.S.*X@X*X0XM.i   < # @ # 1 _ i.] J J ,.-X,X,X-X,X7Xf.f.f.f.f.f.f.f.x.x.x.x.x.x.x.x.x.x.u.u.>.>.L L T 1.-X,X,X>X>XyXm O   ; , X > ~ Z -.-.c R -XuX2X,X,X-Xu.K h j Z C D D D D D D D U 7.9.9.9.9.7.U 7.7.7.U U G G D D G G U U ( 7.8.f 1.-X0X7X:X>XeXm O   ; , X > ~ Z -.-.c R -XuX2X1X,X-Xu.K h j A a I s.Z.b.i.a.V.G G S F F F F F D P P I ) p.M.D.M.M.p.p.r.) ) Y U U G G C C V V 7.7.U U ( 8.0.a.x.x.x.x.x.x.x.x.x.x.u.u.>.>.L L d 1.-X0X7X:X>XeXm O   ; , X > ~ Z -.-.c R -XuX2X1X,X<Xh.=.z @.5.o.P.W.(.jXDXDX",
"& X.R.bXnXnXmX}...o.l x z C ! w G D D D D D D D U U ( 7.9.9.9.0.7.7.7.7.7.7.7.7.D G D D D D D G S S S D G U K L L b R 2.%X9X5X$XpXM.N O . * * = 3 #.5.7.U Y p.-X1X1X1X1X;X#Xk.d.f.u.u.u.u.u.u.y.a.0.8.( U U 7.7.D D D D D D D D =.=.L Y >.u.x.x.x.x.x.x.x.x.x.l.C.a.9.7.U G U U C C V V V G U 7.8.] r.i.i.p.p.s.p.p.i.r.) Y P P D D D D D D D D G U 7.U D U a.S.*X@X*X0XM.i X < # @ # 1 _ i.] J J t.-X,X,X-X,X7Xj.j.j.j.j.j.j.h.u.u.u.u.u.u.u.u.u.u.>.>.L L K c d 1.-X0X7X:X>XeXm O   , , X > ~ Z q.-.c R -XuX2X1X,X-Xu.K h j Z C D D D D D D D 7.7.8.8.7.7.7.7.D D D D D D D D D G G U U ( 7.=.f 1.-X0X7X:X>XeXm O   ; , X > ~ Z -.-.c R -XuX2X,X,X-Xu.K h j A a I s.Z.b.i.a.V.G G S F F F F F D P P P ) p.M.D.Z.M.p.i.r.] ) Y U U U G C C V V U 7.9.7.G U 9.C.u.u.u.u.u.u.u.u.x.x.u.u.>.>.L L d 1.-X0X7X:X>XeXm O   ; , X > ~ Z -.-.c R -XuX2X,X,X:Xh.L z @.5.o.T.W.(.hXDXDX",
"& X.R.bXnXnXmX}.P.o.l x k C ! w G D D D D D D D U U U 7.8.9.9.9.7.7.7.7.7.7.7.7.D D D D D D D G S S S D G U K L L b R 2.%X9X5X$XpXM.N O . * * = 3 #.5.7.U Y p.-X1X1X1X1X;X#Xk.d.f.u.u.u.u.u.y.z.a.0.8.( U U 7.7.D D D D D D D D =.>.L Y >.u.x.x.x.x.x.x.x.x.x.l.C.a.9.7.U G U U C C V V C G U 8.8.] r.i.i.p.p.s.p.p.i.r.) Y P P D D D D D D D D G U 7.U C U a.S.*X@X*X0Xh.i X < # @ # 1 _ i.] J J t.-X,X,X-X,X7Xj.j.j.j.j.j.j.h.u.u.u.u.u.u.u.u.u.u.>.>.L L K c d 1.-X0X7X:X>XeXm O   , , X > ~ Z q.-.c R :XuX2X1X,X-Xu.K h j Z C D D D D D D D 7.7.8.8.7.7.7.7.D D D D D D D D D G G U U 7.7.8.f 1.-X0X7X:X>XeXm O   ; , X > ~ Z -.-.c R -XuX2X,X,X-Xu.K h j A a I s.Z.b.i.a.V.G G S F F F F F D P P I ) p.M.D.M.M.p.i.r.] ) Y U U U G C C V V U 7.9.7.G U 9.C.u.u.u.u.u.u.u.u.x.x.u.u.>.>.L L d 1.-X0X7X:X>XeXm O   ; , X > ~ Z -.-.c R -XuX2X,X,X:Xh.L z @.5.o.P.W.(.hXDXDX",
"& X.R.bXnXnXmX}...o.z x k C ! w G D D D D D D D G U U ( 7.8.9.9.7.7.7.7.7.7.7.7.D D D D D D D G S S S D D U K L L b R 2.%X9X5X$XpXM.N O . * * = 3 #.5.7.U Y p.-X1X1X1X1X;X#Xk.d.f.f.u.u.u.u.y.z.a.0.8.( U U 7.7.D D D D D D D D =.=.L Y >.u.x.x.x.x.x.x.x.x.x.l.C.a.9.7.U G U U C C V V C G U 8.8.] r.i.i.p.p.s.p.p.i.r.) Y P P D D D D D D D D G U 7.U D U a.S.*X@X*X0Xh.i   < # @ # 1 _ i.] J J t.-X,X,X-X>X7Xj.j.j.j.j.j.j.h.u.u.u.u.u.u.u.u.u.u.r.>.L L K c d 1.-X0X7X:X>XeXm O   ; , X > ~ Z -.-.c R -XuX2X1X,X-Xu.K h j Z C D D D G D D D 7.7.7.7.7.7.7.7.D D D D D D D D D G G U U 7.7.8.f 1.-X0X7X:X>XeXm O   ; , X > ~ Z -.-.c R -XuX2X,X,X-Xu.K h j A a I s.Z.b.i.a.V.G G S F F F F F D P P I ) p.M.D.M.b.p.i.i.] ) Y U U G G C C V V U 7.9.7.G U 9.C.u.u.u.u.u.u.u.u.x.x.u.u.>.>.L L d 1.-X0X7X:X>XeXm O   ; , X > ~ Z -.-.c R -XuX2X1X,X<Xh.L z @.5.o.T.W.(.jXDXDX",
"& X.R.bXnXnXmX}.P.o.z x k C ! w G D D D D D D D G G G U ( 7.7.8.U U U U U U U U D D D D D D D G S S S D D U K L R b R 2.%X9X5X$XpXM.N O . * * = 3 #.5.7.U Y p.=X1X1X1X1X;X#Xk.d.f.f.u.u.u.u.y.z.a.0.8.( U U 7.7.D D D D D D D D =.>.L Y >.u.x.x.x.x.x.x.x.x.x.l.C.a.9.7.U G U U C C V V C G U 8.8.] r.i.i.p.p.s.p.p.i.r.) Y P P P D D D D D D D G U 7.U C U a.S.*X@X*X0Xh.i X < # @ # 1 _ i.] J J t.-X,X,X-X,X7Xj.j.j.j.j.j.j.h.u.u.u.u.u.u.u.u.u.u.r.>.L L K c d 1.-X0X7X:X>XeXm O   ; , X > ~ Z -.-.c R -XuX2X1X,X-Xu.K h j Z C G D D G G D D U ( U U U U U U D D D D D D D D D G G U U 7.7.8.f 1.-X0X7X:X>XeXm O   ; , X > ~ Z -.-.c R -XuX2X,X,X-Xu.K h j A a I s.Z.b.i.a.V.G G S F F F F F D P P I ) p.M.D.M.b.p.i.i.] ) Y U U G G C C V V U 7.9.7.G U 9.C.u.u.u.u.u.u.u.u.x.x.u.u.>.>.L L d 1.-X0X7X:X>XeXm O   ; , X > ~ Z -.-.c R -XuX2X,X,X<Xh.L z @.5.o.T.W.(.jXjXDX",
"& ..R.bXnXnXmX}...o.z n z Z ! w G D D D D D D D C C G G U U 7.7.U U U U U U U U D D D D D D D G S S S D G U K L L b R 2.%X9X5X$XpXM.N O . * * = 3 #.5.7.U ) p.=X1X1X1X1X;X#Xk.d.f.f.u.u.u.u.y.y.a.0.8.( U U 7.7.D D D D D D D D =.E L >.>.u.x.x.x.x.x.x.x.x.x.l.C.a.9.7.U G U U C C V V C G U 8.8.] r.i.i.p.p.s.p.p.i.r.) Y P P D D D D D D D D G U 7.U C U a.S.*X@X*X0Xh.i   < # @ # 1 _ i.] J J t.-X,X,X-X,X7Xj.j.j.j.j.j.j.h.u.u.u.u.u.u.u.u.u.u.r.>.L L K c d 1.-X0X7X:X>XeXm O   ; , X > ~ Z -.-.c R -XuX2X,X,X-Xu.c h j l C D D D D D D D U U U U U U U U D D D D D D D D D G G U U 7.7.8.f 1.-X0X7X:X>XeXm O   ; , X > ~ Z -.-.c E -XuX2X1X,X-Xu.K h j A a I s.Z.b.i.a.V.G G Z F F 4 F F D P P I ) i.M.D.M.M.s.p.i.) ) U U U G G C C V V U 7.9.7.G U 9.C.u.u.u.u.u.u.u.u.x.l.u.u.>.E L L d 1.-X0X7X:X>XeXm O   ; , X > ~ Z -.-.c E -XuX2X,X,X<Xh.L z @.5.o.T.W.(.hXDXDX",
"& ..R.bXnXnXmX}...o.z x z Z w w G D D D D D D D C C C G G U U U G G G G G G G G D D D D D D D G S S S D G U K L L b R 2.%X9X5X$XpXM.N O . * * = 3 #.5.7.U Y p.=X1X1X1X1X;X#Xk.d.f.f.u.u.u.u.y.y.a.0.8.( U U 7.7.D D D D D D D D =.E L >.>.u.x.x.x.x.x.x.x.x.x.l.C.a.9.7.U G U U C C V V C G U 8.) ] r.i.i.p.p.s.p.p.i.r.) Y P P D D D D D D D D G U 7.U D U a.S.*X@X*X0Xh.i   < # @ # 1 _ i.] J J t.-X,X,X-X,X7Xj.j.j.j.j.j.j.h.u.u.u.u.u.u.u.u.u.u.r.>.L L K c d 1.-X0X7X:X>XeXm O   ; , X > ~ Z -.-.c R -XuX2X,X,X-Xu.c h j l C D D D D D D D G G G G G G G G D D D D D D D D D G G U U 7.7.8.f 1.-X0X7X>X>XeXm O   ; , X > ~ Z -.-.c E :XuX2X1X,X-Xu.K h j A a I s.Z.b.i.a.V.G G Z F F 4 F F D P P I ) i.M.D.M.M.s.p.r.) ) U U U G G C C V V U 7.9.7.G U 9.C.u.u.u.u.u.u.u.u.x.l.u.t.>.>.L L d 1.-X0X7X>X>XeXm O   ; , X > ~ Z -.-.c E :XuX2X,X,X<Xh.L z @.5.o.P.W.(.hXDXDX",
"& ..R.bXmXnXmX}...o.l x z Z ! w G D D D D D D D V C C C G G U U D D D D D D D D D D D D D D D G S S S C G U K L L b R 2.%X9X5X$XpXM.N O . * * = 3 #.5.7.U Y p.-X1X1X1X1X;X#Xk.d.f.f.u.u.u.u.y.y.a.0.8.( U U 7.7.D D D D D D D D =.Y L Y >.u.x.x.x.x.x.x.x.x.x.l.C.a.9.7.U G U U C C V V C G U 8.8.] r.i.i.p.p.s.p.p.i.r.) Y P P D D D D D D D D G ( 7.U D U a.S.*X@X*X0Xh.i X < # @ # 1 _ i.] J J t.-X7X>X-X,X7Xj.j.j.j.j.j.j.h.u.u.u.u.u.u.u.u.u.u.,.>.L L K c d 1.-X0X7X:X>XeXm O   ; , X > ~ Z -.-.c R -XuX2X,X,X-Xu.K h j l C D D D D D D D D D D D D D D D D D D D D D D D D G G U U 7.7.8.f 1.-X0X7X>X>XeXm O   ; , X > ~ Z -.-.c R -XuX2X,X,X-Xu.K h j A a I b.Z.b.i.a.V.G G F F F F F F D P P I ) i.b.D.M.M.s.p.r.] ) U U U G G C C V V U 7.9.7.G U 9.C.u.u.u.u.u.u.u.u.x.x.u.u.>.=.L L d 1.-X0X7X>X>XeXm O   ; , X > ~ Z -.-.c R -XuX2X,X,X<Xh.L z @.5.o.P.W.(.hXjXDX",
"& X.R.bXnXnXmX`...o.l x x C ! ^ G D D D D D D D V V C C D G U U C C C D C C C C D D D D D D D G S S V C G U K L L b R 2.%X9X5X$XpXM.N O . * * = 3 #.5.7.U Y p.-X1X1X1X1X-Xj.k.d.f.f.f.u.u.u.u.u.a.y.8.U U U ( =.D D D D D D D H >.E R E >.u.x.x.x.x.x.x.x.x.x.x.C.a.9.7.U G U U C C V V C G U 8.8.r.r.i.i.p.p.s.p.p.i.r.) Y P H D D D D D D D D G ( 7.U D U a.S.*X@X*X0Xh.i X < # @ # 1 _ i.] J J t.-X7X>X-X>X7Xj.j.j.j.j.j.j.h.u.u.u.u.u.u.u.u.u.u.t.>.L L K v d 1.-X0X7X:X>XeXm O   ; , X > ~ Z -.-.c R -XuX2X,X,X-Xu.K h j Z C D D D D D D D C C C C C C C C D D D D D D D D D G G U U 7.7.8.f 1.-X0X7X>X>XeXm O   ; , X > ~ Z -.-.c R :XuX2X,X,X-Xu.K h j z a I s.Z.b.i.a.V.G G S F F F F F D H P I ) i.b.D.M.M.s.p.r.] Y Y U U G G C C V V U 7.9.7.G U 9.C.u.u.u.u.u.u.u.u.x.u.u.t.>.>.L L d 1.-X0X7X>X>XeXm O   ; , X > ~ A -.-.c R <XuX2X1X1X<Xh.L z @.5.w T.W.(.kXjXDX",
"5 O.[.NXnXnXnX`.L.X.4 x x D G ! G D D D D D D D D D D D D D D D D D D D D D D D D D D D D D D G S S S D D U K K L b R 2.%X9X5X$XpXM.N O . * * = 3 #.5.7.U ) p.A.:X<X<X<X-Xj.k.t.f.f.f.f.f.f.f.u.r.r.r.r.r.r.r.r.c k a a k c L Y J J R ,.d.f.j.c.f.f.f.f.f.f.f.u.Z.V.9.U D G U 7.C C V V C G U 8.=.E E E E >.E >.u.u.r.>.Y L K H D D D D D D D D G U 7.U C U a.S.*X@X*X0Xh.i X < # @ # 1 _ i.] J J t.-X,X,X-X,X7Xj.j.j.j.j.j.j.h.x.x.x.u.u.u.r.>.u.u.r.>.L L v v d 1.-X0X7X:X>XeXm O   ; , X > ~ Z -.-.c R -XuX2X,X,X-Xu.K h j Z C D D D D D D D D D D D D D D D D D D D D D D D D G G U U 7.7.8.f 1.-X0X7X:X>XeXm O   ; , X > ~ Z -.-.c R -XuX2X,X,X-Xu.c h j z a I s.Z.b.i.a.V.G G S F F 3 F Z C v K K E u.h.Z.x.x.u.u.r.>.Y Y 8.U G C V V C C C U ( U C C 7.a.u.u.u.u.u.u.u.u.x.x.u.u.>.>.L L d 1.-X0X7X:X>XeXm O   ; , X > ~ C -.>.c R ;XfX3X4X;X;Xj.E K &.q.w..XQ.(.jXCXSX",
"5 O.[.NXnXnXnX`...X.4 x c H / ! G D D D D D D D D D D D D D D D D D D D D D D D D D D D D D D G S S S D G U K L L b R 2.%X9X5X$XpXM.N O . * * = 3 #.5.7.U ) p.A.:X:X,X:X-Xj.f.d.f.f.f.f.f.f.f.f.t.r.r.r.r.r.r.r.c c c g c c L E T R W ,.d.f.j.c.f.f.f.f.f.f.f.u.Z.V.9.G C D U 7.C C V V C G U =.=.>.>.>.>.>.>.>.u.u.r.>.L L c c D D D D D D D D G U 7.U C U a.S.*X@X*X0Xh.i   < # @ # 1 _ i.] J J t.-X,X,X-X,X7Xj.j.j.j.j.j.j.h.x.x.x.u.u.u.r.>.u.u.r.>.L L v v d 1.-X0X7X>X>XeXm O   ; , X > ~ Z -.-.c R -XuX2X,X,X-Xu.K h j Z C D D D D D D D D D D D D D D D D D D D D D D D D G G U U 7.7.8.f 1.-X0X7X:X>XeXm O   ; , X > ~ Z -.-.c R -XuX2X,X,X-Xu.c h j z a I s.Z.b.i.a.V.G G S F F F F Z k v c K =.u.x.x.x.x.u.u.>.>.L L ( U G C V V C C C U ( U C C 7.a.u.u.u.u.u.u.u.u.x.h.u.u.>.>.L L d 1.-X0X7X:X>XeXm O   ; , X > ~ D -.>.v W 1XfX3X4X1X;Xj.E K =.0.w..XQ.(.jXCXSX",
"5 O.[.NXnXnXnX`.L.X. .x c H / ! G D D D D D D D D D D D D D D D D D D D D D D D D D D D D D D G S S S D D U K L L b R 2.%X9X5X$XpXM.N O . * * = 3 #.5.7.U ) p.A.:X:X>X:X-Xj.f.d.f.f.f.f.f.f.f.f.u.u.u.u.u.u.u.u.c c c c c L L >.R W W t.d.f.j.j.f.f.f.f.f.f.f.f.C.a.7.G C C G U C C V V C G U =.>.>.>.>.>.>.>.>.u.u.r.>.L L c c D D D D D D D D G U 7.U C U a.S.*X@X*X0Xh.i X < # @ # 1 _ i.] J J t.-X,X,X-X,X7Xj.j.j.j.j.j.j.h.x.x.u.u.u.u.r.>.u.u.u.>.L L K c d 1.-X0X7X:X>XeXm O   ; , X > ~ Z -.-.c E -XuX2X,X,X-Xu.K h j Z C D D D D D D D D D D D D D D D D D D D D D D D D G G U U ( 7.8.f 1.-X0X7X>X>XeXm O   , , X > ~ Z -.-.c R -XuX2X,X,X-Xu.K h j A a I s.Z.b.i.a.V.G G S F F 3 F Z C v c K Y u.x.x.x.l.u.u.>.>.L L 8.U G C V V C C C U ( U C C 7.a.u.u.u.u.u.u.u.u.x.u.u.u.>.>.L L d 1.-X0X7X>X>XeXm O   , , X > ~ C -.>.v W 1XfX3X1X1X1Xj.E L =.0.w..XQ.(.jXCXSX",
"5 O.[.NXnXnXnX`.L.X. .x c H / ! G D D D D D D D D D D D D D D D D D D D D D D D D D D D D D D G S S S D D U K L L b R 2.%X9X5X$XpXM.N O . * * = 3 #.5.7.U Y p.A.:X:X,X:X-Xj.f.t.f.f.f.f.f.f.f.f.u.u.u.u.u.u.u.u.L c c c c L >.>.,.,.t.d.f.h.j.j.f.f.f.f.f.f.f.f.C.a.7.C V C G U C C V V C G U 7.r.>.>.>.>.>.>.>.u.u.r.>.L L K c H D D D D D D D G U 7.U C U V.S.*X@X*X0Xh.i X < # @ # 1 _ i.] J J ,.-X,X,X-X,X7Xj.j.j.j.j.j.j.h.x.x.u.u.u.u.r.>.u.u.r.>.L L K c d 1.-X0X7X:X>XeXm O   ; , X > ~ Z -.-.c E :XuX2X,X,X-Xu.c h j Z C G D D G G D D D D D D D D D D D D D D D D D D D G G U U ( 7.8.f 1.-X0X7X:X>XeXm O   , , X > ~ Z -.-.c R -XuX2X1X,X-Xu.K h j A a I s.Z.b.i.a.V.G G S F F F F Z C v c K =.u.x.x.x.x.u.r.>.=.L L ( U G C V V C C C U ( U C C 7.a.u.u.u.u.u.u.u.u.x.h.u.u.>.>.L L d 1.-X0X7X:X>XeXm O   , , X > ~ D -.>.v W 1XfX3X3X3X1X#X,.L -.a.w..XQ.(.jXCXSX",
"5 O.[.NXnXnXnX`...X.4 x c H / / G D D D D D D D D D D D D D D D D D D D D D D D D D D D D D D G S S V C G U K L L b R 2.%X9X5X$XpXM.N O . * * = 3 #.5.7.U Y p.A.:X:X,X:X-Xj.f.d.f.f.f.f.f.f.f.f.u.u.u.u.u.u.u.u.L L c c K L >.>.d.d.d.f.f.h.j.j.f.f.f.f.f.f.f.f.b.0.U C M V C G C C V V C G U =.r.r.r.r.r.r.>.>.u.u.t.>.L L K c D D D D D D D D G U 7.U D U a.S.*X@X*X0Xh.i   < # @ # 1 _ i.] J J t.-X,X,X-X,X7Xj.j.j.j.j.j.j.h.x.x.u.u.u.u.r.>.u.u.r.>.L L K c d 1.-X0X7X:X>XeXm O   ; , X > ~ Z -.-.c R -XuX2X,X,X-Xu.c h j l C D D D D D D D D D D D D D D D D D D D D D D D D G G U U ( 7.=.f 1.-X0X7X:X>XeXm O   ; , X > ~ Z q.-.c R -XuX2X1X,X-Xu.K h j A a I s.Z.b.i.a.V.G G F F F F F Z C c c L Y u.x.x.x.l.u.u.>.>.L K 8.U G C V V C C C U ( U C C 7.a.u.u.u.u.u.u.u.u.x.u.u.r.>.>.L L d 1.-X0X7X:X>XeXm O   ; , X > ~ D >.>.v W 1XfX3X3X3X2X-Xt.=.-.V.w..XQ.(.jXCXSX",
"5 O.[.NXnXnXnX`...X. .x c H / / G D D D D D D D D D D D D D D D D D D D D D D D D D D D D D D G S S V D G U K L L b R 2.%X9X5X$XpXM.N O . * * = 3 #.5.7.U Y p.A.:X:X,X:X-Xj.f.d.f.f.f.f.f.f.f.f.f.x.u.u.u.u.x.x.L L L L L Y >.t.f.f.h.h.j.j.j.j.f.f.f.f.f.f.f.f.a.9.G V p M C D C C V V C G U =.y.u.u.u.u.u.u.u.u.u.t.>.L L K c D D D D D D D D G U 7.U C U a.S.*X@X*X0Xh.i X < # @ # 1 _ i.] J J t.-X,X,X-X>X7Xj.j.j.j.j.j.j.h.x.x.u.u.u.u.r.>.u.u.r.>.L L K c d 1.-X0X7X:X>XeXm O   ; , X > ~ Z -.-.c R -XuX2X,X,X-Xu.c h j l C D D D D D D D D D D D D D D D D D D D D D D D D G G U U 7.7.8.f 1.-X0X7X:X>XeXm O   ; , X > ~ Z q.-.c R -XuX2X,X,X-Xu.K h j A a I s.Z.b.i.a.V.G G Z F F 3 F Z k v c L E u.x.x.x.x.u.u.>.=.L L 8.U G C V V C C C U ( U C C 7.a.u.u.u.u.u.u.u.u.x.l.u.u.>.>.L L d 1.-X0X7X:X>XeXm O   ; , X > ~ D >.>.v W 1XfX3X3XtX2X-Xt.>.y.V.w..XQ.(.jXCXSX",
"5 O.[.NXnXnXnX`...X. .x c H / / G D D D D D D D D D D D D D D D D D D D D D D D D D D D D D D G S S S D G U K K L b R 2.%X9X5X$XpXM.N O . * * = 3 #.5.7.U Y p.A.:X:X,X:X-Xj.f.d.f.f.f.f.f.f.f.f.x.x.x.x.x.x.x.x.Y L L L L >.>.u.j.j.j.j.j.j.j.j.f.f.f.f.f.f.f.f.a.9.G V p p V C C C V V C G U =.u.u.u.u.u.u.u.u.u.u.r.>.L L K c D D D D D D D D G U 7.U C U a.S.*X@X*X0Xh.i   < # @ # 1 _ i.] J J t.-X,X,X-X>X7Xj.j.j.j.j.j.j.h.x.x.x.u.u.u.r.>.u.u.>.>.L L K n d 1.-X0X7X:X>XeXm O   ; , X > ~ Z -.-.c R -XuX2X,X,X-Xu.K h j l C D D D D D D D D D D D D D D D D D D D D D D D D G G U U 7.7.8.f 1.-X0X7X:X>XeXm O   ; , X > ~ Z q.-.c R -XuX2X,X,X-Xu.K h j A a I s.Z.b.i.a.V.G S Z F F 3 F Z k c c L Y t.h.x.x.x.u.u.>.>.L L 8.U G C V V C C C U ( U C C 7.a.u.u.u.u.u.u.u.u.x.x.u.u.>.>.L L d 1.-X0X7X:X>XeXm O   ; , X > ~ D >.>.v W 1XfX3X3XgXtX-Xd.>.y.C.w..XQ.(.jXCXSX",
"5 O.[.NXnXnXnX`...X. .x c H / / G D D D D D D D D D D D D D D D D D D D D D D D D D D D D D D G S S S D G U K K L b R 2.%X9X5X$XpXM.N O . * * = 3 #.5.7.U Y p.A.:X:X,X:X-Xj.f.d.f.f.f.f.f.f.f.f.x.x.x.x.x.x.x.x.>.L L L L >.>.u.c.c.c.j.j.j.j.h.f.f.f.f.f.f.f.f.i.9.G M p p V C C C V V C G U =.u.u.u.u.u.u.u.u.u.u.r.>.L L K c D D D D D D D D G U 7.U C U a.S.*X@X*X0Xh.i   < # @ # 1 _ i.] J J t.-X,X,X-X,X7Xj.j.j.j.j.j.j.h.x.x.l.u.u.u.r.>.u.u.>.>.L L K n d 1.-X0X7X:X>XeXm O   ; , X > ~ Z -.-.c R -XuX2X,X,X-Xu.K h j Z C D D D D D D D D D D D D D D D D D D D D D D D D G G U U 7.7.8.f 1.-X0X7X:X>XeXm O   ; , X > ~ Z -.-.c R -XuX2X1X,X-Xu.K h j A a I s.Z.b.i.a.V.G Z Z F F F F Z k v c L Y u.h.x.x.x.u.u.>.>.L L 8.U G C V V C C C U ( U C C 7.a.u.u.u.u.u.u.u.u.x.x.u.u.>.>.L L d 1.-X0X7X:X>XeXm O   ; , X > ~ D >.>.v W 1XfX3X3XgXtX-Xf.>.y.C.w..XQ.(.jXCXSX",
"5 O.[.NXnXnXnX`...X. .x c H / ! G D D D D D D D D D D D D D D D D D D D D D D D D D D D D D D G ~ ~ ~ U U U K L L b R 2.%X9X5X$XpXM.N O . * * = 3 #.5.7.U Y p.A.:X:X,X:X-Xj.f.d.j.j.j.j.j.j.j.h.x.x.x.x.x.x.x.x.Y Y Y L >.Y Y E j.j.j.j.j.j.j.j.f.f.f.f.f.f.f.f.b.0.7.C V V G U M C G C p V U 0.u.u.u.u.u.u.u.u.u.u.>.>.L L K c D D D D D D D D G U 7.U C U a.S.*X@X*X0Xh.i   < # @ # 1 _ i.] J J t.-X7X,X-X>X7Xj.j.j.j.j.j.j.h.u.u.x.x.x.u.>.>.>.>.>.>.E L L L d 1.-X0X7X:X>XeXm O   ; , X > ~ Z q.-.c R -XuX2X1X,X-Xu.K h j Z C D D D D D D D D D D D D D D D D D D D D D D D D G G U U 7.7.8.f 1.-X0X7X:X>XeXm O   ; , X > ~ Z -.-.c R -XuX2X,X,X-Xu.c h j A a I s.Z.b.i.a.V.G G F F F F F Z k c c L Y u.x.x.x.x.u.u.>.=.L L 8.U G C V V C C C U ( U C C 7.a.u.u.u.u.u.u.u.u.x.x.u.u.>.E L L d 1.-X0X7X:X>XeXm O   ; , X > ~ C -.>.v W 1XfX3X3X1X;X#Xh.r.-.7.w..XQ.(.jXCXSX",
"5 O.[.NXnXnXnX`...X. .x c H / ! G D D D D D D D D D D D D D D D D D D D D D D D D D D D D D D G ~ ~ ~ U U U K L L b R 2.%X9X5X$XpXM.N O . * * = 3 #.5.7.U Y p.A.:X:X,X:X-Xj.f.d.j.j.j.j.j.j.j.h.x.x.x.x.x.x.x.x.>.>.>.>.>.>.>.>.j.j.j.j.j.j.j.j.f.f.f.f.f.f.f.f.b.0.( C V V D U M C G C p V U y.u.u.u.u.u.u.u.u.u.u.>.>.L L K c D D D D D D D D G U 7.U C U a.S.*X@X*X0Xh.i X < # @ # 1 _ i.] J J t.-X7X,X-X,X7Xj.j.j.j.j.j.j.h.u.u.x.x.x.u.>.>.>.>.>.>.Y L L L d 1.-X0X7X:X>XeXm O   ; , X > ~ Z q.-.c R :XuX2X1X,X-Xu.K h j Z C D D D D D D D D D D D D D D D D D D D D D D D D G G U U 7.7.8.f 1.-X0X7X>X>XeXm O   ; , X > ~ Z -.-.c R -XuX2X,X,X-Xu.K h j A a I s.Z.b.i.a.V.G S F F F F F Z k c c L Y u.x.x.x.u.u.r.>.>.L L ( U G C V V C C C U ( U C C 7.a.u.u.u.u.u.u.u.u.x.l.u.u.>.>.L L d 1.-X0X7X>X>XeXm O   ; , X > ~ D -.>.v W 1XfX3X3X1X;X#Xh.r.-.7.w..XQ.(.jXCXSX",
"5 O.[.NXnXnXnX`...X. .x c H / ! G D D D D D D D D D D D D D D D D D D D D D D D D D D D D D D G ~ ~ ~ U U U K L L b R 2.%X9X5X$XpXM.N O . * * = 3 #.5.7.U ) p.A.:X:X,X:X-Xj.f.d.j.j.j.j.j.j.j.h.x.x.x.x.x.x.x.x.u.u.u.u.u.u.u.u.j.j.j.j.j.j.j.j.f.f.f.f.f.f.f.f.b.0.( C V V D U M C G C p V U 0.u.u.u.u.u.u.u.u.u.u.r.>.L L K c D D D D D D D D G U 7.U C U a.S.*X@X*X0Xh.i X < # @ # 1 _ i.] J J t.-X7X,X-X>X7Xj.j.j.j.j.j.j.h.f.x.x.x.x.u.>.>.>.>.>.>.Y L L L d 1.-X0X7X:X>XeXm O   ; , X > ~ Z -.-.c R -XuX2X1X,X-Xu.K h j Z C D D D D D D D D D D D D D D D D D D D D D D D D G G U U 7.7.8.f 1.-X0X7X:X>XeXm O   ; , X > ~ Z -.-.c R -XuX2X,X,X-Xu.c h j A a I b.Z.b.i.a.V.G S Z F F F F Z k v c L Y u.x.x.x.x.u.u.>.>.L L 8.U G C V V C C C U ( U C C 7.a.u.u.u.u.u.u.u.u.x.l.u.u.>.E L L d 1.-X0X7X:X>XeXm O   ; , X > ~ C -.>.v W 1XfX3X3X1X;X#Xh.r.-.7.w..XQ.(.jXCXSX",
"5 O.[.NXnXnXnX`...X. .x c H / ! G D D D D D D D D D D D D D D D D D D D D D D D D D D D D D D G ~ ~ ~ U U U K L R b R 2.%X9X5X$XpXM.N O . * * = 3 #.5.7.U ) p.A.:X:X,X:X-Xj.f.d.j.j.j.j.j.j.j.h.x.x.x.x.x.x.x.x.x.x.x.x.x.x.x.x.j.j.j.j.j.j.j.j.f.f.f.f.f.f.f.f.b.0.( C V V D U M C G C p V U 0.u.u.u.u.u.u.u.u.u.u.r.>.L L K c D D D D D D D D G U 7.U C U a.S.*X@X*X0Xh.i X < # @ # 1 _ i.] J J t.-X,X,X-X>X7Xj.j.j.j.j.j.j.h.f.x.x.x.x.u.>.>.>.>.>.>.R L L L d 1.-X0X7X:X>XeXm O   ; , X > ~ Z -.-.c R -XuX2X1X,X-Xu.K h j Z C G D D G G D D D D D D D D D D D D D D D D D D D G G U U 7.7.8.f 1.-X0X7X:X>XeXm O   ; , X > ~ Z -.-.c R -XuX2X,X,X-Xu.c h j A a I s.Z.b.i.a.V.C Z Z F F F F Z k v c L >.u.x.x.x.x.u.u.>.>.L K ( U G C V V C C C U ( U C C 7.a.u.u.u.u.u.u.u.u.x.l.u.r.>.E L L d 1.-X0X7X:X>XeXm O   ; , X > ~ C >.>.v W 1XfX3X3X1X;X#Xh.r.-.7.w..XQ.(.jXCXSX",
"5 O.[.NXnXnXnX`...X.4 x c H / / G D D D D D D D D D D D D D D D D D D D D D D D D D D D G G G G ~ ~ ~ U U U U L L b R 2.%X9X5X$XpXM.N O . * * = 3 #.5.7.U ) p.A.:X:X,X:X-Xj.f.t.j.j.j.j.j.j.j.h.x.x.x.x.x.x.x.x.x.x.x.x.x.x.x.x.j.j.j.j.j.j.j.j.f.f.f.f.f.f.f.f.b.0.( C V V D U M C G C M V U 0.u.u.u.u.u.u.u.u.u.u.r.>.L L K c D D D D D D D D G U 7.U C U a.S.*X@X*X0Xh.i   < # @ # 1 _ i.] J J ,.-X,X,X-X,X7Xj.j.j.j.j.j.j.h.u.u.x.x.x.u.>.>.>.>.>.>.Y L L L d 1.-X0X7X:X>XeXm O   ; , X > ~ Z -.-.c R -XuX2X,X,X-Xu.c h j l C D D D D D D D D D D D D D D D D D D D D D D D D G G U U 7.7.8.f 1.-X0X7X:X>XeXm O   ; , X > ~ Z -.-.c R -XuX2X,X,X-Xu.K h j A a I s.Z.b.i.a.V.G G S F F F F Z k v c L Y u.x.x.x.x.u.r.>.>.L L 8.U G C V V C C C U ( U C C 7.a.u.u.u.u.u.u.u.u.x.x.u.u.>.>.L L d 1.-X0X7X:X>XeXm O   ; , X > ~ D >.>.v W 1XfX3X3X1X;X#Xh.r.-.7.w..XQ.(.jXCXSX",
"5 O.[.NXnXnXnX`...X. .x c H / / G D D D D D D D D D D D D D D D D D D D D D D D D D D D G D G G ~ ~ G U U U U L L b R 2.%X9X5X$XpXM.N O . * * = 3 #.5.7.U ) p.A.:X:X,X:X-Xj.f.t.j.j.j.j.j.j.j.h.x.x.x.x.x.x.x.x.x.x.x.x.x.x.x.x.j.j.j.j.j.j.j.j.f.f.f.f.f.f.f.f.b.0.( C V V D U M C G C M V U 0.u.u.u.u.u.u.u.u.u.u.t.>.L L K c D D D D D D D D G U 7.U C U a.S.*X@X*X0Xh.i   < # @ # 1 _ i.] J J t.-X,X,X-X,X7Xj.j.j.j.j.j.j.h.u.u.x.x.x.u.>.>.>.>.>.>.Y L L L d 1.-X0X7X>X>XeXm O   ; , X > ~ Z -.-.c R -XuX2X,X,X-Xu.c h j l C D D D D D D D D D D D D D D D D D D D D D D D D G G U U 7.7.8.f 1.-X0X7X:X>XeXm O   ; , X > ~ Z q.-.c R -XuX2X,X,X-Xu.K h j A a I s.Z.b.i.a.V.G G S F F F F Z C v c L Y u.x.x.x.x.u.u.>.>.L L 8.U G C V V C C C U ( U C C 7.a.u.u.u.u.u.u.u.u.x.h.u.r.>.>.L L d 1.-X0X7X:X>XeXm O   ; , X > ~ D >.>.v W 1XfX3X3X1X;X#Xh.r.-.7.w..XQ.(.jXCXSX",
"5 O.[.NXnXnXnX`...X. .x c H / / G D D D D D D D D D D D D D D D D D D D D D D D D D D D D D D G ~ ~ ~ U U U U L L b R 2.%X9X5X$XpXM.N O . * * = 3 #.5.7.U ) p.A.:X:X,X:X-Xj.f.t.j.j.j.j.j.j.j.h.x.x.x.x.x.x.x.x.u.u.u.u.u.u.u.u.j.j.j.j.j.j.j.j.f.f.f.f.f.f.f.f.b.0.( C V V D U M C G C M V U 0.u.u.u.u.u.u.u.u.u.u.r.>.L L K c D D D D D D D D G ( 7.U C U a.S.*X@X*X0XM.i   < # @ # 1 _ i.] J J t.-X,X,X-X,X7Xj.j.j.j.j.j.j.h.u.u.x.x.x.u.>.>.>.>.>.>.Y L L L d 1.-X0X7X>X>XeXm O   ; , X > ~ Z -.-.c R -XuX2X,X,X-Xu.K h j l C D D D D D D D D D D D D D D D D D D D D D D D D G G U U 7.7.8.f 1.-X0X7X:X>XeXm O   ; , X > ~ Z q.-.c R -XuX2X1X,X-Xu.K h j A a I s.Z.b.i.a.V.G G S F F F 4 Z C c c L Y u.x.x.x.x.u.u.>.>.L L 8.U G C V V C C C G ( U C C 7.a.u.u.u.u.u.u.u.u.x.x.u.u.>.>.L L d 1.-X0X7X:X>XeXm O   ; , X > ~ D >.>.v W 1XfX3X3X1X;X#Xh.r.-.7.w..XQ.(.jXCXSX",
"& O.].bXnXnXnX`...X.l x c H / / G D D D D D D D D D D D D D D D D D D D D D D D D D D D D D D C G G G U U U K L L b R f.<X9X9X$XpXM.N O . * * = 3 #.5.7.U ) p.A.:X:X,X:X-Xj.f.d.j.j.j.j.j.j.j.j.x.x.x.x.x.x.x.x.u.u.u.u.u.u.u.u.h.h.j.h.j.h.j.h.f.f.f.f.f.f.f.u.b.0.( C V V D U M C G C p V U y.u.u.u.u.u.u.u.u.u.u.r.>.L K K c D D D D D D D D G ( 7.U C U a.S.*X@X*X0XM.i   < # @ # 1 _ i.] J J ,.-X,X,X-X,X7Xj.j.j.j.j.j.j.h.u.u.x.x.h.u.r.>.r.r.r.>.Y L Y L d 1.-X0X7X>X>XeXm O   ; , X > ~ Z -.-.c R -XuX2X,X,X-Xu.K h j Z C D D D D D D D D D D D D D D D D D D D D D D D D G G U U 7.7.8.f 1.-X0X7X:X>XeXm O   ; , X > ~ Z -.-.c R -XuX2X1X,X-Xu.K h j A a I s.Z.b.i.a.V.G G S F F F F F A c c K =.r.l.x.x.h.u.t.>.E L L 8.U G C V V C C C U ( U C C 7.a.u.u.u.u.u.u.u.u.x.x.u.u.>.>.L L d 1.-X0X7X:X>XeXm O   ; , X > ~ C -.>.v W 1XfX3X3X1X;X#Xh.r.-.7.w..XQ.(.jXCXSX",
"& ..'.bXHXnXnXMXU.O.&.b L P / ! D D D D D D D D D D D D D D D D D D D D D D D D D D D D G G G C $.@.@.K K K K L R L R f.<X0X2X-XpXM.N O . * * = 3 #.5.7.U Y p.A.rX7X7X,X-Xj.t.W ,.t.d.d.f.h.j.j.j.h.j.h.j.h.j.h.j.h.j.h.j.h.j.h.x.x.x.x.x.x.x.x.x.x.h.u.u.u.t.r.a.0.7.U C C C C C U ( U C C 7.a.h.j.h.f.f.t.t.>.u.r.>.=.&.K A z D D D D D D D D G U 7.U D U a.S.*X@X*X0Xh.i X < # @ # 1 _ i.] J J t.-X,X,X-X,X7Xj.j.h.f.d.d.t.t.r.p.p.s.p.i.) Y Y Y Y Y I Y I I f 1.-X0X7X:X>XeXm O   , , X > ~ Z -.-.c R -XuX2X,X,X<Xh.L z @.*.7.U G C V V C C D D D D D D D D D D D D D D D D D G G U U 7.7.8.f 1.-X0X7X:X>XeXm O   , , X > ~ Z -.-.c R -XuX2X,X,X-Xu.K h j A a I s.Z.b.i.a.V.G G S F F F F F l z z K =.y.l.x.u.u.f.f.f.f.k.f.i.0.7.G C C C C M C G C p V U 0.r.r.u.u.u.u.x.x.x.x.u.u.>.>.L L d 1.-X0X7X:X>XeXm O   , , X > ~ A -.-.c R :XuX2X2XuXaX:Xu.-.-.V.w..XQ.(.jXCXSX",
"& ..'.cXHXnXmXMXT.6.*.b J P / ! G D D D D D D D D D D D D D D D D D D D D D D D D D D D G G D C A @.@.K K K K L R R E f.<XaX2X-XsXM.N O . * * = 3 #.5.7.U Y p.A.rX7X7X,X-Xj.t.W ,.t.d.d.f.h.j.j.j.j.j.j.j.j.j.j.j.j.j.j.j.j.j.h.x.x.x.x.x.x.x.x.x.x.u.u.u.u.r.r.a.0.7.U C C C C C U ( U C C 7.s.j.j.j.f.d.t.t.>.u.y.y.=.&.@.A z C D D D D D D D G U 7.U C U a.S.*X@X*X0Xh.i X < # @ # 1 _ i.] J J t.-X,X,X-X,X7Xj.j.h.f.d.d.t.t.p.p.p.s.p.i.) Y Y Y Y Y I I I I f 1.-X0X7X:X>XeXm O   , , X > ~ Z -.-.c R -XuX2X,X,X:Xh.L z @.*.7.U G V V V C C D D D D D D D D D D D D D D D D D G G U U 7.7.8.f 1.-X0X7X:X>XeXm O   , , X > ~ Z -.-.c R -XuX2X,X,X-Xu.K h j A a I s.Z.b.i.a.V.G G S F F 3 F F A l z A &.y.l.x.u.f.f.f.k.k.k.f.i.0.7.G C C C C M C G C p V U y.r.r.u.u.u.u.x.x.x.x.u.u.>.>.L L d 1.-X0X7X:X>XeXm O   , , X > ~ Z -.-.c R -XuX2X2XaXaXS.r.-.-.V.w..XQ.(.jXCXSX",
"& ..'.cXHXnXmXMXT.6.*.b J P / ! G D D D D D D D D D D D D D D D D D D D D D D D D D D D D G D C A @.@.K K K K K R R E f.<XaX2X-XsXM.N O . * * = 3 #.5.7.U Y p.A.rX7X,X,X-Xh.t.W ,.t.d.d.f.h.j.j.j.j.j.j.j.j.j.j.j.j.j.j.j.j.j.h.x.x.x.x.x.x.x.x.x.x.u.u.u.u.u.y.a.0.7.G C C C C C U ( U C C 7.s.j.j.j.f.d.t.t.>.u.y.y.=.&.@.A z C D G G D D D D G U 7.U C U a.S.*X@X*X0Xh.i   < # @ # 1 _ i.] J J t.-X,X,X-X>X7Xj.j.f.f.d.d.t.t.p.p.p.s.p.i.) Y Y Y Y Y Y Y I J f 1.-X0X7X:X>XeXm O   ; , X > ~ Z -.-.c R -XuX2X1X,X<Xh.L z @.*.7.U G V V V C C D D D D D D D D D D D D D D D D D G G U U 7.7.8.f 1.-X0X7X:X>XeXm O   ; , X > ~ Z -.-.c R -XuX2X,X,X-Xu.K h j A a I s.Z.b.i.a.V.G G S F F F F F Z l z A &.y.l.x.u.f.f.f.k.k.k.f.i.0.7.G C C C C M C G C p V U 0.r.r.u.u.u.u.x.x.x.x.u.u.>.>.L L d 1.-X0X7X:X>XeXm O   ; , X > ~ Z -.-.c R -XuX2X2XaX7XS.r.=.q.V.XX.XQ.(.jXCXSX",
"& ..'.cXHXnXmXMXT.o.*.b J P / ! G D D D D D D D D D D D D D D D D D D D D D D D D D D D D D D C A @.@.K K K K K R R E f.<XaX2X-XsXM.N O . * * = 3 #.5.7.U Y p.A.rX7X,X>X-Xj.t.W ,.t.d.f.f.h.j.j.j.j.j.j.j.j.j.j.j.j.j.j.j.j.j.h.x.x.x.x.x.x.x.x.x.x.u.u.u.u.r.r.a.0.7.G C C C C C U ( U C C 7.s.j.j.j.f.d.t.t.>.u.y.y.=.&.@.A z C D D D D D D D G U 7.U C U a.S.*X@X*X0Xh.i   < # @ # 1 _ i.] J J t.-X,X,X-X,X7Xj.j.h.f.d.d.t.t.p.p.p.s.p.i.) Y Y Y Y Y Y Y Y J f 1.-X0X7X:X>XeXm O   ; , X > ~ Z -.-.c R -XuX2X1X,X<Xh.L z @.*.7.U G V V V C C D D D D D D D D D D D D D D D D D G G U U 7.7.8.f 1.-X0X7X:X>XeXm O   ; , X > ~ Z -.-.c R -XuX2X,X,X-Xu.K h j A a I s.Z.b.i.a.V.G G S F F F F F Z l z A &.y.l.x.u.f.f.f.k.k.k.f.i.0.7.G C C C C M C G C p V U 0.r.r.u.u.u.u.x.x.x.x.u.u.>.>.L L d 1.-X0X7X:X>XeXm O   ; , X > ~ Z -.-.c R -XuX2X1X2X,Xc.>.*.-.V.w..XQ.(.jXCXSX",
"& ..'.cXHXnXmXNXT.6.&.b J J / ! G D D D D D D D D D D D D D D D D D D D D D D D D D D D D D D C @.@.@.A K K K L Y L E f.<XaX2X-XsXM.N O . * * = 3 #.5.7.U ) p.A.rX7X,X>X-Xj.t.W ,.t.d.d.f.h.j.j.j.j.j.j.j.j.j.j.j.j.j.j.j.j.j.h.x.x.x.x.x.x.x.x.x.x.l.u.u.u.>.>.a.0.7.G C C C C C U ( U C C 7.s.j.j.j.f.d.t.t.>.u.y.y.=.&.@.A z C D G G G D D D G U 7.U C U a.S.*X@X*X0Xh.i   < # @ # 1 _ i.] J J t.-X,X,X-X,X7Xj.j.h.f.d.d.t.t.p.p.p.p.p.i.) Y Y Y Y Y Y Y Y J f 1.-X0X7X:X>XeXm O   ; , X > ~ Z -.-.c E -XuX2X,X,X:Xh.=.z @.*.7.U G C V V C C D D D D D D D D D D D D D D D D D G G U U 7.7.=.f 1.-X0X7X:X>XeXm O   ; , X > ~ Z -.-.c E -XuX2X1X,X-Xu.K h j A a I s.Z.b.i.a.V.G G Z F F 3 4 F A l z A *.y.l.c.u.f.f.f.k.k.k.f.a.0.7.G C C C C M C G C p V U 0.r.>.u.u.u.l.x.x.x.h.u.u.>.>.L L d 1.-X0X7X:X>XeXm O   ; , X > ~ Z -.-.c R -XuX2X1X,X<Xx.>.&.-.V.w..XQ.(.jXCXSX",
"& ..'.cXHXnXmXNXT.6.*.b J J / ! G D D D D D D D D D D D D D D D D D D D D D D D D D D D D D D C @.@.@.K K K K L L L E f.<XaX2X-XsXM.N O . * * = 3 #.5.7.U ) p.A.rX7X,X>X-Xh.t.W ,.t.d.d.f.h.j.j.j.j.j.j.j.j.j.j.j.j.j.j.j.j.j.h.x.x.x.x.x.x.x.x.x.x.l.u.u.u.>.>.a.0.7.G C C C C C U ( G C C 7.s.j.j.j.f.f.t.t.>.u.y.y.=.&.@.A z C D G G G D D D G U 7.U C U a.S.*X@X*X0Xh.i   < # @ # 1 _ i.] J J t.-X,X,X-X,X7Xj.j.h.f.d.d.t.t.p.p.p.p.p.i.) Y Y Y Y Y Y Y Y J f 1.-X0X7X:X>XeXm O   ; , X > ~ Z -.-.c E :XuX2X,X,X<Xh.=.z @.*.7.U G C V V C C D D D D D D D D D D D D D D D D D G G U U 7.7.8.f 1.-X0X7X:X>XeXm O   ; , X > ~ Z -.-.c E :XuX2X1X,X-Xu.K h j A a I s.Z.b.i.a.V.G G S F F F F F l l z A *.y.l.x.u.u.f.f.k.k.k.f.a.0.7.G C C C C M C G C p V U 0.r.>.u.u.u.l.x.x.x.x.u.u.>.E L L f 1.-X0X7X:X>XeXm O   ; , X > ~ Z -.-.c R -XuX2X;X,X-Xx.=.&.*.q.w..XQ.(.jXCXSX",
"& ..'.cXHXnXmXNXT.6.=.b J I / ! G D D D D D D D D D D D D D D D D D D D D D D D D D D D D D D C @.@.@.K K K K L L L E h.,XaX,X-XsXM.N O . * * = 3 #.5.7.U Y p.A.rX7X,X,X-Xj.t.W ,.t.d.d.f.h.j.j.j.j.j.j.j.j.j.j.j.j.j.j.j.j.j.h.x.x.x.x.x.x.x.x.x.x.u.u.u.u.>.>.a.0.7.G C C C C C U ( U C C 7.s.j.j.j.f.f.t.t.r.u.y.y.=.&.@.A z C D D G D D D D G U 7.U D U a.S.*X@X*X0Xh.i X < # @ # 1 _ i.] J J t.-X7X>X-X,X7Xj.j.h.f.d.d.t.t.p.p.p.p.p.i.) ) Y Y Y Y I I Y J f 1.-X0X7X:X>XeXm O   ; , X > ~ Z -.-.c R -XuX2X,X,X:Xh.=.z @.*.7.U G C V V C C D D D D D D D D D D D D D D D D D G G U U 7.7.8.f 1.-X0X7X:X>XeXm O   ; , X > ~ Z -.-.c R -XuX2X,X,X-Xu.K h j A a I s.Z.b.i.a.V.G G F F F F F F V l z A *.y.l.x.u.u.f.f.k.k.k.f.a.0.7.G C C C C M C G C p V U 0.r.>.u.u.u.u.x.x.x.x.u.u.>.>.L L f 1.-X0X7X:X>XeXm O   ; , X > ~ Z -.-.c E :XuX2X;X:X-Xx.=.A *.q.w..XQ.(.jXCXSX",
"& ..'.cXHXnXmXNXT.6.*.b J I / ! G D D D D D D D D D D D D D D D D D D D D D D D D D D D D D D C A @.@.&.K K K L Y L E h.<XaX2X-XsXM.N O . * * = 3 #.5.7.U Y p.A.rX7X,X,X-Xj.t.W ,.t.d.d.f.h.j.j.j.j.j.j.j.j.j.j.j.j.j.j.j.j.j.h.x.x.x.x.x.x.x.x.x.x.u.u.u.u.r.>.a.0.7.G C C C C C U ( U C C 7.s.j.j.j.f.f.t.t.>.u.y.y.=.&.@.A z C D D D D D D D G U 7.U D U a.S.*X@X*X0Xh.i X < # @ # 1 _ i.] J J t.-X7X>X-X>X7Xj.j.h.f.d.d.t.t.p.p.p.p.p.i.) ) I I Y Y Y I I I f 1.-X0X7X:X>XeXm O   ; , X > ~ Z -.-.c R :XuX2X,X,X:Xx.=.z @.*.7.U G C V V C C D D D D D D D D D D D D D D D D D G G U U 7.7.8.f 1.-X0X7X:X>XeXm O   ; , X > ~ Z -.-.c R :XuX2X,X,X-Xu.K h j z a I s.Z.b.i.a.V.G G F F F F F F V l z A *.y.l.x.u.f.f.f.k.k.k.f.a.0.7.G C C C C M C G C p V U 0.r.>.u.u.u.u.x.x.x.x.u.u.>.>.L L f 1.-X0X7X:X>XeXm O   ; , X > ~ Z -.-.c E :XuX2X;X:X-Xh.=.A &.q.w..XQ.(.jXCXSX",
"% | E.cXHXnXmXMXU.6.*.b J P ! ! G D D D D D D D D D D D D D D D D D D D D D D D C C C C C C C C *.*.*.*.*.=.=.=.L L R f.<XaX2X-XsXM.N O . * * = 3 #.5.7.U Y p.A.rX7X7X>X-Xj.d.W ,.t.d.d.f.h.j.j.j.j.j.j.j.j.j.j.j.j.j.j.j.j.j.h.x.x.x.x.x.x.x.x.x.x.u.u.>.>.L K 8.U D C V V C C C U ( U C C 7.s.j.j.j.k.f.t.t.r.>.-.=.&.A z j j C D D D D D D D G U 7.U D U a.S.*X@X*X0Xh.i X < # @ # 1 _ i.] J J t.-X,X,X-X,X7Xj.j.h.f.d.d.t.t.s.b.b.b.p.] Y P P P P I Y ) ) ] f 1.-X0X7X:X>XeXm O   ; , X > ~ Z -.-.c R -XuX2X;X:X-Xh.=.A @.q.7.U D C V V C C D D D D D D D D D D D D D D D D U U U U U U U U f 1.-X0X7X:X>XeXm O   ; , X > ~ Z -.-.c R -XuX2X,X,X-Xu.c h j z a I s.Z.b.i.a.V.G G Z F F F F F l l j k A =.>.u.u.u.f.f.k.k.k.f.b.i.( C V V D U C C V V V G U 7.=.Y L Y >.u.x.x.x.l.u.u.>.>.L L d 1.-X0X7X:X>XeXm O   ; , X > ~ Z -.-.c R -XuX2X,X,X<Xh.L z @.5.^ I.W.(.jXjXDX",
"% | E.cXHXnXmXMXU.6.*.b J P / / G D D D D D D D D D D D D D D D D D D D D D D D D D D G D D D C *.*.*.*.*.=.=.=.L L R f.<XaX2X-XsXM.N O . * * = 3 #.5.7.U Y p.A.rX7X7X>X-Xj.d.W ,.,.d.d.f.h.j.j.j.j.j.j.j.j.j.j.j.j.j.j.j.j.j.h.x.x.x.x.x.x.x.x.x.x.u.u.>.>.L K ( U D V V V C C C U ( G C C 7.s.j.j.j.k.f.t.t.r.>.-.=.&.A z j j C D D D D D D D G U 7.U C U a.S.*X@X*X0Xh.i X < # @ # 1 _ i.] J J t.-X,X,X-X,X7Xj.j.h.f.d.d.t.t.s.b.b.s.p.] Y P P P P I Y ) ) ] f 1.-X0X7X:X>XeXm O   ; , X > ~ Z -.-.c R -XuX2X;X:X-Xh.=.A *.q.7.U G C V V C C D D D D D D D D D D D D D D D D U U U U U U U U f 1.-X0X7X:X>XeXm O   ; , X > ~ Z -.-.c R -XuX2X,X,X-Xu.c h j z a I s.Z.b.i.a.V.G G Z F F F F F V l j k A =.>.u.u.u.f.f.k.k.k.f.b.i.( C V V D U C C V V V G U 7.=.Y L Y >.u.x.x.x.u.u.t.>.>.L L d 1.-X0X7X:X>XeXm O   ; , X > ~ Z -.-.c R -XuX2X,X,X<Xh.L z @.5.^ I.W.(.jXjXDX",
"% | E.VXHXnXmX}.T.e.=.R L Y ~ / G D D D D D D D D D D D D D D D D D D D D D D D G G G G G G G D *.*.*.*.*.=.=.=.R R R f.<XaX2X-XsXM.N O . * * = 3 #.5.7.U Y p.A.rX7X,X,X-Xj.d.W ,.t.d.d.f.h.j.j.j.j.j.j.j.j.j.j.j.j.j.j.j.j.j.h.x.x.x.x.x.x.x.x.x.x.u.u.>.>.L K 8.U G C V V C C C U ( G C C 7.s.j.j.j.f.d.t.t.>.>.-.=.&.A z j j C D D D D D D D G ( 7.U C U a.S.*X@X*X0Xh.i   < # @ # 1 _ i.] J J t.-X,X,X-X,X7Xj.j.h.f.d.d.t.t.p.p.s.p.i.) I P P P P I Y ) ) ] f 1.-X0X7X:X>XeXm O   ; , X > ~ Z -.-.c E -XuX2X;X,X:Xx.=.&.*.-.7.7.G C C C C G D D D D D D D D D D D D D D D D U U U U U U U U f 1.-X0X7X:X>XeXm O   ; , X > ~ Z -.-.c E -XuX2X1X,X-Xu.K h j A a I s.Z.b.i.a.V.G Z Z F F F F F l l l z A =.>.u.u.u.f.f.k.k.k.f.C.0.( C V V D U C C V V C G U =.=.Y L >.>.u.x.x.x.l.u.u.>.>.L L d 1.-X0X7X:X>XeXm O   ; , X > ~ Z -.-.c E -XuX2X,X,X<Xh.L z @.5.^ I.W.(.jXjXDX",
"% | E.VXHXnXmX}.T.e.=.>.R Y ~ ~ G D D D D D D D D D D D D D D D D D D D D D D D U U U U U G U U *.*.*.*.*.=.=.=.R R E f.<XaX2X-XsXM.N O . * * = 3 #.5.7.U Y p.A.rX7X,X,X-Xj.d.W ,.t.d.d.f.h.j.j.j.j.j.j.j.j.j.j.j.j.j.j.j.j.j.h.x.x.x.x.x.x.x.x.x.x.u.u.>.>.L K 8.U G C V V C C C U ( G C C 7.s.j.j.j.f.d.t.t.>.>.-.=.&.A z j j C D D D D D D D G U 7.U C U a.S.*X@X*X0Xh.i   < # @ # 1 _ i.] J J ,.-X,X,X-X,X7Xj.j.h.f.d.d.t.t.p.p.p.p.r.) P H P P P I Y ) ) ] f 1.-X0X7X:X>XeXm O   ; , X > ~ Z -.-.c E :XuX2X1X,X<Xx.>.&.-.z.9.7.U G C C G G D D D D D D D D D D D D D D D D U U U U U U U U f 1.-X0X7X:X>XeXm O   ; , X > ~ Z -.-.c E :XuX2X1X,X-Xu.K h j A a I s.Z.b.i.a.V.G S Z F F F F F l l l z A =.>.u.u.u.f.f.k.k.k.f.C.0.( C V V D U C C V V C G U =.=.E L =.>.u.x.x.x.x.u.u.>.=.L L d 1.-X0X7X:X>XeXm O   ; , X > ~ Z -.-.c E :XuX2X,X,X<Xh.L z @.5.^ I.W.(.jXCXDX",
"% | ^.cXHXnXmX}.T.e.q.>.E Y _ ~ G D D D D D D D D D D D D D D D D D D D D D D D U U U U U U U *.*.*.*.*.*.=.=.=.R R E f.<XaX2X-XsXM.N O . * * = 3 #.5.7.U ) p.A.rX7X,X,X-Xj.t.W ,.t.d.d.f.j.j.j.j.j.j.j.j.j.j.j.j.j.j.j.j.j.j.h.x.x.x.x.x.x.x.x.x.x.u.u.>.>.L L 8.U G C V V C C C U ( U C C 7.s.j.j.j.k.d.t.t.>.>.>.=.&.A z j j C D D D D D D D G U 7.U C U a.S.*X@X*X0Xh.i   < # @ # 1 _ i.] J J t.-X,X,X-X,X7Xj.j.h.f.d.d.t.t.r.i.i.i.r.Y P m P P P I Y ) ) ] f 1.-X0X7X:X>XeXm O   ; , X > ~ Z -.-.c R -XuX2X1X2X,Xc.>.*.-.z.0.9.( G G G U U D D D D D D D D D D D D D D D D U U U U U U U Y f 1.-X0X7X:X>XeXm O   ; , X > ~ Z -.-.c R -XuX2X1X,X-Xu.K h j A a I s.Z.b.i.a.V.G G S F F 3 F F A l l z A =.>.u.u.f.f.f.k.k.k.f.C.0.( C V V D U C C V V C G U =.=.>.L >.>.u.x.x.x.h.u.u.>.>.L L d 1.-X0X7X:X>XeXm O   ; , X > ~ Z -.-.c R -XuX2X,X,X<Xh.L z @.5.^ I.Y.(.jXCXSX",
"% | ^.cXHXnXmX}.Y.e.q.>.,.r.7.7.G D D D D D D D D D D D D D D D D D D D D D D D 7.7.7.7.7.7.7.=.*.*.*.*.*.=.=.=.L R E f.<XaX2X-XsXM.N O . * * = 3 #.5.7.U ) p.A.rX7X,X,X-Xj.t.W ,.t.d.d.f.k.j.j.j.j.j.j.j.j.j.j.j.j.j.j.j.j.j.h.x.x.x.x.x.x.x.x.x.x.u.u.>.>.L L 8.U G C V V C C C U ( U C C 7.s.j.j.j.k.d.t.t.>.>.>.=.&.A z j j C D D D D G D D G U 7.U C U a.S.*X@X*X0Xh.i   < # @ # 1 _ i.] J J t.-X,X,X-X>X7Xj.j.h.f.d.d.t.t.r.i.i.r.) I N m P P P I Y ) ) ] f 1.-X0X7X:X>XeXm O   ; , X > ~ Z -.-.c R -XuX2X2XaX7XS.r.=.-.z.0.9.7.U G U U ( D D D D D D D D D D D D D D D D U U U U U U U U f 1.-X0X7X:X>XeXm O   ; , X > ~ Z -.-.c R -XuX2X,X,X-Xu.K h j A a I s.Z.s.i.a.V.G G S F F 3 F F l l l z A =.>.r.u.f.f.f.k.k.k.f.C.0.( C V V D U C C V V C G U =.=.>.L >.>.u.x.x.x.x.u.u.>.E L L f 1.-X0X7X:X>XeXm O   ; , X > ~ Z -.-.c R -XuX2X,X,X<Xh.L z @.5.^ I.Y.(.jXCXSX",
"% | ^.cXHXnXmX}.!.e.y.<.,.r.9.9.G D D D D D D D D D D D D D D D D D D D D D D G 7.7.7.7.7.7.7.7.*.*.*.*.*.=.=.=.L L E f.<XaX2X-XsXM.N O . * * = 3 #.5.7.U Y p.A.rX7X,X>X-Xj.d.W ,.t.d.d.f.j.j.j.j.j.j.j.j.j.j.j.j.j.j.j.j.j.j.h.x.x.x.x.x.x.x.x.x.l.u.u.>.>.L L 8.U G C V V C C C U ( U C C 7.s.j.j.j.k.d.t.t.>.>.-.=.&.A z j j C D G G D D D D G U 7.U D U a.S.*X@X*X0Xh.i   < # @ # 1 _ i.] J J t.-X,X,X-X>X7Xj.j.h.f.d.d.,.t.] r.r.r.) P N a P P P I Y ) ) ] f 1.-X0X7X:X>XeXm O   ; , X > ~ Z -.-.c R -XuX2X2XaXaXS.r.-.-.z.a.0.8.U U U ( 7.D D D D D D D D D D D D D D D D U U U U U U U U f 1.-X0X7X:X>XeXm O   ; , X > ~ Z -.-.c R -XuX2X,X,X-Xu.K h j A a I s.Z.s.i.a.V.G G F F F F F F Z l l z A =.>.r.u.f.f.f.k.k.k.f.b.0.( C V V D U C C V V C G U =.=.L L E >.u.x.x.x.u.u.u.>.>.L L f 1.-X0X7X:X>XeXm O   ; , X > ~ Z -.-.c R -XuX2X,X,X<Xh.L z @.5.^ I.Y.(.jXCXSX",
"% | E.cXHXnXmX}.!.e.y.<.,.r.8.9.G D D D D D D D D D D D D D D D D D D D D D D D 7.7.7.7.7.7.7.7.*.*.*.=.=.=.=.=.L L E f.,XaX,X-XsXM.N O . * * = 3 #.5.7.U Y p.A.rX,X7X>XA.h.t.>.,.t.t.f.f.h.j.j.j.j.j.j.j.j.j.j.j.j.j.j.j.j.j.j.x.x.x.x.x.x.x.x.x.l.u.r.>.=.L K 8.U G C V V C C C U ( U C C 7.s.N.j.j.k.d.t.t.r.r.-.=.&.A z k k C G G G D D D D G U 7.U D U a.S.*X@X*X0XM.i   < # @ # 1 _ i.] J J t.-X,X,X-X,X7Xj.j.h.f.d.d.t.t.] 8.r.8.( P m a P P P U Y ( ) ] f 1.-X0X7X:X>XeXm O   ; , X > ~ C -.-.c R -XuX2X2XaXaXS.u.-.y.l.a.i.8.( U U ( 8.D D D D D D D D D D D D D D D D U U U U U U U Y f 1.-X0X7X:X>XeXm O   ; , X > ~ Z -.-.c R -XuX2X,X,X-Xu.K h j A a I s.Z.b.i.a.V.G G S F F F F F V l l z A =.r.u.u.f.f.k.k.k.k.g.b.0.( C V V D U C C V V C G U 8.=.Y Y E r.u.h.Z.h.x.u.u.r.>.Y L f 1.-X0X7X:X>XeXm O   ; , X > ~ Z -.-.c R -XuX2X,X,X<Xh.L z @.5.^ I.Y.(.jXCXSX",
"% | E.`.vXnXbX|.I.e.<.2.2.,.) ( 7.7.7.U U G G D D D D D D D D D D D D D D D D D D G G U U 7.7.=.=.=.L L K K c c L L R u.>XyX6XS.sXM.N O . * * = 3 #.5.7.U Y p.A.aX-X-XaXS.=.k @.&.&.=.>.t.f.j.j.j.j.j.j.j.j.j.j.j.j.j.j.j.j.j.j.j.j.j.j.j.x.x.x.x.u.y.-.&.A k j D D D D D D D D C U ( U C C 7.b.M.=X=XN.B.p.] Y 8.8.( U G A Z G G D D D D D D D G U 7.U C U a.S.*X@X*X0Xh.i   < # @ # 1 _ i.] J J t.-X7X,X-X,X7Xj.j.h.f.d.d.t.t.Y ( 8.8.( U D C D G U U U 7.8.) f 1.-X0X7X:X>XeXm O   , , X > _ H ,.,.v W :XaX,X,X,X-X-Xc.h.f.u.p.i.8.( Y Y ) ) U P H m m H P U a M m H P U Y ) ) ) ) Y U P P P f 1.-X0X7X:X>XeXm O   , , X > ~ Z q.-.c R -XuX2X1X,X-Xu.K h j A a I s.Z.b.i.a.V.G G S F F F F F Z A V C G 8.i.p.p.u.p.k.g.B.m.M.a.0.7.G C C C C D D D D D D D D Y Y I Y ) i.p.b.p.p.i.r.) Y P H f 1.-X0X7X:X>XeXm O   , , X > ~ Z q.-.c R -XuX2X2XaX,Xx.L z l #.e T.W.(.kXhXDX",
"% | E.`.vXvXbX|.I.e.<.2.2.,.) ( 8.7.7.U U G G D D D D D D D D D D D D D D D D D D G G U U 7.7.8.=.>.L L L L c c L L L u.6XyX6XS.sXM.N O . * * = 3 #.5.7.U Y p.A.tX-X-XyXF.*.l @.@.@.*.-.t.f.j.j.j.j.j.j.j.j.j.j.j.j.j.j.j.j.j.j.j.j.j.j.j.j.x.x.l.u.y.-.&.A l j C D D D D D D D C U ( U C C 7.b.M.=X=XN.B.p.] Y 8.8.8.U G Z G G G D D D D D D D G U 7.U D U a.S.*X@X*X0Xh.i   < # @ # 1 _ i.] J J t.-X,X,X-X,X7Xj.j.h.f.d.d.t.t.U ( 7.7.7.U C V D G G U U 7.7.8.f 1.-X0X7X:X>XeXm O   , , X > _ J t.,.v R -XiX,X,X,X-X-XA.j.f.f.p.i.] ) Y Y ) ) I P H N N H P I m m N P P I Y Y ] ) ) Y I P P P f 1.-X0X7X:X>XeXm O   , , X > ~ Z q.-.c R :XuX2X,X,X-Xu.K h j A a I s.Z.b.i.a.V.G G S F F F F F Z V V C G 8.i.p.i.p.p.g.B.m.N.M.p.0.7.U C C C D D D D D D D D D Y I I I ) i.s.b.p.p.i.r.) Y P P f 1.-X0X7X:X>XeXm O   , , X > ~ Z q.-.c R :XuX2X2XaX,Xx.L z l #.e P.W.(.kXhXDX",
"% | E.`.vXvXbX|.I.e.<.2.2.,.) ( 8.7.7.U U G G D D D D D D D D D D D D D D D D D D G G U U 7.7.8.>.>.E L L L L K L L L u.6XyX6XS.sXM.N O . * * = 3 #.5.7.U Y p.A.tX-X-XyXF.*.l @.@.@.*.-.t.f.j.j.j.j.j.j.j.j.j.j.j.j.j.j.j.j.j.j.j.j.j.j.j.j.x.x.l.u.y.-.&.A l j C D D D D D D D C U ( U C C 7.p.M.N.=XN.B.p.] Y 8.8.( U G G G G G D D D D D D D G U 7.U D U a.S.*X@X*X0Xh.i X < # @ # 1 _ i.] J J t.-X,X,X-X>X7Xj.j.h.f.d.d.t.t.U ( 7.7.7.U C V D G G U U 7.7.8.f 1.-X0X7X:X>XeXm O   ; , X > _ J ,.,.v R -XiX,X,X,X-X-XA.j.f.f.s.i.] ) Y Y ) ) I P H N N H P I H H P P I Y Y Y ] ) ) Y I P P P f 1.-X0X7X:X>XeXm O   ; , X > ~ Z -.-.c R -XuX2X,X,X-Xu.K h j A a I b.Z.b.i.a.V.G S F F F F 3 F Z V V C G 8.i.p.i.p.p.g.B.m.N.N.b.0.8.U G D D G D D D D D D D D Y I I I ) i.s.M.p.p.i.r.) Y P P f 1.-X0X7X:X>XeXm O   ; , X > ~ Z -.-.c R -XuX2X2XaX,Xx.L z l #.e P.W.(.kXhXDX",
"% | E.`.vXvXbX|.I.e.<.2.2.,.) ( 8.7.7.U U G G D D D D D D D D D D D D D D D D D D G G U U 7.7.8.r.>.>.E L L L L L L L u.6XyX6XS.sXM.N O . * * = 3 #.5.7.U Y p.A.tX-X-XyXF.*.l @.@.@.*.>.t.f.j.j.j.j.j.j.j.j.j.j.j.j.j.j.j.j.j.j.j.j.j.j.j.h.x.x.l.u.y.-.&.A l j C G D D G D D D C U ( U C C 7.p.M.N.=XN.B.p.] Y ) 8.( U G G G G G D D D D D D D G U 7.U D U a.S.*X@X*X0Xh.i X < # @ # 1 _ i.] J J t.-X,X,X-X>X7Xj.j.h.f.d.d.t.t.U ( 7.7.7.U C V D G G U U 7.7.8.f 1.-X0X7X:X>XeXm O   ; , X > _ J ,.,.v W -XiX,X7X,X-X-Xc.j.f.f.s.i.] ) Y Y ) ) I P H N N H P I P I I I I Y Y Y ] ) ) Y I P P P f 1.-X0X7X:X>XeXm O   ; , X > ~ Z -.-.c R -XuX2X,X,X-Xu.K h j z a I s.Z.b.i.a.V.G Z F F F F F F Z V V C G 8.i.p.i.p.p.g.B.m.N.N.b.a.9.( G G G U D D D D D D D D U I I I ) i.s.M.p.p.i.r.) Y P P f 1.-X0X7X:X>XeXm O   ; , X > ~ Z -.-.c R -XuX2X2XaX,Xx.L z l #.e P.W.(.kXhXDX",
"% | E.`.vXvXbX|.I.e.<.2.2.,.) ( 8.7.7.U U G G D D D D D D D D D D D D D D D D D D G G U U 7.7.8.r.>.>.>.>.L L L Y L =.u.6XyX6XS.sXM.N O . * * = 3 #.5.7.U Y p.A.tX-X-XyXF.*.j @.@.@.*.>.t.f.j.#Xj.j.j.j.j.j.j.j.j.j.j.j.j.j.j.j.j.j.j.j.j.j.x.x.l.u.y.-.&.A l j C D D D D D D D C U ( U C C 7.p.M.N.N.N.B.p.] Y ) ( ( U G Z G G G D D D D D D D G U 7.U C U V.S.*X@X*X0XM.i   < # @ # 1 _ i.] J J t.-X,X,X-X,X7Xj.j.h.f.d.d.t.t.U ( 7.8.7.U C V D G G U U 7.7.8.f 1.-X0X7X:X>XeXm O   ; , X > _ J ,.,.v R -XiX,X7X,X-X-XA.j.f.f.s.i.] ) Y Y ) ) I P H N N H P I ) ) ) Y Y Y Y Y ] ] ) Y I P P J f 1.-X0X7X:X>XeXm O   ; , X > ~ Z -.-.c R -XuX2X,X,X-Xu.c h j z a I s.Z.b.i.a.V.G G S F F F F F Z V V C G 8.i.a.i.i.p.g.B.m.N.M.C.V.0.7.U U U U D D D D D D D D U I I I ) i.s.M.p.p.i.r.) Y I J f 1.-X0X7X:X>XeXm O   ; , X > ~ Z -.-.c R -XuX2X2XaX,Xx.L z l #.e T.W.(.kXhXDX",
"% | E.`.vXvXbX|.I.e.<.2.2.,.) ( 8.7.7.U U G G D D D D D D D D D D D D D D D D D D G G U U 7.7.8.y.u.r.>.>.>.Y L Y L Y u.6XyX6XS.sXM.N O . * * = 3 #.5.7.U Y p.A.tX-X-XyXF.*.j @.@.@.*.-.t.f.j.#Xj.j.j.j.j.j.j.j.j.j.j.j.j.j.j.j.j.j.j.j.j.j.x.x.l.u.y.=.&.A l j C D D D D D D D C U ( U C C 7.p.M.N.N.N.B.p.] Y ) ( ( U G Z G G G D D D D D D D G U 7.U C U a.S.*X@X*X0Xh.i   < # @ # 1 _ i.] J J t.-X,X,X-X,X7Xj.j.h.f.f.d.t.t.U ( 7.8.7.U C V D G G U U 7.7.8.f 1.-X0X7X:X>XeXm O   ; , X > _ J ,.,.v R :XiX7X7X,X-X-XA.j.f.f.s.i.] ) Y Y ) ) I P H N N H P I r.r.] ) ) Y Y I ] ] ) Y I P P J f 1.-X0X7X:X>XeXm O   ; , X > ~ Z -.-.c R -XuX2X,X,X-Xu.c h j z a I s.Z.b.i.a.V.G G F F F F F F Z V V C G 8.i.a.i.i.p.g.B.m.N.M.Z.V.0.8.( U U ( D D D D D D D D U I I I ) i.s.M.p.p.p.r.) Y P J f 1.-X0X7X:X>XeXm O   ; , X > ~ Z -.-.c R -XuX2X2XaX,Xx.L k l #.e T.W.(.kXhXDX",
"% | E.`.vXvXbX|.I.e.<.2.2.,.) ( 8.7.7.U U G G D D D D D D D D D D D D D D D D D D G G U U 7.7.8.u.u.u.r.>.>.>.>.L L Y u.6XyX6XS.sXM.N O . * * = 3 #.5.7.U ) p.A.tX-X-XyXF.*.j @.@.@.*.-.t.k.j.#Xj.j.j.j.j.j.j.j.j.j.j.j.j.j.j.j.j.j.j.j.j.j.h.x.l.u.y.-.&.A l j C D D D D D D D C U ( U C C 7.p.M.=X=XN.B.p.] Y ) ( ( U G Z G C G D D D D D D D G ( 7.U C U a.S.*X@X*X0XM.i   < # @ # 1 _ i.] J J t.-X,X,X-X,X7Xj.j.h.f.d.d.t.t.U ( 7.8.7.U C V D G G U U 7.7.8.f 1.-X0X7X:X>XeXm O   ; , X > _ J ,.,.v W :XiX7X,X,X-X-Xc.j.f.f.s.i.] ) Y Y ) ) I P H N N H P I i.i.r.] ) Y I I ] ) ) Y I P P P f 1.-X0X7X:X>XeXm O   ; , X > ~ Z -.-.c R -XuX2X1X,X-Xu.K h j A a I s.Z.b.i.a.V.G G S F F 3 F F Z V V C G 8.i.a.i.i.p.g.B.m.N.M.D.C.a.9.7.( 7.7.D D D D D D D D Y I I I ) i.p.M.p.p.i.] ) I P P f 1.-X0X7X:X>XeXm O   ; , X > ~ Z -.-.c R -XuX2X2XaX,Xx.L k l #.e T.W.(.kXhXDX",
"% | E.`.vXvXbX|.I.e.<.2.2.,.) ( 8.7.7.U U G G D D D D D D D D D D D D D D D D D D G G U U 7.7.8.u.u.u.r.>.>.>.>.L L >.u.6XyX6XS.sXM.N O . * * = 3 #.5.7.U ) p.-XtX-X-XyXF.*.l @.@.@.*.-.t.k.j.#Xj.j.j.j.j.j.j.j.j.j.j.j.j.j.j.j.j.j.j.j.j.j.x.x.l.u.y.-.&.A l j C D D D D D D D C U ( U C C 7.p.M.=X=XN.B.p.] Y 8.( ( U G G G C G D D D D D D D G U 7.U C U a.S.*X@X*X0XM.i   < # @ # 1 _ i.] J J ,.-X,X,X-X,X7Xj.j.h.f.d.d.t.t.U ( 7.8.7.U C V D G G U U 7.7.8.f 1.-X0X7X:X>XeXm O   ; , X > _ P ,.,.v W :XiX,X,X,X-X-Xc.j.f.f.s.i.] ) Y Y ) ) I P H N N H P I p.p.i.r.) Y I I ] ) ) Y I P P P f 1.-X0X7X:X>XeXm O   ; , X > ~ Z -.-.c R -XuX2X1X,X-Xu.K h j A a I s.Z.b.i.a.V.G G S F F F F F S Z V C G 8.i.p.i.p.p.g.B.m.N.M.D.C.a.9.7.7.7.7.D D D D D D D D Y I I I ) i.s.M.p.p.i.] ) I P P f 1.-X0X7X:X>XeXm O   ; , X > ~ Z -.-.c R -XuX2X2XaX,Xx.L k l #.e T.W.(.kXhXDX",
"% | E.`.vXvXbX|..Xe.<.1.1.1.r.8.8.7.7.U U G G D U U G G C C V V U U U U U U U U U U ( 7.8.9.9.0.u.u.u.u.u.>.L K L L >.u.6XyX6XS.sXM.N O . * * = 3 #.5.7.U ) p.A.uX-X-XyXF.&.j @.l A K =.E 1.d.d.k.f.f.f.f.f.f.f.j.j.j.j.j.j.j.j.k.k.k.k.f.f.f.u.l.u.y.-.&.A l j C D D D D D D D C U ( U C C 7.p.M.N.N.m.g.] P N P P D D G G S C G D D D D D D D G U 7.U C U a.S.*X@X*X0XM.i X < # @ # 1 _ i.] J J t.-X,X,X-X,X7Xf.d.,.t.f.f.W v H D D D D D D D D G G U U 7.7.8.f 1.-X0X7X:X>XeXm O   ; , X > _ J ,.,.v R -XiX,X7X,X:X-Xc.j.f.f.M.M.b.b.p.p.i.i.Y Y Y Y Y Y I I Y Y ) ) ] r.i.i.i.i.r.] ) ) Y Y f 1.-X0X7X:X>XeXm O   ; , X > ~ Z -.-.c R -XuX2X,X,X-Xu.K h j A a I s.Z.b.i.a.V.G G S F F F F F $.G G G G U 8.i.Y ] ] { g.g.B.N.b.a.9.7.U G U U D D D D D D D D Y I I I ) i.s.M.p.p.i.r.) Y P P f 1.-X0X7X:X>XeXm O   ; , X > ~ Z -.-.c R -XuX2X,X,X-Xu.K h j F q P.W.(.kXhXSX",
"% | E.`.vXvXbX|.I.e.4.1.1.1.r.8.8.7.7.U U G G D U U G G C C V V U U U U U U U U U U ( 7.8.9.9.0.u.u.u.u.u.>.L K L L E u.6XyX6XS.sXM.N O . * * = 3 #.5.7.U ) p.=XuX-X-XyXF.&.j l l A K =.E d.d.d.k.f.f.f.f.f.f.f.j.j.j.j.j.j.j.j.k.k.k.k.f.f.f.u.l.u.y.-.&.A l j C D D D D D D D C U ( U C C 7.p.M.N.N.m.g.] P N P P D D G G G G G D D D D D D D G U 7.U C U a.S.*X@X*X0Xh.i X < # @ # 1 _ i.] J J t.-X,X,X-X,X7Xf.d.W d.f.f.W v H D D D D D D D D G G U U 7.7.8.f 1.-X0X7X:X>XeXm O   ; , X > _ J ,.,.v R -XiX,X7X,X-X-Xc.j.f.f.M.M.b.b.p.p.i.i.Y Y Y Y Y Y Y Y Y Y ) ) ] r.i.i.i.i.r.] ) ) Y Y f 1.-X0X7X:X>XeXm O   ; , X > ~ Z -.-.c R -XuX2X,X,X-Xu.K h j A a I s.Z.b.i.a.V.G G S F F 3 F F $.G G G G U 8.i.Y ] ] { g.g.m.N.b.a.9.7.U G U U D D D D D D D D Y I I I ) i.s.M.p.p.i.r.) Y P P f 1.-X0X7X:X>XeXm O   ; , X > ~ Z -.-.c R -XuX2X,X,X-Xu.K h j F q P.W.(.kXhXSX",
"% | E.`.vXvXbX|..Xe.<.1.1.1.r.8.8.7.7.U U G G D U U G G C C V V U U U U U U U U U U U 7.8.9.9.0.u.u.u.u.u.>.L K L L =.u.6XyX6XS.sXM.N O . * * = 3 #.5.7.U ) p.A.uX-X-XyXF.&.j l l A A =.>.d.d.k.k.f.f.f.f.f.f.f.j.j.j.j.j.j.j.j.k.k.k.k.f.f.u.u.l.l.y.-.&.A l j C D D D G D D D C U 7.U C C 7.p.M.N.N.B.g.] P N P P D D G G S G G D D D D D D D G U 7.U C U a.S.*X@X*X0Xh.i   < # @ # 1 _ i.] J J t.-X,X,X-X>X7Xf.d.W t.f.f.W v H D D D D D D D D G G U U 7.7.8.f 1.-X0X7X:X>XeXm O   ; , X > _ J ,.,.v W -XiX,X7X,X:X-Xc.j.f.f.M.M.b.b.p.p.i.i.) ) ) ) ) ) ) ) Y Y ) ) ] r.i.i.i.i.r.] ) ) ) Y f 1.-X0X7X:X>XeXm O   ; , X > ~ Z -.-.c R -XuX2X,X,X-Xu.K h j A a I s.Z.b.i.a.V.G G S F F 3 F F $.Z G G G U 8.i.I ] ] { g.g.m.N.b.a.9.7.U G U U D D D D D D D D Y I P I ) i.s.M.p.p.i.r.) Y P P f 1.-X0X7X:X>XeXm O   ; , X > ~ Z -.-.c R -XuX2X1X,X-Xu.K h j F q P.W.(.kXhXSX",
"% | E.`.vXvXbX|..XV.<.1.1.1.r.8.8.7.7.U U G G D U U G G C C V V U U U U U U U U U U U 7.8.9.9.0.u.u.u.u.u.>.L c L L Y u.6XyX6XS.sXM.N O . * * = 3 #.5.7.U Y p.A.uX-X-XyXF.&.j l l A A =.>.t.d.k.k.f.f.f.f.f.f.f.j.j.j.j.j.j.j.j.k.k.k.k.f.f.u.u.l.u.y.-.&.A l j C G G D G G D D C G 7.U C C 7.p.M.N.N.B.g.] P N P P D D G G G G G D D D D D D D G U 7.U C U V.S.*X@X*X0Xh.i X < # @ # 1 _ i.] J J t.-X,X,X-X,X7Xf.t.W t.f.f.W v H D D D D D D D D G G U U 7.7.8.f 1.-X0X7X:X>XeXm O   ; , X > _ J ,.,.v W -XiX,X7X,X:X-Xc.j.f.f.M.M.b.b.p.p.i.i.) ) ) ) ) ) ) ) Y Y ) ) ] r.i.i.i.i.r.] ) ) Y Y f 1.-X0X7X:X>XeXm O   ; , X > ~ Z -.-.c R -XuX2X,X,X-Xu.K h j A a I s.Z.b.i.a.V.G G S F F F F F $.Z G G G U 8.i.I ] ] { g.g.m.N.b.a.9.7.U G U U D D D D D D D D Y I P I ) i.s.M.p.p.i.r.) Y P P f 1.-X0X7X:X>XeXm O   ; , X > ~ Z -.-.c R -XuX2X1X,X-Xu.K h j F q P.W.(.kXhXSX",
"% | E.`.vXvXbX|.I.e.<.1.1.W ] 8.8.7.7.U U G G D U U G D C C V V U U U U U U U U U U ( 7.8.9.9.0.u.u.u.u.u.>.L c L L Y u.6XyX6XS.sXM.N O . * * = 3 #.5.7.U Y p.A.uX-X-XyXF.&.j l l z @.=.>.t.d.k.k.f.f.f.f.f.f.f.j.j.j.j.j.j.j.j.k.k.k.k.f.f.f.u.l.u.y.=.&.A j j C D D D D D D D C G ( U C C 7.p.N.N.N.m.g.] P N P P D D G G S G G D D D D D D D G U 7.U D U a.S.*X@X*X0Xh.i   < # @ # 1 _ i.] J J t.-X,X,X-X,X7Xf.t.W t.f.f.W v H D D D D D D D D G G U U 7.7.Y f 1.-X0X7X:X>XeXm O   ; , X > _ J ,.,.v W :XiX7X,X,X-X-Xc.j.f.f.Z.Z.M.b.p.p.p.i.] ] ] ] ] ] ] ] Y Y ) ) ] r.i.i.i.i.r.] ) ) Y J f 1.-X0X7X:X>XeXm O   ; , X > ~ Z -.-.c E -XuX2X1X,X-Xu.K h j A a I s.Z.b.i.a.V.G G Z F F 4 F F $.Z G G G ( 8.i.I ] ] { g.g.m.N.b.a.9.7.U G U U D D D D D D D D Y I P I ) i.s.M.p.p.i.r.) Y I J f 1.-X0X7X:X>XeXm O   ; , X > ~ Z -.-.c E -XuX2X1X,X-Xu.K h j F q P.W.(.kXhXSX",
"% | E.`.vXvXbX|..Xe.<.1.1.W ] 8.8.7.7.U U G G D U U G G C C V V U U U U U U U U U U 7.7.8.9.9.0.u.u.u.u.u.>.L c L L =.u.6XyX6XS.sXM.N O . * * = 3 #.5.7.U Y p.A.uX-X-XyXF.&.j Z l z @.=.>.t.d.k.k.f.f.f.f.f.f.f.j.j.j.j.j.j.j.j.k.k.k.k.f.f.f.u.l.u.y.-.&.A l j C D D D D D D D C U ( U C C 7.p.N.N.N.m.g.] P N P D D G G G S G G D D D D D D D G U 7.U C U a.S.*X@X*X0Xh.i   < # @ # 1 _ i.] J J t.-X,X,X-X,X7Xf.t.W t.f.f.W v H D D D D D D D D G G U U 7.7.8.f 1.-X0X7X:X>XeXm O   ; , X > _ J ,.,.v W :XiX,X,X,X-X-Xc.j.f.f.Z.M.b.b.p.p.i.i.r.r.r.r.r.r.r.r.Y Y ) ) ] r.i.i.i.i.r.] ) ) Y J f 1.-X0X7X:X>XeXm O   ; , X > ~ Z -.-.c E :XuX2X1X,X-Xu.K h j A a I s.Z.b.i.a.V.G G Z F F 4 F F $.Z G G G ( 8.i.I E ] { g.g.m.N.b.a.9.7.U G U U D D D D D D D D Y I P I ) i.s.M.p.p.p.r.) Y P J f 1.-X0X7X:X>XeXm O   ; , X > ~ Z -.-.c E :XuX2X,X,X-Xu.K h j F q P.W.(.kXhXSX",
"% | E.`.vXvXbX|.I.e.<.1.1.W ] 8.8.7.7.U U G G D U U G D C C V V U U U U U U U U U ( 7.7.9.9.0.0.u.u.u.u.u.>.L c L L Y u.6XyX6XS.sXM.N O . * * = 3 #.5.7.U Y p.A.uX-X-XyXF.&.j l l A &.=.>.,.d.k.k.f.f.f.f.f.f.f.j.j.j.j.j.j.j.j.k.k.k.k.f.f.f.u.l.u.y.-.&.A l j C D D D D D D D C U ( U C C 7.p.N.N.N.m.g.] P N P P D D G G G G G D D D D D D D G U 7.U C U a.S.*X@X*X0Xh.i X < # @ # 1 _ i.] J J t.-X7X>X-X,X7Xf.t.W t.f.f.W v D D D D D D D D D G G U U 7.7.8.f 1.-X0X7X:X>XeXm O   ; , X > _ J ,.,.v R -XiX7X,X,X-X-XA.j.f.f.Z.Z.b.b.p.p.i.i.i.i.i.i.i.i.i.i.Y ) ) ) ] r.i.i.i.i.r.] ) ) Y Y f 1.-X0X7X:X>XeXm O   ; , X > ~ Z -.-.c R -XuX2X,X,X-Xu.K h j A a I b.Z.b.i.a.V.G G F F F F F F $.Z G G G U 8.i.I ] ] { g.g.m.N.b.a.9.7.U G U U D D D D D D D D U I P I ) i.s.M.p.p.i.] ) I P P f 1.-X0X7X:X>XeXm O   ; , X > ~ Z -.-.c R -XuX2X,X,X-Xu.K h j F q P.W.(.kXhXSX",
"% | E.`.vXvXbX|.I.e.<.1.1.W ] 9.8.8.( U U U P D U U U G D C C C U U U U U U U U U U U =.8.9.9.y.y.u.u.u.r.>.L c L L E u.>XyX6X:XsXM.N O . * * = 3 #.5.7.U Y p.A.uX;X-XiXF.&.j l l @.@.&.>.,.d.d.f.f.f.f.f.f.f.f.j.h.j.h.j.h.j.j.k.k.k.k.h.f.f.u.l.l.y.-.&.A l j C G G G G G G D C U ( U C D 8.p.M.N.N.B.p.] P N P D C C G S S S G D D D D D D D G U 7.U C U a.S.*X@X*X0Xh.i X < # @ # 1 _ i.] J J d.-X7X>X-X>X7Xf.t.>.t.f.u.>.c D D D D D D D D D G G U U 7.7.8.f 1.-X0X7X:X>XeXm O   ; , X > _ J ,.,.v R -XiX,X,X,X-X-Xc.j.f.f.Z.Z.b.s.p.p.i.i.i.i.i.i.i.i.i.i.Y Y ) ) ] r.r.i.i.i.r.r.) Y Y Y f 1.-X0X7X:X>XeXm O   ; , X > ~ Z -.-.c R :XuX2X,X,X-Xu.K h j z a I s.Z.b.i.a.V.G G S F F F F F $.Z G G G U 8.i.Y ] ] { g.g.m.N.b.a.9.7.U G U U D D D D D D D D U U P U ) i.p.b.p.a.i.8.) U P P f 1.-X0X7X:X>XeXm O   ; , X > ~ Z -.-.c R :XuX2X,X,X-Xu.K h j F q P.W.(.kXhXSX",
"% | E.`.vXvXbX|.I.e.<.1.1.,.i.i.n.b.b.b.p.r.Y P U U Y U U U Y U Y K L K K K K K =.>.y.u.u.r.r.=.K K K K K K K L L L E f.>XaX,X-XsXM.N O . * * = 3 #.5.7.U Y p.-XtX1X2XiXS.z h @.l @.A A K L E E >.>.u.h.x.x.h.u.u.u.u.u.u.u.u.f.k.B.m.g.g.[ E H ) =.( U U A Z C F F F F S S G G U U P H P Y ] r.M.M.M.M.p.] P C D G G S F F F F G D D D D D D D G U 7.U D U V.S.*X@X*X0Xh.i X < # @ # 1 _ i.] J J d.-X,X,X-X>X6X>.>.>.=.=.&.&.K D D D D D D D D D G G U U ( 7.=.f 1.-X0X7X:X>XeXm O   ; , X > _ J ,.,.v R -XiX,X,X,X:X-Xc.j.f.f.u.u.u.u.u.u.u.u.Y L J c K L Y Y u.u.u.u.u.u.u.u.x.x.u.u.>.>.Y L d 1.-X0X7X:X>XeXm O   ; , X > ~ Z -.-.c R -XuX2X,X,X-Xu.c h j z a I s.Z.b.i.a.V.G G S F F 3 F F 4 V V C D U U Y Y ] ] { g.g.m.N.b.a.0.7.U G U U D D D D D D D D D G U U U 8.8.8.8.8.( U U U P H f 1.-X0X7X:X>XeXm O   , , X > ~ Z -.-.c R -XuX2X,X,X-Xu.K h j F q P.W.(.kXhXSX",
"% | E.`.vXvXbX|.I.e.<.1.1.,.i.i.n.b.b.b.p.r.Y P Y Y Y I Y Y Y Y L L L L L L L L >.>.u.u.u.r.>.=.K @.@.@.K K K L L L E f.<XaX2X-XsXM.N O . * * = 3 #.5.7.U Y p.=XtX3X3XuXS.c h @.l %.@.A K =.E >.>.>.u.x.x.x.u.u.u.u.u.u.u.u.u.u.g.m.m.B.g.[ E P ) ( ( U U G G F F 3 F F F S G G U U P P P Y ] i.M.M.M.b.p.) P C G G S F F F F F G D D D D D D D G U 7.U C U a.S.*X@X*X0Xh.i   < # @ # 1 _ i.] J J d.-X,X,X:X>X6X>.-.-.=.&.&.@.A C D D D D D D D D G G U U 7.7.8.f 1.-X0X7X:X>XeXm O   ; , X > _ J ,.,.v R -XiX,X,X,X:X-Xc.j.f.f.u.u.u.u.u.u.u.u.>.L L c c L L >.u.u.u.u.u.u.u.u.x.x.u.u.>.>.L L d 1.-X0X7X:X>XeXm O   ; , X > ~ Z -.-.c R -XuX2X,X,X-Xu.c h j z a I s.Z.b.i.a.V.G G S F F F F F 4 V V C D U U Y Y ] ] { g.g.m.N.b.a.0.7.U G U U D D D D D D D D D G G U U 7.7.7.7.7.7.U U G G H f 1.-X0X7X:X>XeXm O   , , X > ~ Z -.-.c R -XuX2X,X,X-Xu.K h j F q P.W.(.kXhXSX",
"% | E.`.vXvXbX|.I.e.<.1.1.,.i.i.n.b.b.b.p.r.Y P I Y Y Y Y Y I Y L L L L L L L L >.>.t.u.u.u.>.=.K @.@.K K K K L L L E f.<XaX2X-XsXM.N O . * * = 3 #.5.7.U Y p.=XtX3X3XuXS.c h @.l %.Z A K L E >.>.>.u.x.x.x.u.u.u.u.u.u.u.u.u.u.g.m.m.B.g.[ E P ) ( ( U G Z G S F 3 F F F S G G U U P P I ) ] i.M.M.M.b.p.) P C G S F F F F F F G D D D D D D D G U 7.U C U a.S.*X@X*X0Xh.i X < # @ # 1 _ i.] J T 1.-X,X,X:X>X6X>.-.=.*.&.@.A A C D D D D D D D D G G U U 7.7.8.f 1.-X0X7X>X>XeXm O   , , X > _ J ,.,.v W -XiX,X7X,X-X-Xc.j.f.f.u.u.u.u.u.u.u.u.>.Y L L L L Y >.u.u.u.u.u.u.u.u.x.x.u.u.>.>.L L d 1.-X0X7X>X>XeXm O   , , X > ~ Z -.-.c R -XuX2X,X,X-Xu.K h j A a I s.Z.b.i.a.V.G G S F F 3 F F 4 V V C D U U Y Y ] ] { g.g.m.N.b.V.0.7.U G U U D D D D D D D D D G G U U 7.7.7.7.7.7.U U G G H f 1.-X0X7X:X>XeXm O   ; , X > ~ Z -.-.c R -XuX2X1X,X-Xu.K h j F q P.W.(.kXhXSX",
"% | E.`.vXvXbX|.I.e.<.1.1.,.i.i.n.b.b.b.p.r.Y P I Y Y Y Y Y I Y L L L L L L L L >.>.t.u.u.u.>.=.K @.@.K K K K L L L E f.<XaX2X-XsXM.N O . * * = 3 #.5.7.U Y p.=XtX3X3XuXS.c h @.l %.Z A K L E >.>.>.u.l.x.x.u.u.u.u.u.u.u.u.u.u.g.m.m.B.g.[ I P ) ( ( U G Z G S F 3 F F F S G G 7.U U U I ] i.p.M.M.M.b.i.) P C G S F F F F F F G D D D D D D D G U 7.U C U a.S.*X@X*X0Xh.i X < # @ # 1 _ i.] J T 1.-X,X,X:X>X6X=.=.=.&.K A A A C G D D G D D D D G G U U 7.7.8.f 1.-X0X7X:X>XeXm O   , , X > _ J ,.,.v R -XiX,X7X,X:X-Xc.j.f.f.u.u.u.u.u.u.u.u.>.>.L L L L >.>.u.u.u.u.u.u.u.u.x.x.u.u.>.>.L L d 1.-X0X7X:X>XeXm O   , , X > ~ Z -.-.c R -XuX2X1X,X-Xu.K h j A a I s.Z.b.i.a.V.G G S F F F F F 4 V V C D U U Y Y ] ] [ g.g.m.N.C.a.0.7.U G U U D D D D D D D D D G G U U 7.7.7.7.7.7.U U G G H f 1.-X0X7X:X>XeXm O   ; , X > ~ Z -.-.c R -XuX2X1X,X-Xu.K h j F q P.W.(.kXhXSX",
"% | E.`.vXvXbX|.I.e.<.1.1.,.i.i.n.b.b.b.p.r.Y P I I Y Y Y Y I Y L L L L L L L L >.>.u.u.u.u.>.=.@.@.@.A K K K L R L E f.<XaX2X-XsXM.N O . * * = 3 #.5.7.U Y p.=XtX3X3XuXS.z h @.l %.l A K L E >.>.>.u.x.x.x.u.u.u.u.u.u.u.u.u.u.g.m.m.B.g.] I P ) ( ( U G Z G F F 3 F F F Z G G 8.8.Y Y ) r.p.g.M.M.M.b.i.( P V G G S F F F F F G D D D D D D D G U 7.U C U a.S.*X@X*X0Xh.i   < # @ # 1 _ i.] J T d.-X,X<X:X>X6X=.=.K K A z l z C D D D D D D D D G G U U 7.7.8.f 1.-X0X7X:X>XeXm O   ; , X > _ P ,.,.v W :XiX,X7X,X-X-Xc.j.f.f.u.u.u.u.u.u.u.u.>.>.>.L L >.>.>.u.u.u.u.u.u.u.u.x.l.u.u.>.>.L L d 1.-X0X7X:X>XeXm O   ; , X > ~ Z q.-.c R -XuX2X1X,X-Xu.K h j A a I s.Z.b.i.a.V.G G F F F F F F 4 V V C D U U Y Y ] ] { g.g.B.N.b.a.9.7.U G U U D D D D D D D D D G G U U 7.7.7.7.7.7.U U G G H f 1.-X0X7X:X>XeXm O   ; , X > ~ Z -.-.c E -XuX2X1X,X-Xu.K h j F q P.W.(.kXhXSX",
"% | E.`.vXvXbX|.I.e.<.1.1.,.i.i.n.b.b.b.p.r.Y P I I Y Y Y Y I Y L L L L L L L L >.>.u.u.u.u.>.=.@.@.@.K K K K L L L E f.<XaX2X-XsXM.N O . * * = 3 #.5.7.U Y p.=XtX3X3XuXS.c h @.l %.l A K L E E >.>.u.x.x.x.x.u.u.u.u.u.u.u.u.u.g.m.m.B.g.] I P 8.( ( U G Z G F F 3 F F F Z Z G 9.8.) ) ] i.p.M.M.M.M.b.i.( D V G G F F F 3 F F G D D D D D D D G U 7.U C U a.S.*X@X*X0Xh.i X < # @ # 1 _ i.] J T d.-X,X<X:X>X6XL K K A z z l j C D D D D D D D D G G U U 7.7.8.f 1.-X0X7X:X>XeXm O   ; , X > _ J ,.,.v W -XiX,X,X,X-X-XA.j.f.f.u.u.u.u.u.u.u.u.u.>.>.Y L >.>.u.u.u.u.u.u.u.u.u.x.u.u.u.>.>.L L d 1.-X0X7X:X>XeXm O   ; , X > ~ Z q.-.c R -XuX2X,X,X-Xu.K h j A a I s.Z.b.i.a.V.G G F F F 3 F F 4 V V C D U U Y I ] ] { g.g.m.N.b.a.9.7.U G U U D D D D D D D D D G G U U 7.7.7.7.7.7.U U G G H f 1.-X0X7X:X>XeXm O   ; , X > ~ Z -.-.c E :XuX2X,X,X-Xu.K h j F q P.W.(.kXhXSX",
"% | E.`.vXvXbX|.I.e.<.1.1.,.i.i.n.b.b.b.p.r.Y P I I I Y Y Y I Y L L L L L L L L >.>.u.u.u.u.>.=.&.@.@.&.K K K K L R E f.<XaX2X-XsXM.N O . * * = 3 #.5.7.U Y p.=XtX3X3XuXS.c h @.l l l A K L E E >.>.u.x.x.x.u.u.u.u.u.u.u.u.u.u.g.m.m.B.g.] I P 8.8.( U U G G F F 3 F F F Z G G 9.9.) ) ] p.h.M.M.M.M.b.p.) D C G G S F F 3 F F G D D D D D D D G ( 7.U C U a.S.*X@X*X0Xh.i   < # @ # 1 _ i.] J T d.-X,X<X:X>X6XL K K z z l l j C D D D D D D D D G G U U 7.7.8.f 1.-X0X7X:X>XeXm O   ; , X > _ J ,.,.v W -XiX,X,X,X-X-XA.j.h.f.u.u.u.u.u.u.u.u.u.r.>.>.>.>.>.u.u.u.u.u.u.u.u.u.x.x.u.u.>.=.L L d 1.-X0X7X:X>XeXm O   ; , X > ~ Z q.-.c R -XuX2X,X,X-Xu.K h j A a I s.Z.b.i.a.V.G S Z F F 3 F F 4 V V C D U U Y I ] ] { g.g.m.N.b.a.9.7.U G U U D D D D D D D D D G G U U 7.7.7.7.7.7.U U G G H f 1.-X0X7X:X>XeXm O   ; , X > ~ Z -.-.c R -XuX2X,X,X-Xu.K h j F q P.W.(.kXhXSX",
"% | E.`.vXvXbX|.I.e.<.1.1.,.i.i.n.b.b.b.p.r.Y P I Y Y Y Y I I Y L L L L L L L L >.>.u.u.u.r.>.=.&.@.@.K K K K L L R E f.<XaX2X-XsXM.N O . * * = 3 #.5.7.U Y p.=XtX3X3XuXS.c h @.l l l A K L E E >.>.u.x.x.x.u.u.u.u.u.u.u.u.u.u.g.m.m.B.g.] I P 8.8.( U U G G F F 3 F F F Z G G 0.9.8.) r.p.M.M.M.M.M.b.p.) P C G G S F F F F F G D D D D D D D G ( 7.U C U V.S.*X@X*X0Xh.i   < # @ # 1 _ i.] J T d.-X,X<X:X>XyXL K K z z j j j C D D D D D D D D G G U U 7.7.8.f 1.-X0X7X:X>XeXm O   ; , X > _ J ,.,.v W :XiX,X,X,X-X-XA.j.f.f.u.u.u.u.u.u.u.u.u.u.>.>.>.>.u.u.u.u.u.u.u.u.u.u.x.l.u.t.>.E L L d 1.-X0X7X:X>XeXm O   ; , X > ~ Z -.-.c R -XuX2X1X,X-Xu.K h j A a I s.Z.b.i.a.V.G Z Z F F F F F 4 V V C D U U Y I ] ] { g.g.m.N.b.a.9.7.U G U U D D D D D D D D D G G U U 7.7.7.7.7.7.U U G G H f 1.-X0X7X:X>XeXm O   ; , X > ~ Z -.-.c R :XuX2X,X,X-Xu.K h j F q P.W.(.kXhXSX",
"% | E.`.vXvXbX|.I.5.b b Q R r.i.n.p.p.p.i.r.] ] ] ) ) Y I P P H K c K L L L Y >.>.u.u.u.u.>.Y L K @.@.K K K K K Y L E h.<XaX2X-XsXM.N O . * * = 3 #.5.7.U Y p.=XtX3X3XuXA.c h @.l l l z z c c c L >.>.u.u.u.u.r.x.x.x.x.x.x.x.x.g.g.g.g.g.[ ] Y Y U U D C V V 4 F 3 F F F S G G 0.i.i.p.b.M.M.M.M.M.M.b.p.) P C G G S F F F F F G D D D D D D D G U 7.U C U a.S.*X@X*X0Xh.i   < # @ # 1 _ i.] J J d.-X,X,X:X>X6Xc c z z z z z z C D D D D D D D D G G U U 7.7.8.f 1.-X0X7X:X>XeXm O   ; , X > _ J ,.,.v R -XiX,X,X,X-X-Xc.j.f.f.u.u.u.u.u.u.u.u.u.u.u.u.u.u.u.u.x.x.x.x.x.x.x.x.x.x.u.u.>.>.L L d 1.-X0X7X:X>XeXm O   ; , X > ~ Z -.-.c R -XuX2X1X,X-Xu.K h j A a I s.Z.b.i.a.V.G G F F F F F F 4 V V C G U U Y I ] ] { g.g.m.N.b.V.0.9.7.8.9.9.V V V V V V V V V V C C G G U U U U U U U U U U f 1.-X0X7X:X>XeXm O   ; , X > ~ Z -.-.c R -XuX2X,X,X-Xu.K h j F q P.W.(.kXhXSX",
"% | E.`.vXvXbX|.I.5.b Q Q R r.i.n.s.p.p.i.r.] ] ] ] ) Y Y I P H K c L L L L >.>.r.u.u.u.u.>.Y L K @.@.K K K K L L L E h.<XaX2X-XsXM.N O . * * = 3 #.5.7.U Y p.=XtX3X3XuXA.c h @.l l l z z c c c L Y >.u.u.u.u.>.x.x.x.x.x.x.x.h.{ g.g.g.g.[ ] I Y U U D C V V V F 3 F F F S G G 0.i.i.p.b.M.M.M.M.M.M.b.i.( U C G G S F F F F F G D D D D D D D G U 7.U C U a.S.*X@X*X0Xh.i X < # @ # 1 _ i.] J J d.-X,X,X:X>X6Xc c z z z z z z C D D D G D D D D G G U U 7.7.8.f 1.-X0X7X>X>XeXm O   ; , X > _ J ,.,.v R -XiX,X,X,X-X-Xc.j.f.f.u.u.u.u.u.u.u.u.u.u.u.u.u.u.u.u.x.x.x.x.x.x.x.x.x.h.u.u.>.>.L L d 1.-X0X7X>X>XeXm O   ; , X > ~ Z -.-.c R -XuX2X,X,X-Xu.K h j A a I s.Z.b.i.a.V.G G S F F F F F 4 V V C G U U Y Y ] ] [ g.g.m.N.b.V.0.9.7.8.9.9.V V V V V V V V V V C C G G U U U U U U U U U U f 1.-X0X7X:X>XeXm O   ; , X > ~ Z -.-.c R -XuX2X,X,X-Xu.K h j F q P.W.(.kXhXSX",
"% | E.`.vXvXbX|.I.5.b Q Q R r.i.n.p.p.i.i.r.] ] r.r.] ) Y Y I H K K L L L >.>.>.>.u.u.u.u.>.Y L K @.@.K K K K L L L E h.<XaX2X-XsXM.N O . * * = 3 #.5.7.U Y p.=XtX3X3XuXS.c h @.l l l z z c c c L L >.r.u.u.>.>.u.u.u.u.l.l.u.h.{ { g.g.g.[ ] I Y U U D C V V 4 F 3 F F F S G G 0.i.a.p.b.M.M.M.M.M.M.b.i.( D V G C S F F 3 F F G D D D D D D D G U 7.U C U a.S.*X@X*X0Xh.i X < # @ # 1 _ i.] J J d.-X,X,X:X>X6Xc c z z z z z z C D D D G D D D D G G U U ( 7.8.f 1.-X0X7X:X>XeXm O   ; , X > _ J ,.,.v R :XiX,X,X,X-X-Xc.j.f.f.u.u.u.u.u.u.u.u.u.u.u.u.u.u.u.u.x.x.x.x.x.x.x.x.x.u.u.u.>.>.L L d 1.-X0X7X:X>XeXm O   ; , X > ~ Z -.-.c R -XuX2X,X,X-Xu.K h j A a I b.Z.b.i.a.V.G S F F F F F F 4 V V C G U U Y I ] ] { g.g.m.N.b.V.0.9.7.8.9.9.C C C C C C C C V V C C G G U U U U U U U U U U f 1.-X0X7X:X>XeXm O   ; , X > ~ Z -.-.c E -XuX2X1X,X-Xu.K h j F q P.W.(.kXhXSX",
"% | E.`.vXvXbX|.I.5.b Q Q R r.i.n.p.p.i.i.r.r.] i.r.r.] ) Y Y Y L L L L >.>.>.>.>.u.u.u.u.>.Y L K @.@.A K K K K L L E h.<XaX2X-XsXM.N O . * * = 3 #.5.7.U Y p.=XtX3X3XuXS.c h @.l l l z z c c c K L >.>.r.r.>.>.u.u.u.u.u.u.u.u.[ { { g.{ ] I P Y U U D C V V 4 F 3 F F F S G G 0.i.a.p.b.M.M.M.M.M.M.b.i.( D V G S S F F F F F G D D D D D D D U ( 7.U C U a.S.*X@X*X0Xh.i X < # @ # 1 _ i.] J T d.-X,X,X:X>X6Xc c z z z z z z C D D D G G D D D G G U U ( 7.8.f 1.-X0X7X:X>XeXm O   ; , X > _ P ,.,.v R -XiX,X7X,X-X-Xc.j.f.f.u.u.u.u.u.u.u.u.u.u.u.u.u.u.u.u.x.x.x.x.x.x.x.x.x.h.u.u.>.>.L L d 1.-X0X7X:X>XeXm O   ; , X > ~ Z -.-.c R -XuX2X,X,X-Xu.K h j z a I s.Z.b.i.a.V.C Z F F F F F F 4 V V C G U U Y I ] ] { g.g.m.N.b.V.0.9.7.8.9.9.C C C C C C C C V V C C G G U U U U U U U U U U f 1.-X0X7X:X>XeXm O   ; , X > ~ Z -.-.c E :XuX2X1X,X-Xu.K h j F q P.W.(.kXhXSX",
"% | E.`.vXvXbX|.I.5.b b Q R ] i.n.p.p.i.i.r.] ] i.i.i.r.) ) ) Y Y L L E >.>.>.r.r.u.u.u.u.>.=.L @.@.@.@.K K K L L R R f.<XaX2X-XsXM.N O . * * = 3 #.5.7.U Y p.=XtX3X3XuXS.c h @.l l l z z c c c c L L >.>.>.>.>.u.u.u.u.u.u.u.u.[ [ { { [ ] I P Y U U G C V V 4 F 3 F F F F G G 0.i.a.p.b.M.M.M.M.M.M.b.p.) P C G G Z F F 4 F F G D D D D D D D G U 7.U C U a.S.*X@X*X0Xh.i   < # @ # 1 _ i.] J T d.-X,X,X:X>X6Xc c z z z z z z C D D D D D D D D G G U U 7.7.8.f 1.-X0X7X:X>XeXm O   ; , X > _ J ,.,.v R -XiX,X7X,X-X-Xc.j.f.f.u.u.u.u.u.u.u.u.u.u.u.u.u.u.u.u.x.x.x.x.x.x.x.x.x.u.u.r.>.>.L L d 1.-X0X7X:X>XeXm O   ; , X > ~ Z -.-.c R -XuX2X,X,X-Xu.c h j z a I s.Z.b.i.a.V.G G S F F F F F 4 V V C D U U Y I ] ] { g.g.m.N.b.V.0.9.7.8.9.9.D G G G G G G G V V C C G G U U U U U U U U U Y f 1.-X0X7X:X>XeXm O   ; , X > ~ Z -.-.c R -XuX2X1X,X-Xu.K h j F q P.W.(.kXhXSX",
"% | E.`.vXvXbX|.I.5.b b Q R ] i.n.p.p.i.i.r.] ] p.p.i.i.r.] ) Y Y L >.>.>.>.u.u.r.u.u.u.u.>.=.L @.@.@.@.K K K L L R E f.<XaX2X-XsXM.N O . * * = 3 #.5.7.U Y p.=XtX3X3XuXS.c h @.l l l z z c c c v c L E >.>.>.L u.u.u.u.u.u.u.t.[ [ [ [ [ E P N Y U U G C V V 4 F 3 F F F S G G 0.i.a.p.b.M.M.M.M.M.M.b.p.) P C G G S F F 4 F F G D D D D D D D G U 7.U C U a.S.*X@X*X0Xh.i   < # @ # 1 _ i.] J T d.-X,X,X:X>X6Xc c z z z z z z C D D D D D D D D G G U U 7.7.8.f 1.-X0X7X:X>XeXm O   ; , X > _ J t.,.v W :XiX7X7X,X:X-Xc.j.f.f.u.u.u.u.u.u.u.u.u.u.u.u.u.u.u.u.x.x.x.x.x.x.x.x.x.l.u.u.>.>.L L d 1.-X0X7X:X>XeXm O   ; , X > ~ Z q.-.c R -XuX2X,X,X-Xu.c h j z a I s.Z.b.i.a.V.G G S F F F F F 4 V V C D U U Y I ] ] { g.g.m.N.b.V.0.9.7.8.9.9.G G G G G U G U V V C C G G U U U U U U U U U U f 1.-X0X7X:X>XeXm O   ; , X > ~ Z -.-.c R -XuX2X,X,X-Xu.K h j F q P.W.(.kXhXSX",
"% | E.`.vXvXbX|.I.5.b b Q R ] i.n.p.p.i.i.r.] ] p.p.p.i.r.] ] ] E >.>.>.>.u.u.u.r.u.u.u.u.>.=.L &.@.@.K K K K L R R E f.<XaX2X-XsXM.N O . * * = 3 #.5.7.U Y p.=XtX3X3XuXS.c h @.l l l z z c c c c c L L >.>.L L r.r.u.r.>.>.>.t.W [ [ [ ] I B N Y U U G C V V 4 F 3 F F F F S G 0.i.a.p.b.M.M.M.M.M.M.b.p.) P C G G F F F F F F G D D D D D D D G U 7.U C U a.S.*X@X*X0XM.i   < # @ # 1 _ i.] J T d.-X,X,X:X>X6Xc c z z z z z z C D D D D D D D D G G U U 7.7.8.f 1.-X0X7X:X>XeXm O   ; , X > _ J t.,.v R -XiX7X,X,X-X-Xc.j.f.f.u.u.u.u.u.u.u.u.u.u.u.u.u.u.u.u.x.x.x.x.x.x.x.x.x.x.u.u.>.>.L L d 1.-X0X7X:X>XeXm O   ; , X > ~ Z q.-.c R -XuX2X1X,X-Xu.K h j A a I s.Z.b.i.a.V.G G S F F 3 F F 4 V V C D U U Y Y ] ] { g.g.m.N.b.V.0.9.7.7.9.9.U U U U U U U U V V C C G G U U U U U U U U U U f 1.-X0X7X:X>XeXm O   ; , X > ~ Z -.-.c R -XuX2X,X,X-Xu.K h j F q P.W.(.kXhXSX",
"% | E.`.AXnXbX}.T.6.&.b Q R ] i.s.p.p.i.r.r.] r.s.p.p.i.r.r.r.>.>.>.>.>.>.u.u.u.r.u.u.u.u.>.Y L K @.A K K K K L R R R f.<X0X2X-XpXM.N O . * * = 3 #.5.7.U Y p.-X3X1X2XuXS.c h &.z z z z A H H H k c K Y =.=.Y L r.r.r.y.r.>.r.r.E W ] ] ] I P m U U U G C V V V F F F F S G G D i.i.p.s.M.M.M.M.M.M.M.b.p.) P C G G F F F F F F G D D D D D D D G U 7.U C U a.S.*X@X*X0XM.i   < # @ # 1 _ i.] J T 1.-X,X,X:X>X6Xc c z z z z z z C D D D D D D D D G G U U 7.7.8.f 1.-X0X7X:X>XeXm O   ; , X > _ J ,.,.v R -XiX,X,X,X-X-Xc.j.f.f.f.u.u.u.u.u.u.u.u.u.u.u.u.u.u.u.x.x.x.x.x.x.x.x.x.x.u.u.>.>.L L d 1.-X0X7X:X>XeXm O   ; , X > ~ Z -.-.c R -XuX2X1X,X-Xu.K h j A a I s.Z.b.i.a.V.G G S F F 3 F F 4 V S V G G U U Y ) ] [ g.g.B.N.b.a.i.8.8.8.9.9.U U U U U U U U V V C C G G U U U U U U U U U U f 1.-X0X7X:X>XeXm O   ; , X > ~ Z -.-.c R -XuX2X,X,X-Xu.K h j F q P.W.(.kXhXSX",
"% 6 R.bXHXnXvX`.Y.O.&.b b W [ i.s.u.u.u.u.u.u.u.u.u.u.r.r.>.>.>.L Y >.u.u.u.u.r.r.u.u.u.u.>.Y Y U G G U U U K L L L R f.<X9X9X$XpXM.N O . * * = 3 #.5.7.U Y p.-X9X%X9XqX&Xd g L z A A D G G D D D D D D D D D D 9.0.i.0.i.0.i.i.( ) ( U U P P D D D D D D G G G S S S G G G D P p.s.h.g.g.g.g.g.g.s.s.p.] P C p G G S F F 3 F F G D D D D D D D G U 7.U D U a.S.*X@X*X0Xh.i X < # @ # 1 _ i.] J T d.-X,X<X:X>X6Xc c c z z z z z V V C C G G U U U U U U U U U U f 1.-X0X7X:X>XeXm O   ; , X > _ J ,.,.v R -XiX,X7X,X:X-Xc.j.f.f.j.h.j.h.j.h.j.h.j.h.j.h.j.h.j.x.x.x.x.x.x.x.x.x.x.x.u.r.>.=.L L d 1.-X0X7X:X>XeXm O   ; , X > ~ Z -.-.c R -XuX2X,X,X-Xu.K h j A a I s.Z.b.i.a.V.G G S F F F F 3 4 4 4 F F Z U U U ( ] i.p.h.M.M.p.r.=.L L L Y =.K K K K L K L U C V C C G G U U U U U U U U U U f 1.-X0X7X:X>XeXm O   , , X > ~ Z q.-.c R -XuX2X,X,X-Xu.K h j F q P.W.(.kXhXSX",
"% 6 R.bXHXHXnX`.W.O.$.b R W [ n.s.u.u.u.u.u.u.u.u.u.u.>.>.>.>.>.L Y >.u.u.u.u.<.r.u.u.u.u.>.Y Y U ~ ~ U U U K L R b R 2.%X9X5X$XpXM.N O . * * = 3 #.5.7.U Y p.A.9X%X9XqX&Xd g L c C D G G G S G G D D D D D D D 9.9.9.9.9.9.9.9.7.7.( U U G G D D D D D D D D G G S G G G D D P s.h.g.g.g.g.B.g.g.b.s.p.] P C p G G S F F F F F G D D D D D D D G U 7.U C U a.S.*X@X*X0Xh.i X < # @ # 1 _ i.] J T d.-X,X<X:X>X6Xc c c z z z z z V V C C G G U U U U U U U U U U f 1.-X0X7X:X>XeXm O   ; , X > _ J ,.,.v R -XiX,X7X,X-X-Xc.j.f.f.j.j.j.j.j.j.j.j.j.j.j.j.j.j.j.h.x.x.x.x.x.x.x.x.x.x.u.u.>.>.L L d 1.-X0X7X:X>XeXm O   ; , X > ~ Z -.-.c R -XuX2X,X,X-Xu.K h j A a I s.Z.b.i.a.V.G G S F F 3 F 3 4 4 4 4 F Z G U U ( 8.i.p.s.M.M.u.u.>.L L L L >.L L L L L L L K C V C C G G U U U U U U U U U U f 1.-X0X7X:X>XeXm O   , , X > ~ Z q.-.c R :XuX2X,X,X-Xu.K h j F q P.W.(.kXhXSX",
"% 6 R.bXHXHXnX`.W.O.$.b R W [ n.s.u.u.u.u.u.u.u.u.u.u.r.>.>.>.>.L Y >.u.u.u.u.r.>.u.u.u.u.>.L Y U ~ ~ U U U K L R b R 2.%X9X5X$XpXM.N O . * * = 3 #.5.7.U Y p.A.9X%X9XqX&Xd g L c H D D G G S G G D D D D D D D 9.9.9.9.9.9.9.9.7.7.( U U G G D D D D D D D D G G S C C G D P P b.h.g.g.g.g.m.B.g.s.s.p.] U C p G G S F F 3 F F G D D D D D D D G U 7.U C U a.S.*X@X*X0Xh.i   < # @ # 1 _ i.] J T d.-X,X,X:X>X6Xc c z z z z z z V V V C G G U U U U U U U U U U f 1.-X0X7X:X>XeXm O   ; , X > _ J ,.,.v W -XiX,X7X,X:X-Xc.j.f.f.j.j.j.j.j.j.j.j.j.j.j.j.j.j.j.h.x.x.x.x.x.x.x.x.x.x.u.u.>.>.L L d 1.-X0X7X:X>XeXm O   ; , X > ~ Z -.-.c R -XuX2X,X,X-Xu.K h j A a I s.Z.b.i.a.V.G G S F F F F 3 5 4 4 4 F F G U U ( 8.r.p.s.M.M.u.u.>.Y L L >.>.L L L L L L L K M V C C G G U U U U U U U U U U f 1.-X0X7X:X>XeXm O   ; , X > ~ Z -.-.c R -XuX2X,X,X-Xu.K h j F q P.W.(.kXhXSX",
"% 6 R.bXHXHXnX`.W.O.$.b R W [ n.s.u.u.u.u.u.u.u.u.u.u.r.>.>.>.>.L Y >.u.u.u.u.r.r.u.u.u.u.>.L Y U ~ ~ U U U U L R b R 2.%X9X5X$XpXM.N O . * * = 3 #.5.7.U Y p.A.9X%X9XqX&Xd g L c H D D G G S G G D D D D D D D 8.8.7.7.8.8.8.8.8.7.( U U G G D D D D D D D D G G Z C C D D P P b.h.g.g.g.g.B.B.g.s.s.p.r.U C p G G S F F F F F G D D D D D D D G U 7.U C U a.S.*X@X*X0Xh.i   < # @ # 1 _ i.] J T d.-X,X,X:X>X6Xc c z z z z z z V V C C G G U U U U U U U U U U f 1.-X0X7X:X>XeXm O   ; , X > _ J ,.,.v W -XiX,X7X,X:X-Xc.j.f.f.j.j.j.j.j.j.j.j.j.j.j.j.j.j.j.h.x.x.x.x.x.x.x.x.x.x.u.r.>.>.L L d 1.-X0X7X:X>XeXm O   ; , X > ~ Z -.-.c R -XuX2X,X,X-Xu.K h j A a I s.Z.b.i.a.V.G G S F F F F 3 5 4 4 4 F Z G U U ( ) r.p.s.M.M.h.u.>.>.L >.>.>.L L L L L L L K M V C C G G U U U U U U U U U U f 1.-X0X7X:X>XeXm O   ; , X > ~ Z -.-.c R -XuX2X,X,X-Xu.K h j F q P.W.(.kXhXSX",
"% 6 R.bXHXHXnX`.K.O.$.b R W [ n.s.u.u.u.u.u.u.u.u.u.u.r.>.>.>.>.L Y >.u.u.u.u.r.>.u.u.u.u.>.=.Y U ~ ~ U U U U L L b R 2.%X9X5X$XpXM.N O . * * = 3 #.5.7.U Y p.A.9X%X5XqX&Xd g L c H D D G G G G G D D D D D D D 7.7.7.7.7.7.7.7.8.7.7.U U G G D D D D D D D D G G G G C D D P P b.b.g.g.g.g.m.B.g.s.s.p.r.U C p G G F F F F F F G D D D D D D D G U 7.U C U a.S.*X@X*X0Xh.i   < # @ # 1 _ i.] J T d.-X,X,X:X>X6Xc c z z z z z z V V C C G G U U U U U U U U U U f 1.-X0X7X:X>XeXm O   ; , X > _ J ,.,.v W :XiX7X,X,X-X-Xc.j.f.f.j.j.j.j.j.j.j.j.j.j.j.j.j.j.j.h.x.x.x.x.x.x.x.x.x.x.u.u.>.>.L L d 1.-X0X7X:X>XeXm O   ; , X > ~ Z -.-.c E -XuX2X1X,X-Xu.K h j A a I s.Z.b.i.a.V.G G F F F F F 3 4 4 4 4 F F G U U ( ) r.p.s.M.M.x.u.u.>.>.>.>.r.L L L L L L L K M V C C D G U U U U U U U U U Y f 1.-X0X7X:X>XeXm O   ; , X > ~ Z -.-.c R -XuX2X,X,X-Xu.K h j F q P.W.(.kXhXSX",
"% 6 R.bXHXHXnX`.K.O.$.b R W [ n.s.u.u.u.u.u.u.u.u.u.u.r.>.>.>.>.L Y >.u.u.u.u.r.r.u.u.u.u.>.=.Y U ~ ~ U U U U L L b R 2.%X9X5X$XpXM.N O . * * = 3 #.5.7.U Y p.A.9X%X5XqX&Xd g L c H D D G G G G G D D D D D D D ( U ( ( ( ( ( ( 8.7.7.U U G G D D D D D D D D G G G G G D D P P b.b.g.g.g.g.m.B.g.s.b.p.r.U C p G G F F F 3 F F G D D D D D D D G U 7.U C U a.S.*X@X*X0Xh.i   < # @ # 1 _ i.] J T d.-X,X,X:X>X6Xc c z z z z z z V V C C G G U U U U U U U U U U f 1.-X0X7X>X>XeXm O   ; , X > _ J ,.,.v W :XiX,X,X,X-X-Xc.j.f.f.j.j.j.j.j.j.j.j.j.j.j.j.j.j.j.h.x.x.x.x.x.x.x.x.x.x.u.r.>.>.L L d 1.-X0X7X>X>XeXm O   ; , X > ~ Z -.-.c E :XuX2X1X,X-Xu.K h j A a I s.Z.b.i.a.V.G G S F F F F 3 4 3 4 4 F F G U U ( ) r.p.s.M.M.Z.x.u.>.>.>.r.u.L L L L L L L K C V C C D G U U U U U U U U U U f 1.-X0X7X:X>XeXm O   ; , X > ~ Z -.-.c R -XuX2X,X,X-Xu.K h j F q P.W.(.kXhXSX",
"% 6 R.bXHXHXnX`.K.O.$.b R W [ n.s.u.u.u.u.u.u.u.u.u.u.>.>.>.>.>.L Y >.u.u.u.u.>.r.u.u.u.u.>.Y Y U ~ ~ U U U U L L b R 2.%X9X5X$XpXM.N O . * * = 3 #.5.7.U Y p.A.9X%X5XqX&Xn g L c H D D G G G G G D D D D D G G U U U U U U U U 8.7.7.U U G G D D D D D D D D G G G G G D D P P b.b.B.g.g.g.g.B.B.b.b.p.r.U C p G S Z F F 3 F F G D D D D D D D G U 7.U D U a.S.*X@X*X0Xh.i X < # @ # 1 _ i.] J T d.-X,X>X:X>X6Xc c z z z z z z V V C C G G U U U U U U U U U U f 1.-X0X7X>X>XeXm O   ; , X > _ J ,.,.v R -XiX7X,X,X-X-XA.j.f.f.j.j.j.j.j.j.j.j.j.j.j.j.j.j.j.h.x.x.x.x.x.x.x.x.x.x.u.u.>.>.L L d 1.-X0X7X>X>XeXm O   ; , X > ~ Z -.-.c R -XuX2X,X,X-Xu.K h j A a I b.Z.b.i.a.V.G G F F F F F 3 4 3 4 4 F Z G U U ( ) r.p.b.M.M.Z.x.u.u.>.>.u.u.L L L L L L L L C V C C D G U U U U U U U U U U f 1.-X0X7X:X>XeXm O   ; , X > ~ Z -.-.c R -XuX2X1X,X-Xu.K h j F q P.W.(.kXhXSX",
"% 6 R.bXHXHXnX`.K.O.$.b R W [ n.s.u.u.u.u.u.u.u.u.u.u.>.>.>.>.>.L Y >.u.u.u.u.>.>.u.u.u.u.>.Y Y U ~ ~ U U U K L L b R 2.%X9X5X$XpXM.N O . * * = 3 #.5.7.U Y p.A.9X%X5XqX&Xn g L c H D D G G G G G D D D D D D D U U U U U U U U 8.7.7.U U G G D D D D D D D D G G G G G D D P P b.M.B.g.g.g.m.B.B.b.b.p.r.U C p G Z Z F F F F F G D D D D D D D G U 7.U D U a.S.*X@X*X0Xh.i X < # @ # 1 _ i.] J T d.-X,X>X:X>X6Xc c z z z z l z V V C C G G U U U U U U U U U U f 1.-X0X7X>X>XeXm O   ; , X > _ J ,.,.v R -XiX,X,X,X-X-Xc.j.f.f.j.j.j.j.j.j.j.j.j.j.j.j.j.j.j.h.x.x.x.x.x.x.x.x.x.x.u.u.>.>.L L d 1.-X0X7X>X>XeXm O   ; , X > ~ Z -.-.c R :XuX2X,X,X-Xu.K h j z a I s.Z.b.i.a.V.G G S F F F F 3 4 3 4 4 F Z G U U ( ) r.p.s.M.M.Z.x.u.u.>.>.u.u.L L L L L L L K C V C C D G U U U U U U U U U U f 1.-X0X7X:X>XeXm O   ; , X > ~ Z -.-.c R -XuX2X1X,X-Xu.K h j F q P.W.(.kXhXSX",
"% 6 R.bXHXHXnX`.K.X.l n v W [ [ s.u.u.u.u.u.u.u.>.>.>.>.>.>.>.>.u.u.u.u.u.u.u.u.u.r.>.r.u.u.>.H V S S C D U K K L b R 2.%X9X5X$XpXM.N O . * * = 3 #.5.7.U Y p.A.9X&X&X9X%XR n L K K U G D S S S G D D D D D D D D D D D D D D D D D D D D D D D D D D D D D D G G G G U U U U Y i.p.M.N.N.m.g.g.p.p.p.i.r.Y D V G G F F F F F F G D D D D D D D G U 7.U D U a.S.*X@X*X0Xh.i X < # @ # 1 _ i.] J T d.-X,X,X:X>X6Xc k z z z z l z U G D D G U 8.9.U U U U U U U Y f 1.-X0X7X:X>XeXm O   ; , X > _ J ,.,.v W :XiX7X,X,X-X-Xc.j.f.f.f.f.f.f.f.f.f.f.j.j.j.j.j.j.j.h.u.u.u.u.u.u.u.u.u.u.r.>.L L v v d 1.-X0X7X:X>XeXm O   ; , X > ~ Z -.-.c R -XuX2X,X,X-Xu.c h j z a I s.Z.b.i.a.V.G G Z F F F F 3 3 3 F F F S G G U D P r.M.D.D.s.u.u.u.u.u.u.u.u.>.E L L L K c c C V C C G G U U U U U U U U U U f 1.-X0X7X:X>XeXm O   ; , X > ~ Z -.-.c R -XuX2X,X,X-Xu.K h j F q P.W.(.kXhXSX",
"% 6 R.bXHXHXnX`.K.X.l n v W [ n.s.u.u.u.u.u.u.u.r.r.r.r.r.r.r.r.u.u.u.u.u.u.u.u.u.r.>.r.u.u.>.H V S V C D U K L L b R 2.%X9X5X$XpXM.N O . * * = 3 #.5.7.U Y p.A.9X&X&X9X%XR n L L K U G D S S S G D D D D D D D D D D D D D D D D D D D D D D D D D D D D D D G G $.G U U U U Y i.p.M.N.N.m.g.g.p.p.p.i.r.Y D V G G S F F F F F G D D D D D D D G U 7.U C U a.S.*X@X*X0Xh.i X < # @ # 1 _ i.] J T d.-X,X,X:X>X6Xc k z z z z l z U G D D G U 8.9.U U U U U U U Y f 1.-X0X7X:X>XeXm O   , , X > _ J ,.,.v W -XiX,X,X,X-X-Xc.j.f.f.f.f.f.f.f.f.f.f.j.j.j.j.j.j.j.h.u.u.u.u.u.u.u.u.u.u.r.>.L L v v d 1.-X0X7X:X>XeXm O   , , X > ~ Z -.-.c R -XuX2X,X,X-Xu.c h j z a I s.Z.b.i.a.V.G G Z F F 3 F 3 3 3 F F F S G G U D P r.M.D.D.s.u.u.u.u.u.u.u.u.>.=.L L L K c c C V C C G G U U U U U U U U U U f 1.-X0X7X:X>XeXm O   ; , X > ~ Z -.-.c R -XuX2X,X,X-Xu.K h j F q P.W.(.kXhXSX",
"% 6 R.bXHXHXnX`.K.X.l n v E [ n.s.u.u.u.u.u.u.u.u.u.u.u.u.u.u.u.u.u.u.u.u.u.u.u.u.r.>.r.u.u.>.H V S S D D U K L L b R 2.%X9X5X$XpXM.N O . * * = 3 #.5.7.U Y p.A.9X&X&X9X%XR n L L K U G D V S S G D D D D D D D D D D D D D D D D D D D D D D D D D D D D D D G $.$.G U U U U Y i.p.M.B.N.m.g.g.p.p.p.i.r.Y D V G S F F F F F F G D D D D D D D G ( 7.U C U a.S.*X@X*X0Xh.i   < # @ # 1 _ i.] J T d.-X,X,X:X>X6Xc c z z z z z z U G D D G U 8.9.U U U U U U U U f 1.-X0X7X>X>XeXm O   ; , X > _ J ,.,.v W :XiX,X7X,X-X-Xc.j.f.f.f.f.f.f.f.f.f.f.j.j.j.j.j.j.j.h.u.u.u.u.u.u.u.u.u.u.r.>.L L K c d 1.-X0X7X>X>XeXm O   ; , X > ~ Z -.-.c E -XuX2X1X,X-Xu.K h j A a I s.Z.b.i.a.V.G S Z F F F F 3 3 3 F F F S G G U D P r.M.D.D.s.u.u.u.u.u.u.u.u.>.=.L L L c c c C V C C G G U U U U U U U U U U f 1.-X0X7X:X>XeXm O   ; , X > ~ Z -.-.c R -XuX2X,X,X-Xu.K h j F q P.W.(.kXhXSX",
"% 6 R.bXHXHXnX`.K.X.l n v W [ n.s.u.u.u.u.u.u.u.u.u.u.u.u.u.u.u.u.u.u.u.u.u.u.u.u.r.>.r.u.u.>.H V S S D D U K L R b R 2.%X9X5X$XpXM.N O . * * = 3 #.5.7.U Y p.A.9X&X&X9X%XR n L L K U G C V S S G D D D D D D D D D D D D D D D D D D D D D D D D D D D D D D G G G G U U U U Y i.p.M.N.N.m.g.{ p.p.p.i.r.Y D V C Z S F F F F F G D D D D D D D G U 7.U C U a.S.*X@X*X0Xh.i   < # @ # 1 _ i.] J T d.-X,X,X:X>X6Xc c z z z z z z U G D D G U 8.9.U U U U U U U U f 1.-X0X7X:X>XeXm O   ; , X > _ P ,.,.v W :XiX,X7X,X-X-Xc.j.f.f.f.f.f.f.f.f.f.f.j.j.j.j.j.j.j.h.u.u.u.u.u.u.u.u.u.u.r.>.L L K c d 1.-X0X7X:X>XeXm O   ; , X > ~ Z -.-.c E :XuX2X1X,X-Xu.K h j A a I s.Z.b.i.a.V.G G Z F F F F 3 3 3 F F F F G G G D P r.Z.D.M.p.u.u.u.u.u.u.u.u.>.=.L L L c c c C V C C G G U U U U U U U U U U f 1.-X0X7X:X>XeXm O   ; , X > ~ Z -.-.c R -XuX2X,X,X-Xu.K h j F q P.W.(.kXhXSX",
"% 6 R.bXHXHXnX`.K.X.l n v W [ n.s.u.u.u.u.u.u.u.u.u.u.u.u.u.u.u.u.u.u.u.u.u.u.u.u.u.>.r.u.u.>.H V S S D G U K L L b R 2.%X9X5X$XpXM.N O . * * = 3 #.5.7.U Y p.A.9X&X&X9X%XR n L L K U D D S S S G D D D D D D D D D D D D D D D D D D D D D D D D D D D D D D G G G G U U U U Y i.p.M.N.N.m.g.{ p.p.p.p.r.Y P V G G S F F F F F G D D D D D D D G U 7.U C U a.S.*X@X*X0Xh.i   < # @ # 1 _ i.] J T d.-X,X<X:X>X6Xc c z z z z z z U G D D G U 8.9.U U U U U U U U f 1.-X0X7X:X>XeXm O   ; , X > _ J ,.,.v R -XiX,X7X,X-X-Xc.j.f.f.f.f.f.f.f.f.f.f.j.j.j.j.j.j.j.h.u.u.u.u.u.u.u.u.u.u.r.>.L L K c d 1.-X0X7X:X>XeXm O   ; , X > ~ Z -.-.c R -XuX2X1X,X-Xu.K h j A a I s.Z.b.i.a.V.G G S F F F F 3 3 3 F F F S S G G D P r.Z.D.D.p.u.u.u.u.u.u.u.u.E L L L L K c c C V C C G G U U U U U U U U U Y f 1.-X0X7X:X>XeXm O   ; , X > ~ Z -.-.c E -XuX2X1X,X-Xu.K h j #.q P.W.(.kXhXSX",
"% 6 R.bXHXHXnX`.K.X.l n v W [ n.s.u.u.u.u.u.u.u.x.x.u.u.u.u.l.x.u.u.u.u.u.u.u.u.u.<.>.u.u.u.>.H V S S D G U K L L b R 2.%X9X5X$XpXM.N O . * * = 3 #.5.7.U Y p.A.9X&X&X9X%XR n L L K U D D S S S G D D D D D D D D D D D D D D D D D D D D D D D D D D D D D D G G G G U U U U Y i.p.M.N.N.m.g.g.p.p.p.i.r.Y D V G G F F F F F F G D D D D G D D G U 7.U C U a.S.*X@X*X0Xh.i   < # @ # 1 _ i.] J T d.-X,X<X:X>X6Xc c z z z z z z U G D D G U 8.9.U U U U U U U U f 1.-X0X7X:X>XeXm O   ; , X > _ J ,.,.v R -XiX,X7X,X-X-Xc.j.f.f.f.f.f.f.f.f.f.f.j.j.j.j.j.j.j.h.u.u.u.u.u.u.u.u.u.u.r.>.L L K c d 1.-X0X7X:X>XeXm O   ; , X > ~ Z -.-.c R -XuX2X,X,X-Xu.K h j A a I s.Z.b.i.a.V.G G S F F F F 3 3 3 F F F S G G G D P r.Z.D.D.s.u.u.u.u.u.u.u.u.E L L L L K c c C V C C G G U U U U U U U U U U f 1.-X0X7X:X>XeXm O   ; , X > ~ Z -.-.c E :XuX2X1X,X-Xu.K h j #.q P.W.(.kXhXSX",
"% 6 R.bXHXHXnX`.K.X.l n v W [ n.s.u.u.u.u.u.u.u.x.x.x.x.x.x.x.x.u.u.u.u.u.u.u.u.u.r.>.u.u.u.>.H V S S D G U K L L b R 2.%X9X5X$XpXM.N O . * * = 3 #.5.7.U Y p.A.9X&X&X9X%XR n L L K U D D S S S G D D D D D D D D D D D D D D D D D D D D D D D D D D D D D D G G G G U U U U Y p.p.M.N.N.m.g.g.p.p.p.i.r.) D V G G S F F 3 F F G D D D D D D D G U 7.U D U a.S.*X@X*X0Xh.i   < # @ # 1 _ i.] J T d.-X,X<X:X>X6Xc c c z z z z z U G D D G U 8.9.U U U U U U U U f 1.-X0X7X:X>XeXm O   ; , X > _ J ,.,.v R -XiX,X7X,X-X-Xc.j.f.f.f.f.f.f.f.f.f.f.j.j.j.j.j.j.j.h.u.u.u.u.u.u.u.u.u.u.>.>.L L K n d 1.-X0X7X:X>XeXm O   ; , X > ~ Z -.-.c R -XuX2X,X,X-Xu.K h j A a I s.Z.b.i.a.V.G G F F F F F 3 3 3 F F F S G G G D P r.Z.D.D.u.u.u.u.u.u.u.u.u.E R L L L K c c M V C C G G U U U U U U U U U U f 1.-X0X7X:X>XeXm O   ; , X > ~ Z -.-.c R -XuX2X,X,X-Xu.K h j #.q P.W.(.kXhXSX",
"% 6 R.bXHXnXnX`.K.X.l n v E ` n.p.u.u.u.u.u.u.u.x.x.x.x.x.x.x.x.u.u.u.u.u.u.u.u.u.u.>.u.u.u.>.H V S S D G U K K L b R 2.%X9X5X$XpXM.N O . * * = 3 #.5.7.U Y p.A.9X&X&X9X%XR n L K K U D D S S S G D D D D D D D D D D D D D D D D D D D D D D D D D D D D D D D U U U U U U U Y p.p.M.M.B.g.g.p.p.p.p.i.r.( D V G G S S F F F F G D D D D D D D G U 7.U D U a.S.*X@X*X0XM.i   < # @ # 1 _ i.] J T d.-X,X<X:X>X6Xc c z z z z z z U U D D U U 8.9.U U U U U U U Y f 1.-X0X7X:X>XeXm O   ; , X > _ H ,.,.v R :XuX,X,X,X:X-Xc.h.f.f.f.f.f.f.f.f.f.f.j.j.j.j.j.j.j.h.u.u.u.u.u.u.u.u.u.u.r.>.L L c n d 1.-X0X7X:X>XeXm O   ; , X > ~ Z -.-.c R -XuX2X,X,X-Xu.K h j A a I s.Z.b.i.a.V.G G S F F F F F F F F F S S G G G D P r.Z.D.D.u.u.u.u.u.u.u.u.u.E Y L L L K c c M V C C G G U U U U U U U U U U f 1.-X0X7X:X>XeXm O   ; , X > ~ Z -.-.c R :XuX2X,X,X-Xu.K h j F q P.W.(.kXhXSX",
"% 6 R.bXnXnXmX}.P.o.l x x C ! ~ 8.Y L Y >.u.x.x.u.u.u.u.u.u.u.u.u.u.u.u.u.u.u.u.u.u.>.r.u.u.>.H V S S D G U K L L b R 2.%X9X5X$XpXM.N O . * * = 3 #.5.7.U Y p.A.9X&X&X9X%XR n L L K K G C V S S G D D D D D D D D D D D D D D D D D D D D D D D D D D D D D D D H K =.>.r.>.>.>.u.h.x.x.h.u.t.r.Y ( 8.8.7.U D V D G G G G G G G G D D D D D D D G U 7.U D U a.S.*X@X*X0Xh.i X < # @ # 1 _ i.] J J d.-X,X,X:X>X6XL c k j j l z K K K K K Y >.u.l.u.y.r.=.Y L K c d 1.-X0X7X:X>XeXm O   ; , X > ~ H >.>.v W ;XuX3X3X1X-X#Xf.t.>.=.f.f.f.f.f.f.f.f.j.j.j.j.j.j.j.h.x.x.u.u.u.u.r.>.>.>.>.>.Y L L L d 1.-X0X7X:X>XeXm O   ; , X > ~ Z q.-.c R -XuX2X1X,X-Xu.K h j A a I b.Z.b.i.a.V.G G S F F F F F S G G G G G G D D G U 7.8.i.a.a.u.u.u.u.u.u.u.u.>.>.>.>.Y L L L D D D D D D D D D G G U U 7.7.8.f 1.-X0X7X:X>XeXm O   , , X > ~ Z -.-.c R -XuX2X,X,X-Xu.K h j F q P.W.(.kXhXSX",
"% 6 R.bXnXnXmX}.P.o.l x x A ! ^ 8.Y L =.>.u.x.x.u.u.u.u.u.u.u.u.u.u.u.u.u.u.u.u.u.u.>.r.u.u.>.H V S S D G U K L L b R 2.%X9X5X$XpXM.N O . * * = 3 #.5.7.U Y p.A.9X&X&X9X%XR n L L K K G C S S S G D D D D D D D D D D D D D D D D D D D D D D D D D D D D D D D K L E >.>.>.>.>.u.h.x.x.x.u.>.>.U ( 7.7.7.U C V D D D D D D D D D D D D D D D D G U 7.U C U a.S.*X@X*X0Xh.i X < # @ # 1 _ i.] J J d.-X,X,X:X>X6XL c k j j l z K K L L L L >.u.x.u.u.r.>.L L K c d 1.-X0X7X>X>XeXm O   ; , X > ~ D >.>.v W 1XfX3X3X1X;X#Xh.r.-.=.f.f.f.f.f.f.f.f.j.j.j.j.j.j.j.h.x.x.u.u.u.u.r.>.>.>.>.>.E L L L d 1.-X0X7X>X>XeXm O   ; , X > ~ Z q.-.c R :XuX2X,X,X-Xu.K h j A a I b.Z.b.i.a.V.G G S F F 3 F F G D D D D D D D D G U 7.9.0.a.a.u.u.u.u.u.u.u.u.>.>.>.>.>.L L L D D D D D D D D D G G U U 7.7.8.f 1.-X0X7X:X>XeXm O   , , X > ~ Z -.-.c R -XuX2X,X,X-Xu.K h j F q P.W.(.kXhXSX",
"% 6 R.bXnXnXmX}.P.o.l x x A w ^ 8.Y L >.>.u.x.x.u.u.u.u.u.u.u.u.u.u.u.u.u.u.u.u.u.r.>.r.u.u.>.H V S S D G U K L L b R 2.%X9X5X$XpXM.N O . * * = 3 #.5.7.U Y p.A.9X&X&X9X%XR n L L K K D D S S S G D D D D D D D D D D D D D D D D D D D D D D D D D D D D D D D K L L >.>.>.>.>.u.u.x.x.x.u.>.=.U ( 7.7.7.U C V D D D D D D D D D D D D D D D D G U 7.U C U a.S.*X@X*X0Xh.i   < # @ # 1 _ i.] J J d.-X,X,X:X>X6XL c k j j l z K K L L L L >.u.x.u.u.,.>.L L K c d 1.-X0X7X:X>XeXm O   ; , X > ~ D >.>.v W 1XfX3X3X1X;X#Xh.r.-.=.f.f.f.f.f.f.f.f.j.j.j.j.j.j.j.h.x.x.x.u.u.u.>.>.>.>.>.>.Y L L L d 1.-X0X7X:X>XeXm O   ; , X > ~ Z -.-.c R -XuX2X,X,X-Xu.K h j A a I b.Z.b.i.a.V.G G S F F F F F G D D D D D D D D G U 7.9.0.a.a.u.u.u.u.u.u.u.u.>.>.>.>.>.L L L D D D D D D D D D G G U U 7.7.8.f 1.-X0X7X:X>XeXm O   ; , X > ~ Z -.-.c R -XuX2X1X,X-Xu.K h j F q P.W.(.kXhXSX",
"% 6 R.bXnXnXmXMXP.o.l x x A w ^ 8.Y L >.>.u.x.Z.u.u.u.u.u.u.u.u.u.u.u.u.u.u.u.u.u.r.>.>.u.u.>.H V S S D D U K L L b R 2.%X9X5X$XpXM.N O . * * = 3 #.5.7.U Y p.A.9X&X&X9X%XR n L L K K D D S S S G D D D D D D D D D D D D D D D D D D D D D D D D D D D D D D D K L L >.>.>.>.>.u.u.x.x.x.u.>.=.U ( 7.7.7.U C V D D D D D D D D D D D D D D D D G U 7.U C U a.S.*X@X*X0Xh.i   < # @ # 1 _ i.] J T d.-X,X,X:X>X6XL c k j j l z K K L L L L >.u.x.u.u.,.>.L L K v d 1.-X0X7X:X>XeXm O   ; , X > ~ D >.>.v W 1XfX3X3X1X;X#Xh.r.-.=.f.f.f.f.f.f.f.f.j.j.j.j.j.j.j.h.x.x.x.u.u.u.r.>.>.>.>.>.L L L L d 1.-X0X7X:X>XeXm O   ; , X > ~ Z -.-.c R -XuX2X,X,X-Xu.K h j z a I s.Z.b.i.a.V.G G S F F F F F G D D D D D D D D G U 7.9.0.a.a.u.u.u.u.u.u.u.u.>.>.>.>.>.L L L D D D D D D D D D G G U U 7.7.8.f 1.-X0X7X:X>XeXm O   ; , X > ~ Z -.-.c R -XuX2X1X,X-Xu.K h j F q P.W.(.kXhXSX",
"% 6 R.bXnXnXmX}.P.o.l x x A ! ^ 8.L L >.>.u.x.x.u.u.u.u.u.u.u.u.u.u.u.u.u.u.u.u.u.>.>.r.u.u.>.H V S S D G U K L L b R 2.%X9X5X$XpXM.N O . * * = 3 #.5.7.U Y p.A.9X&X&X9X%XR n L K U U D D V S S G D D D D D D D D D D D D D D D D D D D D D D D D D D D D D D D K L E >.>.>.>.>.u.u.x.x.x.u.>.=.U ( 7.7.7.U C V D D D D D D D D D D D D D D D D G U 7.U C U a.S.*X@X*X0Xh.i   < # @ # 1 _ i.] J T d.-X,X,X:X>X6XL c k j j l z A K L K L L >.u.x.u.u.r.>.L L K v d 1.-X0X7X:X>XeXm O   ; , X > ~ D >.>.v W 1XfX3X3X1X;X#Xh.r.-.=.f.f.f.f.f.f.f.f.j.j.j.j.j.j.j.h.x.x.u.u.u.u.u.>.>.>.>.>.E L L L d 1.-X0X7X:X>XeXm O   ; , X > ~ Z -.-.c R -XuX2X,X,X-Xu.c h j z a I s.Z.b.i.a.V.G G S F F 3 3 F G D D D D D D D D G U 7.9.0.a.a.u.u.u.u.u.u.u.u.>.>.>.>.Y L L L D D D D D D D D D G G U U 7.7.=.f 1.-X0X7X:X>XeXm O   ; , X > ~ Z -.-.c E -XuX2X1X,X-Xu.K h j F q P.W.(.kXhXSX",
"% 6 R.bXnXnXmX}.P.o.l x x A w ^ 8.R L >.>.u.x.x.u.u.u.u.u.u.u.u.u.u.u.u.u.u.u.u.u.>.>.r.u.u.>.H V S S D G U K K L b R 2.%X9X5X$XpXM.N O . * * = 3 #.5.7.U Y p.A.9X&X&X9X%XR n L L U U D D S S S G D D D D D D D D D D D D D D D D D D D D D D D D D D D D D D D K L Y >.>.>.>.>.u.u.x.x.x.u.>.=.U ( 7.7.7.U C V D D D D D D D D D D D D D D D D G U 7.U C U a.S.*X@X*X0Xh.i   < # @ # 1 _ i.] J T d.-X,X,X:X>X6XL c k j j l z A K L L L L >.u.x.u.u.r.>.L L K v d 1.-X0X7X:X>XeXm O   ; , X > ~ D >.>.v W 1XfX3X3X1X;X#Xh.r.-.=.f.f.f.f.f.f.f.f.j.j.j.j.j.j.j.h.x.x.u.u.u.u.u.>.>.>.>.>.E L L L d 1.-X0X7X:X>XeXm O   ; , X > ~ Z -.-.c R -XuX2X,X,X-Xu.c h j z a I s.Z.b.i.a.V.G G F F F F F F G D D D D D D D D G U 7.9.0.a.a.u.u.u.u.u.u.u.u.>.>.>.>.Y L L L D D D D D D D D D G G U U 7.7.8.f 1.-X0X7X:X>XeXm O   ; , X > ~ Z -.-.c E :XuX2X,X,X-Xu.K h j F q P.W.(.kXhXSX",
"% 6 R.bXnXnXmX}.P.o.l x x A ! 6.=.=.L =.>.u.x.x.u.u.u.u.u.u.u.u.u.u.u.u.u.u.u.u.u.u.>.r.u.u.>.H V S S D G U K L R b R 2.%X9X5X$XpXM.N O . * * = 3 #.5.7.U Y p.A.9X&X&X9X%XR n L L U U D D V S S G D D D D D D D D D D D D D D D D D D D D D D D D D D D D D D D K L Y >.>.>.>.>.u.u.x.x.x.u.>.=.U ( 7.7.7.U C V D D D D D D D D D D D D D D D D G U 7.U D U a.S.*X@X*X0Xh.i X < # @ # 1 _ i.] J T d.-X,X,X:X>X6XK c k j j l z A K L L L L >.u.x.u.u.r.>.L L K c d 1.-X0X7X:X>XeXm O   ; , X > ~ C -.>.v W 1XfX3X3X1X;X#Xh.r.-.=.u.f.f.f.f.f.f.f.j.j.j.j.j.j.j.h.x.x.u.u.u.u.r.>.r.>.>.>.E L L L d 1.-X0X7X:X>XeXm O   ; , X > ~ Z -.-.c R -XuX2X1X,X-Xu.K h j A a I s.Z.b.i.a.V.G G S F F F F F G D D D D D D D D G U 7.9.0.a.a.u.u.u.u.u.u.u.u.>.>.>.>.Y L L L D D D D D D D D D G G U U 7.7.8.f 1.-X0X7X:X>XeXm O   ; , X > ~ Z -.-.c R -XuX2X,X,X-Xu.K h j F q P.W.(.kXhXSX",
"% 6 R.bXnXnXmX}.P.o.l h x A ! 6.=.=.L L >.u.x.x.u.u.u.u.u.u.u.u.u.u.u.u.u.u.u.u.u.u.>.u.u.u.>.H V S S D G U K L R b R 2.%X9X5X$XpXM.N O . * * = 3 #.5.7.U Y p.A.9X&X&X9X%XR n L L K U D D S S S G D D D D D D D D D D D D D D D D D D D D D D D D D D D D D D D K L Y >.>.>.>.>.u.u.x.x.x.u.>.=.U ( 7.7.7.U C V D D D D D D D D D D D D D D D D G U 7.U D U a.S.*X@X*X0Xh.i X < # @ # 1 _ i.] J T 1.-X,X,X:X>X6XK c k j j l z A K L K L L >.u.x.u.u.r.>.L L K c d 1.-X0X7X:X>XeXm O   ; , X > ~ D -.>.v W 1XfX3X3X1X;X#Xh.r.-.=.u.f.f.f.f.f.f.f.j.j.j.j.j.j.j.h.x.x.u.u.u.u.r.>.>.>.>.>.E L L L d 1.-X0X7X:X>XeXm O   ; , X > ~ Z -.-.c R -XuX2X1X,X-Xu.K h j A a I s.Z.b.i.a.V.G G S F F F F F G D D D D D D D D G U 7.9.0.a.a.u.u.u.u.u.u.u.u.>.>.>.>.Y L L L D D D D D D D D D G G U U 7.7.8.f 1.-X0X7X:X>XeXm O   ; , X > ~ Z -.-.c R :XuX2X,X,X-Xu.K h j #.q P.W.(.kXhXSX",
"% 6 R.bXnXnXmX}.P.o.l x s V ! 6.U L L L L >.u.u.>.>.u.u.u.u.x.x.u.u.u.u.u.u.u.u.x.u.u.u.x.x.r.L V S S D G U K L L b R 2.%X9X5X$XpXM.N O . * * = 3 #.5.7.U Y p.A.9X5XwX%X&Xf.<.>.L K K D D S S S G D D D D D D D D D D D D D D D D D D D D D D D D D D D D D D D c L >.u.x.x.u.u.u.u.x.x.x.u.>.=.i.9.9.9.7.( U U D D D D D D D D D D D D D D D D G U 7.U D U a.S.*X@X*X0Xh.i X < # @ # 1 _ i.] J T d.-X,X<X:X>X6XK c k j j l z K L L L L L >.r.u.x.x.u.u.>.>.L L d 1.-X0X7X:X>XeXm O   ; , X > ~ C -.>.v W 1XfX3XtXgXtX-Xf.>.y.l.>.,.k.j.j.j.h.f.j.j.j.j.j.j.j.h.x.x.x.x.h.u.>.L >.Y L L L K c c d 1.-X0X7X:X>XeXm O   ; , X > ~ Z -.-.c R -XuX2X,X,X-Xu.K h j A a I s.Z.b.i.a.V.G G Z F F F F F G D D D D D D D U ( 7.9.a.V.V.C.>.>.u.x.x.x.x.u.>.Y L L L c c c 8.7.7.U U G G D D G G U U 7.7.8.f 1.-X0X7X:X>XeXm O   ; , X > ~ Z -.-.c R -XuX2X2XaX,Xx.L z z #.e T.W.(.kXkXDX",
"% 6 R.bXnXnXmX}.P.o.l x s V ! ^ U L L L L >.u.u.>.r.u.u.u.u.x.x.u.u.u.u.u.u.u.u.x.u.u.u.x.x.>.K V S S D G U K L R b R 2.%X9X5X$XpXM.N O . * * = 3 #.5.7.U Y p.A.9X5XwX%X&Xf.<.>.L U U G D S S V G D D D D D D D D D D D D D D D D D D D D D D D D D D D D D D D c L >.u.x.h.u.u.u.u.x.x.x.u.>.=.r.9.9.8.7.U U U D D D D D D D D D D D D D D D D G U 7.U C U a.S.*X@X*X0Xh.i X < # @ # 1 _ i.] J T d.-X,X<X:X>X6XL K k j j l A K =.L L L L >.u.u.x.l.u.u.>.>.L L d 1.-X0X7X:X>XeXm O   ; , X > ~ C q.>.v W 1XfX3XtXgXtX-Xd.>.y.l.>.,.k.j.j.j.h.f.j.j.j.j.j.j.j.h.x.x.x.x.h.u.>.L >.=.L L L K c c d 1.-X0X7X:X>XeXm O   ; , X > ~ Z -.-.c R -XuX2X,X,X-Xu.K h j A a I s.Z.b.i.a.V.G G Z F F F F F G D D D D D D D U U 7.9.0.a.V.C.>.>.u.x.x.x.x.u.>.>.L L L L c H 8.7.7.U U G G D D G G U U 7.7.8.f 1.-X0X7X:X>XeXm O   ; , X > ~ Z -.-.c R -XuX2X2XaX,Xx.L z l #.e T.W.(.kXkXDX",
"% 6 R.bXnXnXmX}.P.o.l x s A ! ^ U L L L L >.u.u.>.r.u.u.u.x.x.x.u.u.u.u.u.u.u.u.x.u.r.u.x.x.>.K V S S D G U K L R b R 2.%X9X5X$XpXM.N O . * * = 3 #.5.7.U Y p.A.<X5XwX%X&Xf.<.>.L U U G G D S S G D D D D D D D D D D D D D D D D D D D D D D D D D D D D D D D k L >.u.x.u.u.u.u.u.x.x.x.u.>.=.9.9.8.7.( U U G D D D D D D D D D D D D D D D D G ( 7.U C U a.S.*X@X*X0Xh.i   < # @ # 1 _ i.] J T d.-X,X,X:X>X6XL K z k k z A &.=.E L L Y >.u.u.x.l.u.r.>.E L L d 1.-X0X7X:X>XeXm O   ; , X > ~ D >.>.v W 1XfX3X3XtX2X-Xt.>.y.l.>.,.d.j.j.j.h.f.j.j.j.j.j.j.j.h.x.x.x.x.u.u.>.L >.=.L L L c c v d 1.-X0X7X:X>XeXm O   ; , X > ~ Z -.-.c R -XuX2X1X,X-Xu.K h j A a I s.Z.b.i.a.V.G Z Z F F F F F G D D D D D D D U U ( 7.0.a.V.l.>.>.u.x.x.x.u.u.>.>.>.L L L L K 8.7.7.U U G G D D G G U U 7.7.8.f 1.-X0X7X:X>XeXm O   ; , X > ~ Z -.-.c E -XuX2X2XaX,Xx.L z l #.e T.W.(.kXkXDX",
"% 6 R.bXnXnXmX}.P.o.l x s A w ^ U L L L L >.u.u.>.r.u.u.u.x.x.x.u.u.u.u.u.u.u.u.u.u.>.u.x.u.>.H V S S D G U K K R b R 2.%X9X5X$XpXM.N O . * * = 3 #.5.7.U Y p.A.9X5XwX%X&Xf.<.>.Y Y U U G G S D G D D D D D D D D D D D D D D D D D D D D D D D D D D D D D D D k L >.u.x.h.u.u.u.u.x.x.x.u.>.=.8.7.7.( U G G G D D D D D D D D D D D D D D D D G U 7.U C U a.S.*X@X*X0Xh.i   < # @ # 1 _ i.] J T d.-X,X,X:X>X6XL K K z z A @.&.>.>.E Y >.>.u.u.x.l.u.r.>.E L L d 1.-X0X7X:X>XeXm O   ; , X > ~ D >.>.v W 1XfX3X3X3X2X#X,.=.>.u.>.,.d.j.j.j.f.f.j.j.j.j.j.j.j.h.x.x.x.x.u.u.>.L >.=.L L L c c n d 1.-X0X7X:X>XeXm O   ; , X > ~ Z -.-.c R -XuX2X1X,X-Xu.K h j A a I s.Z.b.i.a.V.G S Z F F F F F G D D D D D D D G G U 7.9.0.a.a.>.>.u.x.x.x.u.u.>.>.>.>.L L L K 8.7.7.U U G G D D G G U U 7.7.8.f 1.-X0X7X:X>XeXm O   ; , X > ~ Z -.-.c E :XuX2X2XaX,Xx.L z l #.e T.W.(.kXkXDX",
"% 6 R.bXnXnXmXMXP.o.l x x A ! ^ U L L L L >.u.x.>.r.u.u.u.l.x.x.u.u.u.u.u.u.u.u.u.>.>.>.u.u.>.H V S S D D U K L L b R 2.%X9X5X$XpXM.N O . * * = 3 #.5.7.U Y p.A.9X5XwX%X&Xf.<.>.=.=.=.( U G / G G D D D D D D D D D D D D D D D D D D D D D D D D D D D D D D D c L >.u.x.x.u.u.u.u.x.x.x.u.>.=.8.7.U U G G C C D D D D D D D D D D D D D D D D G U 7.U C U a.S.*X@X*X0Xh.i   < # @ # 1 _ i.] J T d.-X,X,X:X>X6X=.=.K A A @.&.*.r.>.>.>.>.u.u.x.x.x.u.u.>.>.L L d 1.-X0X7X:X>XeXm O   ; , X > ~ D >.>.v W 1XfX3X3X3X1Xj.,.L -.y.>.,.d.j.j.j.h.f.j.j.j.j.j.j.j.j.x.x.x.x.u.u.>.L E Y L L L K c v d 1.-X0X7X:X>XeXm O   ; , X > ~ Z -.-.c E -XuX2X1X,X-Xu.K h j A a I s.Z.b.i.a.V.G G F F F 3 F F G D D D D D D D C G U ( 8.9.0.a.>.>.u.l.x.x.u.u.r.>.>.>.>.L L L 8.7.7.U U G G D D G G U U 7.7.Y f 1.-X0X7X:X>XeXm O   ; , X > ~ Z -.-.c R -XuX2X2XaX,Xx.L k l #.e T.W.(.kXhXDX",
"% 6 R.bXnXnXmXMXP.o.l x x A ! ^ U L L L Y >.u.x.>.r.u.u.u.u.x.x.u.u.u.u.u.u.u.u.u.>.=.>.u.u.L k V S S D D U K L L b R 2.%X9X5X$XpXM.N O . * * = 3 #.5.7.U Y p.A.9X5XwX%X&Xv.<.>.>.8.8.7.7.~ ~ G G D D D D D D D D D D D D D D D D D D D D D D D D D D D D D D D c L >.u.x.x.u.u.u.u.x.x.x.u.>.=.U U U G G D C C D D D D D D D D D D D D D G D D G U 7.U C U a.S.*X@X*X0Xh.i   < # @ # 1 _ i.] J T d.-X,X,X:X>X6X>.=.K K A &.*.-.r.u.>.>.>.u.x.x.x.h.u.t.>.>.L L d 1.-X0X7X>X>XeXm O   ; , X > ~ D >.>.v W 1XfX3X1X1X1Xj.E L =.y.>.,.d.j.j.j.h.f.j.j.j.j.j.j.j.h.x.x.x.x.u.u.>.L E L L L L K c v d 1.-X0X7X>X>XeXm O   ; , X > ~ Z -.-.c E :XuX2X,X,X-Xu.K h j A a I s.Z.s.i.a.V.G G F F F 3 F F G D D D D D D D C C G U 7.9.0.y.>.>.u.x.x.x.u.u.u.u.r.>.>.>.Y Y 8.7.7.U U G G D D G G U U 7.7.8.f 1.-X0X7X:X>XeXm O   ; , X > ~ Z -.-.c R -XuX2X2XaX,Xx.L k l #.e T.W.(.kXhXDX",
"% 6 R.bXnXnXmXMXP.o.l x x A ! ^ U L L L L >.u.x.>.r.u.u.u.u.x.x.u.u.u.u.u.u.u.u.u.>.L >.u.u.L k V S S D G U K L L b R 2.%X9X5X$XpXM.N O . * * = 3 #.5.7.U Y p.A.9X5XwX%X&Xf.<.>.>.8.8.8.7.( ~ ~ G D D D D D D D D D D D D D D D D D D D D D D D D D D D D D D D c L >.u.x.x.u.u.u.x.x.x.x.u.>.=.U U G G C C C V D D D D D D D D D D D D D D D D G U 7.U D U a.S.*X@X*X0Xh.i   < # @ # 1 _ i.] J T d.-X,X>X:X>X6X>.=.=.K &.&.*.-.r.u.>.>.u.u.x.x.x.x.u.u.>.>.L L d 1.-X0X7X>X>XeXm O   ; , X > ~ D >.>.v W 1XfX3X4X1X;Xj.E K =.y.>.,.d.j.j.j.h.f.j.j.j.j.j.j.j.h.x.x.x.x.u.u.>.L E Y L L L K c v d 1.-X0X7X>X>XeXm O   ; , X > ~ Z -.-.c R -XuX2X,X,X-Xu.K h j A a I s.Z.b.i.a.V.G G F F F F F F G D D D D D D D V C D U ( 8.9.0.>.>.u.x.x.x.u.u.u.u.u.r.>.>.>.=.8.7.7.U U G G D D G G U U 7.7.8.f 1.-X0X7X:X>XeXm O   ; , X > ~ Z -.-.c R -XuX2X2XaX,Xx.L k l #.e T.W.(.kXhXDX",
"% 6 R.bXnXnXmXMXP.o.l x x A ! ^ U K K K Y >.u.x.r.t.u.u.u.h.h.x.u.u.u.u.u.u.u.u.u.>.L >.t.r.L k V S S D G K K L L b R 2.%X9X5X$XpXM.N O . * * = 3 #.5.7.U Y p.A.,X<X<X<X&Xv.,.>.r.r.8.8.7.7.( ( D D D D D D D D D D D D D D D D D D D D D D D D D D D D D D D D c L >.u.x.x.u.u.u.x.x.x.x.u.>.=.U U G D C C V V D D D D D D D D D D D D D D D D G U 7.U D U a.S.*X@X*X0XM.i   < # @ # 1 _ i.] J T d.-X,X>X:X>X6X>.>.L K &.&.=.>.u.u.r.>.u.u.x.x.x.x.u.u.>.>.L L d 1.-X0X7X>X>XeXm O   ; , X > ~ C -.>.c R ;XfX3X4X;X;Xj.E K &.y.>.,.d.h.j.h.h.f.j.h.j.h.j.h.j.x.x.x.Z.x.u.u.>.L E Y Y L J K K c d 1.-X0X7X>X>XeXm O   ; , X > ~ Z -.-.c R :XuX2X,X,X-Xu.K h j z a I s.Z.b.i.a.C.D G G G S S F S G D D D D D D D V C C G U 7.9.9.>.>.u.x.x.x.u.u.u.u.u.r.>.>.>.=.8.7.7.U U G G D D G G U U 7.7.8.f 1.-X0X7X:X>XeXm O   ; , X > ~ Z -.-.c R -XuX2X2XaX,Xx.L k l #.e T.W.(.kXhXDX",
"% 6 R.bXnXnXmXMXP.o.l x s V ! ^ 7.=.U U U 8.i.p.i.r.p.g.k.k.B.N.u.u.u.u.u.u.u.u.>.>.>.>.>.L L L V S S D G U K L L b R 2.%X9X5X$XpXM.N O . * * = 3 #.5.7.U Y p.-X;X1X1X;X;Xj.d.t.u.u.r.=.Y K K A U U G G C C V V D D D D D D D D D D D D D D D D D D D D D D D D k c L >.r.u.u.>.u.r.>.r.u.u.>.c D D D D D D D D D D D D D D D D D D D D D D D D G U 7.U C U a.S.*X@X*X0Xh.i   < # @ # 1 _ i.] J J d.-X,X,X-X>X7X,.>.R L L R >.>.u.u.u.u.u.u.u.u.x.x.u.u.>.>.L L d 1.-X0X7X:X>XeXm O   ; , X > ~ A -.-.c R :XuX2X1X2X<Xh.L z @.*.>.>.u.h.x.x.h.u.u.u.u.u.u.u.u.u.u.s.b.s.p.r.Y H Y Y Y Y Y Y Y Y f 1.-X0X7X:X>XeXm O   ; , X > ~ Z -.-.c R -XuX2X,X,X-Xu.c h j z a I s.Z.b.i.p.b.P P P P P D D D D D D D D D D D D G G U U 7.7.8.>.>.u.x.x.x.u.u.r.u.u.u.u.>.Y L 8.7.7.U U G G D D G G U U 7.7.8.f 1.-X0X7X:X>XeXm O   , , X > ~ Z q.-.c R -XuX2X,X,X<Xh.L z @.5.o.T.W.(.hXDXDX",
"% 6 R.bXnXnXmX}.P.o.l x s V ! 6.5.7.G U ( 8.i.p.i.i.p.g.B.m.N.N.u.u.u.u.u.u.u.u.>.>.>.>.>.L L L V S S D G U K L L b R 2.%X9X5X$XpXM.N O . * * = 3 #.5.7.U Y p.-X1X1X1X1X;X#Xk.d.d.u.t.>.L K K z U U G G C C V V D D D D D D D D D D D D D D D D D D D D D D D D k c L >.t.u.u.r.u.r.>.r.u.u.>.c D D D D D D D D D D D D D D D D D D D D D D D D G U 7.U D U a.S.*X@X*X0Xh.i   < # @ # 1 _ i.] J J t.-X,X,X-X,X7X,.W W R R W W ,.u.u.u.u.u.u.u.u.x.x.u.u.>.>.L L d 1.-X0X7X:X>XeXm O   ; , X > ~ Z -.-.c R -XuX2X,X,X<Xh.L z @.*.=.>.u.x.x.x.x.u.u.u.u.u.u.u.u.u.s.b.b.b.p.r.Y P Y Y Y I Y Y Y J f 1.-X0X7X:X>XeXm O   ; , X > ~ Z -.-.c R -XuX2X,X,X-Xu.c h j z a Y s.Z.b.i.p.b.P P P P P P P P D D D D D D D D D G G U U 7.7.8.>.>.u.x.x.x.u.u.r.u.u.u.u.>.Y L 8.7.7.U U G G D D G G U U 7.7.8.f 1.-X0X7X:X>XeXm O   , , X > ~ Z q.-.c R :XuX2X,X,X<Xh.=.z @.5.o.T.W.(.hXDXDX",
"% 6 R.bXnXnXmXMXP.o.l x x A ! 6.5.$.G G U 8.9.i.i.i.p.g.B.m.N.N.u.u.u.u.u.u.u.u.>.>.>.>.Y L L L V S S D G U K L L b R 2.%X9X5X$XpXM.N O . * * = 3 #.5.7.U Y p.-X1X1X1X1X;X#Xk.d.d.u.t.>.L K K z U U G G C C V V D D D D D D D D D D D D D D D D D D D D D D D D c K L >.u.u.u.u.u.r.>.r.u.u.>.c D D D D D D D D D D D D D D D D D D D D D D D D G U 7.U D U a.S.*X@X*X0Xh.i X < # @ # 1 _ i.] J J ,.-X,X,X-X,X7Xt.,.W R R W ,.t.u.u.u.u.u.u.u.u.x.x.u.u.>.>.L L d 1.-X0X7X>X>XeXm O   , , X > ~ Z -.-.c R -XuX2X,X,X<Xh.L z @.*.=.>.u.x.x.x.u.u.u.u.u.u.u.u.u.u.s.b.b.b.p.r.Y P I I Y Y Y Y Y J f 1.-X0X7X>X>XeXm O   , , X > ~ Z -.-.c R -XuX2X,X,X-Xu.K h j A a Y b.Z.b.p.p.b.P P P P P P P P D D D D D D D D D G G U U 7.7.8.>.>.u.x.x.x.u.u.r.u.u.u.u.>.>.L 8.7.7.U U G G D D G G U U 7.7.8.f 1.-X0X7X:X>XeXm O   ; , X > ~ Z -.-.c R -XuX2X,X,X<Xx.=.z @.5.o.T.W.(.kXjXDX",
"% 6 R.bXnXnXmXMXP.o.l x x A ! 6.5.G G G G ( 8.i.i.p.p.g.B.m.N.N.u.u.u.u.u.u.u.u.>.>.>.>.Y L L L V S S D G U K L L b R 2.%X9X5X$XpXM.N O . * * = 3 #.5.7.U Y p.-X1X1X1X1X;X#Xk.d.d.u.t.>.L K K z U U G G C C V V D D D D D D D D D D D D D D D D D D D D D D D D H L >.r.u.u.u.u.u.>.>.>.u.u.>.H D D D D D D D D D D D D D D D D D D D D D D D D G U 7.U D U a.S.*X@X*X0Xh.i X < # @ # 1 _ i.] J J ,.-X,X,X-X>X7Xd.t.W W W W t.t.u.u.u.u.u.u.u.u.x.x.u.u.>.>.L L d 1.-X0X7X:X>XeXm O   , , X > ~ Z -.-.c R -XuX2X,X,X<Xh.L z @.*.=.>.u.h.x.x.u.u.u.u.u.u.u.u.u.u.s.b.b.b.p.r.Y P I Y Y Y Y Y Y J f 1.-X0X7X:X>XeXm O   , , X > ~ Z -.-.c R -XuX2X1X,X-Xu.K h j A a Y s.Z.b.p.p.b.P P P P P P P P D D D D D D D D D G G U U 7.7.8.>.>.u.x.x.x.u.u.r.u.u.u.u.>.=.L 8.7.7.U U G G D D G G U U 7.7.8.f 1.-X0X7X:X>XeXm O   ; , X > ~ Z -.-.c R -XuX2X,X,X<Xx.=.z @.5.o.T.W.(.kXjXDX",
"% 6 R.bXnXnXmX}.P.o.l x x A w o.G G C C G U ( r.i.p.p.g.B.m.N.N.u.u.u.u.u.u.u.u.>.>.>.>.Y L L L V S S D D U K L L b R 2.%X9X5X$XpXM.N O . * * = 3 #.5.7.U Y p.-X1X1X1X1X;X#Xk.d.f.u.t.>.L K K z U U G G C C V V D D D D D D D D D D D D D D D D D D D D D D D D K L >.u.u.x.u.u.u.u.>.r.u.u.>.c D D D D D D D D D D D D D D D D D D D D D D D D G U 7.U C U V.S.*X@X*X0XM.i   < # @ # 1 _ i.] J J t.-X,X,X-X,X7Xf.d.,.W W ,.d.f.u.u.u.u.u.u.u.u.x.l.u.u.>.E L L d 1.-X0X7X:X>XeXm O   ; , X > ~ Z q.-.c R -XuX2X,X,X<Xh.L z @.*.=.>.u.x.x.x.u.u.u.u.u.u.u.u.u.u.p.b.b.b.p.r.Y P I I Y Y Y Y I J f 1.-X0X7X:X>XeXm O   ; , X > ~ Z q.-.c R -XuX2X1X,X-Xu.K h j A a Y s.Z.b.p.p.b.P P P P P P P P D D D D D D D D D G G U U 7.7.8.>.>.u.x.x.x.u.u.r.u.u.u.u.>.Y L 8.7.7.U U G G D D G G U U 7.7.Y f 1.-X0X7X:X>XeXm O   ; , X > ~ Z -.-.c R -XuX2X,X,X<Xh.=.z @.5.o.P.W.(.kXDXDX",
"% 6 R.bXnXnXmX}.P.o.l x x A w o.S Z V V C U ( 8.i.p.p.g.B.m.N.N.u.u.u.u.u.u.u.u.>.>.>.>.Y L L L V S S D D U K L L b R 2.%X9X5X$XpXM.N O . * * = 3 #.5.7.U Y p.-X1X1X1X1X;X#Xk.d.d.u.t.>.L K K z U U G G C C V V D D D D D D D D D D D D D D D D D D D D D D D D L L >.u.x.x.x.x.u.<.>.u.u.u.>.c D D D D D D D D D D D D D D D D D D D D D D D D G U 7.U C U a.S.*X@X*X0Xh.i   < # @ # 1 _ i.] J J t.-X,X,X-X>X7Xf.f.d.,.,.d.f.f.u.u.u.u.u.u.u.u.x.l.u.t.>.>.L L d 1.-X0X7X:X>XeXm O   ; , X > ~ Z q.-.c R -XuX2X,X,X<Xh.L z @.*.=.>.u.x.x.x.u.u.u.u.u.u.u.u.u.u.p.b.b.b.p.r.Y P I I Y Y Y Y I I f 1.-X0X7X:X>XeXm O   ; , X > ~ Z q.-.c R -XuX2X,X,X-Xu.K h j A a Y s.Z.b.p.p.b.P P P P P P P P D D D D D D D D D G G U U 7.7.8.>.>.u.x.x.x.l.u.r.u.u.u.u.>.=.L 8.7.7.U U G G D D G G U U 7.7.8.f 1.-X0X7X:X>XeXm O   ; , X > ~ Z -.-.c R -XuX2X,X,X<Xh.=.z @.5.o.P.W.(.kXjXDX",
"% 6 R.bXnXnXmX}.P.o.l x s V w o.S V V V C P U ) i.p.p.g.B.m.N.N.u.u.u.u.u.u.u.u.>.>.>.>.>.L L L V S S D D U K L L b R 2.%X9X5X$XpXM.N O . * * = 3 #.5.7.U ) p.-X1X1X1X1X;X#Xk.d.d.u.t.>.L L K z U U G G C C V V D D D D D D D D D D D D D D D D D D D D D D D D L >.r.u.x.x.x.x.u.r.>.u.u.u.>.c D D D D D D D D D D D D D D D D D D D D D D D D G ( 7.U C U a.S.*X@X*X0XM.i   < # @ # 1 _ i.] J J t.-X,X,X-X>X7Xj.f.d.t.t.d.f.h.u.u.u.u.u.u.u.u.x.x.u.u.>.=.L L d 1.-X0X7X:X>XeXm O   ; , X > ~ Z q.-.c R -XuX2X,X,X<Xh.L z @.*.=.>.u.x.x.x.u.u.u.u.u.u.u.u.u.u.p.b.b.b.p.r.Y P I I Y Y I I I I f 1.-X0X7X:X>XeXm O   ; , X > ~ Z q.-.c R -XuX2X,X,X-Xu.K h j A a Y s.Z.b.p.p.b.P P P P P P P P D D D D D D D D D G G U U 7.7.8.>.>.u.x.x.x.u.u.>.u.u.u.u.>.Y L 8.7.7.U U G G D D G G U U 7.7.8.f 1.-X0X7X:X>XeXm O   ; , X > ~ Z -.-.c R -XuX2X1X,X<Xh.L z @.5.o.P.W.(.hXDXDX",
"% 6 R.bXnXnXmX}.P.o.l x s V ! 6.S V V V C D U ) i.p.p.g.B.m.N.N.u.u.u.u.u.u.u.u.>.>.>.>.=.L L L V S S D D U K L L b R 2.%X9X5X$XpXM.N O . * * = 3 #.5.7.U ) p.-X1X1X1X1X;X#Xk.d.d.u.t.>.L K K z U U G G C C V V D D D D D D D D D D D D D D D D D D D D D D D D Y >.u.l.x.x.x.x.u.u.>.u.u.u.>.c H D D D D D D D D D D D D D D D D D D D D D D D G U 7.U C U a.S.*X@X*X0XM.i   < # @ # 1 _ i.] J J t.-X,X,X-X,X7Xj.f.d.t.t.d.f.h.u.u.u.u.u.u.u.u.x.u.u.t.>.>.L L d 1.-X0X7X:X>XeXm O   ; , X > ~ Z -.-.c R -XuX2X,X,X<Xh.L z @.*.=.>.u.x.x.x.u.u.u.u.u.u.u.u.u.u.s.b.b.b.p.r.Y P Y Y Y Y I I I I f 1.-X0X7X:X>XeXm O   ; , X > ~ Z -.-.c R -XuX2X1X,X-Xu.K h j A a Y s.Z.b.p.p.b.P P P P P P P P D D D D D D D D D G G U U 7.7.8.=.>.u.l.x.x.u.u.>.u.u.u.u.>.Y L 8.7.7.U U G G D D G G U U 7.7.8.f 1.-X0X7X:X>XeXm O   ; , X > ~ Z -.-.c R -XuX2X1X,X<Xh.L z @.5.o.P.W.(.jXDXDX",
"& ..R.bXnXnXmX}...o.z x c C ! w 4 V V C G U U Y I ] ] { g.g.m.B.u.u.u.u.u.u.u.u.>.Y L L L c c H V S S D G U K L L b R 2.%X9X5X$XpXM.N O . * * = 3 #.5.7.U ) p.A.1X1X1X1X;X#Xk.d.h.h.u.r.>.=.=.K 8.U G C V V C C D D D D D D D D D D D D D D D D D G G U U 7.7.8.>.>.u.x.x.x.u.u.u.u.>.r.u.u.>.H D D D D D D D D D G G U U 7.7.7.7.U G C V V C C G U 7.U C U a.S.*X@X*X0XM.i X < # @ # 1 _ i.] J J t.-X7X,X-X>X7Xf.f.f.f.f.f.f.f.u.u.u.u.u.u.u.u.x.x.u.u.>.>.L L d 1.-X0X7X:X>XeXm O   ; , X > ~ Z -.-.c R -XuX2X,X,X<Xh.L z @.*.K Y >.u.u.u.u.r.u.u.u.u.u.u.u.u.s.b.b.b.p.r.Y P I I Y Y Y Y I I f 1.-X0X7X:X>XeXm O   ; , X > ~ Z -.-.c R -XuX2X,X,X-Xu.K h j A a Y s.Z.b.p.p.b.] ) ) Y I P P P D D D D D D D D D G G U U 7.7.=.Y Y >.u.u.u.u.>.u.u.x.x.x.u.>.=.8.7.7.U U G G D U U U U U U U U f 1.-X0X7X:X>XeXm O   ; , X > ~ Z -.-.c R -XuX2X,X,X:Xh.L z @.5.e.I.W.(.jXSXSX",
"& ..R.bXnXnXmX}...o.l x c C ! w 4 V V C G U U Y I ] ] { g.g.m.B.u.u.u.u.u.u.u.u.>.Y L L L c c H V S S D G U K L L b R 2.%X9X5X$XpXM.N O . * * = 3 #.5.7.U ) p.=X1X1X1X1X;X#Xk.d.h.h.u.r.>.=.&.K 8.U G C V V C C D D D D D D D D D D D D D D D D D G G U U 7.7.8.>.>.u.x.x.x.u.u.u.u.>.r.u.u.>.H D D D D D D D D D G G U U 7.7.7.7.U G C V V C C G U 7.U C U a.S.*X@X*X0Xh.i X < # @ # 1 _ i.] J J t.-X7X,X-X,X7Xf.f.f.f.f.f.f.f.u.u.u.u.u.u.u.u.x.h.u.u.>.>.L L d 1.-X0X7X>X>XeXm O   ; , X > ~ Z -.-.c R -XuX2X,X,X<Xx.L z @.*.K Y >.u.u.u.u.r.u.u.u.u.u.u.u.u.s.b.b.b.p.r.Y P I I I Y Y Y I J f 1.-X0X7X>X>XeXm O   ; , X > ~ Z -.-.c R -XuX2X,X,X-Xu.K h j A a Y p.Z.b.p.p.b.] ) ) Y I P P P D D D D D D D D D G G U U 7.7.8.Y Y >.u.u.u.u.u.u.u.x.x.x.u.>.=.8.7.7.U U G G D U U U U U U U U f 1.-X0X7X:X>XeXm O   ; , X > ~ Z -.-.c R -XuX2X,X,X:Xh.L z @.5.e.I.W.(.jXSXSX",
"& ..R.bXnXnXmX}...o.l x z C ! w 4 V V C D U U Y I ] ] { g.B.m.B.u.u.u.u.u.u.u.u.>.>.L L L K c H V S S D G U K L L b R 2.%X9X5X$XpXM.N O . * * = 3 #.5.7.U ) p.=X1X1X1X1X;X#Xk.d.j.h.u.u.>.=.L K 8.U G C V V C C D D D D D D D D D D D D D D D D D G G U U 7.7.8.>.>.u.x.x.x.u.u.u.r.>.r.u.u.>.c D D D D D D D D D G G U U 7.7.7.7.U G C V V C C G U 7.U C U a.S.*X@X*X0Xh.i   < # @ # 1 _ i.] J J t.-X,X,X-X>X7Xf.f.f.f.f.f.f.f.u.u.u.u.u.u.u.u.x.u.u.u.>.>.L L d 1.-X0X7X:X>XeXm O   ; , X > ~ Z -.-.c R -XuX2X,X,X<Xx.L z @.*.K Y >.u.u.u.u.r.u.u.u.u.u.u.u.u.s.b.b.b.p.r.Y P I I Y Y Y Y I J f 1.-X0X7X:X>XeXm O   ; , X > ~ Z -.-.c R -XuX2X,X,X-Xu.K h j A a Y p.Z.b.p.p.b.] ) ) Y I P P P D D D D D D D D D G G U U 7.7.8.Y Y >.u.u.u.u.r.u.x.x.x.x.u.>.=.8.7.7.U U G G D U U U U U U U U f 1.-X0X7X:X>XeXm O   ; , X > ~ Z -.-.c R -XuX2X,X,X<Xh.L z @.5.e.I.W.(.jXSXSX",
"& ..R.bXnXnXmX}...o.l x z C ! w 4 V V C D U U Y Y ] ] { g.B.m.B.u.u.u.u.u.u.u.u.>.Y L L L K c H V S S D G U K L L b R 2.%X9X5X$XpXM.N O . * * = 3 #.5.7.U Y p.-X1X1X1X1X;X#Xk.d.j.h.u.u.>.=.L K 8.U G C V V C C D D D D D D D D D D D D D D D D D G G U U 7.7.8.>.>.u.x.x.x.u.u.u.r.>.r.u.u.>.c D D D D D D D D D G G U U 7.7.7.7.U G C V V C C G U 7.U C U V.S.*X@X*X0Xh.i X < # @ # 1 _ i.] J J t.-X,X,X-X>X7Xf.f.f.f.f.f.f.f.u.u.u.u.u.u.u.u.x.h.u.u.>.>.L L d 1.-X0X7X:X>XeXm O   ; , X > ~ Z -.-.c R -XuX2X,X,X<Xh.L z @.*.K Y >.u.u.u.u.>.u.u.u.u.u.u.u.u.s.b.b.b.p.r.Y P I I Y Y Y Y Y J f 1.-X0X7X:X>XeXm O   ; , X > ~ Z -.-.c R -XuX2X,X,X-Xu.K h j z a Y p.Z.b.p.p.b.] ) ) Y I P P P P D D D D D D D D G G U U 7.7.8.Y Y >.u.u.u.u.r.u.x.x.x.x.u.>.=.8.7.7.U U G G D U U U U U U U U f 1.-X0X7X:X>XeXm O   ; , X > ~ Z -.-.c R -XuX2X1X,X<Xh.L z @.5.e.I.W.(.jXSXSX",
"& X.R.`.mXnXmX}...o.l x x Z w w 4 V V C G U U Y Y ] ] { g.B.N.B.u.u.u.u.u.u.u.u.>.L L L L K c H V S S D G U K L L b R 2.%X9X5X$XpXM.N O . * * = 3 #.5.7.U Y p.-X1X1X1X1X;X#Xk.d.j.h.u.u.>.=.L K 8.U G C V V C C D D D D D D D D D D D D D D D D D G G U U 7.7.=.>.>.u.x.x.x.x.u.u.>.>.r.u.u.>.c D D D D D D D D D G G U U 7.7.7.7.U G C V V C C G U 7.U D U a.S.*X@X*X0Xh.i   < # @ # 1 _ i.] J J t.-X,X,X-X,X7Xf.f.f.f.f.f.f.f.u.u.u.u.u.u.u.u.x.u.u.r.>.>.L L d 1.-X0X7X:X>XeXm O   ; , X > ~ Z -.-.c R -XuX2X,X,X<Xh.=.z @.*.K Y >.u.u.u.u.r.u.u.u.u.u.u.u.u.s.b.b.b.p.] Y P I Y Y Y Y Y Y J f 1.-X0X7X:X>XeXm O   ; , X > ~ Z -.-.c R -XuX2X,X,X-Xu.c h j z a Y p.Z.b.i.p.b.] ) ) Y I P P P D D D D D D D D D G G U U 7.7.8.Y Y >.u.u.u.u.>.u.u.x.x.x.u.>.=.8.7.7.U U G G D U U U U U U U Y f 1.-X0X7X:X>XeXm O   ; , X > ~ Z -.-.c E -XuX2X,X,X<Xh.=.z @.5.e.I.W.(.hXSXSX",
"& X.R.`.mXnXmX}...o.l x x Z w w 4 V V C D U U Y Y ] ] { g.B.N.B.u.u.u.u.u.u.u.u.E Y L L L K c H V S V D G U K L L b R 2.%X9X5X$XpXM.N O . * * = 3 #.5.7.U Y p.-X1X1X1X1X;X#Xk.d.j.h.u.r.>.=.L K 8.U G C V V C C D D D D D D D D D D D D D D D D D G G U U 7.7.8.>.>.u.x.x.x.l.u.u.>.>.r.u.u.>.c D D D D D D D D D G G U U 7.7.7.7.U G C V V C C G U 7.U C U a.S.*X@X*X0Xh.i   < # @ # 1 _ i.] J J t.-X,X,X-X,X7Xf.f.f.f.f.f.f.f.u.u.u.u.u.u.u.u.x.l.u.u.>.>.L L d 1.-X0X7X:X>XeXm O   ; , X > ~ Z q.-.c R -XuX2X,X,X<Xh.L z @.*.K Y >.u.u.u.u.r.u.u.u.u.u.u.u.u.s.b.b.b.p.] Y P I Y Y Y Y Y Y J f 1.-X0X7X:X>XeXm O   ; , X > ~ Z q.-.c R -XuX2X,X,X-Xu.c h j z a Y p.Z.b.i.p.b.] ) ) Y I P P P D D D D D D D D D G G U U 7.7.8.Y Y >.u.u.u.u.>.u.u.x.x.x.u.>.=.8.7.7.U U G G D U U U U U U U U f 1.-X0X7X:X>XeXm O   ; , X > ~ Z -.-.c E :XuX2X,X,X<Xh.=.z @.5.e.I.W.(.hXSXSX",
"& X.R.`.mXnXmX}...o.l x n C w w 4 V V C D U U Y I E ] { g.B.N.B.u.u.u.u.u.u.u.u.>.Y L L L c c H V S S D G U K L R b R 2.%X9X5X$XpXM.N O . * * = 3 #.5.7.U Y p.A.1X1X1X1X;X#Xk.d.j.h.u.u.>.=.L K 8.U G C V V C C D D D D D D D D D D D D D D D D D G G U U 7.7.8.>.>.u.x.x.x.x.u.u.u.>.r.u.u.>.c D D D D D D D D D G G U U 7.7.7.7.U G C V V C C G U 7.U C U a.S.*X@X*X0Xh.i X < # @ # 1 _ i.] J J t.-X,X,X-X,X7Xf.f.f.f.f.f.f.f.u.u.u.u.u.u.u.u.x.x.u.u.>.>.L L d 1.-X0X7X:X>XeXm O   ; , X > ~ Z q.-.c R -XuX2X1X,X<Xh.L z @.*.L >.>.u.u.u.u.r.u.u.u.u.u.u.u.u.s.b.b.b.p.r.Y P Y Y Y Y Y Y Y J f 1.-X0X7X:X>XeXm O   ; , X > ~ Z q.-.c R -XuX2X1X,X-Xu.K h j A a Y n.Z.b.p.p.b.] ) ) Y I P P P D D D D D D D D D G G U U 7.7.8.Y Y >.u.u.u.u.>.u.u.x.x.x.u.>.=.8.7.7.U U G G D U U U U U U U U f 1.-X0X7X:X>XeXm O   ; , X > ~ Z -.-.c R -XuX2X,X,X:Xh.L z @.5.e.I.W.(.hXSXSX",
"& X.R.`.mXnXmX`...o.l x x C ! ^ S V V C D U U U Y ) ] [ p.B.N.M.u.u.u.u.u.u.u.u.=.=.Y L K K K H V S S D G U K L R b R 2.%X9X5X$XpXM.N O . * * = 3 #.5.7.U Y p.A.1X1X1X1X-Xj.k.d.j.h.u.t.>.>.L L 8.U G C V V C C D D D D D D D G G G G G G G G D D G U U U ( 8.8.>.>.u.h.x.x.h.u.u.r.>.r.u.u.=.c D D D D D D D D D G G U U 7.7.7.7.U G C V V C C G U 7.U C U a.S.*X@X*X0Xh.i X < # @ # 1 _ i.] J J ,.-X,X,X-X,X7Xf.f.f.f.f.f.f.f.u.u.u.u.u.u.u.u.x.x.u.u.>.>.L L d 1.-X0X7X:X>XeXm O   ; , X > ~ Z -.-.c R -XuX2X,X,X<Xh.L z @.*.L >.>.u.u.u.u.r.u.u.u.u.u.u.u.u.p.b.b.b.a.8.Y P Y U Y U Y U Y Y f 1.-X0X7X:X>XeXm O   ; , X > ~ Z -.-.c R -XuX2X1X,X-Xu.K h j A a Y p.Z.b.p.p.b.] ) ) Y I P P P D D D D D D D D D G G U U 7.7.8.Y Y >.u.u.u.u.r.u.u.x.x.x.u.>.>.8.8.( U U U P D U U U U U U U Y f 1.-X0X7X:X>XeXm O   ; , X > ~ Z -.-.c R :XuX2X,X,X<Xx.L z @.5.e.I.W.(.jXSXSX",
"& X.[.bXnXnXnXbX..X.%.x n H / / S V V C G G U U U ( 8.9.a.b.b.C.a.y.8.U U U ( =.U U U U U U U U S S S D G U K L L b R 2.%X9X5X$XpXM.N O . * * = 3 #.5.7.U Y p.A.:X<X<X<X-Xj.k.t.f.f.f.f.f.f.f.u.a.0.8.( U U 7.7.D D D D D D D G F F F F Z Z G G D U U ( r.i.p.p.f.k.f.f.f.u.u.u.>.>.-.=.=.&.&.&.D G D D D G D D V C C G ( 8.9.9.7.U G C V V C C G U 7.U D U V.S.*X@X*X0Xh.i X < # @ # 1 _ i.] J J t.-X,X,X-X,X7Xj.j.j.j.j.j.j.h.x.x.x.x.x.x.x.x.x.x.u.u.>.>.L L d 1.-X0X7X:X>XeXm O   , , X > ~ Z -.-.c R -XuX2X,X,X:Xh.L z @.*.=.>.u.x.x.x.u.u.u.u.x.x.x.u.>.>.U ( 8.8.( U D C D G U U U 7.8.) f 1.-X0X7X:X>XeXm O   , , X > ~ Z -.-.c R -XuX2X,X,X-Xu.K h j A a Y p.Z.b.p.p.b.] ) ) Y I P P P D D D D D D D D V V C C G G U U L L L Y >.>.>.>.u.u.u.u.u.u.u.u.i.a.p.p.p.i.) Y Y U Y U Y U U I f 1.-X0X7X:X>XeXm O   , , X > ~ Z -.-.c R -XuX2X2XaX7Xc.>.&.*.e.e..XW.(.jXJXJX",
"- X.[.bXnXnXnXbX..X. .x c H / ! V V C C G G U U U U 7.9.0.a.V.C.a.0.8.( U U 7.7.U U U U U U U G S S S D G U K L R b R 2.%X9X5X$XpXM.N O . * * = 3 #.5.7.U Y p.A.:X:X,X:X-Xj.f.d.f.f.f.f.f.f.f.f.a.0.8.( U U 7.7.D D D D D D D G F 3 F F F Z S G D U U ) ] i.p.g.k.k.k.k.f.f.u.u.>.-.-.=.&.&.@.A C G D D D D D D V C C U ( 8.9.9.7.U G C V V C C G U 7.U C U a.S.*X@X*X0Xh.i   < # @ # 1 _ i.] J J t.-X,X,X-X,X7Xj.j.j.j.j.j.j.h.x.x.x.x.x.x.x.x.x.x.u.u.>.>.L L d 1.-X0X7X:X>XeXm O   , , X > ~ Z -.-.c R -XuX2X,X,X:Xh.L z @.*.=.>.u.u.x.x.u.u.u.u.x.x.x.u.>.=.U ( 7.7.7.U C V D G G U U 7.7.8.f 1.-X0X7X:X>XeXm O   , , X > ~ Z -.-.c R -XuX2X,X,X-Xu.K h j A a Y p.Z.b.p.p.b.] ) ) Y I P P P D D D D D D D D V C C C G G U U L L L =.>.>.>.>.u.u.u.u.u.u.u.u.i.p.p.s.p.i.) Y Y Y Y Y I I I J f 1.-X0X7X:X>XeXm O   , , X > ~ Z -.-.c R -XuX2X2XaX7Xc.>.&.*.q.e..XQ.(.jXJXJX",
"- X.[.bXnXnXnXbXL.X. .x c H / ! V V C C G G U U U U ( 8.0.a.V.V.a.0.8.( U U 7.7.U U U U U U U U S S S D G U K L R b R 2.%X9X5X$XpXM.N O . * * = 3 #.5.7.U ) p.A.:X:X>X:X-Xj.f.d.f.f.f.f.f.f.f.f.a.0.8.( U U 7.7.D D D D D D D G F 3 F F F Z G G D U U ) ] p.p.g.k.k.k.k.f.f.u.u.>.-.=.*.&.@.A A C D D D D D D D V C C G ( 8.9.9.7.U G C V V C C G U 7.U C U a.S.*X@X*X0Xh.i X < # @ # 1 _ i.] J J t.-X,X,X-X>X7Xj.j.j.j.j.j.j.h.x.x.x.x.x.x.x.x.x.x.u.u.>.>.L L d 1.-X0X7X:X>XeXm O   ; , X > ~ Z -.-.c R -XuX2X,X,X<Xh.L z @.*.=.>.u.u.u.u.u.u.u.x.x.x.x.u.>.=.U ( 7.8.7.U C V D G G U U 7.7.8.f 1.-X0X7X:X>XeXm O   ; , X > ~ Z -.-.c R -XuX2X1X,X-Xu.K h j A a Y s.Z.b.p.p.b.] ) ) Y I P P P D D D D D D D D V V C C G G U U L L L =.>.>.>.>.u.u.u.u.u.u.u.u.i.p.p.s.p.i.) Y Y Y Y Y Y Y I J f 1.-X0X7X:X>XeXm O   ; , X > ~ Z -.-.c R -XuX2X2XaX7Xc.>.&.*.q.e..XQ.(.jXJXJX",
"- X.[.bXnXnXnXbXL.X. .x c H / ! V C C C G G U U G G U 7.9.0.a.V.a.0.8.( U U 7.7.U U U U U U U U S S S D D U K K R b R 2.%X9X5X$XpXM.N O . * * = 3 #.5.7.U ) p.A.:X:X,X:X-Xj.f.t.f.f.f.f.f.f.f.f.a.0.8.( U U 7.7.D D D D D D D G F 3 F F F F G G D U U ) ] p.p.g.k.k.k.k.f.f.u.u.=.=.=.&.K A A A C D D D D D D D V C C G ( 8.9.9.7.U G C V V C C G U 7.U C U a.S.*X@X*X0Xh.i X < # @ # 1 _ i.] J J t.-X,X,X-X,X7Xj.j.j.j.j.j.j.h.x.x.x.x.x.x.x.x.x.x.u.u.>.>.L L d 1.-X0X7X:X>XeXm O   ; , X > ~ Z -.-.c R -XuX2X1X,X<Xh.L z @.*.L >.>.u.u.u.u.u.u.x.x.x.x.u.>.=.U ( 7.8.7.U C V D G G U U 7.7.8.f 1.-X0X7X:X>XeXm O   ; , X > ~ Z -.-.c R -XuX2X1X,X-Xu.K h j A a Y s.Z.b.p.p.b.] ) ) Y I P P P D D D D D D D D V V C C G G U U L L L =.>.>.>.>.u.u.u.u.u.u.u.u.i.p.p.s.p.i.) Y Y Y Y Y Y I I J f 1.-X0X7X:X>XeXm O   ; , X > ~ Z -.-.c R -XuX2X2XaX7Xc.>.&.*.q.e..XQ.(.jXJXJX",
"- X.[.NXnXnXnXcX..X. .x c H / / V V C C G G U U C G U ( 8.9.0.a.a.0.8.( U U 7.7.U U U U U U U U S S S D D U K L L b R 2.%X9X5X$XpXM.N O . * * = 3 #.5.7.U ) p.A.:X:X,X:X-Xj.f.d.f.f.f.f.f.f.f.f.a.0.8.( U U 7.7.D D D D D D D G F 3 F F F S G G D U U ) ] p.p.g.k.k.k.k.f.f.f.u.=.=.K K A z l z C D D D D D D D V C C G ( 7.9.9.7.U G C V V C C G U 7.U C U a.S.*X@X*X0Xh.i   < # @ # 1 _ i.] J J t.-X,X,X-X,X7Xj.j.j.j.j.j.j.h.x.x.x.x.x.x.x.x.x.h.u.u.>.>.L L d 1.-X0X7X:X>XeXm O   ; , X > ~ Z -.-.c E -XuX2X,X,X<Xh.L z @.*.K L >.u.u.u.u.>.u.u.x.x.x.u.>.=.U ( 7.8.7.U C V D G G U U 7.7.8.f 1.-X0X7X:X>XeXm O   ; , X > ~ Z -.-.c E -XuX2X1X,X-Xu.K h j A a Y s.Z.b.p.p.b.] ) ) Y I P P P D D D D D D D D V V C C G G U U L L L >.>.>.>.>.u.u.u.u.u.u.u.u.i.p.p.s.p.i.) Y Y Y Y Y Y Y Y J f 1.-X0X7X:X>XeXm O   ; , X > ~ Z -.-.c E -XuX2X2XaX7Xx.>.&.&.q.e..XQ.(.jXJXJX",
"- X.[.NXnXnXnXcX..X. .x c H / ! V V C C G G U U C C G U 7.9.0.0.a.0.8.( U U 7.7.U U U U U U U U S S S D D U K L L b R 2.%X9X5X$XpXM.N O . * * = 3 #.5.7.U ) p.A.:X:X,X:X-Xj.f.d.f.f.f.f.f.f.f.f.a.0.8.( U U 7.7.D D D D D D D G F 3 F F F S G G D U U ) ] p.p.g.k.k.k.k.f.f.f.u.L L K A z z l j C D D D D D D D V C C G ( 7.9.9.7.U G C V V C C G U 7.U C U a.S.*X@X*X0Xh.i X < # @ # 1 _ i.] J J t.-X,X,X-X,X7Xj.j.j.j.j.j.j.h.x.x.x.x.x.x.x.x.x.x.u.u.>.E L L f 1.-X0X7X:X>XeXm O   ; , X > ~ Z -.-.c E :XuX2X,X,X<Xh.L z @.*.K L >.>.u.u.>.>.u.u.x.x.x.u.>.=.U ( 7.8.7.U C V D G G U U 7.7.8.f 1.-X0X7X:X>XeXm O   ; , X > ~ Z -.-.c E :XuX2X,X,X-Xu.K h j A a Y p.Z.b.p.p.b.] ) ) Y I P P P D D D D D D D D V V C C G G U U L L L >.>.>.>.>.u.u.u.u.u.u.u.u.i.p.p.s.p.i.) Y I Y Y Y Y Y Y J f 1.-X0X7X:X>XeXm O   ; , X > ~ Z -.-.c E :XuX2X2XaX7Xc.>.&.&.q.e..XQ.(.jXJXJX",
"- X.[.NXnXnXnXbX..X.4 x c H / / V V C C G G U U V C D U ( 8.9.0.a.0.8.( U U 7.7.U U U U U U U U S S S D G U K L L b R 2.%X9X5X$XpXM.N O . * * = 3 #.5.7.U ) p.A.:X:X,X:X-Xj.f.d.f.f.f.f.f.f.f.f.a.0.8.( U U 7.7.D D D D D D D G F 3 F F F S G G D U U ) ] p.p.g.k.k.k.k.f.f.f.u.L K K z z l j j C D D D D D D D V C C G ( 8.9.9.7.U G C V V C C G ( 7.U C U a.S.*X@X*X0Xh.i   < # @ # 1 _ i.] J J t.-X7X>X-X,X7Xj.j.j.j.j.j.j.h.x.x.x.x.x.x.x.x.x.x.u.u.>.>.L L f 1.-X0X7X:X>XeXm O   ; , X > ~ Z -.-.c R -XuX2X,X,X<Xh.L z @.*.K L >.>.r.>.>.>.u.u.x.x.x.u.>.=.U ( 7.8.7.U C V D G G U U 7.7.8.f 1.-X0X7X:X>XeXm O   ; , X > ~ Z -.-.c R -XuX2X,X,X-Xu.K h j A a Y p.Z.b.p.p.b.] ) ) Y I P P P D D D D D D D D V V C C G G U U L L L >.>.>.>.>.u.u.u.u.u.u.u.u.i.p.p.s.p.i.) ) Y Y Y Y I I Y J f 1.-X0X7X:X>XeXm O   ; , X > ~ Z -.-.c R -XuX2X2XaX7XS.>.&.&.q.w..XQ.(.jXJXJX",
"- X.[.NXnXnXnXbX..X. .x c H / / V V C C G G U U V C C G U 7.9.9.a.0.8.( U U 7.7.U U U U U U U U S S S D G K K L L b R 2.%X9X5X$XpXM.N O . * * = 3 #.5.7.U Y p.A.:X:X,X:X-Xj.f.d.f.f.f.f.f.f.f.f.a.0.8.( U U 7.7.D D D D D D D G F 3 F F F S G G D U U ) ] p.p.g.k.k.k.k.f.f.f.u.L K K z z j j j C D D D D D D D V C C G ( 8.9.9.7.U G C V V C C G ( 7.U C U V.S.*X@X*X0Xh.i   < # @ # 1 _ i.] J J t.-X7X>X-X>X7Xj.j.j.j.j.j.j.h.x.x.x.x.x.x.x.x.x.x.u.u.>.>.L L f 1.-X0X7X:X>XeXm O   ; , X > ~ Z -.-.c R :XuX2X,X,X<Xh.L z @.*.c L Y >.>.>.>.>.u.u.x.x.x.u.>.=.U ( 7.7.7.U C V D G G U U 7.7.8.f 1.-X0X7X:X>XeXm O   ; , X > ~ Z -.-.c R :XuX2X,X,X-Xu.K h j z a Y p.Z.b.p.p.b.] ) ) Y I P P P P D D D D D D D V V C C G G U U L L L Y >.>.>.>.u.u.u.u.u.u.u.u.i.p.p.s.p.i.) ) I Y Y Y I Y Y J f 1.-X0X7X:X>XeXm O   ; , X > ~ Z -.-.c R :XuX2X2XaX7XS.>.&.&.q.w..XQ.(.jXJXJX",
"5 O.[.NXnXnXnX`.L.X. .z c H / / G D D D D D D D D G G U U 7.7.7.0.0.0.0.0.0.0.0.D D D D D D D G S S S D D U K K L b R 2.%X9X5X$XpXM.N O . * * = 3 #.5.7.U Y p.A.rX7X,X,X-Xj.d.W ,.t.d.d.f.h.j.x.a.0.8.U U U ( 7.V V V V V V V V 4 4 4 4 F G G U U ( ) r.p.s.M.M.k.k.k.k.f.f.u.u.c c z z z z z z C D D D D D D D D G U 7.9.0.a.a.a.0.7.G C C C C G U 7.U C U a.S.*X@X*X0Xh.i   < # @ # 1 _ i.] J J t.-X,X,X-X,X7Xj.j.j.j.j.j.j.h.x.x.x.x.x.x.x.x.x.l.u.u.>.>.L L d 1.-X0X7X:X>XeXm O   ; , X > ~ Z -.-.c R -XuX2X,X,X-Xu.K h j z k c L L >.Y L L u.u.x.x.x.u.>.=.D D D D D D D D D G G U U 7.7.8.f 1.-X0X7X:X>XeXm O   ; , X > ~ Z -.-.c R -XuX2X,X,X-Xu.c h j z a Y p.Z.b.i.p.b.] ) ) Y I P P P D D D D D D D D D D D D D D D D k c L L >.Y L L u.u.u.u.u.u.u.u.p.b.b.b.p.r.Y P I I Y Y Y Y Y J f 1.-X0X7X:X>XeXm O   ; , X > ~ Z -.-.c R -XuX2X2X,X-Xx.l.q.-.5.w..XQ.(.jXCXSX",
"5 O.[.NXnXnXnX`...X. .z c H / / G D D D D D D D D G G U U 7.7.7.9.9.9.9.9.9.9.9.D D D D D D D G S S S D G U K L L b R 2.%X9X5X$XpXM.N O . * * = 3 #.5.7.U Y p.A.rX7X,X,X-Xj.t.W ,.t.d.d.f.h.j.x.a.0.9.( U U 7.7.V V V V V V V V 4 3 4 4 F G G U U ( ) r.p.s.M.M.k.k.k.k.f.f.u.u.c c z z z z z z C D D D D D D D D G U 7.9.0.a.a.a.0.7.G C C C C G U 7.U C U a.S.*X@X*X0Xh.i X < # @ # 1 _ i.] J J t.-X,X,X-X,X7Xj.j.j.j.j.j.j.h.x.x.x.x.x.x.x.x.x.u.u.t.>.>.L L d 1.-X0X7X:X>XeXm O   ; , X > ~ Z -.-.c R -XuX2X,X,X-Xu.K h j z k c L L >.Y L L u.u.x.x.u.u.>.=.D D D D D D D D D G G U U 7.7.8.f 1.-X0X7X:X>XeXm O   ; , X > ~ Z -.-.c R -XuX2X,X,X-Xu.c h j z a Y p.Z.b.i.p.b.] ) ) Y I P P P D D D D D D D D D D D D D D D D k c L L >.Y L L u.u.u.u.u.u.u.u.p.b.b.b.p.r.Y P I I Y Y Y Y I I f 1.-X0X7X:X>XeXm O   ; , X > ~ Z -.-.c R -XuX2X2X,X-Xx.l.q.-.5.w..XQ.(.jXCXSX",
"5 O.[.NXnXnXnX`...X. .x c H / ! G D D D D D D D D G G U U 7.7.7.9.9.9.9.9.9.9.9.D D D D D D D G S S S D D U K L L b R 2.%X9X5X$XpXM.N O . * * = 3 #.5.7.U Y p.A.rX7X,X,X-Xh.t.W ,.t.d.d.f.h.j.x.s.a.9.7.( 7.7.9.C C C C C C C V 4 4 4 4 F G G U U ( ) r.p.s.M.M.k.k.k.k.f.f.u.u.c c z z z z l z C D G G D D D D D G U 7.9.0.a.a.a.0.7.G C C C C G U 7.U C U a.S.*X@X*X0Xh.i X < # @ # 1 _ i.] J J t.-X,X,X-X,X7Xj.j.j.j.j.j.j.h.x.x.x.x.x.x.x.x.x.l.u.u.>.>.L L d 1.-X0X7X:X>XeXm O   ; , X > ~ Z -.-.c E -XuX2X1X,X-Xu.K h j z k c L L >.=.L L u.u.u.u.u.u.>.=.D D D D D D D D D G G U U 7.7.8.f 1.-X0X7X:X>XeXm O   ; , X > ~ Z -.-.c E -XuX2X1X,X-Xu.K h j A a Y n.Z.b.p.p.b.] ) ) Y I P P P D D D D D D D D D D D D D D D D a c L L >.Y L L u.u.u.u.u.u.u.u.s.b.b.b.p.r.Y P I I Y Y I I I I f 1.-X0X7X:X>XeXm O   ; , X > ~ Z -.-.c E -XuX2X2X,X-Xx.l.q.-.5.w..XQ.(.jXCXSX",
"5 O.[.NXnXnXnX`...X. .x c H / ! G D D D D D D D D G G U U 7.7.7.8.8.8.8.8.8.8.8.D D D D D D D G S S V C D U K L R b R 2.%X9X5X$XpXM.N O . * * = 3 #.5.7.U Y p.A.rX7X,X,X-Xh.t.W ,.t.d.d.f.h.j.x.b.a.0.8.7.7.9.9.C C C C C C C V 4 4 4 4 F G G U U ( ) r.p.s.M.M.k.k.k.k.f.f.u.u.c c z z z z l z C G G G D D D D D G U 7.9.0.a.a.a.0.7.G C C C C U ( 7.U C U a.S.*X@X*X0Xh.i X < # @ # 1 _ i.] J J ,.-X,X,X-X,X7Xj.j.j.j.j.j.j.h.x.x.x.x.x.x.x.x.x.x.u.u.>.=.L L d 1.-X0X7X:X>XeXm O   ; , X > ~ Z -.-.c E :XuX2X1X,X-Xu.K h j z k c L L >.L L L u.u.u.u.u.>.>.L D D D D D D D D D G G U U 7.7.8.f 1.-X0X7X:X>XeXm O   ; , X > ~ Z -.-.c E :XuX2X1X,X-Xu.K h j A a Y p.Z.b.p.p.b.] ) ) Y I P P P D D D D D D D D D D D D D D D D a c L L >.=.L L u.u.u.u.u.u.u.u.s.b.b.b.p.r.Y P I I Y Y Y I I I f 1.-X0X7X:X>XeXm O   ; , X > ~ Z -.-.c E :XuX2X2X,X-Xx.l.q.-.5.w..XQ.(.jXCXSX",
"5 O.[.NXnXnXnX`...X. .x c H / ! G D D D D D D D D G G U U 7.7.7.7.7.7.7.7.7.7.7.D D D D D D D G S S V C G U K L R b R 2.%X9X5X$XpXM.N O . * * = 3 #.5.7.U Y p.A.rX7X,X,X-Xj.d.W ,.t.d.d.f.h.j.x.C.V.a.9.9.9.9.0.G G G G G G G G 4 4 4 4 F Z G U U ( ) r.p.s.M.M.k.k.k.k.f.f.f.u.c c z z z z l z C D G G G D D D D G U 7.9.0.a.a.a.0.7.G C C C C G U 7.U C U a.S.*X@X*X0Xh.i   < # @ # 1 _ i.] J J t.-X,X,X-X,X7Xj.j.j.j.j.j.j.h.x.x.x.x.x.x.x.x.x.h.u.u.>.>.L L d 1.-X0X7X:X>XeXm O   ; , X > ~ Z -.-.c R -XuX2X1X,X-Xu.K h j z k c L L E Y L L >.u.u.u.u.>.L L D D D D D D D D D G G U U 7.7.Y f 1.-X0X7X:X>XeXm O   ; , X > ~ Z -.-.c R -XuX2X1X,X-Xu.K h j A a Y s.Z.b.p.p.b.] ) ) Y I P P P D D D D D D D D D D D D D D D D a v L L >.Y L L u.u.u.u.u.u.u.u.s.b.b.b.p.r.Y P I Y Y Y Y Y Y J f 1.-X0X7X:X>XeXm O   ; , X > ~ Z -.-.c R -XuX2X2X,X-Xx.l.q.-.5.w..XQ.(.jXCXSX",
"5 O.[.NXnXnXnX`...X. .z c H / ! G D D D D D D D D G G U U 7.7.7.( ( ( ( ( ( ( ( D D D D D D D G S S V D G U K L L b R 2.%X9X5X$XpXM.N O . * * = 3 #.5.7.U Y p.A.rX7X,X,X-Xj.d.W ,.,.d.d.f.h.j.x.Z.V.a.0.9.9.0.0.G G G G G U G G 4 4 4 4 F Z G U U ( ) r.p.s.M.M.k.k.k.k.f.f.f.u.c c z z z z l z C D G G G D D D D G U 7.9.0.a.a.a.0.7.G C C C C G U 7.U C U a.S.*X@X*X0Xh.i   < # @ # 1 _ i.] J J t.-X,X,X-X>X7Xj.j.j.j.j.j.j.h.x.x.x.x.x.x.x.x.x.x.u.u.>.E L L f 1.-X0X7X:X>XeXm O   ; , X > ~ Z -.-.c R -XuX2X,X,X-Xu.K h j z k c L L >.Y L L >.>.u.u.>.>.L K D D D D D D D D D G G U U 7.7.8.f 1.-X0X7X:X>XeXm O   ; , X > ~ Z -.-.c R -XuX2X,X,X-Xu.K h j A a Y s.Z.b.p.p.b.] ) ) Y I P P P D D D D D D D D D D D D D D D D k c L L E E L L u.u.u.u.u.u.u.u.s.b.b.b.p.r.Y P I Y I Y Y Y Y J f 1.-X0X7X:X>XeXm O   ; , X > ~ Z -.-.c R -XuX2X2X,X-Xx.l.q.-.5.w..XQ.(.jXCXSX",
"5 O.[.NXnXnXnX`...X. .x c H / ! G D D D D D D D D G G U U 7.7.7.U U U U U U U U D D D D D D D G S S S D G U K K L b R 2.%X9X5X$XpXM.N O . * * = 3 #.5.7.U Y p.A.rX7X,X>X-Xh.d.W ,.,.d.d.f.h.j.x.D.C.a.0.0.0.a.a.U U U U U U U G 4 4 4 4 F Z G U U ( ) r.p.s.M.M.k.k.k.k.f.f.f.u.c c z z z z z z C D D D D D D D D G U 7.9.0.a.a.a.0.7.G C C C C G U 7.U C U a.S.*X@X*X0XM.i   < # @ # 1 _ i.] J J t.-X,X,X-X>X7Xj.j.j.j.j.j.j.h.x.x.x.x.x.x.x.x.x.x.u.u.>.>.L L f 1.-X0X7X:X>XeXm O   ; , X > ~ Z -.-.c R -XuX2X,X,X-Xu.K h j z k v L L >.Y L L >.>.>.r.>.>.L K D D D D D D D D D G G U U 7.7.8.f 1.-X0X7X:X>XeXm O   ; , X > ~ Z -.-.c R -XuX2X,X,X-Xu.K h j A a Y s.Z.b.p.p.b.] ) ) Y I P P P D D D D D D D D D D D D D D D D k c L L E Y L L u.u.u.u.u.u.u.u.s.b.b.b.p.r.Y P I I Y Y Y Y Y J f 1.-X0X7X:X>XeXm O   ; , X > ~ Z -.-.c R -XuX2X2X,X-Xx.l.q.-.5.w..XQ.(.jXCXSX",
"5 O.[.NXnXnXvX`...X. .x n H G ! G D D D D D D D D G G U U 7.7.7.U U U U U U U U D D D D D D D G S S S D G U K K L b R 2.%X9X5X$XpXM.N O . * * = 3 #.5.7.U Y p.A.rX2X,X<XA.h.t.>.>.t.u.u.f.h.j.x.Z.C.a.i.i.y.i.a.U U U U U U U U V 4 V A G G G U U Y ) r.p.s.M.M.k.k.k.k.k.f.f.u.K c C z A z A A C G G G G G G D D G U 7.8.i.a.a.a.0.7.G C C C C G U 7.U C U a.S.*X@X*X0XM.i   < # @ # 1 _ i.] J J t.-X,X,X-X,X7Xj.j.j.j.j.j.j.h.x.x.x.x.x.x.x.x.x.x.u.u.>.>.L L f 1.-X0X7X:X>XeXm O   ; , X > ~ Z -.-.c R -XuX2X,X,X-Xu.K h j z k c K Y =.=.Y L =.>.r.r.r.=.K H D D D D D D D D D G G U U 7.7.8.f 1.-X0X7X:X>XeXm O   ; , X > ~ Z -.-.c R -XuX2X,X,X-Xu.K h j A s Y s.Z.s.p.p.s.] Y ) Y I H P H D D D D D D D D D D D D D D D D k c L Y E Y Y L u.u.u.u.u.u.u.u.s.s.b.s.p.r.Y H Y Y Y Y I Y Y Y f 1.-X0X7X:X>XeXm O   ; , X > ~ C -.-.c R -XuX2X2X,X-Xc.u.y.-.7.w.XXQ.(.jXCXSX",
"5 O.W.`.vXvXxXlX..X.%.x x k C V D D D D D D D D D D D D D D D D U U U U U U U U D D D D D D D G ~ ~ ~ U U U K L L b R 2.%X9X5X$XpXM.N O . * * = 3 #.5.7.U Y p.-XtX;X;XaX>XE k &.@.&.*.-.r.u.x.x.u.u.u.u.u.u.u.u.L L Y =.Y K H k k k k k K =.r.y.K L Y >.u.u.x.Z.g.B.B.g.g.h.h.s.P H D D C C C Z F F F F F S G G D U U ( r.p.p.p.a.0.7.G C C C C G U 7.U D U a.S.*X@X*X0Xh.i X < # @ # 1 _ i.] J J t.-X7X,X-X>X7Xj.j.j.j.j.j.j.h.u.u.u.u.u.u.u.u.x.x.u.u.>.>.L L d 1.-X0X7X:X>XeXm O   , , X > ~ Z q.-.c R -XuX2X,X,X-Xu.K h j A A D D D D D D D P U U =.8.U U G D D D D D D D D D G G U U 7.7.8.f 1.-X0X7X:X>XeXm O   , , X > ~ Z q.-.c R -XuX2X,X,X-Xu.K h j z k L r.u.x.u.u.r.Y Y Y L L K K H D D D D D D D D D D D D D D D D H H P Y Y Y ) ] i.i.p.p.s.s.M.Z.Z.x.u.u.>.Y L L K L J L L L Y L d 1.-X0X7X:X>XeXm O   , , X > _ H ,.,.v W :XaX,X,X,X-X-Xc.h.f.b.w.XXQ.{.kXCXSX",
"5 X.W.`.vXvXxXlX..X.%.x x x C V D D D D D D D D D D D D D D D D U U U U U U U U D D D D D D D G ~ ~ ~ U U U K L L b R 2.%X9X5X$XpXM.N O . * * = 3 #.5.7.U Y p.=XtX4X;XaX>X=.k @.@.@.$.-.y.u.h.x.u.u.u.u.u.u.u.u.L L >.>.L L c c c c c c L =.>.u.L L >.>.u.u.x.x.g.B.m.B.g.g.h.s.P P D D G G G S F 3 F F Z F G G D U U ) ] p.p.s.a.0.7.G C C C C G U 7.U D U a.S.*X@X*X0Xh.i X < # @ # 1 _ i.] J J t.-X7X,X-X,X7Xj.j.j.j.j.j.j.h.u.u.u.u.u.u.u.u.x.x.u.u.>.>.L L d 1.-X0X7X:X>XeXm O   , , X > ~ Z q.-.c R :XuX2X,X,X-Xu.c h j Z C D D D D D D D G U U 7.7.U G G D D D D D D D D D G G U U 7.7.8.f 1.-X0X7X:X>XeXm O   , , X > ~ Z q.-.c R :XuX2X,X,X-Xu.K h j z k L >.u.x.x.u.r.>.Y L L L c c c D D D D D D D D D D D D D D D D P P P I Y ) ) ] i.i.p.p.s.b.M.Z.Z.x.u.u.>.>.L L L L L L L L L L d 1.-X0X7X:X>XeXm O   , , X > _ J ,.,.v W :XiX,X,X,X-X-Xc.j.f.M.n.XXQ.{.kXDXSX",
"5 O.W.`.vXxXxX`...X.%.:.x c C C D D D D D D D D D D D D D D D D G G G G G G G G D D D D D D D G ~ ~ ~ U U U K L L b R 2.%X9X5X$XpXM.N O . * * = 3 #.5.7.U Y p.=XtX4X;XaX>X=.k @.@.@.@.*.-.u.u.f.u.u.u.u.u.u.u.u.L >.>.>.>.L c c c c c c L >.u.u.L >.>.r.u.u.x.x.g.B.g.g.g.g.h.s.P D D D G G Z Z F 3 F F Z Z G G D U U ) ] p.p.s.a.0.7.G C C C C G U 7.U C U a.S.*X@X*X0Xh.i   < # @ # 1 _ i.] J J t.-X7X,X-X>X7Xj.j.j.j.j.j.j.h.u.u.u.u.u.u.u.u.x.x.u.u.>.>.L L d 1.-X0X7X:X>XeXm O   ; , X > ~ Z -.-.c R -XuX2X,X,X-Xu.c h j Z C D D D D D D D G G U 7.7.U U G D D D D D D D D D G G U U 7.7.8.f 1.-X0X7X:X>XeXm O   ; , X > ~ Z -.-.c R -XuX2X,X,X-Xu.K h j z k L >.u.x.l.u.u.>.Y L L L K c c D D D D D D D D D D D D D D D D P P P I Y ) ) ] r.i.i.p.p.b.b.s.x.x.u.u.r.>.>.Y L L L L L L L L d 1.-X0X7X:X>XeXm O   ; , X > _ J ,.,.v R :XiX,X,X,X-X-Xc.j.f.M.w.XXQ.{.kXDXSX",
"5 O.W.`.vXvXxX`...X.%.:.n n D D D D D D D D D D D D D D D D D D D D D D G G G G D D D D D D D G ~ ~ ~ U U U K L L b R 2.%X9X5X$XpXM.N O . * * = 3 #.5.7.U Y p.=XtX4X;XaX>X=.k @.l @.@.*.-.r.u.u.u.u.u.u.u.u.u.u.>.>.>.>.>.L L c L K c K L >.u.u.>.>.r.u.u.u.x.x.g.B.g.g.g.g.h.s.P D D D G G Z Z F 3 F F F Z G G D U Y ) ] i.p.s.a.0.7.G C C C C G U 7.U C U a.S.*X@X*X0Xh.i   < # @ # 1 _ i.] J J t.-X,X,X-X>X7Xj.j.j.j.j.j.j.h.u.u.u.u.u.u.u.u.x.x.u.u.>.>.L L d 1.-X0X7X:X>XeXm O   ; , X > ~ Z -.-.c R -XuX2X1X,X-Xu.c h j Z C D D D D D D D G G U 7.7.U U G D D D D D D D D D G G U U 7.7.8.f 1.-X0X7X:X>XeXm O   ; , X > ~ Z -.-.c R -XuX2X,X,X-Xu.K h j z k L >.u.x.x.u.u.>.Y L L L K c c H D D D D D D D D D D D D D D D P P P I Y ) ) ] r.r.r.i.p.p.s.s.x.x.u.u.u.r.>.>.>.>.>.>.L L L L d 1.-X0X7X:X>XeXm O   ; , X > _ J ,.,.v W :XiX,X,X,X-X-Xc.j.f.M.w.XXQ.{.kXDXSX",
"5 O.W.`.vXxXDX`...X.%.:.n c U G D D D D D D D D D D D D D D D D C C C C C C C C D D D D D D D G ~ ~ ~ U U U U L L b R 2.%X9X5X$XpXM.N O . * * = 3 #.5.7.U Y p.=XtX4X;XaX>X=.k @.l %.@.&.;.>.t.u.u.u.u.u.u.u.u.u.>.>.r.r.>.>.L K L L L L Y >.u.x.u.u.u.u.u.h.x.h.g.g.g.g.g.g.h.s.P P D D G G S Z F 3 F F F S S G D U Y ) ] i.p.s.a.0.7.G C C C C G U 7.U C U a.S.*X@X*X0Xh.i   < # @ # 1 _ i.] J J ,.-X,X,X-X,X7Xj.j.j.j.j.j.j.h.u.u.u.u.u.u.u.u.x.h.u.u.>.>.L L d 1.-X0X7X:X>XeXm O   ; , X > ~ Z -.-.c R -XuX2X,X,X-Xu.c h j l C D D D D D D D G G U 7.7.U G G D D D D D D D D D G G U U 7.7.=.f 1.-X0X7X:X>XeXm O   ; , X > ~ Z -.-.c R -XuX2X,X,X-Xu.K h j z k L >.u.x.x.u.u.>.E L L L K c c D D D D D D D D D D D D D D D D P P P I Y ) ) ] ) ] r.r.i.p.p.p.x.x.u.u.u.u.u.u.u.u.>.>.>.L L L d 1.-X0X7X:X>XeXm O   ; , X > _ J ,.,.v R -XiX,X,X,X-X-Xc.j.f.h.w.XXQ.{.hXDXSX",
"5 O.W.`.vXxXvX`.K.O.%.:.:.L U G D D D D D D D D D D D D D D D D C C C C C C C C D D D D D D D G ~ ~ G U U U U L L b R 2.%X9X5X$XpXM.N O . * * = 3 #.5.7.U ) p.=XtX4X;XaX>X=.k @.4 4 l @.=.>.>.t.u.u.u.u.u.u.u.u.>.>.u.u.r.>.L L L L L L >.u.u.x.u.u.u.u.x.x.x.h.g.m.g.g.g.g.h.s.P P D D G G G S F 3 F F F S G G D U U ) ] i.p.s.a.0.7.G C C C C G U 7.U C U a.S.*X@X*X0Xh.i   < # @ # 1 _ i.] J J t.-X,X,X-X,X7Xj.j.j.j.j.j.j.h.u.u.u.u.u.u.u.u.x.x.u.u.>.E L L f 1.-X0X7X:X>XeXm O   ; , X > ~ Z -.-.c R -XuX2X,X,X-Xu.c h j Z C D D D D D D D G G U 7.7.U G G D D D D D D D D D G G U U 7.7.8.f 1.-X0X7X:X>XeXm O   ; , X > ~ Z -.-.c R -XuX2X,X,X-Xu.K h j z k L >.u.x.x.u.u.>.E L L L K c c D D D D D D D D D D D D D D D D P P P I Y ) ) ] ) ) ] r.r.i.i.p.h.x.x.x.u.u.u.u.u.u.u.>.>.L L L f 1.-X0X7X:X>XeXm O   ; , X > _ J ,.,.v R -XiX,X7X,X:X-Xc.j.f.M.n.XXQ.{.hXDXSX",
"5 O.W.`.vXxXDXlXK.O.%.:.:.L U ( D D D D D D D D D D D D D D D D V V V V V V V V D D D D D D D G ~ ~ ~ U U U U L R b R 2.%X9X5X$XpXM.N O . * * = 3 #.5.7.U Y p.=XtX4X;XaX>X=.z @.4 3 l A &.=.>.>.u.u.u.u.u.u.u.u.>.u.u.u.u.>.Y L E L L L >.u.x.x.x.x.x.x.x.x.x.h.g.B.B.B.g.B.h.s.P P D D G G G S F 3 F F F S G D D P U ) ] i.p.p.a.0.7.G C C C C G U 7.U D U a.S.*X@X*X0Xh.i X < # @ # 1 _ i.] J J t.-X,X,X-X,X7Xj.j.j.j.j.j.j.h.u.u.u.u.u.u.u.u.x.x.u.u.>.>.L L f 1.-X0X7X:X>XeXm O   ; , X > ~ Z -.-.c R -XuX2X1X,X-Xu.c h j Z C D D D D D D D G U U 7.7.U G G D D D D D D D D D G G U U 7.7.8.f 1.-X0X7X:X>XeXm O   ; , X > ~ Z -.-.c R -XuX2X1X,X-Xu.K h j z k L >.u.x.x.u.u.>.Y L L L c c c D D D D D D D D D D D D D D D D P P P I Y ) ) ] Y Y ) ] r.r.i.i.h.x.x.x.x.x.x.x.x.x.u.u.>.L L L f 1.-X0X7X:X>XeXm O   ; , X > _ J ,.,.v R -XiX,X7X,X-X-Xc.j.f.M.n.XXQ.{.hXDXSX",
"5 O.W.`.vXxXDXlXE.O.%.:.:.L U ( D D D D D D D D D D D D D D D D V V V V V V V V D D D D D D D G ~ ~ ~ U U U U L R b R 2.%X9X5X$XpXM.N O . * * = 3 #.5.7.U Y p.=XtX4X;XaX>X=.z @.4 4 l A &.=.>.>.u.u.u.u.u.u.u.u.r.u.u.u.u.>.>.L E E L E >.u.x.x.x.x.x.x.x.x.x.h.g.m.B.B.B.B.h.s.P P D D G G G S F 3 F F F S G D D P U ) ] i.p.p.a.0.7.G C C C D G U 7.U D U a.S.*X@X*X0Xh.i X < # @ # 1 _ i.] J J ,.-X,X,X-X,X7Xj.j.j.j.j.j.j.h.u.u.u.u.u.u.u.u.x.x.u.u.>.>.L L f 1.-X0X7X:X>XeXm O   ; , X > ~ Z -.-.c R -XuX2X1X,X-Xu.c h j l C G G D D D D D G U U 7.7.U G G D D D D D D D D D G G U U 7.7.8.f 1.-X0X7X:X>XeXm O   ; , X > ~ Z -.-.c R -XuX2X1X,X-Xu.K h j z k L >.u.x.x.u.u.>.Y L L L c c c D D D D D D D D D D D D D D D D P P P I Y ) ) ] Y Y ) ) ] r.i.i.u.x.x.x.x.x.x.x.x.x.u.u.>.L L v f 1.-X0X7X:X>XeXm O   ; , X > _ P ,.,.v R :XiX7X7X,X-X-Xc.j.f.M.n.XXQ.{.hXDXSX",
"5 O.W.`.vXxXxX`.K.X.:.:.n n D D D D D D D D D D D D D D D D D D D D D D D D D D D D D D D D D G ~ ~ G U U U K L L b R 2.%X9X5X$XpXM.N O . * * = 3 #.5.7.U Y p.=XtX3X2XuXS.c h @.4 4 l A &.=.>.>.>.>.u.x.x.x.u.u.u.u.u.u.u.u.u.u.K L L L >.>.>.u.x.x.x.x.x.x.x.x.B.m.{ [ [ ] [ r.P H D G G G S S F 3 F F F S G G C M m Y s.Z.M.i.D.0.D V C G G C G U 7.U D U a.S.*X@X*X0Xh.i X < # @ # 1 _ i.] J J t.-X,X,X-X,X7Xj.j.j.j.j.j.j.h.u.u.u.u.u.u.u.u.u.u.r.>.L L K c d 1.-X0X7X:X>XeXm O   ; , X > ~ Z -.-.c R -XuX2X1X,X-Xu.K h j Z C D G G G G D D D D D D D D D D D D D D D D D D D G G U U 7.7.8.f 1.-X0X7X:X>XeXm O   ; , X > ~ Z -.-.c R -XuX2X,X,X-Xu.K h j z K L >.u.u.u.u.u.u.>.L >.u.r.L k D D D D D D D D D D D D D D D D P P P P P P P P ) ) Y Y ) ] i.p.u.u.u.u.u.u.u.u.u.u.r.>.L L c n d 1.-X0X7X:X>XeXm O   ; , X > _ J ,.,.v R -XiX,X7X,X:X-Xc.j.f.M.OXOXQ.'.kXhXSX",
"5 O.W.`.vXxXxX`.K.O.:.:.:.n D G D D D D D D D D D D D D D D D D D D D D D D D D D D D D D D D G ~ ~ G U U U K L R b R 2.%X9X5X$XpXM.N O . * * = 3 #.5.7.U Y p.=XtX3X2XuXA.c h @.4 4 l A &.=.>.>.>.>.u.x.x.x.u.u.u.u.u.u.u.u.u.u.L L >.>.>.u.u.u.x.x.x.x.x.x.x.x.B.m.{ [ [ ] [ i.P D D G G G S Z F 3 F F F S G G C M m Y b.Z.M.i.D.0.D V C G G C G U 7.U C U a.S.*X@X*X0Xh.i X < # @ # 1 _ i.] J J t.-X,X,X-X,X7Xj.j.j.j.j.j.j.h.u.u.u.u.u.u.u.u.u.u.>.>.L L K c d 1.-X0X7X:X>XeXm O   ; , X > ~ Z -.-.c R -XuX2X1X,X-Xu.K h j Z C D G G D D D D D D D D D D D D D D D D D D D D D G G U U 7.7.8.f 1.-X0X7X:X>XeXm O   ; , X > ~ Z -.-.c R -XuX2X,X,X-Xu.K h j z c L >.u.u.u.u.u.u.>.L >.u.u.L k D D D D D D D D D D D D D D D D P P P P P P P P ) ) Y I ) ] i.p.u.u.u.u.u.u.u.u.u.u.r.>.L L c n d 1.-X0X7X:X>XeXm O   ; , X > _ J ,.,.v R -XiX,X7X,X-X-Xc.j.f.M.OXOXQ.'.kXhXSX",
"5 O.W.`.vXxXvX`.K.O.%.:.:.n D G D D D D D D D D D D D D D D D D D D D D D D D D D D D D D D D G ~ ~ ~ U U U U L R b R 2.%X9X5X$XpXM.N O . * * = 3 #.5.7.U Y p.=XtX3X3XuXA.c h @.4 4 l A &.=.>.>.>.>.u.x.x.x.u.u.u.u.u.u.u.u.u.u.r.r.u.u.u.u.u.x.x.x.x.x.x.x.x.x.B.m.{ [ [ ] ] r.P P D D G G Z Z F 3 F F F S G G C M C ( b.Z.M.i.D.0.D V C G G C G ( 7.U C U a.S.*X@X*X0Xh.i   < # @ # 1 _ i.] J J t.-X,X,X-X>X7Xj.j.j.j.j.j.j.h.u.u.u.u.u.u.u.u.u.u.>.>.L L K c d 1.-X0X7X:X>XeXm O   ; , X > ~ Z -.-.c R -XuX2X1X,X-Xu.K h j Z C D D D D D D D D D D D D D D D D D D D D D D D D G G U U 7.7.8.f 1.-X0X7X:X>XeXm O   ; , X > ~ Z -.-.c R -XuX2X,X,X-Xu.K h j z c L >.u.u.u.u.u.u.>.=.>.u.u.L k D D D D D D D D D D D D D D D D P P P P P P P P ) ) Y Y ) ] i.p.u.u.u.u.u.u.u.u.u.u.r.>.L L c n d 1.-X0X7X:X>XeXm O   ; , X > _ J ,.,.v W -XiX,X7X,X:X-Xc.j.f.M.OXOXQ.'.).hXSX",
"5 O.W.`.vXxXxX`.K.O.%.:.:.n D G D D D D D D D D D D D D D D D D D D D D D D D D D D D D D D D G ~ ~ ~ U U U U L L b R 2.%X9X5X$XpXM.N O . * * = 3 #.5.7.U Y p.=XtX3X3XuXA.c h @.4 4 l A &.=.>.>.>.>.u.x.x.x.u.u.u.u.u.u.u.u.u.u.x.x.x.x.x.x.x.x.x.x.x.x.x.x.x.x.B.m.{ [ [ ] [ i.P P D D G G Z F F 3 F F F S G G C C C ( b.Z.M.i.D.0.D V C G G C G U 7.U C U a.S.*X@X*X0Xh.i   < # @ # 1 _ i.] J J t.-X,X,X-X,X7Xj.j.j.j.j.j.j.h.u.u.u.u.u.u.u.u.u.u.>.>.L L K c d 1.-X0X7X:X>XeXm O   ; , X > ~ Z -.-.c R -XuX2X1X,X-Xu.K h j Z C D D D D D D D D D D D D D D D D D D D D D D D D G G U U 7.7.8.f 1.-X0X7X:X>XeXm O   ; , X > ~ Z -.-.c R -XuX2X,X,X-Xu.K h j z c L >.u.u.u.u.u.u.>.>.>.u.u.>.c H D D D D D D D D D D D D D D D P P P P P P P P ) ) Y Y ) ] i.p.u.u.u.u.u.u.u.u.u.u.r.>.L L K c d 1.-X0X7X:X>XeXm O   ; , X > _ J ,.,.v W -XiX,X7X,X-X-Xc.j.f.M.OXOXQ.'.).hXSX",
"5 O.W.`.vXxXxXlX..X.%.:.n c G G D D D D D D D D D D D D D D D D D D D D D D D D D D D D D D D G ~ ~ ~ U U U U L L b R 2.%X9X5X$XpXM.N O . * * = 3 #.5.7.U Y p.=XtX3X3XuXS.c h @.4 4 l z &.=.>.>.>.>.u.x.x.x.x.u.u.u.u.u.u.u.u.u.x.x.x.x.x.x.x.x.x.x.x.x.x.x.x.x.B.B.{ [ [ ] ] i.P P D D G G G F F 3 F F F F S G C C C ( b.Z.M.i.D.0.D V C G G C G U 7.U C U a.S.*X@X*X0Xh.i   < # @ # 1 ( i.] J J t.-X,X,X-X,X7Xj.j.j.j.j.j.j.h.u.u.u.u.u.u.u.u.u.u.r.>.L L v v d 1.-X0X7X:X>XeXm O   ; , X > ~ Z -.-.c E -XuX2X,X,X-Xu.K h j Z C D D D D D D D D D D D D D D D D D D D D D D D D G G U U 7.7.Y f 1.-X0X7X:X>XeXm O   ; , X > ~ Z -.-.c E -XuX2X1X,X-Xu.K h j z c L >.u.u.u.u.u.u.u.>.u.h.u.>.H D D D D D D D D D D D D D D D D P P P P P P P P ) ) Y Y ) ] i.p.u.u.u.u.u.u.u.u.u.u.r.>.L L K v d 1.-X0X7X:X>XeXm O   ; , X > _ J ,.,.v W :XiX7X,X,X-X-Xc.j.f.h.OXOXQ.'.).hXSX",
"5 O.W.`.vXvXxXlX..X.%.:.n c G G D D D D D D D D D D D D D D D D D D D D D D D D D D D D D D D G ~ ~ ~ U U U U L L b R 2.%X9X5X$XpXM.N O . * * = 3 #.5.7.U Y p.=XtX3X3XuXS.c h @.4 4 l z &.=.>.>.>.>.u.x.x.x.x.u.u.u.u.u.u.u.u.u.Z.x.x.x.x.x.u.u.x.x.x.x.x.x.x.x.B.m.{ [ [ ] ] i.P P D D G G G Z F 3 F F F F S G C C C ) b.Z.M.i.D.0.D V C U G C G U 7.U C U a.S.*X@X*X0Xh.i   < # @ # 1 ( i.] J J t.-X,X,X-X,X7Xj.j.j.j.j.j.j.h.u.u.u.u.u.u.u.u.u.u.r.>.L L v v f 1.-X0X7X:X>XeXm O   ; , X > ~ Z -.-.c E :XuX2X,X,X-Xu.K h j Z C D D D D D D D D D D D D D D D D D D D D D D D D G G U U 7.7.8.f 1.-X0X7X:X>XeXm O   ; , X > ~ Z -.-.c E :XuX2X1X,X-Xu.K h j z c L >.u.u.u.u.u.x.u.r.u.x.x.>.K D D D D D D D D D D D D D D D D P P P P P P P P ) ) Y Y ) ] i.p.u.u.u.u.u.u.u.u.u.u.r.>.L L K v f 1.-X0X7X:X>XeXm O   ; , X > _ J ,.,.v W :XiX,X,X,X-X-XA.j.f.M.OXOXQ.'.).hXSX",
"5 O.W.`.vXvXxX`...X.%.:.n c G G D D D D D D D D D D D D D D D D D D D D D D D D D D D D D D D G ~ ~ ~ U U U K L L b R 2.%X9X5X$XpXM.N O . * * = 3 #.5.7.U Y p.=XtX3X3XuXS.c h @.4 4 l z &.=.>.>.>.>.u.x.x.x.u.u.u.u.u.u.u.u.u.u.x.x.x.x.u.u.u.r.x.x.x.x.x.x.x.x.B.m.{ [ [ ] ] i.P D D D G G G S F 3 F F F F G G C M m Y b.Z.M.i.C.0.D V C G G C G U 7.U D U a.S.*X@X*X0Xh.i   < # @ # 1 _ i.] J J t.-X7X>X-X,X7Xj.j.j.j.j.j.j.h.u.u.u.u.u.u.u.u.u.u.>.>.L L K v f 1.-X0X7X:X>XeXm O   ; , X > ~ Z -.-.c R -XuX2X,X,X-Xu.K h j Z C D D D D D D D D D D D D D D D D D D D D D D D D G G U U 7.7.8.f 1.-X0X7X:X>XeXm O   ; , X > ~ Z -.-.c R -XuX2X,X,X-Xu.K h j z c L >.u.u.u.u.u.x.u.u.u.x.x.>.K D D D D D D D D D D D D D D D D P P P P P P P P ) ) Y Y ) ] i.p.u.u.u.u.u.u.u.u.u.u.>.>.L L K v f 1.-X0X7X:X>XeXm O   ; , X > _ J ,.,.v R -XiX7X,X,X-X-XA.j.f.M.OXOXQ.'.).hXDX",
"5 O.W.}.vXvXvX`...O.%.:.n c P G D D D D D D D D D D D D D D D D D D D D D D D D D D D D D D D D U U U U U U K K =.L R f.<X9X9X$XpXM.N O . * * = 3 #.5.7.U Y p.-X3X1X2XuXS.c h &.j j l z *.=.r.r.>.>.u.x.x.x.u.u.u.u.u.u.u.u.u.u.x.x.x.u.u.r.>.>.x.x.x.x.x.x.x.x.M.B.p.[ ] ] r.i.P D D D G G G S F F F Z Z C C D C a N Y s.D.M.r.D.0.D V C G G C G U 7.U D U a.S.*X@X*X0XM.i   < # @ # 1 _ i.] J J t.-X7X>X-X>X7Xj.j.j.j.j.j.j.h.u.u.u.u.u.u.u.u.u.u.r.>.L L K v f 1.-X0X7X:X>XeXm O   ; , X > ~ Z -.-.c R :XuX2X,X,X-Xu.K h j l C D D D D D D D D D D D D D D D D D D D D D D D D G G U U 7.7.8.f 1.-X0X7X:X>XeXm O   ; , X > ~ Z -.-.c R :XuX2X,X,X-Xu.K h j z K L >.u.u.u.u.u.Z.u.u.u.Z.x.r.Y D D D D D D D D D D D D D D D D P P P P P P P P ) ( Y U ( 8.i.p.u.u.u.u.u.u.u.u.u.u.r.>.Y L K v f 1.-X0X7X:X>XeXm O   ; , X > _ J ,.,.v R -XiX,X,X,X-X-XA.j.f.g.D.OXQ.].).hXDX",
"5 o.Q.}.vXxXvX`.K.O.;.:.4.R Y ( D D D D D D D D D D D D D D D D D D D D D D D D C U ( U C C 7.a.f.h.f.u.y.*.@.z &.&.=.u.:X0X2X-XpXM.N O . * * = 3 #.5.7.U Y p.-X9X%X<XqX$Xv g L c A A D C C D D Y >.r.u.x.x.x.x.u.u.u.u.u.u.u.u.u.u.u.u.u.u.u.u.S.Z.x.x.x.u.u.u.a.i.) U C C D D D D D D D G G C $.@.A z A &.=.>.>.>.>.,.t.d.k.f.D.0.D V C G G C G U 7.U C U a.S.*X@X*X0XM.i X < # @ # 1 _ i.] J J t.-X,X,X-X>X7Xj.j.j.j.j.j.j.h.x.x.h.u.u.u.r.>.>.>.>.>.Y L L L d 1.-X0X7X:X>XeXm O   ; , X > ~ Z -.-.c R -XuX2X,X,X-Xu.c h j l C D D D D D D D D D D D D D D D D D D D D D D D D G G U U ( 7.=.f 1.-X0X7X:X>XeXm O   ; , X > ~ Z -.-.c R -XuX2X,X,X-Xu.K h j A k P I Y ] Y Y Y i.p.p.s.p.i.) Y 8.7.7.U U G G D D D D D D D D D D D D D D D D D U U D D U U 8.i.p.s.s.s.s.s.s.s.i.i.r.r.) Y Y Y f 1.-X0X7X:X>XeXm O   ; , X > _ J ,.,.v R -XiX,X,X,X:X-Xc.j.f.M.OXOXQ.'.).hXDX",
"5 o.Q.}.vXxXvX`.T.O.;.4.4.R Y Y D D D D D D D D D D D D D D D D D D D D D D D D C U ( U C C 7.s.k.k.f.u.r.*.@.l %.@.*.u.>XaX2X-XsXM.N O . * * = 3 #.5.7.U Y p.-X9X%X9XqX&Xd g L c H D D G G G G K =.r.u.x.x.x.x.u.u.u.u.u.u.u.u.u.u.u.u.u.u.u.u.Z.x.x.x.x.u.u.u.a.0.7.G C C C C D D D D D D D C @.A z z A K =.>.>.>.,.,.d.d.k.f.D.9.D V C G G C G U 7.U C U a.S.*X@X*X0Xh.i X < # @ # 1 _ i.] J J t.-X7X,X-X>X7Xj.j.j.j.j.j.j.h.x.x.u.u.u.u.r.>.>.>.>.>.>.L L L d 1.-X0X7X:X>XeXm O   ; , X > ~ Z -.-.c R -XuX2X,X,X-Xu.c h j l C D D D D D D D D D D D D D D D D D D D D D D D D G G U U 7.7.8.f 1.-X0X7X:X>XeXm O   ; , X > ~ Z -.-.c R -XuX2X,X,X-Xu.K h j A M P I ) ] ) ) Y i.p.p.s.p.i.) Y 8.7.7.U U G G D D D D D D D D D D D D D D D D D U G D D G U 8.9.p.p.p.p.p.p.p.p.i.i.r.r.) ) Y Y f 1.-X0X7X:X>XeXm O   ; , X > _ J ,.,.v R -XiX,X,X,X:X-Xc.j.f.M.OXOXQ.'.).hXDX",
"5 o.Q.}.vXvXvX}.T.O.;.4.b R Y U D D D D D D D D D D D D D D D D D D D D D D D D C U ( U C C 7.s.k.k.f.u.r.*.@.@.%.@.*.u.>XaX2X-XsXM.N O . * * = 3 #.5.7.U Y p.A.9X%X9XqX$Xn g L c H D D G G G G K L >.u.x.x.x.x.u.u.u.u.u.u.u.u.u.u.u.u.u.u.u.u.x.x.x.x.u.u.u.y.a.0.7.G C C C C D D D D D D D C @.A z z A K =.>.>.E ,.,.d.d.d.d.D.0.D V C G G C G ( 7.U C U a.S.*X@X*X0Xh.i   < # @ # 1 _ i.] J J t.-X,X,X-X,X7Xj.j.j.j.j.j.j.h.x.x.u.u.u.u.u.>.>.>.>.>.>.L L L d 1.-X0X7X>X>XeXm O   , , X > ~ Z -.-.c R -XuX2X,X,X-Xu.c h j Z C D G G D D D D D D D D D D D D D D D D D D D D D G G U U 7.7.8.f 1.-X0X7X:X>XeXm O   ; , X > ~ Z -.-.c E -XuX2X,X,X-Xu.K h j A M P I ) ] ) ) Y i.p.p.s.p.i.) Y 8.7.7.U U G G D D D D D D D D D D D D D D D D D U G D D G U 8.9.p.p.p.p.p.p.p.p.i.i.r.] ) ) Y J f 1.-X0X7X>X>XeXm O   , , X > _ J ,.,.v W -XiX,X7X,X-X-Xc.j.f.h.OXOXQ.'.).hXDX",
"5 o.Q.}.vXxXvX}.T.O.;.4.b R Y U D D D D D D D D D D D D D D D D D D D D D D D D C U ( U C C 7.s.k.k.f.u.r.-.@.@.%.@.*.u.>XaX2X-XsXM.N O . * * = 3 #.5.7.U Y p.A.9X%X9XqX$Xn g L c H D D G G G G K L >.u.u.l.u.u.u.u.u.u.u.u.u.u.u.u.u.u.u.u.u.u.x.x.x.u.u.u.u.r.a.0.7.G C C C C D D D D D D D C @.A z z A K =.>.>.E ,.,.d.d.d.d.D.9.D V C G G C U ( 7.U C U a.S.*X@X*X0Xh.i X < # @ # 1 _ i.] J J t.-X,X,X-X,X7Xj.j.j.j.j.j.j.h.x.x.u.u.u.u.r.>.r.>.>.>.>.L L L d 1.-X0X7X:X>XeXm O   , , X > ~ Z -.-.c R -XuX2X1X,X-Xu.c h j Z C G G G D D D D D D D D D D D D D D D D D D D D D G G U U 7.7.8.f 1.-X0X7X:X>XeXm O   ; , X > ~ Z -.-.c E :XuX2X,X,X-Xu.K h j A M P I ) ] ] ) Y i.p.p.s.p.i.) Y 8.7.7.U U G G D D D D D D D D D D D D D D D D D U G D D G U 8.9.i.i.i.i.i.i.i.i.i.i.r.] ) ) Y Y f 1.-X0X7X:X>XeXm O   , , X > _ J ,.,.v R -XiX,X7X,X:X-Xc.j.f.h.OXOXQ.'.).hXDX",
"5 o.Q.}.vXxXvX}.T.O.;.:.b R Y ) D D D D D D D D D D D D D D D D D D D D D D D D C G ( G C C 7.s.k.k.f.u.r.=.@.@.@.@.*.l.>XaX2X-XsXM.N O . * * = 3 #.5.7.U Y p.A.9X%X5XqX&Xn g L c C D D G G S G H L >.r.u.u.u.u.u.u.u.u.u.u.u.u.u.u.u.u.u.u.u.u.x.x.u.u.u.u.>.>.a.0.7.G C C C C D G G G D D G C A A z z A &.=.>.E E ,.,.d.d.d.d.D.0.D V C G G C G U 7.U C U a.S.*X@X*X0Xh.i   < # @ # 1 _ i.] J J t.-X,X,X-X,X7Xj.j.j.j.j.j.j.h.x.x.x.u.u.u.u.>.r.>.>.>.L L L L d 1.-X0X7X:X>XeXm O   ; , X > ~ Z q.-.c R -XuX2X1X,X-Xu.K h j Z C D G G G D D D D D D D D D D D D D D D D D D D D G G U U 7.7.8.f 1.-X0X7X:X>XeXm O   ; , X > ~ Z -.-.c R -XuX2X,X,X-Xu.K h j A C P I ) ] ) ) Y i.p.p.s.p.i.) Y 8.7.7.U U G G D D D D D D D D D D D D D D D D D U G D D G U 8.9.i.i.i.i.i.i.i.i.i.i.r.] ) ) Y Y f 1.-X0X7X:X>XeXm O   ; , X > _ P ,.,.v W :XiX,X7X,X-X-Xc.j.f.M.OXOXQ.'.).hXSX",
"5 o.Q.}.vXxXvX}.T.O.;.4.b R Y ) D D D D D D D D D D D D D D D D D D D D D D D D C U ( U C C 7.s.k.j.f.u.r.=.@.@.%.@.*.l.>XaX2X-XsXM.N O . * * = 3 #.5.7.U Y p.A.9X%X5XqX&Xn g L H D D D G G S G c K L >.u.u.u.u.u.u.u.u.u.u.u.u.u.u.u.u.u.u.u.u.u.u.u.u.r.>.>.>.a.0.7.G C C C C D D D G D D D C A A z z A &.=.>.>.E ,.,.d.d.d.d.D.0.D V C G G C G U 7.U C U a.S.*X@X*X0Xh.i   < # @ # 1 _ i.] J J t.-X,X,X-X,X7Xj.j.j.j.j.j.j.h.x.x.x.u.u.u.r.>.>.>.>.>.L L L L d 1.-X0X7X:X>XeXm O   ; , X > ~ Z q.-.c R -XuX2X,X,X-Xu.K h j Z C D G G D D D D D D D D D D D D D D D D D D D D D G G U U 7.7.8.f 1.-X0X7X>X>XeXm O   ; , X > ~ Z -.-.c R -XuX2X,X,X-Xu.K h j A C P I ) ] ) ) Y i.p.p.s.p.i.) Y 8.7.7.U U G G D D D D D D D D D D D D D D D D D U G D D G U 8.9.r.r.r.r.r.r.r.r.i.i.r.] ) ) Y Y f 1.-X0X7X:X>XeXm O   ; , X > _ J ,.,.v W :XiX,X,X,X-X-XA.j.f.M.OXOXQ.'.).hXSX",
"5 o.Q.}.vXxXvX}.T.O.;.4.4.R Y ) D D D D D D D D D D D D D D D D D D D D D D D D C U ( U C C 7.s.k.k.f.u.r.-.@.@.%.@.*.u.>XaX2X-XsXM.N O . * * = 3 #.5.7.U Y p.A.9X%X5XqX&Xn g L H H D D G G G G k c L >.u.u.u.r.u.u.u.u.u.u.u.u.u.u.u.u.u.u.u.u.u.u.u.u.>.>.>.=.a.0.7.G C C C C D D G G D D D C A A z z A &.=.>.>.E ,.,.d.d.k.f.D.0.D V C G G C G U 7.U C U V.S.*X@X*X0Xh.i X < # @ # 1 _ i.] J J t.-X,X,X-X,X7Xj.j.j.j.j.j.j.h.x.x.u.u.u.u.r.>.>.>.>.>.L L L L d 1.-X0X7X:X>XeXm O   ; , X > ~ Z q.-.c R -XuX2X,X,X-Xu.K h j Z C D D D D D D D D D D D D D D D D D D D D D D D D G G U U 7.7.8.f 1.-X0X7X>X>XeXm O   ; , X > ~ Z -.-.c R -XuX2X,X,X-Xu.c h j z C P I ) ] ) ) Y i.p.p.s.p.i.) ) 8.7.7.U U G G D D D D D D D D D D D D D D D D D U G G D G U 8.9.8.] ] ] ] ] ] ] i.i.r.] ) ) ) Y f 1.-X0X7X:X>XeXm O   ; , X > _ J ,.,.v W -XiX,X,X,X-X-XA.j.h.M.OXOXQ.'.).hXSX",
"5 o.Q.}.vXxXvX}.T.O.;.4.b R Y ) D D D D D D D D D D D D D D D D D D D D D D D D C U ( U C C 7.s.k.k.f.u.r.-.@.@.@.@.*.u.>XaX2X-XsXM.N O . * * = 3 #.5.7.U Y p.A.9X%X5XqX&Xn g L H H D D G G G G k c L >.t.u.u.>.u.u.u.u.u.u.u.u.u.u.u.u.u.u.u.u.u.u.u.r.>.>.>.=.a.0.7.G C C C D D D D D D D D C A A z z A &.=.>.>.E ,.,.d.d.k.f.D.0.D V C G G C G U 7.U C U a.S.*X@X*X0Xh.i X < # @ # 1 _ i.] J J t.-X,X,X-X,X7Xj.j.j.j.j.j.j.h.x.x.u.u.u.u.>.>.>.>.>.>.L L L L d 1.-X0X7X:X>XeXm O   ; , X > ~ Z -.-.c R -XuX2X1X,X-Xu.K h j Z C D D D D D D D D D D D D D D D D D D D D D D D D G G U U 7.7.8.f 1.-X0X7X>X>XeXm O   ; , X > ~ Z -.-.c R -XuX2X,X,X-Xu.c h j A C P I ) ] ) ) Y i.p.p.s.p.i.) ) 8.7.7.U U G G D D D D D D D D D D D D D D D D D U G D D G U 8.9.) ] ] ] ) ) ] ] i.i.r.] ) ) Y Y f 1.-X0X7X:X>XeXm O   ; , X > _ J ,.,.v W :XiX,X,X,X-X-XA.j.f.M.OXOXQ.'.).hXSX",
"5 o.Q.}.vXxXvX}...O.:.:.b b H P 8.7.7.U U G G D D D D D D D D D D D D D D D D D U G D D G ( 7.r.k.k.f.u.r.*.@.@.@.@.*.l.>XaX2X-XsXM.N O . * * = 3 #.5.7.U Y p.A.9X%X9XqX&Xn g L c H D D G G S G L L L Y >.>.>.>.u.u.u.u.u.u.u.u.S.D.x.x.x.u.u.u.u.u.u.r.>.>.>.=.U U G G C C V V D D D D D D D C A l j k A =.>.u.>.t.t.d.k.j.j.j.D.0.D V C G G C G U 7.U C U a.S.*X@X*X0XM.i X < # @ # 1 _ i.] J J t.-X,X,X-X>X7Xj.j.h.f.d.d.t.,.u.u.u.r.>.>.>.>.L L L L L L L L d 1.-X0X7X:X>XeXm O   ; , X > ~ Z -.-.c R -XuX2X,X,X-Xu.K h j Z C D D D D D D D D D D D D D D D D D D D D D D D D G G U U 7.7.8.f 1.-X0X7X:X>XeXm O   ; , X > ~ Z q.-.c R -XuX2X,X,X-Xu.K h j A U Y ) ) r.r.i.i.b.b.M.Z.M.p.i.8.8.7.7.U U G G D D D D D D D D D D D D D D D D D D D D D D D D D ) ] ] ] ] ] ] ] I I Y Y Y Y I I f 1.-X0X7X:X>XeXm O   ; , X > _ J ,.,.v R -XiX,X,X,X-X-Xc.j.f.M.OXOXQ.'.).hXSX",
"5 o.Q.}.vXxXvX`...O.:.:.b b J P 8.7.7.U U G G D D D D D D D D D D D D D D D D D U G D D G U 7.r.k.k.f.u.r.*.@.@.@.@.*.u.>XaX2X-XsXM.N O . * * = 3 #.5.7.U Y p.A.9X%X5XqX&Xn g L c H D D G G S G K L L L >.>.>.>.u.u.u.u.u.u.u.u.Z.x.x.x.x.u.u.u.u.u.u.r.>.>.>.=.U U G G C C V V D D D D D D D C A l j k A =.>.u.>.,.t.d.k.j.j.j.D.0.D V C G G C G U 7.U C U a.S.*X@X*X0Xh.i X < # @ # 1 _ i.] J J t.-X7X,X-X>X7Xj.j.h.f.d.d.t.,.u.u.u.r.>.>.>.>.L L L L L L L L d 1.-X0X7X>X>XeXm O   ; , X > ~ Z -.-.c R -XuX2X,X,X-Xu.K h j Z C D D D D D D D D D D D D D D D D D D D D D D D D G G U U 7.7.8.f 1.-X0X7X:X>XeXm O   , , X > ~ Z q.-.c R :XuX2X1X,X-Xu.K h j A U Y Y ) ] r.i.i.b.b.M.Z.M.p.i.8.8.7.7.U U G G D D D D D D D D D D D D D D D D D D D D D D D D D ) ] ] ] ] ] ] ) I I I Y Y Y I J f 1.-X0X7X>X>XeXm O   ; , X > _ J ,.,.v R -XiX,X,X,X-X-Xc.j.f.M.OXOXQ.'.kXhXSX",
"5 o.Q.}.vXxXvX`.K.O.:.:.b b I P 8.7.7.U U G G D D D D D D D D D D D D D D D D D U G D D G ( 8.r.k.k.f.u.r.*.@.@.@.@.*.u.>XaX2X-XsXM.N O . * * = 3 #.5.7.U Y p.-X9X%X5XqX&Xn g L c H D D G G S G K L L L Y >.>.>.u.u.u.u.u.u.u.u.x.x.x.x.u.u.u.u.u.u.>.>.>.>.Y Y U U G G C C V V D D D D D D D C z l l z A =.>.u.>.t.t.d.k.j.j.j.D.0.D V C G G C G U 7.U C U a.S.*X@X*X0XM.i X < # @ # 1 _ i.] J J t.-X,X,X-X,X7Xj.j.h.f.d.d.t.,.u.u.u.r.>.>.>.>.L L L L L L L L d 1.-X0X7X:X>XeXm O   ; , X > ~ Z -.-.c R -XuX2X,X,X-Xu.K h j Z C D D D D D D D D D D D D D D D D D D D D D D D D G G U U ( 7.8.f 1.-X0X7X>X>XeXm O   ; , X > ~ Z -.-.c R -XuX2X1X,X-Xu.K h j A P I Y ) ) ] r.r.b.b.M.Z.M.s.i.8.8.7.7.U U G G D D D D D D D D D D D D D D D D D D D D D D D D D ) ) ) ) ) ) ) ) I I Y Y Y Y I J f 1.-X0X7X:X>XeXm O   ; , X > _ J ,.,.v R -XiX,X,X,X-X-Xc.j.f.M.OXOXQ.'.).hXDX",
"5 o.Q.}.vXxXvX}.T.O.;.4.b b Y U 8.7.7.U U G G D D D D D D D D D D D D D D D D D U G D D G U 8.r.k.k.f.u.r.*.@.@.@.@.*.u.>XaX2X-XsXM.N O . * * = 3 #.5.7.U Y p.A.9X%X9XqX&Xn g L c H D D G G S G H K L L L Y >.>.r.r.r.r.r.r.r.r.x.x.x.u.u.u.u.u.r.>.>.>.>.L L L U U G G C C V V D D D D D D D C z l l k A =.>.u.>.t.t.d.k.j.j.j.D.0.D V C G G C G U 7.U C U a.S.*X@X*X0Xh.i X < # @ # 1 _ i.] J J ,.-X,X,X-X,X7Xj.j.h.f.d.d.t.,.u.u.u.r.>.>.>.>.L L L L L L L L d 1.-X0X7X:X>XeXm O   ; , X > ~ Z -.-.c R -XuX2X,X,X-Xu.K h j l C D D D D D D D D D D D D D D D D D D D D D D D D G G U U ( 7.8.f 1.-X0X7X:X>XeXm O   ; , X > ~ Z -.-.c R -XuX2X1X,X-Xu.K h j A P P I I ) ) ] ] b.b.M.Z.M.s.i.8.8.7.7.U U G G D D D D D D D D D D D D D D D D D D D D D D D D D Y Y Y Y Y Y Y Y I I Y Y Y Y Y J f 1.-X0X7X:X>XeXm O   ; , X > _ P ,.,.v R -XiX,X,X,X-X-Xc.j.f.M.OXOXQ.].).hXDX",
"5 o.Q.}.vXxXvX}.!.O.;.4.4.R Y ) 8.7.7.U U G G D D D D D D D D D D D D D D D D D U G D D G U 8.r.k.k.k.u.r.-.@.@.@.@.*.l.>XaX2X-XsXM.N O . * * = 3 #.5.7.U Y p.A.9X%X9XqX&Xd g L c H D D G G G G H c c L L L L Y >.>.>.>.>.>.>.>.x.u.u.u.u.u.>.>.>.>.>.>.L L L K U U G G C C V V D D G G D G G C z l l z A =.>.u.>.t.t.f.f.j.j.j.D.0.D V C G G C G U 7.U D U a.S.*X@X*X0Xh.i   < # @ # 1 _ i.] J J t.-X,X,X-X,X7Xj.j.h.f.d.d.t.,.u.u.u.r.>.>.>.>.L L L L L L L L d 1.-X0X7X:X>XeXm O   ; , X > ~ Z -.-.c R -XuX2X1X,X-Xu.c h j l C D D D D D D D D D D D D D D D D D D D D D D D D G G U U ( 7.=.f 1.-X0X7X:X>XeXm O   ; , X > ~ Z -.-.c R -XuX2X,X,X-Xu.K h j z D P P I Y Y ) ) b.b.M.Z.M.p.i.8.8.7.7.U U G G D D D D D D D D D D D D D D D D D D D D D D D D D U I I I I I I I I Y Y Y Y Y Y J f 1.-X0X7X:X>XeXm O   ; , X > _ J t.,.v R -XiX,X,X,X-X-Xc.j.f.M.OXOXQ.].).hXDX",
"5 o.Q.}.vXxXvX`.!.e.-.4.4.R ] _ 8.7.7.U U G G D D D D D D D D D D D D D D D D D U G D D G U 8.r.k.k.f.u.r.-.@.@.@.@.*.l.>XaX2X-XsXM.N O . * * = 3 #.5.7.U Y p.A.9X%X5XqX&Xd g L c H D D G G G G k c c c L L L L >.>.>.>.>.>.>.>.u.u.u.u.>.>.>.>.>.>.>.L L L L K U U G G C C V V D D D G D D D C z l l z A =.>.u.>.t.t.f.f.j.j.j.D.0.D V C G G C G U 7.U D U a.S.*X@X*X0Xh.i   < # @ # 1 _ i.] J J t.-X,X,X-X,X7Xj.j.h.f.d.d.t.,.u.u.u.r.>.>.>.>.L L L L L L L L d 1.-X0X7X:X>XeXm O   ; , X > ~ Z q.-.c R -XuX2X,X,X-Xu.c h j l C D D D D D D D D D D D D D D D D D D D D D D D D G G U U 7.7.8.f 1.-X0X7X:X>XeXm O   ; , X > ~ Z -.-.c R -XuX2X,X,X-Xu.K h j A C H P P I Y Y Y b.b.M.Z.M.p.i.8.8.7.7.U U G G D D D D D D D D D D D D D D D D D D D D D D D D D P P P P P P P P I Y Y Y Y Y Y J f 1.-X0X7X:X>XeXm O   ; , X > _ J t.,.v R -XiX7X7X,X:X-Xc.j.f.M.OXOXQ.'.).hXDX",
"5 o.Q.}.vXxXvX`.!.e.-.4.4.>.] ) 8.7.7.U U G G D D D D D D D D D D D D D D D D D U G D D G U 8.r.k.k.f.u.r.-.@.l @.@.*.u.>XaX2X-XsXM.N O . * * = 3 #.5.7.U Y p.-X9X%X5XqX&Xn g L c H D D G G G G k c c c c L L L >.>.>.>.>.>.>.>.u.u.u.u.>.>.>.>.>.>.L L L L c H U U G G C C V V D D D D D D D C A l l z A =.>.u.>.t.t.f.f.j.j.j.D.0.D V C G G C G U 7.U C U a.S.*X@X*X0Xh.i   < # @ # 1 _ i.] J J t.-X,X,X-X,X7Xj.j.h.f.d.d.t.,.u.u.u.r.>.>.>.>.L L L L L L L L d 1.-X0X7X:X>XeXm O   ; , X > ~ Z q.-.c R -XuX2X1X,X-Xu.c h j Z C D G G D D D D D D D D D D D D D D D D D D D D D G G U U 7.7.8.f 1.-X0X7X:X>XeXm O   ; , X > ~ Z -.-.c R -XuX2X,X,X-Xu.c h j z C N H P P I Y Y b.b.M.Z.M.p.i.8.8.7.7.U U G G D D D D D D D D D D D D D D D D D D D D D D D D D P P P P P P P P Y Y Y Y Y Y Y J f 1.-X0X7X:X>XeXm O   ; , X > _ J t.,.v R -XiX7X7X,X-X-Xc.j.f.M.OXOXQ.'.).hXDX",
"5 o.Q.}.vXxXvX`.!.e.-.4.1.W ] ] 8.7.7.U U G G D D D D D D D D D D D D D D D D D U G D D G U 8.r.f.f.f.u.r.=.@.z &.@.=.u.6XaX7X-XsXM.N O . * * = 3 #.5.7.U Y p.-X9X%X5XqX$Xn g L c H D D G G G G k k k c H K K K =.=.=.=.=.=.=.=.u.u.y.r.r.>.=.=.=.=.Y L K K H H U U G G C C V V D D D D D D D D A z k z K =.>.u.r.t.u.f.f.h.j.h.D.0.D V D U U C U U ( U D U a.S.*X@X*X0Xh.i   < # @ # 1 _ i.] J J t.-X,X,X-X,X7Xj.j.h.f.d.d.t.,.u.u.y.r.r.>.=.=.K K K K L K L L d 1.-X0X7X:X>XeXm O   ; , X > ~ Z -.-.c R -XuX2X1X,X-Xu.c h j Z C G G G D D D D D D D D D D D D D D D D D D D D D G G U U 7.7.8.f 1.-X0X7X:X>XeXm O   ; , X > ~ Z -.-.c R -XuX2X,X,X-Xu.c h j A M N N H P P I Y b.b.M.Z.M.p.i.8.8.7.7.U U G G D D D D D D D D D D D D D D D D D D D D D D D D D D H H H H H H H Y U Y U Y U Y Y f 1.-X0X7X:X>XeXm O   ; , X > _ J ,.,.v R -XiX7X7X,X-X-Xc.j.f.b.OXOXQ.'.).hXSX",
"5 O.W.`.vXxXvX}.!.e.-.4.1.W [ ] 8.8.7.U U G G D D D D D D D D D D D D D D D D D U G D D G U 8.9.t.u.u.u.u.>.=.K =.K =.x.>XyX6X:XsXM.N O . * * = 3 #.5.7.U Y p.-X9X%X5XqX&Xn g L H D D D G G S G D D D D D D D D 8.=.U U U 8.i.a.i.i.a.a.a.9.8.U 8.8.U K C a p p D D D D D D D D C C V V C G U =.k k k k K =.r.u.u.u.u.u.u.u.u.u.p.i.) P H C H H P Y ) U H U p.:X*X@X*X0Xh.i X < # @ # 1 _ i.] J J t.-X,X,X-X>X7XA.A.c.j.j.h.f.f.i.i.a.a.a.9.8.U U U U U U U U Y f 1.-X0X7X:X>XeXm O   ; , X > ~ Z -.-.c R -XuX2X1X,X-Xu.K h j Z C D G G G D D D D D D D D D D D D D D D D D D D D G G U U 7.7.8.f 1.-X0X7X:X>XeXm O   ; , X > ~ Z -.-.c R -XuX2X1X,X-Xu.K h : l U I I P H N N m b.b.M.Z.M.s.i.r.8.7.7.U U G G D D D D D D D D D D D D D D D D D D D D D D D D D D D D D D D D D U U U U U U U Y f 1.-X0X7X:X>XeXm O   ; , X > _ J ,.,.v R -XiX,X7X,X:X-Xc.j.f.b.OXXXQ.(.kXjXSX",
"5 X.W.`.vXxXvX`.!.e.<.4.1.W { ] ) 8.( U U G G D D D D D D D D D D D D D D D D D U G D D G U 8.9.r.u.u.u.u.>.>.L L L Y u.6XyX6XS.sXM.N O . * * = 3 #.5.7.U Y p.-X9X%X5XqX&Xn g L H D D D G G S G D D D D D D D D 7.( U U U 8.0.a.0.0.a.a.a.9.7.U 8.7.U G C M p : D D D D D D D D C C V V C G U =.H c c c L >.u.u.u.u.u.u.u.u.u.u.p.i.) I P H P P I Y ) I P I s.:X*X@X*X0Xh.i X < # @ # 1 _ i.] J J t.-X7X,X-X>X7XA.c.c.j.j.f.f.f.i.0.a.a.a.9.7.U U U U U U U U U f 1.-X0X7X:X>XeXm O   ; , X > ~ Z -.-.c R -XuX2X1X,X-Xu.K h j Z C D G G D D D D D D D D D D D D D D D D D D D D D G G U U 7.7.8.f 1.-X0X7X>X>XeXm O   ; , X > ~ Z -.-.c R -XuX2X1X,X-Xu.K h j z U I I P H N N m b.b.M.Z.M.s.i.8.8.7.7.U U G G D D D D D D D D D D D D D D D D D D D D D D D D D D D D D D D D D U U U U U U U U f 1.-X0X7X:X>XeXm O   ; , X > _ J ,.,.v R -XiX,X7X,X-X-Xc.j.f.b.OXXXQ.(.kXjXSX",
"5 X.W.`.vXxXvX`.!.e.<.4.1.W [ ] ) 7.( U U G G D D D D D D D D D D D D D D D D D U G D D G U 8.9.r.u.u.u.u.>.Y L L L Y u.6XyX6XS.sXM.N O . * * = 3 #.5.7.U Y p.A.9X%X5XqX&Xn g L c H D D G G S G D D D D D D D D ( U U G U 7.9.0.9.0.a.a.0.9.( U 7.( U G C V p p D D D D D D D D C C V V C G U =.L L K K L >.u.u.u.u.u.u.u.u.u.u.s.p.] I P P P P I Y ) I P I b.:X*X@X*X0Xh.i   < # @ # 1 _ i.] J J t.-X,X,X-X,X7Xc.c.j.j.f.f.d.u.9.0.a.a.0.9.( U U U U U U U U U f 1.-X0X7X:X>XeXm O   ; , X > ~ Z -.-.c R -XuX2X1X,X-Xu.K h j Z C D D D D D D D D D D D D D D D D D D D D D D D D G G U U 7.7.8.f 1.-X0X7X:X>XeXm O   ; , X > ~ Z -.-.c E -XuX2X1X,X:Xh.K j l A U I I P H N N m b.b.M.Z.M.p.i.8.8.7.7.U U G G D D D D D D D D D D D D D D D D D D D D D D D D D D D D D D D D D U U U U U U U U f 1.-X0X7X:X>XeXm O   ; , X > _ J ,.,.v W -XiX,X7X,X:X-Xc.j.f.b.OXXXQ.(.kXjXSX",
"5 X.W.`.vXxXvX`.!.e.<.4.1.W [ ] ) 8.( U U G G D D D D D D D D D D D D D D D D D U G D D G U 8.9.r.u.u.u.u.>.Y L L L Y u.F.yX6XS.sXM.N O . * * = 3 #.5.7.U Y p.A.9X%X5XqX&Xn g L c H D D G G S G D D D D D D D D U U G G G ( 9.0.9.9.0.0.9.7.U G U U U G C V V M D D D D D D D D C C V V C G U =.=.>.Y Y >.>.u.x.u.u.u.u.u.u.u.u.b.p.r.) I P I I I Y ) I H I b.:X*X@X*X0Xh.i   < # @ # 1 _ i.] J J t.-X,X,X-X,X7Xj.j.j.f.f.d.d.t.8.9.0.0.9.7.U G U U U U U U U Y f 1.-X0X7X:X>XeXm O   ; , X > ~ Z -.-.c R -XuX2X1X,X-Xu.K h j Z C D D D D D D D D D D D D D D D D D D D D D D D D G G U U 7.7.8.f 1.-X0X7X:X>XeXm O   ; , X > ~ Z -.-.c E :XuX2X,X,X:Xh.L z A *.U I I P H N N m b.b.M.Z.M.p.i.8.8.7.7.U U G G D D D D D D D D D D D D D D D D D D D D D D D D D D D D D D D D D U U U U U U U U f 1.-X0X7X:X>XeXm O   ; , X > _ J ,.,.v W -XiX,X7X,X:X-Xc.j.f.b.OXXXQ.(.kXjXSX",
"5 X.W.`.vXxXvX`.!.e.<.4.Q W { [ ) 7.7.U U G G D D D D D D D D D D D D D D D D D U G D D G U 8.9.r.u.u.u.u.>.Y L L L Y u.6XyX6XS.sXM.N O . * * = 3 #.5.7.U Y p.A.9X%X9XqX&Xn g L c H D D G G S G G D D D D D D D G G C C G U 7.9.7.9.9.9.9.7.G D G G G D C C C C D D D D D D D D C C V V C G U =.y.u.>.>.>.u.u.x.u.u.u.u.u.u.u.u.M.b.i.) Y I Y Y I Y ) I H Y n.:X*X@X*X0Xh.i X < # @ # 1 _ i.] J J t.-X,X,X-X,X7Xj.f.f.f.d.d.,.,.8.9.9.9.9.7.G D U U U U U U U Y f 1.-X0X7X:X>XeXm O   ; , X > ~ Z -.-.c E -XuX2X,X,X-Xu.c h j Z C D D D D D D D D D D D D D D D D D D D D D D D D G G U U 7.7.8.f 1.-X0X7X:X>XeXm O   ; , X > ~ Z -.-.c R -XuX2X,X,X<Xx.=.A @.-.U I I P H N N m b.b.M.Z.M.p.i.8.8.7.7.U U G G D D D D D D D D D D D D D D D D D D D D D D D D D D D D D D D D D U U U U U U U U f 1.-X0X7X:X>XeXm O   ; , X > _ J ,.,.v W :XiX7X,X,X-X-Xc.j.f.b.OXXXQ.(.kXjXSX",
"5 X.W.`.vXvXvX`.!.e.<.1.Q W { [ ) 7.7.U U G G D D D D D D D D D D D D D D D D D U G D D G U 8.9.r.u.u.u.u.>.Y L L L Y u.6XyX6XS.sXM.N O . * * = 3 #.5.7.U Y p.A.9X%X5XqX$Xn g L c H D D G G S G G D D D D D D D G C C C C G 7.8.7.7.9.9.7.U G C D D D D C C C C D D D D D D D D C C V V C G U =.l.u.u.u.u.u.x.x.u.u.u.u.u.u.u.u.Z.b.p.] ) Y Y ) I Y ) I P Y b.:X*X@X*X0Xh.i   < # @ # 1 _ i.] J J t.-X,X,X-X,X7Xf.f.f.d.t.,.,.>.( 7.9.9.7.U G C U U U U U U U Y f 1.-X0X7X>X>XeXm O   ; , X > ~ Z -.-.c E :XuX2X,X,X-Xu.K h j Z C D D D D D D D D D D D D D D D D D D D D D D D D G G U U 7.7.8.f 1.-X0X7X:X>XeXm O   ; , X > ~ Z -.-.c R -XuX2X,X,X<Xx.>.&.*.q.U I I P H N N m b.b.M.Z.M.p.i.8.8.7.7.U U G G D D D D D D D D D D D D D D D D D D D D D D D D D D D D D D D D D U U U U U U U U f 1.-X0X7X>X>XeXm O   ; , X > _ J ,.,.v W :XiX,X,X,X-X-Xc.j.f.b.OXXXQ.(.kXjXSX",
"5 X.W.`.vXxXvX`.!.e.<.1.Q W { [ ) 7.7.U U G G D D D D D D D D D D D D D D D D D U G D D G U 8.9.r.u.u.u.u.>.Y L L L Y u.S.yX6XS.sXM.N O . * * = 3 #.5.7.U Y p.A.9X%X5XqX&Xn g L c H D D G G G G G D D D D D D D C C V V C G U 7.U 7.7.8.7.U C C C C C C D D G G D D D D D D D D C C V V C G U =.Z.x.u.u.u.u.x.x.u.u.u.u.u.u.u.u.Z.M.p.r.) ) ) ) I Y ) I H I s.-X*X@X*X0Xh.i X < # @ # 1 _ i.] J J t.-X,X,X-X>X7Xf.f.d.d.,.,.W E U 7.7.8.7.U C C U U U U U U U U f 1.-X0X7X>X>XeXm O   ; , X > ~ Z -.-.c R -XuX2X,X,X-Xu.K h j Z C D D D D D D D D D D D D D D D D D D D D D D D D G G U U 7.7.8.f 1.-X0X7X:X>XeXm O   ; , X > ~ Z -.-.c R -XuX2X;X,X<Xx.>.*.-.z.U I I P H N N m b.b.M.Z.M.p.i.8.8.7.7.U U G G D D D D D D D D D D D D D D D D D D D D D D D D D D D D D D D D D U U U U U U U U f 1.-X0X7X>X>XeXm O   ; , X > _ J ,.,.v R -XiX7X,X,X-X-Xc.j.f.b.OXXXQ.(.kXjXSX",
"5 X.W.`.vXvXvX`.!.e.<.1.Q W { [ ) 7.7.U U G G D D D D D D D D D D D D D D D D D U G D D G U 8.9.r.u.u.u.u.>.Y L L L L u.6XyX6XS.sXM.N O . * * = 3 #.5.7.U Y p.A.9X%X9XqX&Xn g L c H D D G G G G G D D D D D D D C C V V C D U 7.U ( 7.7.7.U C V C C C C D G G G D D D D D D D D C C V V C G U =.D.Z.x.u.u.u.x.x.u.u.u.u.u.u.u.u.D.Z.p.r.) ) ) ] I Y ) I H I s.-X*X@X*X0Xh.i X < # @ # 1 _ i.] J J t.-X,X,X-X,X7Xd.d.d.t.,.W W E U U 7.7.7.U C V U U U U U U U U f 1.-X0X7X>X>XeXm O   ; , X > ~ Z -.-.c R :XuX2X,X,X-Xu.c h j Z C D D D D D D D D D D D D D D D D D D D D D D D D G G U U 7.7.8.f 1.-X0X7X:X>XeXm O   ; , X > ~ Z -.-.c R -XuX2X1X,X<Xx.>.*.q.z.U I I P H N N m b.b.M.Z.M.p.i.8.8.7.7.U U G G D D D D D D D D D D D D D D D D D D D D D D D D D D D D D D D D D U U U U U U U Y f 1.-X0X7X>X>XeXm O   ; , X > _ J ,.,.v R -XiX,X,X,X-X-Xc.j.f.b.OXXXQ.(.kXjXSX",
"5 X.W.}.AXvXvX`.T.6.;.4.Q W { p.) 7.7.7.8.7.7.8.V V V V V V V V V V V V V V V V 7.7.7.7.7.7.7.8.r.>.>.>.Y L L L L L >.u.6XyX6XS.sXM.N O . * * = 3 #.5.7.U Y p.A.9X&X&X9X%XR n L =.=.=.U G G / G G D D D D D D D D D D D D D D D D D D D D D D D D D D D D D D D D D D D D D D D U U U U U U U U r.>.>.>.>.>.>.>.u.u.u.u.u.u.u.u.] ] ] ) ) ) ) ) I Y ) I P Y s.-X*X@X*X0XM.i X < # @ # 1 _ i.] J J t.-X,X,X-X>X7Xf.d.d.t.,.W W E H D D D D D D D D G G U U 7.7.8.v 1.$X,X,X>X>XyXm O   ; , X > ~ Z -.-.c R -XuX2X,X,X<Xh.=.z @.*.7.U G C V V C C D D D D D D D D V V C C G G U U U U U U U U U Y v 1.$X,X,X>X>XyXm O   ; , X > ~ Z q.-.c R -XuX2X,X,X<Xh.L z @.*.( Y P N N N H P i.i.i.i.i.i.i.i.U ( 7.8.7.U D V D D D D D D D D D D D D D D D D D D D D D D D D D D D D D D D D D G G U U 7.7.8.f 1.-X0X7X:X>XeXm O   ; , X > _ J ,.,.v W :XiX7X7XaXaX-Xd.,.d.Z.w..XQ.(.jXCXSX",
"5 X.W.}.AXvXvX`.T.6.;.4.Q W { [ ) 7.7.7.7.7.7.8.C C C C C C C C C C C C C C C C 7.7.7.7.7.7.8.8.r.>.>.>.Y L L L L L =.u.6XyX6XS.sXM.N O . * * = 3 #.5.7.U Y p.-X9X&X&X9X%XR n L =.=.=.U G G / G G D D D D D D D D D D D D D D D D D D D D D D D D D D D D D D D D D D D D D D D U U U U U U U U r.>.>.>.>.>.>.>.u.u.u.u.r.u.r.r.] ] ] ] ) ) ) ) I Y ) I P Y s.:X*X@X*X0Xh.i X < # @ # 1 _ i.] J J t.-X7X,X-X>X7Xd.d.d.t.,.W W E H D D D D D D D D G G U U 7.7.8.v 1.$X,X>X>X>XyXm O   ; , X > ~ Z -.-.c E :XuX2X,X,X<Xh.=.z @.*.7.U G C V V C C D D D D D D D D V V C C G G U U U U U U U U U Y v 1.$X,X,X>X>XyXm O   ; , X > ~ Z q.-.c R :XuX2X1X,X<Xh.L z @.*.( Y P N N N H P i.i.i.i.i.i.i.i.U ( 7.7.7.U C V D D D D D D D D D D D D D D D D D D D D D D D D D D D D D D D D D G G U U 7.7.8.f 1.-X0X7X>X>XeXm O   ; , X > _ J ,.,.v W :XiX,X7XaXaX-Xd.W d.M.w..XQ.(.jXCXSX",
"5 X.W.}.AXvXvX(.T.6.;.4.Q W { [ 8.7.7.7.7.7.7.7.U U U U U U U U U U U U U U U U 7.7.8.8.7.7.7.8.r.>.>.>.Y L L L L L Y u.6XyX6XS.sXM.N O . * * = 3 #.5.7.U Y p.A.9X&X&X9X%XR n L Y Y =.U G G / G G D D D D D D D D D D D D D D D D D D D D D D D D D D D D D D D D D D D D D D D ( ( ( ( ( ( ( U r.>.>.>.>.>.>.>.>.>.>.>.>.>.>.>.] ] ] ] ] ] ] ] I Y ) I P Y s.:X*X@X*X0XM.i   < # @ # 1 _ i.] J J t.-X,X,X-X,X7Xd.d.t.,.W W W E H D D D D D D D D G G U U 7.7.8.v 1.$X,X>X>X>XyXm O   , , X > ~ Z -.-.c R :XuX2X,X,X<Xh.L z @.*.7.U G C V V C C D D D D D D D D V V C C G G U U U U U U U U U U v 1.$X,X,X>X>XyXm O   ; , X > ~ Z -.-.c R -XuX2X,X,X<Xh.L z @.*.( Y P N N N H P i.r.r.r.r.r.i.i.U ( 7.7.7.U C V D D D D D D D D D D D D D D D D D D D D D D D D D D D D D D D D D G G U U 7.7.8.f 1.-X0X7X>X>XeXm O   ; , X > _ J ,.,.v W :XiX,X7XaX7X-Xd.W d.M.w..XQ.(.jXCXSX",
"5 X.W.}.AXvXvX(.K.o.;.4.Q Q [ [ 8.7.7.7.7.7.7.7.7.7.7.7.7.7.7.7.7.7.7.7.7.7.7.7.7.8.8.7.8.7.8.8.r.>.>.>.Y L L L L L =.u.6XyX6XS.sXZ.N O . * * = 3 #.5.7.U Y p.A.9X&X&X9X%XR n L =.=.=.( G G / G G D D D D D D D D D D D D D D D D D D D D D D D D D D D D D D D D D D D D D D D 7.7.7.7.7.7.7.7.=.>.>.>.>.>.>.>.L L L L L L L L ] ] ] ] ] ] ] ] I ) ) I P Y s.:X*X@X*X0Xh.i   < # @ # 1 _ i.] J J t.-X,X,X-X,X7Xt.,.,.W W R R R H D D D D D D D D G G U U 7.7.8.v 1.$X,X>X>X>XyXm O   , , X > ~ Z -.-.c E :XuX2X,X,X<Xh.L z @.*.7.U G C V V C C D D D D D D D D V V C C G G U U U U U U U U U U v 1.$X,X,X>X>XyXm O   ; , X > ~ Z -.-.c R -XuX2X,X,X<Xh.=.z @.*.( Y P N N N H P ] ] ] ] ] ] ] 8.U ( 7.7.7.U C V D D D D D D D D D D D D D D D D D D D D D D D D D D D D D D D D D G G U U 7.7.8.f 1.-X0X7X>X>XeXm O   ; , X > _ P ,.,.v W :XiX,X,X7X,Xc.,.W ,.b.w..XQ.(.jXCXSX",
"5 X.W.`.AXvXvX(...o.:.4.Q Q [ [ 8.8.7.7.7.7.7.7.9.9.9.9.9.9.9.9.9.9.9.9.9.9.9.9.8.8.8.8.7.7.7.8.r.>.>.>.=.L L L L L =.u.6XyX6XS.sXM.N O . * * = 3 #.5.7.U Y p.-X9X&X&X9X%XR n L =.=.8.( G G G G G D D D D D D D D D D D D D D D D D D D D D D D D D D D D D D D D D D D D D D D 8.8.7.7.7.7.9.8.=.>.Y E Y Y >.=.L L K K K L L L ) ) ) ) ] ] ] ] I Y ) I P Y s.-X*X@X*X0Xh.;   < # @ # 1 _ i.] J J t.-X,X,X-X,X7X,.,.W W R R T J D D D D D D D D D G G U U 7.7.8.v 1.$X,X,X>X>XyXm O   ; , X > ~ Z -.-.c R -XuX2X,X,X<Xh.L z @.*.7.U G C V V C C D D D D D D D D V V C C G G U U U U U U U U U U v 1.-X,X,X>X>XyXm O   ; , X > ~ Z -.-.c R -XuX2X,X,X<Xh.L z @.*.( Y P N N N N P ) ) ) ) ] ] ] ) U ( 7.8.7.U C V D D D D D D D D D D D D D D D D D D D D D D D D D D D D D D D D D G G U U 7.7.8.f 1.-X0X7X:X>XeXm O   ; , X > _ J ,.,.v R -XiX,X:X,X>Xc.,.R W s.w..XQ.(.jXCXSX",
"5 X.W.}.AXvXvX(...o.:.b Q Q W [ ) 8.7.7.7.7.8.8.8.8.8.8.8.8.7.7.9.9.9.8.8.8.8.8.8.8.8.8.7.7.7.8.r.>.>.>.=.L L L Y L =.u.6XyX6XS.sXM.N O . * * = 3 #.5.7.U Y p.A.9X&X&X9X%XR n L =.=.8.( G G G G G D D D D D D D D D D D D D D D D D D D D D D D D D D D D D D D D D D D D D D D 9.9.9.9.9.9.9.9.Y L L L L L L L L L L L L L L L ) ) ) ) ] ] ] ] I Y ) I P Y s.-X*X@X*X0Xh.;   < # @ # 1 _ i.] J J t.-X,X,X-X,X7XW W W R R T T K D D D D D D D D D G G U U 7.7.8.v 1.$X,X,X>X>XyXm O   ; , X > ~ Z -.-.c R -XuX2X,X,X<Xh.L z @.*.7.U G C V V C C D D D D D D D D V V C C G G U U U U U U U U U U v 1.-X,X,X>X>XyXm O   ; , X > ~ Z -.-.c R -XuX2X,X,X<Xh.L z @.*.( Y P N N N N P ) ) ) ) ) ) ) ( U ( 7.8.7.U C V D D D D D D D D D D D D D D D D D D D D D D D D D D D D D D D D D G G U U 7.7.8.f 1.-X0X7X:X>XeXm O   ; , X > _ J ,.,.v R -XiX,X-X>X-Xj.W R W p.w..XQ.(.jXCXSX",
"5 X.W.}.AXvXvX`...o.:.b Q Q W ] ) 8.8.8.7.8.8.7.( ( ( ( 7.( ( ( ( ( ( ( ( ( ( ( 8.8.7.8.7.8.7.8.r.>.>.>.Y L L L L L =.u.S.yX6XS.sXM.N O . * * = 3 #.5.7.U Y p.A.9X&X&X9X%XR n L =.=.=.U G G G G G D D D D D D D D D D D D D D D D D D D D D D D D D D D D D D D D D D D D D D D 9.9.9.9.9.9.9.9.L L L L L L L L L L L L Y Y Y Y ) ] ) ) ) ) ) ) I Y ) I P Y s.-X*X@X*X0Xh.;   < # @ # 1 _ i.] J J t.-X,X,X-X,X7XW W R R T T v K H D D D D D D D D G G U U 7.7.8.v 1.-X,X,X>X>XyXm O   ; , X > ~ Z -.-.c R -XuX2X,X,X<Xh.L z @.*.7.U G C V V C C D D D D D D D D V V C C G G G U U U U U U U U U v 1.-X,X>X>X>XyXm O   ; , X > ~ Z -.-.c R -XuX2X,X,X<Xh.=.z @.*.( Y P N N m H P Y Y Y Y Y Y Y Y U ( 7.7.7.U C V D D D D D D D D D D D D D D D D D D D D D D D D D D D D D D D D D G G U U 7.7.8.f 1.-X0X7X:X>XeXm O   ; , X > _ J ,.,.v R -XiX,X-X-X:Xh.E T R p.w..XQ.(.jXCXSX",
"6 ..'.lXAXxXxX`.K.X.o.%.$.5.^ 6.e.O.O.O.O.e.e.O.o.o.o.o.o.o.o.o.o.o.o.o.o.o.o.o.O.O.O.6.O.O.O.O.e.e.e.6.6.6.6.o.6.o.6.J.oXoXoXOXoXOXe u & & & & X.O.O.O.o.o.w.OXoXH.H.oXoX5.3 6.6.o.o.o.o.o.o.o.o.o.o.o.o.o.o.o.o.o.o.o.o.o.o.o.o.o.o.o.o.o.o.o.o.o.o.o.o.o.o.o.o.o.o.o.o.o.o.o.e.e.e.e.e.e.e.e.o.o.o.o.6.o.6.o.6.6.6.6.6.6.6.6.e.e.e.6.e.6.e.6.o.6.6.o.e o.XXoXoXD.oXoXOX9 u 7 7 u 9 0 O.e.e.6.w e.oXoXoXoXoXoX6.6.6.6.6.! ! w o.o.o.o.o.o.o.o.o.o.o.o.o.o.O.6.! e.oXoXoXoXoXoXe u u 9 9 u 9 O.X.e.e.o.6.oXoXoXoXoXoXJ.6.o.o.O.O.o.o.e q q e o.o.o.o.o.o.o.o.o.q q e e o.o.o.o.o.o.o.o.o.o.o.o.w e.oXoXoXoXoXoXe u u 9 9 u 9 O.X.e.e.o.6.oXoXoXoXoXoXJ.6.o.o.O.6.o.e e e e e e o.o.o.o.6.o.o.o.o.o.O.O.o.o.o.q o.o.o.o.o.o.o.o.o.o.o.o.o.o.o.o.o.o.o.o.o.o.o.o.o.o.o.o.o.o.o.o.o.o.o.o.o.o.O.6.4 e.oXoXoXoXoXoXe u u 9 9 u 9 O.w e.e.! 6.oXoXoXoXoXoXw.6.^ 6.e..XQ.[.(.jXjXSX",
"(.(.lXhXDXDXDXhXlXlXzX{.{.{.}.}.}.{.}.{.}.}.}.}.}.{.}.{.}.}.}.}.}.}.}.}.}.}.}.}.}.}.}.}.}.}.}.{.{.{.{.{.{.{.{.{.{.{.{.{.{.{.{.{.{.{.{.}.}.}.}.{.}.}.}.}.}.{.{.{.{.{.{.{.{.{.{.{.{.{.}.}.}.}.}.}.{.{.{.{.{.{.{.{.{.{.{.{.{.{.{.{.{.{.{.{.{.{.{.{.{.{.{.{.{.{.{.{.}.{.}.{.}.}.}.}.}.}.}.{.}.}.}.}.{.{.{.{.{.{.{.{.{.{.{.{.{.{.{.{.{.{.}.{.{.{.{.{.{.{.{.{.{.{.{.{.{.{.{.{.{.{.}.}.}.}.}.}.}.{.{.{.{.{.{.{.{.{.{.{.{.{.{.{.{.{.{.{.{.}.}.}.}.}.}.}.}.}.}.}.}.}.}.{.{.{.{.{.{.{.{.{.{.{.}.}.}.}.}.}.}.{.{.{.{.{.{.{.{.{.{.{.{.{.{.{.}.}.}.{.}.}.}.}.{.{.{.{.{.{.{.{.}.{.}.{.}.}.}.}.}.{.}.}.}.}.}.{.{.{.{.{.{.{.{.{.{.{.}.}.}.}.}.}.}.{.{.{.{.{.{.{.{.{.{.{.{.{.{.{.{.{.{.{.{.{.{.{.{.{.{.{.{.{.{.{.}.}.}.}.}.}.}.}.{.{.{.{.{.{.{.{.{.{.{.{.{.{.{.{.{.{.{.{.{.{.{.{.{.{.{.{.{.{.{.{.}.{.}.}.}.}.}.{.{.{.{.{.{.{.{.{.{.{.}.}.}.}.}.}.{.{.{.{.{.{.{.{.{.{.{.{.{.{.{.{.'.'././.).hXSX",
"DXhXhXhXDXDXDXDX).).).).).).).).).).).).).).).).).).).).).).).).).).).).).).).).).).).).).).).).).).).).).).).).).).).).).).).).).).).).).).).).).).).).).).).).).).).).).).).).).).).).).).).)./././.~./././././././.~./././././././.~./././././././.~././././.).).).).).).).).).).).).).).).).).).).).).).).).).).).).).).).).).).).).).).).).).).).).).).).).).).).).).).).).).).).).).).).).).).).).).).).).).).).).).).).).).).).).).).).).).).).).).).).).).).).).).).).).).).).).).).).).).).).).).).).).).).).).).).).).).).).).).).).)./././.~././././.).).).).).).).).).).).).).).).).).).).).).).).).).).).).).).).).).).).).).).).).).).).).).).).).).).).).).).).).).).).).).).).).).).).).).).).)././././././.~.~./././.~./././././././.~./././././././.~././././.).).).).).).).).).).).).).).).).).).).).).).).).).).).).).).).).).).).).).).).)._._._.).).).).",
"DXDXhXhXhXhXDXDXDXDXDXDXDXDXDXDXVXVXVXVXVXVXVXVXVXVXVXVXVXVXVXVXVXVXVXVXVXVXVXVXVXVXVXVXVXVXVXVXVXVXVXVXVXVXVXVXVXVXVXVXVXVXVXVXVXVXVXVXVXVXVXVXVXVXVXVXVXVXVXVXVXVXVXVXVXVXVXVXVXVXVXVXVXVXVXVX_._._._._._._._._._._._._._._._._._._._._._._._._._._._._._._._.VXVXVXVXVXVXVXVXVXVXVXVXVXVXVXVXVXVXVXVXVXVXVXVXVXVXVXVXVXVXVXVXVXVXVXVXVXVXVXVXVXVXVXVXVXVXVXVXVXVXVXVXVXVXVXVXVXVXVXVXVXVXVXVXVXVXVXVXVXVXVXVXVXVXVXVXVXVXVXVXVXVXVXVXVXVXVXVXVXVXVXVXVXVXVXVXVXVXVXVXVXVXVXVXVXVXVXVXVXVXVXVXVXVXVXVXVXVXVXVXVXVXVXVXVXVXVXVXVXVXVXVXVXVXVXVX_._._._._._._._.VXVXVXVXVXVXVXVXVXVXVXVXVXVXVXVXVXVXVXVXVXVXVXVXVXVXVXVXVXVXVXVXVXVXVXVXVXVXVXVXVXVXVXVXVXVXVXVXVXVXVXVXVXVXVXVXVXVXVXVXVXVXVXVXVXVXVXVXVXVXVXVX_._._._._._._._._._._._._._._._._._._._._._._._._._._._._._._._.VXVXVXVXVXVXVXVXVXVXVXVXVXVXVXVXVXVXVXVXVXVXVXVXVXVXVXVXVXVXVXVXVXVXVXVXVXVXVXVX_.hXhXhX_.).~.",
"DXDXhXhXhXhXDXDXVXVXVXDXDXDXDXVXVXVXVXVXVXVXVXVXVXVXVXVXVXVXVXVXVXVXVXVXVXVXVXVXVXVXVXVXVXVXVXVXVXVXVXVXVXVXVXVXVXVXVXVXVXVXVXVXVXVXVXVXVXVXVXVXVXVXVXVXVXVXVXVXVXVXVXVXVXVXVXVXVXVXVXVXVXVXVXVXVXVXVXVXVXVXVXVXVXVXVXVXVXVXVXVXVXVXVXVXVXVXVXVXVXVXVXVXVXVXcXcXVXVXVXVXVXVXVXVXVXVXVXVXVXVXVXVXVXVXVXVXVXVXVXVXVXVXVXVXVXVXVXVXVXVXVXVXVXVXVXVXVXVXVXVXVXVXVXVXVXVXVXVXVXVXVXVXVXVXVXVXVXVXVXVXVXVXVXVXVXVXVXVXVXVXVXVXVXVXVXVXVXVXVXVXVXVXVXVXVXVXVXVXVXVXVXVXVXVXVXVXVXVXVXVXVXVXVXVXVXVXVXVXVXVXVXVXVXVXVXVXVXVXVXVXVXVXVXVXVXVXVXVXVXVXVXVXVXVXVXVXVXVXVXVXVXVXVXVXVXVXVXVXVXVXVXVXVXVXVXVXVXVXVXVXVXVXVXVXVXVXVXVXVXVXVXVXVXVXVXVXVXVXVXVXVXVXVXVXVXVXVXVXVXVXVXVXVXVXVXVXVXVXVXVXVXVXVXVXVXVXVXVXVXVXVXVXVXVXVXVXVXVXcXcXVXVXVXVXVXVXVXVXVXVXVXVXVXVXVXVXVXVXVXVXVXVXVXVXVXVXVXVXVXVXVXVXVXVXVXVXVXVXVXVXVXVXVXVXVXVXVXVXVXVXVXVXVXVXVXVXVXVXVXVXVXVXVXVX)._.hXhXhX)./.",
"VXDXDXDXhXhXhXhX~.~.~.~.~.~.~.~.~.~.~.~.~.~.~.~.~.~.~.~.~.~.~.~.~.~.~.~.~.~.~.~.~.~.~.~.~.~.~.~.~.~.~.~.~.~.~.~.~.~.~.~.~.~.~.~.~.~.~.~.~.~.~.~.~.~.~.~.~.~.~.~.~.~.~.~.~.~.~.~.~.~.~.~.~.~.~.~.~.~.~.~.~.~.~.~.~.~.~.~.~.~.~.~.~.~.~.~.~.~.~.~.~.~.~.~.~.~.~.~.~.~.~.~.~.~.~.~.~.~.~.~.~.~.~.~.~.~.~.~.~.~.~.~.~.~.~.~.~.~.~.~.~.~.~.~.~.~.~.~.~.~.~.~.~.~.~.~.~.~.~.~.~.~.~.~.~.~.~.~.~.~.~.~.~.~.~.~.~.~.~.~.~.~.~.~.~.~.~.~.~.~.~.~.~.~.~.~.~.~.~.~.~.~.~.~.~.~.~.~.~.~.~.~.~.~.~.~.~.~.~.~.~.~.~.~.~.~.~.~.~.~.~.~.~.~.~.~.~.~.~.~.~.~.~.~.~.~.~.~.~.~.~.~.~.~.~.~.~.~.~.~.~.~.~.~.~.~.~.~.~.~.~.~.~.~.~.~.~.~.~.~.~.~.~.~.~.~.~.~.~.~.~.~.~.~.~.~.~.~.~.~.~.~.~.~.~.~.~.~.~.~.~.~.~.~.~.~.~.~.~.~.~.~.~.~.~.~.~.~.~.~.~.~.~.~.~.~.~.~.~.~.~.~.~.~.~.~.~.~.~.~.~.~.~.~.~.~.~.~.~.~.~.~.~.~.~.~.~.~.~.~.~.~.~.~.~.~.~.~.~.~.~.~.~.~.~.~.~.~.~.~.~.~.~.~.~.~.)._._.hXhXhX_.",
"VXVXhXVXhXhXhXhXFXFXFXFXFXFXFXFXFXFXFXFXFXFXFXFXFXFXFXFXFXFXFXFXFXFXFXFXFXFXFXFXFXFXFXFXFXFXFXFXFXFXFXFXFXFXFXFXFXFXFXFXFXFXFXFXFXFXFXFXFXFXFXFXFXFXFXFXFXFXFXFXFXFXFXFXFXFXFXFXFXFXFXFXFXFXFXFXGXGXGXGXGXGXGXGXGXGXGXGXGXGXGXGXGXGXGXGXGXGXGXGXGXGXGXGXGXGXGXGXFXFXFXFXFXFXFXFXFXFXFXFXFXFXFXFXFXFXFXFXFXFXFXFXFXFXFXFXFXFXFXFXFXFXFXFXFXFXFXFXFXFXFXFXFXFXFXFXFXFXFXFXFXFXFXFXFXFXFXFXFXFXFXFXFXFXFXFXFXFXFXFXFXFXFXFXFXFXFXFXFXFXFXFXFXFXFXFXFXFXFXFXFXFXFXFXFXFXFXFXFXFXFXFXFXFXFXFXFXFXFXFXFXFXFXFXFXFXFXFXFXFXFXFXFXFXFXFXFXFXFXFXFXFXFXFXGXGXGXGXGXGXGXGXFXFXFXFXFXFXFXFXFXFXFXFXFXFXFXFXFXFXFXFXFXFXFXFXFXFXFXFXFXFXFXFXFXFXFXFXFXFXFXFXFXFXFXFXFXFXFXFXFXFXFXFXFXFXFXFXFXFXFXFXFXFXFXFXFXFXFXFXFXFXFXFXGXGXGXGXGXGXGXGXGXGXGXGXGXGXGXGXGXGXGXGXGXGXGXGXGXGXGXGXGXGXGXGXFXFXFXFXFXFXFXFXFXFXFXFXFXFXFXFXFXFXFXFXFXFXFXFXFXFXFXFXFXFXFXFXFXFXFXFXFXFXFXFXGXFXVXhXhXhXVX",
"hXhXhXhXhXhXhXhXIXIXIXIXIXIXIXIXLXLXLXLXLXLXLXLXLXLXLXLXLXLXLXLXLXLXLXLXLXLXLXLXLXLXLXLXLXLXLXLXLXLXLXLXLXLXLXLXLXLXLXLXLXLXLXLXLXLXLXLXLXLXLXLXLXLXLXLXLXLXLXLXLXLXLXLXLXLXLXLXLXLXLXLXLXLXLXLXPXPXPXPXPXPXPXPXPXPXPXPXPXPXPXPXPXPXPXPXPXPXPXPXPXPXPXPXPXPXPXPXLXLXLXLXLXLXLXLXLXLXLXLXLXLXLXLXLXLXLXLXLXLXLXLXLXLXLXLXLXLXLXLXLXLXLXLXLXLXLXLXLXLXLXLXLXLXLXLXLXLXLXLXLXLXLXLXLXLXLXLXLXLXLXLXLXLXLXLXLXLXLXLXLXLXLXLXLXLXLXLXLXLXLXLXLXLXLXLXLXLXLXLXLXLXLXLXLXLXLXLXLXLXLXLXLXLXLXLXLXLXLXLXLXLXLXLXLXLXLXLXLXLXLXLXLXLXLXLXLXLXLXLXLXLXLXLXPXPXPXPXPXPXPXPXLXLXLXLXLXLXLXLXLXLXLXLXLXLXLXLXLXLXLXLXLXLXLXLXLXLXLXLXLXLXLXLXLXLXLXLXLXLXLXLXLXLXLXLXLXLXLXLXLXLXLXLXLXLXLXLXLXLXLXLXLXLXLXLXLXLXLXLXLXLXLXLXPXPXPXPXPXPXPXPXPXPXPXPXPXPXPXPXPXPXPXPXPXPXPXPXPXPXPXPXPXPXPXPXLXLXLXLXLXLXLXLXLXLXLXLXLXLXLXLXLXLXLXLXLXLXLXLXLXLXLXLXLXLXLXLXLXLXLXLXLXLXLXLXUXKXGXDX).).hX"
};
