/* XPM */
static char *_e1c9d3d46654a9aba83ac1e2367ba3ej1B9JYIqOEABgPvj[] = {
/* columns rows colors chars-per-pixel */
"423 423 256 2 ",
"   c #010202",
".  c #030A01",
"X  c #0B0B03",
"o  c #02010C",
"O  c #0A090B",
"+  c #080608",
"@  c #081406",
"#  c #171908",
"$  c #020114",
"%  c #01011B",
"&  c #08041E",
"*  c #060815",
"=  c #081416",
"-  c #1B1C14",
";  c #101919",
":  c #1B1B1B",
">  c #161417",
",  c #120E0F",
"<  c #221E14",
"1  c #231A1A",
"2  c #241E0D",
"3  c #1E210C",
"4  c #1B2504",
"5  c #1E2213",
"6  c #1E231C",
"7  c #162618",
"8  c #0B2A10",
"9  c #222203",
"0  c #23260A",
"q  c #232314",
"w  c #23221B",
"e  c #27281B",
"r  c #2A3413",
"t  c #020123",
"y  c #02012B",
"u  c #09022D",
"i  c #070627",
"p  c #1D1C23",
"a  c #19162A",
"s  c #191A28",
"d  c #020234",
"f  c #090234",
"g  c #02023C",
"h  c #09013B",
"j  c #060A37",
"k  c #191937",
"l  c #0C1431",
"z  c #211F25",
"x  c #231B29",
"c  c #221E34",
"v  c #231E3C",
"b  c #241A35",
"n  c #381A30",
"m  c #002B2C",
"M  c #0A232C",
"N  c #182326",
"B  c #0A2239",
"V  c #192438",
"C  c #1B333E",
"Z  c #0D392E",
"A  c #232325",
"S  c #24232B",
"D  c #2B2A2A",
"F  c #2E3025",
"G  c #27382B",
"H  c #242135",
"J  c #24203B",
"K  c #2C2B34",
"L  c #353635",
"P  c #483334",
"I  c #144438",
"U  c #0E4832",
"Y  c #344B34",
"T  c #4A5037",
"R  c #020344",
"E  c #0A0144",
"W  c #02024C",
"Q  c #0B014B",
"!  c #060A47",
"~  c #120B4B",
"^  c #091649",
"/  c #1A1645",
"(  c #171A48",
")  c #020154",
"_  c #0B0253",
"`  c #03015B",
"'  c #0B035C",
"]  c #070958",
"[  c #130A57",
"{  c #061559",
"}  c #18105A",
"|  c #181556",
" . c #241E42",
".. c #20174E",
"X. c #221A4C",
"o. c #271644",
"O. c #241857",
"+. c #00255A",
"@. c #0A2B4C",
"#. c #2F304B",
"$. c #020064",
"%. c #0A0364",
"&. c #000B63",
"*. c #02016C",
"=. c #0A026C",
"-. c #010B6E",
";. c #0A0C68",
":. c #180E65",
">. c #120768",
",. c #061264",
"<. c #010273",
"1. c #090174",
"2. c #010A72",
"3. c #01027B",
"4. c #08007B",
"5. c #040A7A",
"6. c #0A0A79",
"7. c #140174",
"8. c #14027C",
"9. c #150A75",
"0. c #111174",
"q. c #11126E",
"w. c #26116A",
"e. c #00256B",
"r. c #012766",
"t. c #042579",
"y. c #3D386E",
"u. c #383666",
"i. c #3D3679",
"p. c #2B2969",
"a. c #47305A",
"s. c #065354",
"d. c #0B484B",
"f. c #395345",
"g. c #2D4D50",
"h. c #19615D",
"j. c #1A6454",
"k. c #19684D",
"l. c #125473",
"z. c #28566E",
"x. c #265668",
"c. c #2C5371",
"v. c #1C6B69",
"b. c #1B726A",
"n. c #1D6B73",
"m. c #007576",
"M. c #0C7779",
"N. c #047B79",
"B. c #097879",
"V. c #047B75",
"C. c #1A7273",
"Z. c #167879",
"A. c #05726F",
"S. c #206F6C",
"D. c #266B69",
"F. c #267172",
"G. c #306553",
"H. c #524E4D",
"J. c #4C4857",
"K. c #48495B",
"L. c #524C57",
"P. c #4E5450",
"I. c #605D4E",
"U. c #605C46",
"Y. c #605B57",
"T. c #614B56",
"R. c #4F634F",
"E. c #494862",
"W. c #5C5678",
"Q. c #565577",
"!. c #525369",
"~. c #5A6066",
"^. c #02856C",
"/. c #008272",
"(. c #0E8171",
"). c #01847C",
"_. c #008B7B",
"`. c #048676",
"'. c #118477",
"]. c #15827D",
"[. c #068C6D",
"{. c #238078",
"}. c #268177",
"|. c #23826D",
" X c #1D8759",
".X c #000283",
"XX c #090183",
"oX c #00018B",
"OX c #0A018B",
"+X c #05098B",
"@X c #060B86",
"#X c #120085",
"$X c #140089",
"%X c #170686",
"&X c #000094",
"*X c #0A0294",
"=X c #01019B",
"-X c #0B029B",
";X c #040A97",
":X c #160192",
">X c #11009B",
",X c #150595",
"<X c #0D1390",
"1X c #072C90",
"2X c #383786",
"3X c #0101A3",
"4X c #0901A4",
"5X c #0409A1",
"6X c #0201AC",
"7X c #0B01AC",
"8X c #050AA9",
"9X c #1400A5",
"0X c #0400B3",
"qX c #0900B4",
"wX c #0400BC",
"eX c #0900BB",
"rX c #020BB8",
"tX c #0A0AAE",
"yX c #143DAE",
"uX c #2A168B",
"iX c #045B84",
"pX c #0D4D9A",
"aX c #124D8F",
"sX c #00618D",
"dX c #036485",
"fX c #017C84",
"gX c #067889",
"hX c #147C8C",
"jX c #187789",
"kX c #097595",
"lX c #167796",
"zX c #16699B",
"xX c #286F8B",
"cX c #2B7690",
"vX c #1074A6",
"bX c #1446A8",
"nX c #595586",
"mX c #505393",
"MX c #625991",
"NX c #0400C3",
"BX c #0300CB",
"VX c #0A01C7",
"CX c #0200D4",
"ZX c #0501D9",
"AX c #1308D2",
"SX c #0D04E4",
"DX c #2F28F7",
"FX c #3F46DD",
"GX c #048384",
"HX c #038389",
"JX c #158182",
"KX c #178487",
"LX c #06879A",
"PX c #15879F",
"IX c #0A8BA2",
"UX c #278786",
/* pixels */
"gXgXgXgXgXgXgXgXkXgXgXM.M.A.A.v.n.n.n.n.n.n.n.n.n.n.n.n.n.n.n.n.n.n.n.n.n.n.n.n.n.n.n.n.n.n.n.n.n.n.n.n.n.n.n.n.n.n.n.n.n.n.n.n.n.n.n.n.n.n.n.n.v.v.v.v.v.v.v.v.s.s.s.s.s.s.s.s.s.s.s.s.s.s.s.s.s.s.s.s.s.s.s.s.s.s.s.s.s.s.s.s.s.s.s.s.s.s.s.s.s.s.s.s.s.s.s.s.s.s.s.s.s.s.s.s.s.s.s.s.s.s.s.d.d.U d.d.d.s.s.l.l.l.l.l.l.s.s.s.s.s.s.s.s.s.s.s.s.s.s.s.s.s.s.s.s.s.s.s.s.s.s.s.s.s.s.s.s.s.s.s.s.s.s.s.s.s.s.s.s.s.s.s.s.s.s.s.s.s.s.s.s.s.s.s.s.s.s.s.s.s.s.s.s.s.s.s.s.s.s.s.s.s.s.s.s.s.s.s.s.s.s.s.s.s.s.s.s.s.s.s.s.s.s.s.s.s.s.s.s.s.s.s.s.s.s.s.s.s.s.s.s.s.s.s.s.s.s.s.s.s.s.s.s.s.s.s.s.s.s.s.s.s.s.s.s.s.s.s.s.s.s.s.s.s.s.s.s.s.s.s.s.s.s.s.s.s.s.s.s.s.s.s.s.s.s.s.s.s.s.s.s.s.s.s.U U d.d.d.d.d.+.l.l.l.z.x.x.x.h.D.v.v.v.v.v.h.h.h.v.v.v.v.v.v.v.b.b.b.b.b.b.b.b.v.b.b.b.b.b.v.v.v.b.b.b.b.v.b.b.b.b.v.v.v.b.b.b.b.b.b.b.b.n.n.n.n.n.iXxXiXiXzXdXLXLXHXfXgXdXM.",
"gXgXgXgXgXgXgXgXgXdXm.m.A.A.A.A.Z.C.C.C.C.C.C.C.C.C.C.C.C.C.C.C.C.C.C.C.C.C.C.C.C.C.C.C.C.C.C.C.C.C.C.C.C.C.C.C.C.C.C.C.C.C.C.C.C.C.C.C.C.C.C.C.v.v.v.v.n.n.n.v.C.C.C.C.C.C.C.C.Z.C.C.Z.Z.Z.C.C.C.C.C.C.C.C.Z.Z.C.Z.C.C.C.C.C.C.Z.C.Z.Z.C.Z.C.C.C.C.C.C.C.C.Z.Z.C.Z.C.C.C.C.C.C.Z.C.C.Z.Z.Z.C.n.S.D.F.F.F.F.xXxXn.n.n.n.n.n.n.n.C.C.C.C.C.C.C.C.C.C.C.C.C.C.C.C.C.C.C.C.C.C.C.C.C.C.C.C.C.C.C.C.C.C.C.C.C.C.C.C.C.C.C.C.C.C.C.C.C.C.C.C.C.C.C.C.C.C.C.C.C.C.C.C.C.C.C.C.C.C.C.C.C.C.C.C.C.C.C.C.C.C.C.C.C.C.C.C.C.C.C.C.C.C.C.C.C.C.C.C.C.C.C.C.C.C.C.C.C.C.C.C.C.C.C.C.C.C.C.C.C.C.C.C.C.C.C.C.C.C.C.C.C.C.C.C.C.C.C.C.C.C.C.C.C.C.C.C.C.C.C.C.C.C.C.C.C.C.C.C.C.C.C.C.C.C.C.C.C.C.C.C.C.C.C.C.S.D.S.S.n.n.n.n.xXxXxXxXn.n.n.n.b.b.b.b.b.b.b.b.b.b.b.b.b.b.b.b.C.C.C.C.C.C.C.C.C.C.C.C.C.C.n.C.n.C.C.C.C.C.C.C.n.C.n.C.C.C.C.C.C.C.C.C.C.C.C.C.jXjXjXjXlXlXlXlXgXHXgXfXgXgXM.",
"gXgXgXgXgXgXgXgXhXhXhXhXjXjXjXjXKXKXKXKXKXKXKXKXKXKXKXKXKXKXKXKXKXKXKXKXKXKXKXKXKXKXKXKXKXKXKXKXKXKXKXKXKXKXKXKXKXKXKXKXKXKXKXKXKXKXKXKXKXKXKXKXJXJXJXJXJXJXJXJXhXhXhXhXJXJXJXJXKXJXKXJXJXJXJXJXJXJXJXJXJXJXJXJXJXJXJXJXJXJXJXJXKXJXKXKXJXJXJXJXJXJXJXJXJXJXJXJXJXJXJXJXJXJXJXJXKXJXKXJXJXJXJXJXUXUXUXUXUXUXUXUXjXjXjXjXjXjXZ.Z.hX].JX].].].JX].JX].JX].JX].JX].JX].JX].JX].JX].JX].JX].JX].JX].JX].JX].JX].JX].JX].JX].JX].JX].JX].JX].JX].JX].JX].JX].JX].JX].JX].JX].JX].JX].JX].JX].JX].JX].JX].JX].JX].JX].JX].JX].JX].JX].JX].JX].JX].JX].JX].JX].JX].JX].JX].JX].JX].JX].JX].JX].JX].JX].JX].JX].JX].JX].JX].JX].JX].JX].JX].JX].JX].JX].JX].JX].JX].JX].JX].JX].JX].JX].JX].JX].JX].JX].UXUXUXUXUXjXjXjXjXjXjXjXjXZ.Z.Z.].'.].'.].'.].'.].'.].'.].'.].].JXJXJXJXKXJXKXJXKXJXKXKXKXJXKXJXKXJXKXJXKXKXKXKXKXJXKXJXKXJXKXJXJXJXJXKXKXKXKXKXhXhXhXhXhXkXkXkXgXfXfXfXgXjXjX",
"gXgXgXgXgXgXgXgXhXhXjXjXcXcXcXcXJXGXGXGXGXGXGXGXGXGXGXGXGXGXGXGXGXGXGXGXGXGXGXGXGXGXGXGXGXGXGXGXGXGXGXGXGXGXGXGXGXGXGXGXGXGXGXGXGXGXGXGXGXGXGXGXGXGXGXGXGXGXGXGXm.m.m.m.m.m.m.m.N.N.N.N.N.N.N.N.N.N.N.N.N.N.N.N.N.N.N.N.N.N.N.N.N.N.N.N.N.N.N.N.N.N.N.N.N.N.N.N.N.N.N.N.N.N.N.N.N.N.N.N.N.N.N.N.'.B.B.B.B.B.B.m.B.B.B.B.M.M.M.B.m.m.m.m.m.m.m.m.m.m.m.m.m.m.m.m.m.m.m.m.m.m.m.m.m.m.m.m.m.m.m.m.m.m.m.m.m.m.m.m.m.m.m.m.m.m.m.m.m.m.m.m.m.m.m.m.m.m.m.m.m.m.m.m.m.m.m.m.m.m.m.m.m.m.m.m.m.m.m.m.m.m.m.m.m.m.m.m.m.m.m.m.m.m.m.m.m.m.m.m.m.m.m.m.m.m.m.m.m.m.m.m.m.m.m.m.m.m.m.m.m.m.m.m.m.m.m.m.m.m.m.m.m.m.m.m.m.m.m.m.m.m.m.m.m.m.m.m.m.m.m.m.m.m.m.m.m.m.m.m.m.m.m.m.m.m.m.m.m.m.m.m.m.m.m.m.].].'.B.V.m.m.m.B.B.B.B.B.B.m.m.`.`.`.`.`.`.`.`.`.`.`.`.`.`.`.`.GXGXGXGXGXGXGXGXGXGXGXGXGXGXGXGXGXGXGXGXGXGXGXGXGXGXGXGXGXGXGXGXGXGXGXGXGXGXGXGXfXfXfXfXgXgXgXfXfXfXfXfXgXjXjX",
"gXgXgXgXgXgXjXjXM.M.n.n.n.n.n.M.N.N.N.N.fXfXfXfXfXfXfXfXN.fXfXfXN.N.fXfXfXfXfXfXfXN.N.N.N.fXfXfXfXfXfXfXN.fXfXfXN.N.fXfXfXfXfXfXN.N.N.N.fXfXfXfXfXfXfXfXfXfXfXfXfXfXfXfXfXfXfXfXHXHXHXHXHXHXHXHXHXHXHXHXHXHXHXHXHXHXHXHXHXHXHXHXHXHXHXHXHXHXHXHXHXHXHXHXHXHXHXHXHXHXHXHXHXHXHXHXHXHXHXHXHXHXHXGXN.N.N.N.V.V.V.V.N.N.N.N.N.N.N.N.fXfXfXfXfXfXfXfXfXfXfXfXfXfXfXfXfXfXfXfXfXfXfXfXfXfXfXfXfXfXfXfXfXfXfXfXfXfXfXfXfXfXfXfXfXfXfXfXfXfXfXfXfXfXfXfXfXfXfXfXfXfXfXfXfXfXfXfXfXfXfXfXfXfXfXfXfXfXfXfXfXfXfXfXfXfXfXfXfXfXfXfXfXfXfXfXfXfXfXfXfXfXfXfXfXfXfXfXfXfXfXfXfXfXfXfXfXfXfXfXfXfXfXfXfXfXfXfXfXfXfXfXfXfXfXfXfXfXfXfXfXfXfXfXfXfXfXfXfXfXfXfXfXfXfXfXfXfXfXfXfXfXfXfXfXfXfXfXfXfXfXfXfXfXfXfXGXGX).).V.V.m.m.N.N.N.N.).).).).V.V.V.V.V.V.V.V.V.V.V.V.V.V.V.N.N.fXfXfXfXfXfXN.fXfXfXfXfXfXfXfXfXfXfXfXfXfXfXfXfXfXfXfXfXfXfXN.fXN.N.N.N.N.N.N.fXfXGXHXHXHXGXfXN.fXfXfXgXjXxX",
"fXfXgXgXgXM.Z.C.cXcXxXxXxXxXxXjXPXLXLXLXLXLXLXLXLXLXLXLXLXLXLXLXLXLXLXLXLXLXLXLXLXLXLXLXLXLXLXLXLXLXLXLXLXLXLXLXLXLXLXLXLXLXLXLXLXLXLXLXLXLXLXLXIXIXIXIXIXIXIXIXLXLXLXLXLXLXLXLXLXLXLXLXLXLXLXLXLXLXLXLXLXLXLXLXLXLXLXLXLXLXLXLXLXLXLXLXLXLXLXLXLXLXLXLXLXLXLXLXLXLXLXLXLXLXLXLXLXLXLXLXLXLXLXLXfXGXGXKXKXKXKXKX'.'.'.).).fXGXGXLXLXLXLXLXLXLXLXLXLXLXLXLXLXLXLXLXLXLXLXLXLXLXLXLXLXLXLXLXLXLXLXLXLXLXLXLXLXLXLXLXLXLXLXLXLXLXLXLXLXLXLXLXLXLXLXLXLXLXLXLXLXLXLXLXLXLXLXLXLXLXLXLXLXLXLXLXLXLXLXLXLXLXLXLXLXLXLXLXLXLXLXLXLXLXLXLXLXLXLXLXLXLXLXLXLXLXLXLXLXLXLXLXLXLXLXLXLXLXLXLXLXLXLXLXLXLXLXLXLXLXLXLXLXLXLXLXLXLXLXLXLXLXLXLXLXLXLXLXLXLXLXLXLXLXLXLXLXLXLXLXLXLXLXLXLXLXLXLXLXLXLXLXLXLXLXLXKXKXKXKXKXKXKX'.'.'.JXJXKXKXGXLXLXLXLXLXLXLXLXLXLXLXLXLXLXLXLXIXIXIXIXIXIXIXIXIXIXIXIXIXIXIXIXIXIXIXIXIXIXIXIXIXIXIXIXIXIXIXIXIXLXLXLXLXLXLXLXHXHXHXHXHXHXGXHXN.fXfXgXjXZ.F.",
"fXfXfXM.M.C.n.n.cXcXxXxXxXaXaXiXzXkXkXkXkXkXkXkXkXkXkXkXkXkXkXkXkXkXkXkXkXkXkXkXkXkXkXkXkXkXkXkXkXkXkXkXkXkXkXkXkXkXkXkXkXkXkXkXkXkXkXkXkXkXkXkXkXkXkXkXkXkXkXkXdXdXdXdXdXdXdXdXiXiXdXdXdXdXiXiXiXiXiXiXdXdXdXiXdXdXiXiXiXiXiXiXiXiXiXdXdXdXiXiXiXiXiXiXdXdXdXiXdXdXiXiXiXiXiXiXiXiXdXdXdXdXiXiXl.l.A.M.M.Z.Z.].A.b.A.A.A.A.M.M.dXsXsXsXsXsXsXsXsXsXsXsXsXsXsXsXsXsXsXsXsXsXsXsXsXsXsXsXsXsXsXsXsXsXsXsXsXsXsXsXsXsXsXsXsXsXsXsXsXsXsXsXsXsXsXsXsXsXsXsXsXsXsXsXsXsXsXsXsXsXsXsXsXsXsXsXsXsXsXsXsXsXsXsXsXsXsXsXsXsXsXsXsXsXsXsXsXsXsXsXsXsXsXsXsXsXsXsXsXsXsXsXsXsXsXsXsXsXsXsXsXsXsXsXsXsXsXsXsXsXsXsXsXsXsXsXsXsXsXsXsXsXsXsXsXsXsXsXsXsXsXsXsXsXsXsXsXsXsXsXsXsXsXsXsXsXsXsXsXsXsXsXsXsXsXsXdXdXM.M.Z.Z.Z.].A.A.A.A.A.A.A.A.gXkXkXkXkXkXkXkXkXkXkXkXkXkXkXkXkXkXkXkXkXkXkXkXkXkXkXkXkXkXkXkXkXkXkXkXkXkXkXkXkXkXkXkXkXkXkXkXkXkXkXkXkXkXkXgXm.m.A.A.A.A.A.A.GXGXfXM.M.n.n.",
"fXfXfXM.Z.n.F.D.d.d.@.+.+.{ { { { { { { { { { { { { { { { { { { { { { { { { { { { { { { { { { { { { { { { { { { { { { { { { { { { { { { { { { { { +.{ +.+.+.+.+.r.r.r.r.r.r.r.r.{ +.{ +.+.+.{ +.{ +.{ +.+.+.+.+.+.+.{ +.{ +.{ +.{ +.{ +.+.+.{ +.{ +.{ +.+.+.+.+.+.+.{ +.{ +.{ +.{ +.{ +.+.+.{ { +.+.+.@.@.s.s.s.d.d.s.s.s.s.s.l.+.e.e.e.e.e.e.e.e.e.e.e.e.e.e.e.e.e.e.e.e.e.e.e.e.e.e.e.e.e.e.e.e.e.e.e.e.e.e.e.e.e.e.e.e.e.e.e.e.e.e.e.e.e.e.e.e.e.e.e.e.e.e.e.e.e.e.e.e.e.e.e.e.e.e.e.e.e.e.e.e.e.e.e.e.e.e.e.e.e.e.e.e.e.e.e.e.e.e.e.e.e.e.e.e.e.e.e.e.e.e.e.e.e.e.e.e.e.e.e.e.e.e.e.e.e.e.e.e.e.e.e.e.e.e.e.e.e.e.e.e.e.e.e.e.e.e.e.e.e.e.e.e.e.e.e.e.e.e.e.e.e.e.e.e.e.e.e.e.e.e.e.e.e.e.r.r.+.+.+.s.s.s.s.U U d.d.d.d.d.s.^ { { ^ { { { { { { { { ^ ^ ^ { { { { { { { { { { { { { { { { { { { { { { { { { { { { { { { { { { { { { { ^ ^ ^ r.+.@.d.d.d.d.d.GXHXfXM.C.n.D.",
"HXfXfXKXUXF.h.d.d.g.x.r.r.{ ,.,.&.&.&.&.&.&.&.&.&.&.&.&.&.&.&.&.&.&.&.&.&.&.&.&.&.&.&.&.&.&.&.&.&.&.&.&.&.&.&.&.&.&.&.&.&.&.&.&.&.&.&.&.&.&.&.&.&.&.&.&.&.&.&.&.&.&.&.&.&.&.&.&.&.&.&.&.&.&.&.&.&.&.&.&.&.&.&.&.&.&.&.&.&.&.&.&.&.&.&.&.&.&.&.&.&.&.&.&.&.&.&.&.&.&.&.&.&.&.&.&.&.&.&.&.&.&.&.&.) ] { @.p.#.g.g.g.C C #.g.g.@.+.&.-.2.-.2.-.2.-.2.-.2.-.2.-.2.-.2.-.2.-.2.-.2.-.2.-.2.-.2.-.2.-.2.-.2.-.2.-.2.-.2.-.2.-.2.-.2.-.2.-.2.-.2.-.2.-.2.-.2.-.2.-.2.-.2.-.2.-.2.-.2.-.2.-.2.-.2.-.2.-.2.-.2.-.2.-.2.-.2.-.2.-.2.-.2.-.2.-.2.-.2.-.2.-.2.-.2.-.2.-.2.-.2.-.2.-.2.-.2.-.2.-.2.-.2.-.2.-.2.-.2.-.2.-.2.-.2.-.2.-.2.-.2.-.2.-.2.-.2.-.2.-.2.-.2.-.2.-.2.-.2.-.2.-.2.-.2.-.2.-.2.-.2.-.2.&.) ] { @.p.#.g.g.g.C C #.g.g.@.+.) ] ] ] ] ] ] ] ] ] ] ] ] ] ] &.$.*.*.*.*.*.*.*.*.*.*.*.*.*.*.*.*.-.*.*.*.*.*.-.*.*.*.*.*.*.*.*.*.*.$.&.] ] ! ! ^ @.@.@.@.@.g.h.B.V.A.A.C.v.s.",
"HXGXfXJX}.F.G.g.#.g.u.p.,.&.-.2.-.=.*.=.*.=.=.=.*.=.*.=.=.=.=.=.*.=.=.=.=.=.*.=.*.=.=.=.=.=.*.=.*.=.=.=.=.=.=.=.*.=.=.=.*.=.*.=.*.=.*.=.*.=.=.=.*.=.=.=.=.=.*.=.=.=.=.=.=.=.*.=.*.=.=.=.=.=.*.=.*.=.=.=.=.=.=.=.*.=.*.=.*.=.*.=.*.=.*.=.*.=.=.=.*.=.=.=.=.=.=.=.=.=.*.=.=.=.*.=.*.=.=.=.=.=.*.=.%.>.w.p.u.u.#.L L L L #.#.u.#.O.=.3.3.3.3.3.3.3.3.3.3.3.3.3.3.3.3.3.3.3.3.3.3.3.3.3.3.3.3.3.3.3.3.3.3.3.3.3.3.3.3.3.3.3.3.3.3.3.3.3.3.3.3.3.3.3.3.3.3.3.3.3.3.3.3.3.3.3.3.3.3.3.3.3.3.3.3.3.3.3.3.3.3.3.3.3.3.3.3.3.3.3.3.3.3.3.3.3.3.3.3.3.3.3.3.3.3.3.3.3.3.3.3.3.3.3.3.3.3.3.3.3.3.3.3.3.3.3.3.3.3.3.3.3.3.3.3.3.3.3.3.3.3.3.3.3.3.3.3.3.3.3.3.3.3.3.3.3.3.3.3.3.3.3.3.3.3.3.3.3.3.3.3.3.3.1.%.>.w.p.u.u.#.L L L L #.#.u.#.O.` *.*.*.*.*.*.*.*.*.*.*.*.*.*.*.<.<.3.<.<.<.<.<.<.<.<.<.<.<.<.<.<.<.<.<.<.<.<.<.3.<.3.<.<.<.<.<.<.<.<.*.$.` ) W ~ ( #.#. .#.#.g.Z.V.A.A.C.D.h.",
"HXGXN.].F.D.g.C #.u.u.p.,.&.2.<.1.7.7.7.7.7.7.7.7.7.7.7.7.7.7.7.7.7.7.7.7.7.7.7.7.7.7.7.7.7.7.7.7.7.7.7.7.7.7.7.7.7.7.7.7.7.7.7.7.7.7.7.7.7.7.7.7.7.7.7.7.7.7.7.7.7.7.7.7.7.7.7.7.7.7.7.7.7.7.7.7.7.7.7.7.7.7.7.7.7.7.7.7.7.7.7.7.7.7.7.7.7.7.7.7.7.7.7.7.7.7.7.7.7.7.7.7.7.7.7.7.7.7.7.7.7.7.7.7.w.w.i.a.a.a.P P P P P a.a.#.w.7.#X$X#X$X#X$X#X$X#X$X#X$X#X#X#X$X#X$X#X$X#X$X#X$X#X$X#X$X#X#X#X$X#X$X#X$X#X$X#X$X#X$X#X$X#X$X#X$X#X$X#X$X#X$X#X$X#X$X#X$X#X$X$X$X#X$X#X$X#X$X#X$X#X$X#X$X#X$X#X$X#X$X#X$X#X#X#X$X#X$X#X$X#X$X#X$X#X$X#X$X#X$X#X$X#X$X#X$X#X$X#X$X#X$X#X$X#X$X#X$X#X$X#X$X#X$X#X$X#X$X#X$X#X#X#X$X#X$X#X$X#X$X#X$X#X$X#X$X#X$X#X$X#X$X#X$X#X$X#X$X#X$X#X$X#X$X#X$X#X$X#X$X#X$X#X8.w.w.i.a.a.a.P P P P P a.a.#.w.=.8.8.8.8.8.8.8.8.8.8.8.8.8.8.8.#X#X#X#X#X#X#X#X#X#X#X#X#X#X#X#X#X#X#X#X#X#X#X#X#X#X#X#X#X#X#X#X#X#X8.8.7.>.' _ ~ ..X.#.K K L g.C.V.A.M.F.D.h.",
"HXGXN.Z.F.G.f.G #.a.u.p.,.*.<.3.4.8.8.8.8.8.8.8.8.8.8.8.8.8.8.8.8.8.8.8.8.8.8.8.8.8.8.8.8.8.8.8.8.8.8.8.8.8.8.8.8.8.8.8.8.8.8.8.8.8.8.8.8.8.8.8.8.8.8.8.8.8.8.8.8.8.8.8.8.8.8.8.8.8.8.8.8.8.8.8.8.8.8.8.8.8.8.8.8.8.8.8.8.8.8.8.8.8.8.8.8.8.8.8.8.8.8.8.8.8.8.8.8.8.8.8.8.8.8.8.8.8.8.8.8.8.8.8.%XuXw.i.a.a.P P P P P P a.a.a.w.8.:X:X:X:X:X:X:X:X:X:X:X:X:X:X:X:X:X:X:X:X:X:X:X:X:X:X:X:X:X:X:X:X:X:X:X:X:X:X:X:X:X:X:X:X:X:X:X:X:X:X:X:X:X:X:X:X:X:X:X:X:X:X:X:X:X:X:X:X:X:X:X:X:X:X:X:X:X:X:X:X:X:X:X:X:X:X:X:X:X:X:X:X:X:X:X:X:X:X:X:X:X:X:X:X:X:X:X:X:X:X:X:X:X:X:X:X:X:X:X:X:X:X:X:X:X:X:X:X:X:X:X:X:X:X:X:X:X:X:X:X:X:X:X:X:X:X:X:X:X:X:X:X:X:X:X:X:X:X:X:X:X:X:X:X:X:X:X:X:X:X:X:X:X:X:X%XuXw.i.a.a.P P P P P P a.a.a.w.7.#X#X#X#X#X$X#X$X#X#X#X#X#X#X$X$X:X:X:X:X:X:X:X:X:X:X:X:X:X:X:X:X:X:X:X:X:X:X:X:X:X:X:X:X:X:X:X:X:X$X#X8.7.>.[ ~ ..o. .K K L g.b.V.V.Z.F.F.g.",
"HXGXN.Z.F.G.Y D L a.a.p.;.*.3..XXX#X#X#X#X#X#X#X#X#X#X#X#X#X#X#X#X#X#X#X#X#X#X#X#X#X#X#X#X#X#X#X#X#X#X#X#X#X#X#X#X#X#X#X#X#X#X#X#X#X#X#X#X#X#X#X#X#X#X#X#X#X#X#XXXXX#X#X#X#X#X#X#X#X#X#X#X#XXXXX#X#X#X#X#X#X#X#X#X#X#X#X#X#X#X#X#X#X#X#X#X#X#X#X#X#X#X#X#X#X#X#X#XXX#X#X#X#X#X#X#X#X#X#X#X#X#X#X%X%XuXi.y.a.L L P F F L a.a.#.w.#X>X-X>X>X>X>X>X>X>X>X>X-X-X>X>X>X>X>X>X>X>X>X>X>X>X>X>X>X>X>X>X>X>X>X>X>X>X-X>X>X>X>X>X>X>X>X>X-X-X-X>X>X>X>X>X>X>X>X>X>X>X>X-X>X>X>X>X>X>X>X>X>X>X>X>X>X>X>X>X>X>X>X>X>X-X-X-X-X-X>X>X>X>X>X>X>X>X-X>X>X>X>X>X>X>X>X>X-X-X-X-X>X>X>X>X>X>X>X>X>X>X>X>X>X>X>X>X>X>X>X>X>X>X-X>X>X>X>X>X>X>X>X>X-X-X-X-X>X>X>X>X>X>X>X>X>X>X>X>X>X>X>X>X>X>X>X>X>X>X>X>X>X>X>X>X:X%XuXi.y.a.L L P F F L a.a.#.O.8.:X:X:X:X:X:X:X:X:X>X:X:X:X:X>X>X>X>X>X>X>X>X>X>X>X>X>X>X>X>X>X>X>X>X>X>X>X>X>X>X>X>X>X>X>X>X>X9X>X>X:X#X8.=.[ ~ /  .J H D L g.b.V.B.Z.F.D.g.",
"HXHXN.Z.D.f.G w n P a.w.>.<..X&XoXoXoXoXoXoXoXoXoXoXoXoXoXoXoXoXoXoXoXoXXXXXoXoXoXoXoXoXXXXXoXoXoXoXoXoXoXoXoXoXoXoXoXoXoXoXoXoXoXXXoXXXoXoXoXXXoXoXoXoXoXoXoXoXoXXXoXoXXXoXoXXXoXoXoXoXXXXXXXXXoXoXoXoXoXoXoXoXoXoXoXoXoXoXoXoXoXoXoXXXXXoXoXXXoXoXoXoXoXoXoXoXoXoXoXoXoXoXXXXXoXoXoXoXoXoXXXXXOX%XuXp.p.#.K e F r e D L #. .[ oX3X3X3X3X3X3X3X3X3X3X3X3X3X3X3X3X3X3X3X3X3X3X3X3X3X3X3X3X3X3X3X3X3X3X3X3X3X3X3X3X3X3X3X3X3X3X3X3X3X4X3X4X3X3X3X3X3X3X3X3X3X3X3X3X3X3X3X3X3X3X3X3X3X3X3X3X3X3X3X3X3X3X3X3X3X3X3X3X3X3X3X3X3X3X3X3X3X4X3X3X3X3X3X3X3X3X3X3X3X3X3X3X3X3X3X3X3X3X3X3X3X3X3X3X3X3X3X3X3X3X3X3X3X3X3X3X3X3X3X3X3X3X3X3X3X4X3X4X3X3X3X3X3X3X3X3X3X3X3X3X3X3X3X3X3X3X3X3X3X3X3X3X3X3X=X*X%XuXp.p.#.K e F r e D L #. .[ XX-X-X-X-X=X-X-X-X-X-X-X-X-X-X-X4X4X4X4X4X4X7X4X4X4X4X4X4X4X7X4X4X4X4X4X7X4X7X4X7X4X7X4X4X4X4X4X7X4X4X*XOX4.2.,.W ^ ( V N N G I b./.B.Z.F.h.Z ",
"LXHXN.Z.D.f.G < 1 n #.w.>.3.&X;XoXoXoXoXoXoXoXoXoXoXoXoXoXoXoXoXoXoXoXoXoXoXoXoXoXoXoXoXoXoXoXoXoXoXoXoXoXoXoXoXoXoXoXoXoXoXoXoXoXoXoXoXoXoXoXoXoXoXoXoXoXoXoXoXoXoXoXoXoXoXoXoXoXoXoXoXoXoXoXoXoXoXoXoXoXoXoXoXoXoXoXoXoXoXoXoXoXoXoXoXoXoXoXoXoXoXoXoXoXoXoXoXoXoXoXoXoXoXoXoXoXoXoXoXoXoXoXoXoX+X@Xq.p.@.N 8 7 8 8 7 C C B ] oX3X6X3X6X3X6X3X6X3X6X3X6X3X6X3X6X3X6X3X6X3X6X3X6X3X6X3X6X3X6X3X6X3X6X3X6X3X6X3X6X3X6X3X6X3X6X3X6X3X6X3X6X3X6X3X6X3X6X3X6X3X6X3X6X3X6X3X6X3X6X3X6X3X6X3X6X3X6X3X6X3X6X3X6X3X6X3X6X3X6X3X6X3X6X3X6X3X6X3X6X3X6X3X6X3X6X3X6X3X6X6X6X3X6X3X6X3X6X3X6X3X6X3X6X3X6X3X6X3X6X3X6X3X6X3X6X3X6X3X6X3X6X3X6X3X6X3X6X3X6X3X6X3X6X3X6X3X6X3X6X3X6X3X6X3X6X3X6X3X6X3X3X3X6X3XoX+X@Xq.p.@.N 8 7 8 8 7 C C B ! +X5X8X5X3X5X8X5X8X5X8X5X8X5X8X8X8X6X6X6X6X6X6X6X6X6X6X6X8X6X6X6X6X6X6X6X6X6X6X6X6X6X6X6X6X6X6X6X0X6X3X;X;X@X2.,.! ^ @.B m Z Z U b./.V.Z.S.d.m ",
"HXHXN.Z.D.g.G < 1 n o.O.>.XX3XrX=X&X&X&X&X&X&X&X&X&X&X&X&X&X&X&X&X&X&X&XoX&XoX&X&X&X&X&XoXoXoX&X&X&X&X&X&X&X&X&X&X&X&X&X&X&X&X&X&X&X&X&X&X&XoXoXoX&X&X&X&X&X&X&X&X&X&X&X&X&X&X&X&X=X=X=X=X=X=X=X=X&X&X&X&X&X&X&X&X+XoXoXoXoXoXoXoX&X&X&X&X&X&X&X&X&X&X&X&X&X&X&X&X&X&X&X&X&X&X&X&X&X&X&X&X&X&XoX.X3.0.q.@.V 7 8 8 8 8 8 M B B ) oX6X6X6X6X6X6X6X6X6X6X6X6X6X6X6X6X6X6X6X6X6X6X6X6X6X6X6X6X6X6X6X6X6X6X6X6X6X6X6X6X6X6X6X6X6X6X6X6X6X6X6X6X6X6X6X6X6X6X6X6X6X6X6X6X6X6X6X6X6X6X6X6X6X6X6X6X6X6X6X6X0X0X0X0X0X0X0X0X0X0X0X0X0X0X6X6X3X3X3X6X3X6X6X6X6X6X6X6X6X6X6X6X6X6X6X6X6X6X6X6X6X6X6X6X6X6X6X6X6X6X6X6X6X6X6X6X6X6X6X6X6X6X6X6X6X6X6X0X6X6X6X6X6X6X6X6X6X6X6X6X6X6X6X6X6X6X6X6X6X6X6X3X3X3X=X.X3.0.q.@.V 7 8 8 8 8 8 M B B W +X8X8X8X8X8X8X8X8X8X8X8X8X8X8X8X0X0X0X0XrXrXrXrX0X0X0X0XrXrXrXrX6X8X6X8X6X8X8X8X8X8X6X8X6X8X6X6X0X6X3X;X;X+X2.,.W ^ @.B m m Z U (./.(.b.v.d.= ",
"GXGXfXjXF.x.C : e e b / 0.;XwXNX6X3X3X3X3X3X3X3X3X3X3X3X3X3X3X=X=X&X&X&X&X&X&X&X&X&X&X&X&X&X&X=X=X=X3X3X3X3X3X3X3X3X3X3X3X3X3X=X&X&X&X&X&X&X&X&X&X&X&X&X&X&X&X&X&X&X=X=X=X=X=X=X3X3X3X3X3X3X3X3X3X=X=X=X=X=X&X&X&X&XoXoXoXoX.XoX&X&X&X&X&X&X&X&X&X&X&X&X&X&X&X=X5X3X3X3X3X3X3X3X3X3X3X3X3X3X3X;X<.%._ ~ k s 7 3 4 3 7 N s k j ] ;X0X0X0X0X0X0X0X0X0X0X0X0X0X0X0XwXNXNXwXwXwXwX0X0X0X6X6X8X8X8X8X0X0X0X0X0X0X0X0X0X0X0X0X0X0X0X0XwXNXNXNXNXNXNXNXNXNXNXNXNXNXwXwX0XwXwXwX0X0X0X0X0X0XwX0X0X0X0XwXNXNXNXNXNXNXNXNXNXNXNXNXNXNXNXwX6X3X3X3X8X8X6X6X6X6X6X0X0X0X0X0XwX0XwX0XwX0XwX0XwX0XwX0XwX0XwX0X0X0X0X0X0X0X0X0X0X0X0X0X0X0X0X0XwXNXNXNXNXNXNXNXNXNXNXNXNXNXNXNXwXwXwXwX0X0X0X0X6X6X8X8X3X3X3X;X<.%._ ~ k s 7 3 4 3 7 N s k j ] ;X6X6X6X6X6X6X6X6X6X6X6X6X6X6X0X6X6X6X6X6X6X6X6X0X0X0X0X0X0X0X0X6X8X8X3X8X3X8X8X8X8X8X8X8X8X8X6X6X6X4X=X*X@X6.-.,.! ^ #. .M N d.(./.V.'.F.h.m ",
"_.).fXhXxXz.#.; q q z / 0.=XBXCX0X3X3X3X3X3X3X3X3X3X3X3X3X3X3X3X=X&X&X&X&X&X&X&X&X&X&X&X&X&X&X=X3X3X3X3X3X3X3X3X3X3X3X3X3X3X3X3X=X&X&X&X&X&X&X&X&X&X&X&X&X&X&X&X=X=X=X=X3X3X3X3X3X3X6X6X6X6X6X6X3X3X3X3X3X=X=X&X&X&XoXoXoX.X.XoX&X=X=X=X=X=X=X=X=X=X=X=X=X=X=X=X4X4X4X4X4X4X4X4X4X4X4X4X4X4X4X*X7.[ [ / k z w q 3 0 w A k k k ' *X0X0X0X0X0X0X0X0X0X0X0X0X0X0X0XNXNXNXNXNXwXwX0X0X0X6X6X6X4X4X6X0X0X0X0X0X0X0X0X0X0X0X0X0X0X0XwXwXNXNXNXNXNXNXNXNXNXNXNXNXNXNXwXwXwXwXwXwX0XwXwXwXwXwXwXwX0XwXwXNXNXNXNXNXNXNXNXBXBXBXBXNXNXNXwX6X3X3X3X4X4X6X6X6X6X0X0X0XwXwXwXwXwXwXwXwXwXwXwXwXwXwXwXwXwXwX0X0X6X6X6X6X6X6X6X6X6X6X6X6X6X6X0XNXNXNXNXNXNXNXNXNXNXNXNXNXNXNXNXNXwXwXwXwX0X0X0X6X6X4X4X3X3X3X*X7.[ [ / k z w q 3 0 w A k k k ' *X0X0X0X0X0X0X0X0X0X0X0X0X0X0X0X6X0X6X0X6X0X0X6X0X0X0X0X0X0X0X0X6X4X4X4X4X4X3X3X4X4X3X3X3X3X4X4X7X4X4X-X*XXX6.;.q.[ | #.#.k V g.(././.'.{.h.m ",
"_.).fXhXxXx.C = - 2 p / ;.=XBXBX0X3X3X3X3X3X3X3X3X3X3X3X3X3X3X3X=X&X&X&X&X&X&X&X&X&X&X&X&X&X&X=X3X3X3X3X3X3X3X3X3X3X3X3X3X3X3X3X=X&X&X&X&X&X&X&X&X&X&X&X&X&X&X=X=X=X=X=X3X3X3X3X3X3X3X6X6X6X6X6X3X3X3X3X3X=X=X&X&X&XoXoX.X.X.XoX&X=X=X=X=X=X=X=X&X=X=X=X=X=X=X=X=X=X=X=X=X=X=X=X=X=X=X=X=X=X=XOX9.:.} / k A w q 3 3 w A c k / ' *X0X0X0X0X0X0X0X0X0X0X0X0X0X0X0XNXNXNXNXwXwXwX0X0X6X6X6X3X3X3X3X0X0X0X0X0X0X0X0X0X0X0X0X0X0X0X0X0X0X0X0X0X0X0X0X0X0X0X0X0X0X0X0X0X0X0X0X0X0X0X0X0X0X0X0X0X0X0X0XwXNXNXNXNXNXNXNXwXwXwXwXwXwXwX0X3X=X=X=X3X3X3X6X6X6X6X0X0X0X0X0XwX0XwX0XwX0XwXwXwXwXwX0XwX0XwX0X6X6X6X6X6X6X6X6X6X6X6X6X6X6X6X0XwXNXNXNXNXNXNXNXNXNXNXNXNXNXNXNXwXwXwXwX0X0X0X6X6X3X3X3X=X=X=XOX9.:.} / k A w q 3 3 w A c k / ' *X0X0X0X0X0X0X0X0X0X0X0X0X0X0X0X6X6X6X6X6X6X6X6X0X0X0X0X0X0X0X0X6X4X4X4X4X4X3X3X4X4X4X4X3X4X4X4X4X4X-X*XOXXX6.=.q.| | #.#.a V x.(././.'.{.h.m ",
"`.).fXhXxXx.V O # # > j =.=XNXBX6X3X3X3X3X3X3X3X3X3X3X3X3X3X3X=X=X&X&X&X&X&X&X&X&X&X&X&X&X&X&X=X=X3X3X3X3X3X3X3X3X3X3X3X3X3X3X=X=X&X&X&X&X&X&X&X&X&X&X&X&X&X&X=X=X=X=X=X=X3X3X3X3X3X3X3X3X3X3X3X3X3X3X3X3X=X=X&X&X&XoXoXoX.X.XoX&X=X&X&X=X&X&X&X&X&X&X&X&X&X&X&X&X&X&X&X&X&X&X&X&X&X&X&X&X&X&XXX7.[ [ / a : - # # # 5 A c k / >.*X0X0X0X0X0X0X0X0X0X0X0X0X0X0X0XwXNXNXNXwXwX0X0X6X6X3X3X3X3X3X3X6X0X0X0X0X0X0X0X0X0X0X0X0X0X0X0X6X6X6X6X6X6X6X6X6X6X6X6X6X6X6X6X6X6X0X6X6X6X6X0X6X6X0X0X6X6X6X6XwX0X0X0X0X0X0X0X0X0X0X0X0X0X0X6X=X&X&X=X=X=X3X3X3X6X6X6X6X0X0X0X0X0X0X0X0X0X0X0X0X0X0X0X0X0X0X0X3X3X3X3X3X3X3X3X6X6X6X6X6X6X6X6XwXNXNXNXNXNXNXNXNXNXwXwXNXNXNXwXwXwX0X0X0X0X6X6X3X3X=X=X=X&X&XoX7.[ [ / a : - # # # 5 A c k / >.*X0X0X0X0X0X0X0X0X0X0X0X0X0X0X0X6X6X6X6X6X6X6X6X0X0X0X0X0X0X0X6X6X4X4X4X4X4X4X4X4X4X4X4X4X4X4X4X3X4X-X*XOXXX1.%.q.! ! ( k l V g.(././.'.{.h.m ",
"/.).fXhXxXx.M   X X , j $.&XNXBX6X3X3X3X3X3X3X3X3X3X3X3X3X=X3X=X&X&X&X&X&X&X&X&X&X&X&X&X&X&X&X&X=X3X3X3X3X3X3X3X3X3X3X3X3X3X3X=X=X&X&X&X&X&X&X&X&X&X&X&X&X&X&X=X=X3X3X3X3X3X3X3X3X3X3X3X3X3X3X3X3X3X3X3X3X=X=X&X&XoXoXoXoX.X.XoX&X&X&X&X&X&X&X&X&X&X&X&X&X&X&X&X.X.X.X.X.X.X.X.X.X.X.X.X.X.X.X3.%._ E f i O . . # # - A c k / :.*X0X0X0X0X0X0X0X0X0X0X0X0X0X0X0XwXNXwXwXwXwX0X0X3X3X3X=X=X=X=X=X6X0X0X0X0X0X0X0X0X0X0X0X0X0X0X6X=X=X=X=X=X=X=X=X=X=X=X=X=X=X=X=X3X3X3X3X6X6X6X6X6X6X6X6X6X6X6X6X6X6X6X6X6X6X6X6X3X3X3X3X3X3X3X3X&XoXoX&X&X&X=X=X3X3X3X6X6X6X6X6X0X6X0X6X0X6X0X6X0X6X0X6X0X6X0X6X3X=X=X=X=X=X=X=X4X4X4X4X4X4X3X6X0XwXwXwXwXwXwXwXwXwXwXwXwXwXwXwX0X0X0X0X6X6X6X4X=X=X&X&X&XoXoX.X=._ E f i O . . # # - A c k / :.*X0X0X0X0X0X0X0X0X0X0X0X0X0X0X0X6X6X6X6X6X6X6X6X0X0X0X0X0X0X0X6X6X4X4X4X4X4X4X4X4X4X4X4X4X4X4X4X=X=X*XOXXX4.1.%.] g d j i $ = d.(././.'.{.h.m ",
"/.).fXhXxXx.M   . . O d $.&XNXBX6X=X=X=X=X=X=X=X=X=X=X=X=X=X=X=X&X&X&X&X&X&X&X&X&X&X&X&X&X&X&X&X=X=X=X=X=X=X=X=X=X=X=X=X=X=X=X=X=X&X&X&X&X&X&X&X&X&X&X&X&X&X&X=X=X3X3X3X3X=X=X=X=X=X=X=X=X=X=X=X3X3X3X3X3X=X=X&X&X&XoXoXoXoX.XoXoX&X&X&X&X&X&X&X&X&X&X&X&X&X&XoX3.3.3.<.3.3.3.3.3.3.3.<.3.<.3.<.` W R y % o     # # - z c v / :.*X0X0X0X0X0X0X0X0X0X0X0X0X0X0X0XwXwXwXwXwX0X0X6X3X3X=X=X=X&X&X&X6X6X6X6X6X6X6X6X6X6X6X6X6X6X6X4X&XoXoXoXoXoXoXoXoXoXoXoXoXoXoXoX=X3X3X3X3X3X3X3X3X3X3X3X3X3X3X3X4X3X3X3X3X3X3X3X=X=X=X=X=X=X=X&XoXoX.XoXoXoX&X&X=X=X3X3X3X6X6X6X6X6X6X6X6X6X6X6X6X6X6X6X6X6X6X4X=X&X&X&X&X&X&X&X=X=X=X=X=X=X=X3X6X0X0X0X0X0X0X0X0X0X0X0X0X0X0X0X0X6X6X6X6X6X4X3X&X&XoXoXoX.X.X3.$.W R y % o     # # - z c v / :.*X0X0X0X0X0X0X0X0X0X0X0X0X0X0X0X6X6X3X6X3X3X3X3X6X6X6X6X6X6X6X6X6X4X4X4X4X4X4X4X3X3X4X4X4X4X4X3X=X*X&XoXXX3.=.` W d y t % $ * Z (././.'.{.h.m ",
"V./.fXhXxXx.=       o y $.&XNXNX6X=X=X=X=X=X=X=X=X=X=X=X=X=X=X=X=X&X&X&X&X&X&X&X&X&X&X&X&X&X&X=X=X=X=X=X=X=X=X=X=X=X=X=X=X=X=X=X=X&X&X&X&X&X&X&X&X&X&X&X&X&X&X=X3X3X3X3X3X=X=X=X=X&X&X&X&X&X&X&X3X3X3X3X3X=X=X&X&X&XoXoXoXoX.X.XoX&X&X&X&XoX&X&X&X&XoX&X&X&X&XoX<.*.*.*.*.*.*.*.*.*.*.*.*.*.*.*.%._ E d % o     # # - p c  ...:.*X0X0X0X0X0X0X0X0X0X0X0X0X0X0X0XwXwXwX0X0X0X0X6X=X=X=X&X&X&X&X&X4X6X6X6X6X6X6X6X6X6X6X6X6X6X6X3X.X3.3.3.3.3.3.3.3.3.3.3.3.3.3..X&X=X=X&X=X&X&X&X=X&X=X&X=X&X=X&X;X;X;X;X;X;X;X;XoXoXoXoXoXoXoXoX.X3..X.X.X.XoXoX&X=X=X=X3X3X3X3X4X4X4X4X4X4X4X4X4X4X4X4X4X4X4X3X&XoXoXoXoXoXoXoX;X;X;X;X;X;X;X=X6X6X0X0X0X0X0X0X0X0X0X0X0X0X0X6X6X6X4X4X4X3X=X;XoXoX.X.X.X.X3.<.%._ E d % o     # # - p c  ...:.*X0X0X0X0X0X0X0X0X0X0X0X0X0X0X0X3X3X3X3X3X3X3X3X6X6X6X6X6X6X6X6X6X4X4X4X3X3X4X4X3X3X4X4X4X4X4X3X&X&XoX.X3.<.$.` _ d y % $ o = I (././.'.{.h.m ",
"V./.fXhXxXx.=       o y ` &XNXNX6X&X&X&X&X&X&X&X&X&X&X&X&X&X&X&X&X&X&X&X&X&X&X&X&X&X&X&X&X&X&X&X&X&X&X&X&X&X&X&X&X&X&X&X&X&X&X&X&X&X&X&X&X&X&X&X&X&X&X&X&X&X&X=X3X3X3X3X3X=X=X=X&X&X&XoXoXoXoX&X=X3X3X3X3X=X=X&X&X&XoXoXoXoX.X.XoXoXoXoXoXoXoXoXoXoXoXoXoXoXoX.X*.$.$.$.$.$.$.$.$.$.$.$.$.$.$.$.%.' Q f i o .   X # - p H  .X.:.*X0X0X0X0X0X0X0X0X0X0X0X0X0X0X0X0X0X0X0X0X6X6X6X=X&X&X&XoXoXoXoX4X4X4X4X4X4X4X4X4X4X4X4X4X4X4X=X3.<.<.<.<.<.<.<.<.<.<.<.<.<.<.3.oXoXoXoXoXoXoXoXoXoXoXoXoXoXoXoX;X&X&X&X&X&X&X&X.X.X.X.X.X.X.X.X3.3.3.3.3.3..X.XoX&X&X=X=X=X=X=X3X=X=X=X=X=X=X=X=X=X=X=X=X=X=X;XoX.X.X.X.X.X.X.X&X&X&X&X&X&X&X;X3X6X6X6X6X6X6X6X6X6X6X6X6X6X6X4X4X4X3X3X=X=X;X;X.X.X3.3.3.3.3.*.=.' Q f i o .   X # - p H  .X.:.*X0X0X0X0X0X0X0X0X0X0X0X0X0X0X6X3X3X3X3X3X3X3X3X4X4X4X4X4X4X4X4X4X4X4X3X3X3X3X3X3X4X4X4X4X4X4X3X&XoXoX.X3.*.$.) ~ d t % $ o = d.(././.'.{.h.m ",
"_.).fXhXcXz.M   .   o y =.5XBXNX3X&X&X&X&X&X&X&X&X&X&X&X&X&X&X&X&X&X&X&X&X&X&X&X&X&X&X&X&X&X&X&X&X&X&X&X&X&X&X&X&X&X&X&X&X&X&X&X&X&X&X&X&X&X&X&X&X&X&X&X&X&X&X=X3X3X3X3X3X=X=X&XoXoX.X.X.X3.3..X=X3X3X3X3X=X=X&X&X&XoXoXoX.X.X.XoXoXoXoXoXoXoXoXoXoXoXoXoXoXoX.X2.*.*.*.*.*.*.*.$.$.$.$.$.$.$.$.%._ R y % o   .   3 F A a  .X.>.*X0X0X0X0X0X0X0X0X0X0X0X0X0X0X0X6X6X6X6X6X3X3X3X=X=X&X&X&X&XoX&X=X=X=X=X=X=X=X=X=X=X=X=X=X=X=X&X3.2.<.*.*.*.*.*.*.*.*.*.*.*.*.<..X.X.X.X.X.X.X.X.X.X.X.X.X.X.X.XoXoXoXoXoXoXoXoXoXoXoXoXoXoXoX.X<.<.<.<.<.3.3..XoXoXoX&X&X&X&X&X;X;X;X;X;X;X;X;X&X&X&X&X&X&X&XoX.X.X.X.X.X.X.X.XoX.XoXoXoXoX.XoX=X=X=X=X=X=X=X=X=X=X=X=X=X=X=X=X=X&X&X&X&XoXoXoX.X3.3.<.<.<.<.*.%._ R y % o   .   3 F A a  .X.>.*X0X0X0X0X0X0X0X0X0X0X0X0X0X0X6X3X=X=X=X=X=X=X=X=X=X=X=X=X=X=X=X3X3X3X3X3X3X3X3X=X=X=X=X3X3X3X=X-X*XOXXX4.*.` ) ! y t % $ o = I (././.'.{.h.m ",
"_.).fXhXcXz.M   .   o y =.5XBXNX3X&X&X&X&X&X&X&X&X&X&X&X&X&X&X&X&X&X&X&X&X&X&X&X&X&X&X&X&X&X&X&X&X&X&X&X&X&X&X&X&X&X&X&X&X&X&X&X&X&X&X&X&X&X&X&X&X&X&X&X&X&X&X=X3X3X3X3X3X=X&X&XoX.X.X3.3.<.<.3.=X3X3X3X3X=X=X&X&X&XoXoXoX.X.X.X.X.X.X.X.X.X.X.X.X.X.X.X.X.X.X3.2.*.*.*.*.*.*.*.$.$.$.$.$.$.$.$.%._ R y % o   .   3 F p a  .X.>.*X0X0X0X0X0X0X0X0X0X0X0X0X0X0X0X6X6X6X6X3X3X3X=X=X&X&X&X&XoXoXoX&X=X=X=X=X=X=X=X=X=X=X=X=X=X=X&X3.-.-.*.*.$.$.$.*.*.*.*.*.*.*.*.5.5.3.5.3.3.3.5.3.5.3.5.3.5.3..X.XoXoXoXoXoXoXoXoXoXoXoXoXoXoX.X<.*.*.*.<.<.<.3..X.XoXoXoX&X&X&X&X&X&X+X&X+X&X+XoXoXoXoXoXoXoXoX3.3.3.3.3.3.3.3..X.X.X.X.X.X.X.X&X&X&X&X&X&X&X=X&X&X=X&X&X&X&X&X&X&X&XoXoXoX.X.X3.<.<.<.*.*.*.$.%._ R y % o   .   3 F p a  .X.>.*X0X0X0X0X0X0X0X0X0X0X0X0X0X0X6X3X=X=X=X=X=X=X=X=X=X=X=X=X=X=X=X=X3X3X3X3X3X3X3X=X=X3X=X3X3X3X=X-X*XOXXX4.=.` W ! y % * o o @ I (././.'.{.h.m ",
"_.).fXhXcXz.M   .   o y =.5XBXNX3XoXoXoXoXoXoXoXoXoXoXoXoXoXoX&X&X&X&X&X&X&X&X&X&X&X&X&X&X&X&X&X&XoXoXoXoXoXoXoXoXoXoXoXoXoXoX&X&X&X&X&X&X&X&X&X&X&X&X&X&X&X&X=X3X3X3X3X3X=X&X&X.X.X3.<.<.*.*.3.=X3X3X3X3X=X=X&X&X&XoXoXoXoX.X.X.X.X.X.X.X.X.X.X.X.X.X.X.X.X.X3.2.-.-.-.-.-.*.*.$.$.$.$.$.$.$.$.%._ R y % o   .   3 F p a  .X.>.*X0X0X0X0X0X0X0X0X0X0X0X0X0X0X0X6X6X3X3X3X3X=X=X&X&X&XoXoXoXoXoX&X=X=X=X=X=X&X=X=X=X=X=X=X=X=XoX3.-.-.*.*.$.$.$.*.*.*.*.*.*.*.*.-.-.<.-.<.2.<.2.<.2.2.2.2.2.2.5..XoXoXoXoXoXoXoXoXoXoXoXoXoXoX.X*.$.$.*.*.*.<.<.3..X.X.X.XoXoXoXoXoXoX+X+X+X+XoXoX.X.X.X.X.X.X.X3.<.<.<.<.<.<.<.<.<.3.3.3.3.3.3.oX&X&X&X&X&X&X&X&X&X&X&X&X&X&X&XoXoXoX.X.X.X.X3.<.<.*.*.*.$.$.$.%._ R y % o   .   3 F p a  .X.>.*X0X0X0X0X0X0X0X0X0X0X0X0X0X0X6X=X=X=X=X=X=X=X=X=X=X=X&X=X=X=X=X=X3X3X3X3X3X3X3X3X3X3X3X3X3X=X=X*XOXXX4.1.$.` W ! t % * o   @ I (././.'.{.h.m ",
"_.).fXhXcXz.M   .   o y =.5XBXNX=XoXoXoXoXoXoXoXoXoXoXoXoXoXoXoX&X&X&X&X&X&X&X&X&X&X&X&X&X&X&X&XoXoXoXoXoXoXoXoXoXoXoXoXoXoXoXoX&X&X&X&X&X&X&X&X&X&X&X&X&X&X&X=X3X6X6X3X3X=X&XoX.X3.<.<.*.*.$.<.&X3X3X3X3X=X=X&X&X&XoXoXoX.X.X.X.X.X.X.X.X.X.X.X.X.X.X.X.X.X.X3.<.2.2.2.2.2.2.2.*.*.*.*.*.*.*.$.%._ R y % o   .   3 F p a  .X.>.*X0X0X0X0X0X0X0X0X0X0X0X0X0X0X0X3X3X3X3X3X=X=X&X&X&XoXoXoX.X.XoX&X&X&X&X&X&X&X&X&X&X&X&X&X&X&XoX3.2.*.*.*.*.$.$.*.*.*.*.*.*.*.*.*.$.$.$.$.$.$.$.*.*.*.*.*.*.*.<..X&X&X&X&X&X&X&X&X&X&X&X&X&X&X.X*.$.$.$.$.*.*.*.<.5.3..X.X.X.X.X.X.X.X.X.X.X.X.X.X.X.X.X.X.X.X3.<.<.<.<.<.<.<.<.<.<.<.<.<.<.<.<..XoXoXoXoXoXoXoXoXoXoXoXoXoXoXoX.X.X.X.X.X3.5.<.*.*.*.$.$.$.$.` %._ R y % o   .   3 F p a  .X.>.*X0X0X0X0X0X0X0X0X0X0X0X0X0X0X6X=X&X&X&X&X&X&X&X&X&X&X&X&X&X&X=X=X3X3X3X3X3X3X=X3X3X3X3X3X3X3X=X*XOXXX4.1.$.` W ! t % * o   @ I (././.'.{.h.m ",
"_.).fXhXcXz.M   .   o y =.;XBXNX=XoXoXoXoXoXoXoX.X.XoXoXoXoXoXoX&X&X&X&X&X&X&X&X&X&X&X&X&X&X&X&XoXoX.XoXoXoXoXoXoXoXoXoX.XoXoXoX&X&X&X&X&X&X&X&X&X&X&X&X&X&X&X=X3X6X6X3X3X=X&XoX.X3.<.*.*.$.$.*.&X3X3X3X3X=X=X&X&X&XoXoXoX.X.X.X.X3.3.3.3.3.3.3.3.3.3.3.3.3.3.3.5.<.<.<.<.<.<.<.<.<.<.<.<.<.<.*.%._ R y % o   .   3 F z a  .X.[ *X0X0X0X0X0X0X0X0X0X0X0X0X0X0X0X3X3X3X3X=X=X=X&X&X&XoXoXoX.X.X.X&X&X&X&X&X&X&X&X&X&X&X&X&X&X&XoX3.<.<.<.*.*.*.*.<.<.<.<.<.<.<.*.$.` ` ` ` ` ` ` &.&.&.&.&.&.&.2.oX&X&X&X&X&X&X&X&X&X&X&X&X&X&XoX*.` ` ` $.$.$.*.2.<.5.5.3..X.X.X3.3.3.3.3.3.3.3.3.5.3.5.3.5.3.5.*.*.*.*.*.*.*.*.*.*.*.*.*.*.*.*..X.XoXoX.X.X.X.XoXoX.X.X.X.XoX.X.X.X.X3.5.5.<.2.*.$.$.$.` ` ` ` ' _ R y % o   .   3 F z a  .X.[ *X0X0X0X0X0X0X0X0X0X0X0X0X0X0X6X=X&X&X&X&X&X&X&X&X&X&X&X&X&X&X&X=X3X3X3X3X3X=X=X3X3X3X3X3X3X=X&X*XOXXX4.=.$.) R ! t $ *     @ U (././.'.{.h.m ",
"_.).fXhXcXz.M   .   o y =.;XBXNX=X.X.X.X.X.X.X.X.X.XoXoX.X.X.XoX&X&X&X&X&X&X&X&X&X&X&X&X&X&X&X&XoX.X.X.X.X.X.X.XoX.XoX.X.X.X.XoX&X&X&X&X&X&X&X&X&X&X&X&X&X&X&X=X6X6X6X3X3X=X&XoX3.<.*.*.$.` ` *.&X3X3X3X3X=X=X&X&X&XoXoXoX.X.X.X3.3.3.3.3.3.3.3.3.3.3.3.3.3.3.3.3.5.3.3.5.5.5.5.<.<.<.3.<.<.<.<.%._ R y % o   .   3 F z a  .X.[ *X0X0X0X0X0X0X0X0X0X0X0X0X0X0X0X3X3X3X=X=X=X&X&X&XoXoX.X.X.X.X.XoX&X&X&X&X&X&X&X&X&X&X&X&X&X&XoX3.3.<.<.<.<.*.*.<.<.<.<.<.<.<.*.` ) ) ) ) ) ) ) ] ] ] ] ] ] ] -.oX=X=X=X=X=X=X=X=X=X=X=X=X=X=XoX$.` ` ` ` $.$.$.-.2.<.<.5.3.3.3.<.<.<.<.<.<.<.<.5.<.5.<.5.<.5.<.*.$.$.$.$.$.$.$.$.$.$.$.$.$.$.*.3..X.X.X.X.X.X.X.X.X.X.X.X.X.X.X3.3.3.5.<.<.2.-.$.$.$.` ` ` ` ` ' _ R y % o   .   3 F z a  .X.[ *X0X0X0X0X0X0X0X0X0X0X0X0X0X0X6X=X&X&X&X&X&X&X&X&X&X&X&X&X&X&X&X=X=X3X3X3X3X=X=X3X3X3X=X3X3X=X&X*XXXXX4.=.$.) R j t $ *     @ U (././.'.{.h.m ",
"_.).fXhXcXz.M   .   o y =.;XBXNX=X.X.X.X.X.X.X.X.X.X.X.X.X.X.XoX&X&X&X&X&X&X&X&X&X&X&X&X&X&X&X&XoX.X.X.X.X.X.X.X.X.X.X.X.X.X.XoX&X&X&X&X&X&X&X&X&X&X&X&X&X&X&X=X6X6X6X3X=X&X&XoX3.<.*.$.$.` ` *.&X3X3X3X3X=X=X&X&X&XoXoXoX.X.X.X3.5.5.5.3.3.3.5.5.5.5.5.3.3.3.3..X.X.X.X.X.X.X.X3.3.3.3.3.3.3.<.=._ R y % o   .   3 F z a  .X.[ *X0X0X0X0X0X0X0X0X0X0X0X0X0X0X6X3X3X3X=X=X=X&X&XoXoXoX.X.X.X.X.XoX&X&X&X&XoXoXoX&X&X&X&XoXoXoXoX.X3.3.3.<.<.<.<.<.<.<.<.<.<.<.*.` ) ) ) W W W W ] ] ] ] ] ] ] -.&X3X3X3X3X3X3X3X3X3X3X3X3X3X3X&X$.) ) ` ` ` $.$.-.2.2.<.<.5.5.5.<.<.<.<.<.<.<.<.<.<.<.<.<.<.<.2.$.$.$.$.$.$.$.$.` ` ` ` ` ` ` $.3..X.X.X.X.X.X.X.X.X.X.X.X.X.X.X3.5.5.<.<.2.2.-.$.$.` ` ` ) ) ) ' _ R y % o   .   3 F z a  .X.[ *X0X0X0X0X0X0X0X0X0X0X0X0X0X0X6X&X&XoXoX&XoX&X&XoXoX&X&X&X&X&X&X=X=X=X3X3X3X3X=X3X=X=X=X3X3X3X=X*XXXXX1.=.` ) R j t $ *     @ U (././.'.{.h.m ",
"_.).fXhXcXz.M   .   o y =.;XBXNX=XoXoXoXoXoXoXoXoXoXoXoXoXoXoXoXoXoXoXoXoX&X&X&X=X=X=X3X3X3X3X3X&XoXoXoXoX.X.X.X.X.X.X.X.X.X.XoXoXoXoX&X&X&X&X&X&X&X&X&X&X&X&X=X3X3X3X=X&X&XoXoX3.<.<.*.$.$.$.*.oX=X=X=X&X&X&XoXoX.X.X.X3.3.3.5.5.5.3.5.3.3.3.5.3.5.3.5.3.3.3.5.3.3.3.3.3.3.3.3.<.<.<.<.<.<.<.*.' Q h t $ o   .   3 F A a v  .[ XX*X*X*X*X*X*X*X*X*X*X*X*X*X*X*XoXXXXXXXXXXX3.3.3.<.<.<.<.<.*.<.<.3.3.3.3.3.3.3.3.3.3.3.3.3.3.<.<.*.*.*.$.$.$.$.*.$.*.$.*.$.*.$.W R R R R R R R ] ] ] ] ] ] ] $.3.oXoXoXoXoXoXoXoXoXoXoXoXoXoX3.` W W ) ) ) ) ) ' $.$.%.%.=.=.*.` ` ` ` ` ` ` ` $.&.$.&.$.&.&.] ) W ) ) ) ) ) ) W W W ) ) ) ) ) *.-.-.-.*.*.*.-.-.-.-.-.*.*.*.-.*.$.$.$.$.$.` ] ) ) ) W W W W W _ Q h t $ o   .   3 F z a  . .[ *X0X0X0X0X0X0X0X0X0X0X0X0X0X0X6X3X=X=X=X=X=X=X=X=X=X=X=X=X=X=X=X=X3X3X3X3X3X=X=X=X=X=X=X=X=X=X&XOXXX6.1.=.` ) R j t $ *     @ I (././.'.{.h.m ",
"_.).fXhXcXz.M   .   o y =.5XBXNX3X&X&X&X&X&X&X&X&X&X&X&X&X&X&XoX<.*.*.<.3..X&X;X4X6X0XwXNXNXBXNX0X4X3X&XoX.X3.<.3.<.3.3..X.XoXoX.X.X.X.X.X.XoXoXoX&X&X&X&X=X=X&X&X&XoXoXoXoXoX.X.X.X.X3.3.3.5.3..XoX.X.X.X.X3.5.<.*.*.*.$.$.$.$.*.<.<.<.<.<.<.<.<.<.<.<.<.<.<.*.$.$.$.$.$.$.$.$.$.$.$.$.$.$.$.` Q h d t $ o   . . - e : p K J f ~ [ [ [ [ [ [ [ [ [ [ [ [ [ [ [ [ [ [ [ [ [ [ _ _ _ _ _ ~ ~ ~ ~ _ _ _ _ _ _ _ _ _ _ _ _ _ _ _ _ ~ ~ ~ ~ ~ ~ ~ ~ ~ ~ ~ ~ ~ ~ ~ ~ E h h h h h h h ~ ~ ~ ~ ~ ~ ~ ~ _ [ [ [ [ [ [ [ [ [ [ [ [ [ [ _ ~ ~ ~ ~ ~ ~ ~ ~ ~ ~ ~ ~ ~ ~ ~ ! j j j j j j j j d d d d d d d y t t t t t y y y d d g g g g g g R R R R R R R R R R R R R R R g g g d d d d d d d d d d d y y y d y t $ * + . . . - A p s #. ._ *X0X0X0X0X0X0X0X0X0X0X0X0X0X0X0X0X0X0X0X0X0X0XwX0X0X0X0X0X0X0X0X6X3X3X3X3X3X3X=X=X=X&X&X&X&X&XoXXX3.<.1.=.%.] ! ! t % % $ o = I (././.'.{.h.m ",
"_.).fXhXcXz.M   .   o y =.5XBXNX6X&X&X&X&X&X&X&X&X&X&X&X&X&X&XoX*.` $.-.5..XoX=X6X0XwXNXBXCXZXCXwX0X4X=XoX.X3.<.2.2.<.3..X.XoXoX.X5.3.3..X.X.XoXoX&X&X&X&X=X=X&XoX.X.X.X.X.X.X.X.X.X.X.X.X.X.X.X.X.X3.3.5.<.2.2.*.$.$.$.` ` ` ` *.*.*.*.*.*.*.*.*.*.*.*.*.*.*.*.` ` ` ` ` ` ` ` ` ` ` ` ` ` ` ) E f u % $ o   . . - e - p K H i % t t t t t t t t t t t t t t t t t t t t t t t t t t t t t t t t t t t t t t t t t t t t t t t t t t t t t t t t t t t t t t t u u u u u u u u t t t t t t t t t t t t t t t t t t t t t t t t t t t t t t t t t t t t t t t t % % % % % % % % $ % % % % % % $ o o o o o $ $ $ % % t t t t y t t t t t t t t t t t t t t t t t % % % % % % % % % % % % % % % % % % $ o o       . - A p s #. .Q *X0X0X0X0X0X0X0X0X0X0X0X0X0X0X0XwXNXNXNXNXNXNXNXNXNXNXNXNXNXNXwX6X6X6X3X3X3X=X=X=X&X&X&XoXoXoX.X3.<.<.=.=.' ' ! ! y t t $ o = d.(././.'.{.h.m ",
"_.).fXhXcXz.M   .   o y =.5XBXNX3X&X&X&X&X&X&X&X&X&X&X&X&X&X&XoX*.$.$.-.5.@X&X=X6X0XwXNXBXCXZXCXwX0X4X=XoX.X3.<.2.2.<.3..X.XoXoX.X3.3.3.3..X.XoXoX&X&X&X&X=X=X&XoX.X.X.XoXoXoX.X.X.X.X.X.XoX.X.X.X.X.X3.3.5.<.2.*.$.$.$.` ` ` $.*.*.*.*.*.*.*.*.*.*.*.*.*.*.*.*.` ` ` ` ` ` ` ` ` ` ` ` ` ` ` ) E f u % $ o   . . - e : p K H & $ $ $ $ $ $ $ $ $ $ $ $ $ $ $ $ $ $ $ $ $ $ $ $ $ $ $ $ $ $ $ $ $ $ $ $ $ $ $ $ $ $ $ $ $ $ $ $ $ $ $ $ $ $ $ $ $ $ $ $ $ $ $ $ $ $ $ $ $ $ $ $ $ $ $ $ $ $ $ $ $ $ $ $ $ $ $ $ $ $ $ $ $ $ $ $ $ $ $ $ $ $ $ $ $ $ $ $ $ $ $ $ % % % % % % % % % % % % % % % $ o o o o o o $ $ $ $ % % % % % % % % % % % % % % % % % % % % % % $ $ $ $ $ $ $ o $ $ $ $ $ $ $ $ % % $ o o       . - A p a #. .Q *X0X0X0X0X0X0X0X0X0X0X0X0X0X0X0XwXwXNXwXNXwXNXwXNXwXNXwXNXwXNXwX6X6X3X3X3X3X=X=X&X&X&XoXoXoXoX.X3.1.1.=.%.' ] ! ! y t t $ o = d.(././.'.{.h.m ",
"_.).fXhXcXz.M   .   o y =.5XBXNX3X&X&X&X&X&X&X&X&X&X&X&X&X&X&XoX<.*.*.2.3.oX;X3X6X0XwXNXBXCXCXCXwX0X4X=XoX.X3.<.<.2.<.3..X.XoXoX.X3.3.3..X.X.XoXoX&X&X&X&X=X=X&XoXoXoXoXoXoXoXoXoXoXoX.XoXoXoX.X.X.X.X.X3.3.<.2.*.*.$.$.$.` ` $.*.*.*.*.*.*.*.*.*.*.*.*.*.*.*.*.` ` ` ` ` ` ` ` ` ` ` ` ` ` ` ) E f u % $ o   . . - e : p K H & $ o o o o o o o o o o o o o o o o o o o o o o o O + o o o o o o + + o o o o o o + + o o o o o o o o o o o o o o o o o o o o o o o o o o o o o o o o o o o + o + o + o o o o o o o o o o o o o o o o o o o o o + o o o o o o o $ t y y y y t t t t t t t t & & % * * * * * * * * * * $ $ $ $ * * * * & $ $ $ & * & * & $ & * & * * o o o + + + + o o o o o o + * t t & * O   . . . - A p a #. .Q *X0X0X0X0X0X0X0X0X0X0X0X0X0X0X0XwXwXwXwXwXwXwXwXwXwXwXwXwXwXwXwX6X3X3X3X3X=X=X=X&X&XoXoXoXoX.X.X3.1.1.=.=.' ] ! ! y t t $ o = I (./.^.'.{.h.m ",
"_.).fXhXcXz.M   .   o y =.5XBXNX3X&X&X&X&X&X&X&X&X&X&X&X&X&X&XoX<.*.<.5..X+X;X3X6X0XwXNXBXCXCXCXwX0X3X=XoX.X3.<.2.2.<.3..X.XoXoX.X5.3.3..X.X.XoXoX&X&X&X&X&X=X&XoXoXoXoXoXoXoXoXoXoXoXoXoXoXoXoX.X.X.X.X3.3.5.<.*.*.$.$.$.$.$.$.*.*.*.*.*.*.*.*.*.*.*.*.*.*.*.*.` ` ` ` ` ` ` ` ` ` ` ` ` ` ` ) E f u % $ o   . . - e : : K H > +   +   + + +   +   + + + + +   +   +   +   +   +   + + + + +   +   +   +   +   +   +   + + +   +   + + +   +   +   + + + + +   o   o   o   o   +   +   + + + + +   + + + + +   +   + + +   +   +   +   +   +   +   + + + + + $ y d d d d d y y t t % % % % $ $ $ $ $ o o o o o o o o o o o   o o o o o o o o o o o o o o o o o                               o $ % % $ o       . - A p a #. .Q *X0X0X0X0X0X0X0X0X0X0X0X0X0X0X0XwXwXwXwXwXwXwXwXwXwXwXwXwXwXwX0X6X3X3X3X=X=X=X&X&X&XoXoX.X.X.X.X3.1.1.=.%.' ] ! ! y t t $ o = I (././.'.{.h.m ",
"_.).fXhXcXz.M   .   o y =.5XBXNX3X&X&X&X&X&X&X&X&X&X&X&X&X&X&XoX3.<.3..XoX&X=X4X6X0XwXNXBXCXCXBXwX0X3X=X&X.X3.<.<.2.<.3..X.XoXoX.X5.3.3..X.X.XoXoX&X&X&X&X=X=X&X&XoXoXoXoXoXoXoXoXoXoXoXoXoXoXoXoX.X.X.X.X3.3.5.<.*.*.$.$.$.$.$.*.*.*.*.*.*.*.*.*.*.*.*.*.*.*.*.` ` ` ` ` ` ` ` ` ` ` ` ` ` ` ) E f u % $ o   . . - e - p K H & o o o o o o o o o o o o o o o o o o o o o o o o o o o o o o o o o o o o o o o o o o o o o o o o o o o o o o o o o o o o o o o o o o o o o o o o o o o o o o o o o o o o o o o o o o o o o o o o o o o o o o o o o o o o o o o % d R g g d d d y t t % % $ $ $ $ $ $ o o o o o o                                                                                 $ % $ o o       . - A p a #. .Q *X0X0X0X0X0X0X0X0X0X0X0X0X0X0X0X0XwXwXwXwXwXwXwXwXwXwXwXwXwXwX0X6X3X3X=X=X=X&X&X&XoXoX.X.X.X.X.X3.1.1.=.%.' ] ! ! y t t $ o = I (././.'.{.h.m ",
"_.).fXhXcXz.M   .   o y =.5XBXBX6X&X&X&X&X&X&X&X&X&X&X&X&X&X&X&X3.3..X.XoX&X=X4X0XwXNXNXBXCXCXBXwX0X3X=XoX.X3.<.<.<.<.3..X.XoXoX.X5.3.3..X.X.XoXoX&X&X&X&X=X=X=X&XoX&X&X&X&X&X&X&X&X&X&X&X&X&XoXoXoXoX.X.X.X.X3.<.<.*.*.*.$.$.$.*.*.*.*.*.*.*.*.*.*.*.*.*.*.*.*.` ` ` ` ` ` ` ` ` ` ` ` ` ` ` ) E f u % $ o   . . - e : p K H i % t t t t t t t t t t t t t t t t t t t t t t t t t t t t t t t t t t t t t t t t t t t t t t t t t t t t t t t t t t t t t t t y y y y y y y y t t t t t t t t t t t t t t t t t t t t t t t t t t t t t t t t t t t t t t t y R W W W R g g d d y t & % $ $ $ $ $ $ $ $ o +   . . . . . . . . . . . . . . . . . . . . . . . . . . . . . . . . . . . . . . . . $ t % $ o . . . . - A p a #. .Q *X0X0X0X0X0X0X0X0X0X0X0X0X0X0X0X0X0X0X0X0X0X0X0X0X0X0X0X0X0X0X0X3X=X=X=X=X&X&X&XoXoX.X.X.X.X3.3.3.4.1.=.%.' ] ! ! y t t $ o = d.(././.'.{.h.m ",
"_.).fXhXcXz.M   .   o y =.5XBXNX6X&X&X&X&X&X&X&X&X&X&X&X&X&X&X&X.X.X.XoX&X=X4X6X0XwXNXNXBXBXCXBXwX0X3X=XoX.X3.<.2.2.<.3..X.XoXoX.X5.3.3..X.X.XoXoX&X&X&X&X&X=X=X&X&X&X&X&X&X&X&X&X&X&X&X&X&X&X&X&XoXoXoXoX.X.X.X<.<.<.*.*.*.*.*.*.*.*.*.*.*.*.*.*.*.*.*.*.*.*.*.` ` ` ` ` ` ` ` ` ` ` ` ` ` ` ) E f u % $ o   . . - e - p K H i ~ _ _ _ ] ] ] ] ] ] ] ] ] ] _ _ ] ] ] ] _ _ ] ] _ _ _ _ ] ] ] ] ] ] ] _ _ ] ] ] ] ] ] _ ] ] ] ] ] _ _ _ ] ] ] ] ] _ _ _ ] ] ] ] ) W ) W W W W W ] ] ] ] ] ] ] ] _ _ _ _ ] ] ] ] ] ] ] ] ] _ _ _ ] ] ] ] _ _ ] ] _ _ _ _ ] ] ] ' =.1.=.=.%.] ] ! ( ( k k k N N N p a a p p p p : : : - - - 5 3 3 - - - - - - - 5 5 5 5 - - - - 5 3 3 3 3 3 3 3 3 3 3 3 3 3 3 3 5 k k k a p : : 5 . - A p a #. .Q *X0X0X0X0X0X0X0X0X0X0X0X0X0X0X0X0X0X0X0X0X0X0X0X0X0X0X0X0X0X0X6X3X=X=X=X&X&X&XoXoX.X.X.X.X3.3.3.3.4.1.=.%.' ] ! ! y t t $ o = d.(././.'.{.h.m ",
"_.).fXhXcXz.M   .   o y =.;XBXNX6X&X&X&X&X&X&X&X&X&X&X&X&X&X&X&X;X;X;X;X3X4X6X6X0XwXNXNXBXBXCXBXwX0X3X=XoX.X3.<.<.<.<.3..X.XoXoX.X5.3.3..X.X.XoXoX&X&X&X&X=X=X=X=X&X&X&X&X&X&X&X&X&X&X&X&X&X&X&X&X&X&XoXoXoX.X.X3.5.5.<.<.2.2.2.*.*.*.*.*.*.*.*.*.*.*.*.*.*.*.*.` ` ` ` ` ` ` ` ` ` ` ` ` ` ` ) E f u t $ o       5 F 6 : S H k %.3.3.3.3.3.3.3.XXXXXXXXXXXXXXXXXXXXXXXXXXXXXXXX3.3.3.3.3.3.3.3.3.3.3.3.3.3.3.3.3.3.3.3.3.3.3.3.XXXXXXXXXXXXXXXX3.3.3.3.3.3.3.3.3.3.3.3.3.3.3.3.3.3.3.3.3.3.3.3.3.3.3.3.3.3.3.3.3.3.3.3.3.3.3.3.XXXXXXXXXXXXXXXXXXXXXXXXXXXXXXXXXX3.3.1.=.%.' _ ! ( / V V N ; = p s s s s p p p A A A w w w w w - - - - : : : : w w w w w w w w - # # # - - - # q q q q q q q w J  .b c A w w 5 - - : p a k k } *X0X0X0X0X0X0X0X6X6X6X6X6X6X6X6X6X6X6X6X6X6X6X6X6X6X6X6X6X6X6X3X=X=X&X&X&X&XoXoX.X3.3.3.<.<.<.<.<.<.*.=.$.` ) R ! y t t $ o = d.(././.'.{.h.m ",
"_.).fXhXcXz.M   .   o y =.;XBXNX3X&X&X&X&X&X&X&X&X&X&X&X&X&X&X&X=X=X3X3X4X6X6X0XwXwXNXNXBXBXBXBXwX0X3X=XoX.X3.<.2.<.<.3..X.XoXoX.X5.3.3..X.X.XoXoX&X&X&X&X=X=X=X=X=X=X=X=X=X=X=X=X=X=X=X=X=X=X=X&X&X&X&XoXoXoX.X.X3.3.5.<.<.2.2.*.*.*.*.*.*.*.*.*.*.*.*.*.*.*.*.` ` ` ` ` ` ` ` ` ` ` ` ` ` ` ) E f u t $ o       5 F 6 : S H ~ 3.=X=X=X=X=X=X=X4X4X4X4X4X4X4X4X4X4X4X4X4X4X4X4X=X=X=X=X=X=X=X=X=X=X=X=X=X=X=X=X=X=X=X=X=X=X=X=X4X4X4X4X4X4X4X4X=X=X=X=X=X=X=X=X=X=X=X=X=X=X=X=X=X=X=X=X=X=X=X=X=X=X=X=X=X=X=X=X=X=X=X=X=X=X=X=X4X4X4X4X4X4X4X4X4X4X4X4X4X4X4X4X&XOXOXXX4.1.%.] ~ ( / V V N ; ; p p s s p p p p z z z z A A A A p p z z p p p p A A A A z z A A : 6 6 6 6 6 6 w e e A A A A A S v v v c z 1 w q - - : p a k k } *X0X0X0X0X0X0X0X6X6X6X6X6X6X6X6X6X3X3X3X3X3X3X3X3X3X3X3X3X3X3X3X=X&X&X&X&XoXoX.X3.3.3.<.<.<.<.<.<.<.*.=.$.` ) R ! y t t $ o = d.(././.'.{.h.m ",
"_.).fXhXcXz.M   .   o y =.5XBXNX3X&X&X&X&X&X&X&X&X&X&X&X&X&X&X=X3X4X4X6X6X0X0X0XwXwXNXNXNXBXBXBXwX0X3X=XoX.X3.<.2.2.<.3..XoXoXoX.X3.3.3..X.X.XoXoX&X&X&X&X=X=X=X=X=X=X=X=X=X=X=X=X=X=X=X=X=X=X=X=X&X&X&X&XoXoXoX.X.X.X3.5.5.<.<.<.*.*.*.*.*.*.*.*.*.*.*.*.*.*.*.` ` ` ` ` ` ` ` ` ` ` ` ` ` ` ) E f u t $ o       5 F 6 : S H ~ &X0X0X0X0X0X0X0XeXeXeXeXeXeXeXeXeXeXeXeXeXeXeXeX0X0X0X0X0X0X0X0X0X0X0X0X0X0X0X0X0X0X0X0X0X0X0X0XeXeXeXeXeXeXeXeX0X0X0X0X0X0X0X0X0X0X0X0X0X0X0X0X0X0X0X0X0X0X0X0X0X0X0X0X0X0X0X0X0X0X0X0X0X0X0X0XeXeXeXeXeXeXeXeXeXeXeXeXeXeXeXqX4X-X-X*XXX4.*.' | | ( V V N 7 7 p p p p s s a a c b v v v v v v v v v v v v v v v v v v v v v v c c H c c c x x H H H H H H H H v v c x z w w q - - : p a k k } *X0X0X0X0X0X0X0X6X6X6X6X6X6X6X6X3X3X3X3X3X3X3X3X3X3X3X3X3X3X3X3X&X&X&XoXoXoX.X.X3.3.<.<.<.*.*.*.<.<.*.*.$.` ) R ! y t t $ o = I (././.'.{.h.m ",
"_.).fXhXcXz.M   .   o y =.5XBXNX3X&X&X&X&X&X&X&X&X&X&X&X&X&X&X=X4X6X6X6X0X0X0XwXwXNXNXNXNXBXBXNXwX0X3X=XoX.X3.<.<.<.<.3..XoXoXoX.X5.5.3.3..X.XoXoX&X&X&X&X=X=X=X=X3X3X3X3X3X3X3X3X3X3X3X3X3X3X=X=X=X=X&X&X&XoXoXoX.X.X.X3.5.5.3.<.*.*.*.*.*.*.*.*.*.*.*.*.*.*.*.` ` ` ` ` ` ` ` ` ` ` ` ` ` ` ) E f u t $ o       5 F w : S H ~ =XwXNXwXwXwXwXwXNXNXNXNXNXNXNXNXNXNXNXNXNXNXNXNXNXwXNXwXwXwXwXwXNXwXwXwXNXwXNXwXwXwXwXwXNXwXNXwXNXNXNXNXNXNXNXNXwXwXwXwXNXwXNXwXwXwXwXwXwXwXwXwXNXwXNXwXwXwXwXwXwXwXNXwXNXwXwXwXwXwXNXwXNXwXNXwXNXNXNXNXNXNXNXNXNXNXNXNXNXNXNXVX0X7X4X-X*XXX1.%.:.| ( V N N 7 7 : : p p s a k k k / / / | | | | X.X.X.O.O.X.X.X./ / / / / / / /  . . . . . . . . . . . . . . . .k k k s p w w w - - : p a k k } *X0X0X0X0X0X0X0X6X6X6X6X6X6X6X6X3X3X3X3X3X3X3X3X3X3X3X3X3X3X3X=X&X&XoXoXoX.X.X.X3.<.<.<.*.*.*.*.<.<.*.*.$.` ) R ! y t t $ o = I (././.'.{.h.m ",
"_.).fXhXcXz.M   .   o y =.5XBXBX3X&X&X&X&X&X&X&X&X&X&X&X&X&X&X=X6X0X0X0X0X0XwXwXwXNXNXNXNXBXBXNXwX0X3X=XoX.X3.<.2.2.<.3..X.XoXoX.X5.3.3..X.X.XoXoX&X&X&X&X=X=X=X3X3X3X3X3X3X3X3X3X3X3X3X3X3X3X3X=X=X=X=X&X&X&XoXoX.X.X.X3.3.3.5.<.*.*.*.*.*.*.*.*.*.*.*.*.*.*.*.` ` ` ` ` ` ` ` ` ` ` ` ` ` ` ) E f u t $ o       - F w : S H ~ &XwXwXwXwXwXwXwXNXwXNXwXNXwXNXwXNXwXNXwXNXwXNXwXwXwXwXwXwXwXwXwXwXwXwXwXwXwXwXwXwXwXwXwXwXwXwXwXNXwXNXwXNXwXNXwXwXwXwX0XwXwXwX0XwXwXwXwXwXwXwX0XwXwXwXwXwXwXwX0XwXwXwXwXwXwXwXwXwXwXwXwXwXwXwXwXNXwXNXwXNXwXNXwXNXwXNXwXNXwXNXNXwXeXqX4X-XOX3.=.:.| k a s ; 7 7 - : : p s a k k / / [ } :.:.:.:.w.w.w.w.w.w.w.w.} } } } } } } } O.O.O.O.O.O.O.O.O.O.O.O.O.O.O...l a a s p : w w - - : p a k k } *X0X0X0X0X0X0X0X6X6X6X6X6X6X6X6X3X=X3X=X3X=X3X=X3X=X3X=X3X=X3X=X&XoXoXoX.X.X.X.X<.<.<.*.*.*.*.*.<.<.*.*.$.` ) R ! y t t $ o = d.(././.'.{.h.m ",
"_.).fXhXcXz.M   .   o y =.5XBXBX3X&X&X&X&X&X&X&X&X&X&X&X&X&X&X=X0X0X0X0XwXwXwXwXNXNXNXNXNXNXBXNXwX0X3X=XoX.X3.<.2.2.<.3..X.XoXoX.X5.3.3..X.X.XoXoX&X&X&X&X=X=X=X3X3X3X3X3X3X3X3X3X3X3X3X3X3X3X3X=X=X=X=X&X&X&XoXoXoX.X.X.X3.3.3.<.*.*.*.*.*.*.*.*.*.*.*.*.*.*.*.` ` ` ` ` ` ` ` ` ` ` ` ` ` ` ) E f u t $ o       5 F w : S H ~ oX6X0X6X0X6X6X6X0X0X0X0X0X0X0X0X0X0X0X0X0X0X0X0X0X6X0X6X0X6X6X6X6X6X6X6X0X6X0X6X6X6X6X6X0X6X0X6X0X0X0X0X0X0X0X0X6X6X6X6X6X6X6X6X0X6X6X6X6X6X6X6X0X6X6X6X6X6X6X6X0X6X0X6X6X6X0X6X6X6X6X6X0X6X0X6X0X0X0X0X0X0X0X0X0X0X0X0X0X0X0XwXwXVXeX7X4X*XXX*.;.! j i = = @ # - - : p s k k / ~ } :.>.9.8.8.8.9.9.9.>.9.9.9.9.>.>.>.>.>.>.>.>.:.:.:.:.:.:.:.:.:.:.:.:.:.:.:.} h u a a p : w w - - : p a k k } *X0X0X0X0X0X0X0X6X6X6X6X6X6X6X6X3X=X=X=X=X=X=X=X=X=X=X=X=X=X=X=X&XoXoXoX.X.X.X3.<.<.*.*.*.$.$.*.*.<.*.*.$.` ) R ! y t t $ o = d.(././.'.{.h.m ",
"_.).fXhXcXz.M   .   o y =.5XBXBX3X&X&X&X&X&X&X&X&X&X&X&X&X&X&X=X0XwXwXwXwXwXwXNXNXNXNXNXNXNXBXNXwX0X3X=XoX.X3.<.<.<.<.3..X.XoXoX.X5.3.3..X.X.XoXoXoX&X&X&X=X=X=X3X3X3X3X3X3X3X3X3X3X3X3X3X3X3X3X3X=X=X=X=X&X&X&XoXoX.X.X.X.X3.3.<.*.*.*.*.*.*.*.*.*.*.*.*.*.*.*.` ` ` ` ` ` ` ` ` ` ` ` ` ` ` ) E f u t $ o       5 F w : S H ~ .X=X3X=X3X=X3X=X3X3X3X3X3X3X3X3X3X3X3X3X3X3X3X3X3X=X3X=X3X=X=X=X=X=X3X=X3X=X3X=X3X=X3X=X3X=X3X=X3X3X3X3X3X3X3X3X3X=X3X=X3X=X3X=X3X=X3X=X3X=X3X=X3X=X3X=X3X=X3X=X3X=X3X=X3X=X3X=X3X=X3X=X3X=X3X=X3X3X3X3X3X3X3X3X3X3X3X3X3X3X3X0XwXNXwXqX7X*XXX<.' R y $ o . . @ - - : : s k k / [ :.>.8.%X%X$X:X8.8.7.7.7.7.7.7.8.8.8.8.8.8.8.8.7.7.7.>.7.7.7.7.=.=.%.%.%.%.%.' h i i a p : w e - - : p a k k } *X0X0X0X0X0X0X0X6X6X6X6X6X6X6X6X3X=X=X=X=X=X=X=X=X=X=X=X=X=X=X=X&XoXoX.X.X.X3.3.<.<.*.*.*.$.$.*.*.<.*.*.$.` ) R ! y t t $ o = d.(././.'.{.h.m ",
"_.).fXhXcXz.M   .   o y =.;XBXBX6X=X=X=X=X=X=X&X&X&X&X&X&X&X&X=X6X0X0XwX0XwXwXwXwXwXwXwXwXwXwXwX0X6X3X=X&XoX.X3..X.X.X.XoXoX&X&XoXoXoXoXoXoX&X&X&X&X=X=X=X=X3X3X3X3X3X3X3X3X3X3X3X3X3X3X3X3X3X3X=X=X=X&X&X&X&XoXoX.X.X.X3.3.5.5.*.*.*.*.*.*.*.*.*.*.*.*.*.*.*.*.$.$.$.$.` ` ` ` ` ` ` ` ` ` ` ) E f u t $ o       - F A s H c ~ 3.=X=X=X=X=X=X=X5X5X3X3X3X3X3X3X3X3X3X8X3X3X3X3X3X3X3X3X3X3X3X3X=X&X=X=X=X=X=X=X&X=X=X=X=X=X=X=X=X=X=X=X=X=X=X=X=X=X=X=X=X=X=X=X=X=X=X=X=X=X=X=X=X=X=X=X=X=X=X=X=X=X=X=X=X=X=X=X=X=X=X=X=X=X=X=X3X6X8X8X8X3X3X3X5X5X5X=X=X=X=X4X0XwXwX6X4X*XXX1.` R y % o   . @ # - - p k / | :.>.9.#X$X:X>X>X>XXXXX4.4.4.XXXXXX$X$X$X$X#X#X#X#X4.4.4.4.4.4.4.4.<.<.*.*.*.*.*.` R f u a s p w e - - : p a k k } *X6X6X6X6X6X6X6X3X3X3X3X3X3X3X3X=X=X=X=X=X=X=X=X=X=X&X&X&X&X&X&XoXoXoX.X.X.X3.5.<.<.*.*.*.$.$.$.<.<.*.*.$.` ) R ! y t t $ o = I (././.'.{.h.m ",
"_.).fXhXcXz.M   .   o y =.5XBXBX6X3X3X=X=X=X=X&X&X&X&XoXoXoXoX&X4X6X6X6X6X6X6X6X6X6X6X6X6X6X6X6X6X6X3X3X3X=X=X=X=X=X=X=X=X=X=X3X3X3X3X3X3X3X3X3X3X3X6X6X6X6X6X6X3X3X3X3X3X3X3X3X3X3X3X3X3X3X3X3X=X&X&X&XoXoX.X.X.X3.5.5.<.<.<.2.$.$.$.$.$.$.$.$.$.$.$.$.$.$.$.$.<.<.<.<.<.*.*.=.=.=.=.%.%.%.%.] h f u t $ o       : K x a  . .[ @X5X3X3X4X4X6X6X6X6X0X0X0X0X0XwXwXwXwXwXwXwXwXwXwXwXwXwXwXwXwX0X3X=X=X=X=X=X=X=X=X=X=X=X=X=X=X=X3X3X3X3X3X3X3X3X=X=X=X=X=X=X=X=X=X=X=X=X=X=X=X=X=X=X=X=X=X=X=X=X3X6X6X6X6X6X6X6X0X6X0X6X0X6X0X0XwXNXNXwXwXwX0X0X3X3X3X=X=X=X&X=X3X3X3X3X=X&XXX<.>.R d % o     # 9 9 w x X.} >.4.XX&X=X=X=X&X&X&X&XoXoXoXoXoXoXoXoXoXoXoXoXoXoX&X&X*X&X&X&XoXoXoX+X+X.XXX3.3.<.*.) Q ~ / c p - # 0 q w A k k h ] oX3X3X=X=X=X=X=X&X&X&X&XoXoXoX&X=X3X3X3X=X=X=X&X&X&X&XoXoXoXoXoXoXoXoX.X.X.X3.5.5.<.2.-.-.*.*.-.<.<.*.*.$.` ) R ! y t t $ o = I (././.'.{.h.m ",
"_.).fXhXcXz.M   .   o y =.5XBXBX0X3X3X3X3X=X=X&X&X&XoXoXoXoX.XoX=X4X4X4X4X3X3X3X3X4X4X4X4X3X3X6X3X3X3X3X3X3X3X3X3X3X3X3X3X3X3X3X6X6X6X6X6X6X6X6X6X6X6X6X6X6X6X6X3X3X3X3X3X3X3X3X3X3X3X3X3X3X3X3X&XoXoXoXoX.X.X.X3.5.<.2.<.2.2.-.$.` ` ` ` ` ` ` ` ` ` ` ` ` ` $.<.3.3.<.<.<.*.=.=.=.%.%.%.%.%.] h f u t $ o o     p K c k  .X.[ +X3X4X4X4X6X6X0X0X0XwXwXwXwXNXNXNXBXNXNXBXBXBXBXNXNXNXNXBXBXNXwX6X3X3X3X3X3X3X3X3X3X3X3X3X=X=X=X3X3X4X4X4X4X4X4X3X3X3X3X3X3X3X3X=X3X3X3X3X=X=X=X=X3X3X3X3X=X=X3X6X6X6X6X6X6X6X6X0X0X0X0X0X0X0XwXBXBXBXBXNXNXwX0X6X6X3X3X=X=X=X&X=X=X=X=X&X&XXX3.9.R d t o     # 9 9 w c ..:.8.OX=X3X3X3X3X=X&X&X&X&X&X&X&X&X&X&X&X&X&X&X&X&X&X&X=X=X=X=X=X&X&X&X;X+XoX.X.X3.3.<.%.[ [ X.v A q # 3 0 w A k k k ' oX3X3X=X=X&X&X&XoXoXoX.X.X.X.XoX=X3X3X3X3X=X=X&X&X&XoXoXoX.X.X.XoXoXoX.X.X.X3.3.5.<.2.2.-.-.*.-.<.<.*.*.$.` ) R ! y t t $ o = I (././.'.{.h.m ",
"_.).fXhXcXz.M   .   o y =.;XBXBX0X3X3X3X3X=X=X&X&X&XoXoXoXoX.XoX=X4X4X4X4X4X4X3X3X4X4X4X4X4X3X6X3X3X3X3X3X3X3X3X3X3X3X3X3X3X3X3X3X3X3X3X3X3X3X3X3X3X3X3X3X3X3X3X3X3X3X3X3X3X3X3X3X3X3X3X3X3X3X=X&XoXoXoXoX.X.X.X3.5.<.2.2.2.2.-.$.$.$.$.$.$.$.$.$.$.$.$.$.$.$.$.*.<.<.<.*.*.=.$.$.$.$.` ` ] ) _ h f u t $ o o     p K c k  . .[ +X=X4X4X4X6X6X0X0X0XwXwXwXwXNXNXNXNXNXNXNXNXBXBXNXNXNXBXBXBXBXwX6X3X3X3X3X3X=X=X3X3X3X3X3X3X3X3X4X3X4X4X4X4X4X4X3X3X3X3X3X3X=X=X=X=X3X3X3X3X3X3X=X=X3X3X3X3X=X3X6X6X6X6X6X6X6X6X0X0X0X0X0X0X0XwXNXBXBXNXNXNXwX0X6X6X3X3X=X=X=X=X=X=X=X=X&X&XXX3.9.R d t o     # 9 9 w c ..:.8.OX=X3X3X3X=X=X&X&X&X&X&X&X&X&X&X&X&X&X&X&X&X&X&X=X=X=X=X=X&X&X&XoX&X+XoX.X3.3.3.<.>.:.} X.J S q 3 4 3 q A c k / ' oX3X3X=X=X=X&X&X&XoXoX.X.X.X.XoX=X3X3X3X3X=X=X&X&X&XoXoX.X.X.X.XoXoXoXoX.X.X.X3.5.<.2.2.-.-.-.-.*.<.*.*.$.` ) R ! y t t $ o = d.(././.'.{.h.m ",
"_.).fXhXcXz.M   .   o y =.5XBXBX0X3X3X3X3X=X=X&X&X&XoXoXoX.X.XoX=X4X4X4X4X4X4X4X4X4X4X4X4X4X4X4X3X3X3X3X3X3X3X3X3X3X3X3X3X3X3X3X=X=X=X=X=X=X=X=X=X=X=X=X=X=X=X=X3X3X3X3X3X3X3X3X3X3X3X3X3X3X3X=X&XoXoXoXoX.X.X.X3.5.<.2.2.2.2.-.$.$.$.$.$.$.$.$.$.$.$.$.$.$.$.$.*.*.*.*.$.$.$.` ` ` ) ) ) W W R h f u t $ o o     p K c k  . .[ +X3X4X3X4X6X6X0X0X0XwXwXwXwXNXNXNXNXNXNXNXNXBXBXNXNXNXBXBXBXNXwX6X3X3X3X3X=X=X=X=X3X3X3X3X3X3X3X4X4X4X4X4X4X4X4X3X3X3X3X3X3X=X=X=X=X3X3X3X3X3X3X3X3X3X3X3X3X=X3X6X6X6X6X6X6X6X6X0X0X0X0X0X0X0X0XNXNXNXNXNXwXwX0X6X3X3X3X=X=X=X=X=X=X=X=X&X&XXX3.9.R d t o     # 9 9 w c ..:.8.OX=X3X3X3X3X=X&X&X&X&X&X&X&X&X&X&X&X&X&X&X&X&X&X=X=X=X=X=X&X&X&XoX&X+XoX.X3.3.3.<.%.[ [ / a p - # # # 5 A c k / [ oX3X3X3X=X=X=X&X&X&XoXoX.X.X.XoX=X3X3X3X3X=X=X&X&X&XoXoXoX.X.X.XoXoXoXoX.X.X.X.X3.5.<.2.2.-.-.<.<.<.*.*.$.` ) R ! y t t $ o = d.(././.'.{.h.m ",
"_.).fXhXcXz.M   .   o y =.5XBXBX0X3X3X3X3X=X=X&X&X&XoXoX.X.X.XoX=X4X4X4X4X4X4X4X4X4X4X4X4X4X4X4X3X3X3X3X3X3X3X3X3X3X3X3X3X3X3X=X&X&X&X&X&X&X&X&X&X&X&X&X&X&XoX&X=X3X3X3X3X3X3X3X3X3X3X3X3X3X3X=X&XoXoXoXoX.X.X.X3.3.<.<.2.2.2.-.$.$.$.$.$.$.$.$.$.$.$.$.$.$.$.$.$.$.$.$.` ` ` ) ) W W W R R R g h f u t $ o o     p K c k  .X.[ +X3X4X4X4X6X6X0X0X0XwXwXwXwXNXNXNXNXNXNXNXNXNXNXBXBXBXBXNXNXBXwX6X3X=X3X3X3X3X=X3X3X3X3X3X3X3X3X4X4X4X4X4X4X4X4X3X3X3X3X3X3X=X=X3X3X3X3X3X3X3X3X3X3X3X3X3X3X3X3X3X6X6X6X6X6X6X6X0X0X0X0X0X0X0X0XwXNXNXwXwX0X0X0X6X3X3X3X=X=X=X=X=X=X=X=X&X&X.X3.9.R d t o     # 9 9 w c ..:.8.OX=X3X3X3X3X=X&X&X&X&X&X&X&X&X&X&X&X&X&X&X&X&X&X=X=X=X=X&X&X&XoXoX+XoX.X.X3.<.<.*.%._ E f t O . X # # - A c k / :.oX3X3X3X3X=X=X&X&X&XoXoXoXoX.XoX=X3X3X3X3X=X=X&X&X&XoXoXoX.X.X.XoX&XoXoXoX.X.X.X3.5.<.<.2.2.2.2.<.<.*.*.$.` ) R ! y t t $ o = d.(././.'.{.h.m ",
"_.).fXhXcXz.M   .   o y =.5XBXBX0X3X3X3X3X=X=X&X&X&XoXoXoX.X.XoX=X4X4X4X4X4X4X4X4X4X4X4X4X4X4X4X=X=X=X=X=X=X=X=X=X=X=X=X=X=X=X&XoX.XoX.X.X.XoX.X.X.X.X.XoX.X.XoX&X=X=X=X=X=X=X=X=X=X=X=X=X=X=X=X&XoXoXoXoX.X.X.X3.3.<.<.2.2.2.-.$.$.$.$.$.$.$.$.$.$.$.$.$.$.$.$.$.` ` ` ) ) ) W R R R g g g g d f u u t $ o o     p K c k  .X.[ +X3X4X4X4X6X6X0X0X0XwXwXwXwXNXNXNXNXNXBXNXNXNXNXBXBXBXBXNXBXBXwX6X3X=X=X3X3X3X3X3X3X3X3X3X3X=X3X4X4X4X4X4X4X4X4X3X3X=X=X3X3X=X3X3X3X3X3X3X3X3X3X3X3X3X3X3X3X=X3X3X3X3X3X3X6X3X3X6X6X6X6X6X6X6X0X0XwXwX0X0X0X0X6X3X3X3X3X=X=X=X=X=X=X=X=X&X&X.X3.9.R d t o     # 9 9 w c ..:.8.OX=X3X3X3X3X=X&X&X&X&X&X&X&X&X&X&X&X&X&X&X&X&X&X&X&X&X&X&X&XoXoXoX@X@X.X3.3.<.<.*.%._ g y % o     # # - z H v / :.oX6X3X3X3X3X=X=X&X&X&XoXoXoXoX&X=X3X3X3X3X=X=X&X&X&XoXoXoX.X.XoX&X&X&XoXoXoX.X.X.X3.5.<.<.2.2.2.<.<.*.*.$.` ) R ! y t t $ o = I (././.'.{.h.m ",
"_.).fXhXcXz.M   .   o y =.5XBXBX0X3X3X3X3X=X=X&X&X&XoXoXoX.X.XoX=X4X4X4X4X4X3X3X3X3X4X4X4X4X4X3X=X=X=X=X=X=X=X=X=X=X=X=X=X=X=X&X.X3.3.3.3.3.3.3.3.3.3.3.3.3.3..X&X=X=X=X=X=X=X=X=X=X=X=X=X=X=X&X&XoXoXoXoXoX.X.X3.5.<.<.<.2.2.-.*.*.*.*.*.*.=.=.*.*.*.*.*.*.*.$.` ) ) ) ) W W W g g g d d d d d f f u t $ o o     p K c k  . .[ +X3X4X4X4X6X6X0X0X0XwXwXwXwXNXNXNXNXBXBXBXBXNXNXNXNXNXNXNXBXBXwX6X=X=X=X3X3X3X3X3X=X3X3X3X=X=X=X3X4X3X3X4X4X4X4X3X=X=X=X3X3X3X3X3X3X3X3X3X3X=X=X=X=X3X3X3X3X3X3X3X3X3X3X3X3X3X3X6X6X6X6X6X6X6X6X0X0X0X0X0X6X6X6X3X3X3X3X=X=X=X=X=X=X=X=X&X&X.X3.0.R d t o     # 9 9 w c ..:.8.OX=X3X3X3X3X&X&X&X&X&X&X&X&X&X&X&X&X&X&X&X&X&X&X&X&X&X&X&XoXoXoX.X@X@X@X5.<.<.*.*.>._ R y % o   . # # - p H  ...:.&X6X6X6X3X3X3X=X=X&X&X&X&XoXoX&X=X3X3X3X3X=X=X&X&X&XoXoXoX.X.XoX&X&X&X&X&XoXoX.X.X.X3.3.3.<.<.<.<.<.*.*.$.` ) R ! y t t $ o = I (././.'.{.h.m ",
"_.).fXhXcXz.M   .   o y =.5XBXBX0X3X3X3X3X=X=X&X&X&XoXoXoX.X.XoX=X4X4X4X4X4X4X3X3X4X4X4X4X4X4X4X=X&X&X&X&X&X&X&X&X&X&X&X&X&X&XoX.X<.<.<.<.<.5.5.<.<.<.<.5.5.<.3.&X&X&X&X&X&X&X&X&X&X&X&X&X&X&X&X&XoXoXoXoXoX.X.X3.5.<.<.<.2.2.-.*.*.*.*.*.*.*.*.*.*.*.*.*.*.*.$.` ) ) ) W W W R g d d d d y y y f f u t $ o o     p K c k  . .[ +X3X4X4X4X6X6X0X0X0XwXwXwXwXNXNXNXNXBXBXBXBXBXBXNXNXBXNXNXNXBXwX3X=X=X=X3X3X3X3X=X=X3X3X3X=X=X=X3X3X3X3X4X4X4X4X3X=X=X=X3X3X3X3X3X3X3X3X3X=X=X=X=X3X3X3X3X3X3X3X3X3X3X3X3X3X3X3X4X4X4X4X4X4X4X4X6X6X6X6X6X6X6X4X3X3X3X3X=X=X3X=X=X=X=X=X&X&X.X3.0.R d t o     # 9 9 w c ..:.8.OX=X3X3X3X=X&X&X&X&X&X&X&X&X&X&X&X&X&X&X&X&X&X&X&X&X&X&XoXoXoX.X.X@X5.5.<.<.*.*.$.:.[ E y % o . X X # - p H  .X.w.&X6X6X6X6X3X3X3X=X=X&X&X&X&XoX&X3X3X3X3X3X=X=X&X&X&XoXoXoX.X.XoX&X=X&X&X&X&XoXoX.X.X.X3.3.3.3.3.<.<.*.*.$.` ) R ! y t t $ o = I (././.'.{.h.m ",
"_.).fXhXcXz.M   .   o y =.;XBXBX0X3X3X3X3X=X=X&X&XoXoXoXoXoX.XoX=X3X3X3X=X=X=X=X=X=X=X=X=X3X3X=X&X&X&X&X&X&X&X&X&X&X&X&X&X&X&XoX3.2.<.2.2.2.2.2.2.2.2.2.2.2.2.5.oX&X&X&X&X&X&X&X&X&X&X&X&X&X&X&X&XoXoXoXoX.X.X.X3.5.5.<.<.2.2.2.*.<.<.<.<.<.<.*.<.<.<.<.<.<.<.=.` ) ) ) W W W R R g g g j j j j f u u t $ o o     p K c k  .X.[ .X=X=X=X3X3X3X6X0X0XwXwXwXwXNXNXNXNXBXBXBXBXBXNXNXNXNXNXNXBXBXwX3X=X=X=X3X3X3X=X4X4X4X4X3X3X3X3X=X=X=X3X3X3X=X=X4X4X4X4X3X3X3X4X=X=X3X3X3X3X3X3X3X3X=X3X3X=X3X3X=X=X=X=X=X=X=X=X=X=X=X=X=X=X=X=X=X=X=X=X=X=X=X=X=X3X3X3X3X3X3X3X=X=X=X=X&X&X.X3.9.R d t o     # 9 9 w c ..:.8.OX=X3X3X3X3X=X&X&X&X&X&X&X&X&X&X&X&X&X&X&X&X&X&X&X&XoXoXoXoX.X.X.X<.<.<.*.*.*.*.$.%._ R y % o   .   3 F z a  .X.>.-X0X0X0X0X6X6X6X4X3X3X=X=X;X;X=X3X3X3X3X3X=X=X&X&X&XoXoXoXoX.XoX&X=X=X=X&X&X&XoXoX.X.X.X.X3.3.3.3.1.<.=.$.) W R ! y t t $ o = d.(././.'.{.h.m ",
"_.).fXhXcXz.M   .   o y =.;XBXBX0X3X3X3X3X=X=X&X&XoXoXoXoXoX.XoX=X3X3X3X=X=X3X=X=X3X=X=X3X3X3X=X&X&X&X&X&X&X&X&X&X&X&X&X&X&X&XoX5.<.<.<.2.2.2.2.2.2.2.<.2.2.2.5.oX&X&X&X&X&X&X&X&X&X&X&X&X&XoXoX&XoXoXoXoX.X.X.X3.5.<.2.2.2.2.2.<.<.<.<.<.<.<.<.<.<.<.<.<.<.<.*.` ) ) ) ) W W W R R R g g j j j f u u t $ o o     p K c k  .X.[ .X=X=X=X3X3X6X6X0X0XwXwXwXwXNXNXNXNXBXBXNXBXNXNXNXNXNXNXNXNXNXwX3X=X=X3X3X3X3X=X4X4X4X4X3X3X4X3X=X=X3X3X3X3X=X=X4X4X4X4X3X3X3X4X=X=X3X3X3X3X=X3X3X3X=X3X=X=X3X=X=X=X=X=X=X=X=X=X=X=X=X=X=X=X=X=X&X&X&X&X=X=X=X=X=X=X3X3X3X3X3X3X=X=X=X=X&X&X.X3.0.R d t o     # 9 9 w c ..:.8.OX=X3X3X3X3X=X&X&X&X&X&X&X&X&X&X&X&X&X&X&X&X&X&X&XoXoXoX.X.X.X.X3.<.<.*.*.*.$.$.$.%._ R y % o   .   3 F z a  .X.>.-XwXwX0X0X0X0X6X6X4X4X3X=X=X;X=X3X3X3X3X3X=X=X&X&X&XoXoXoXoX.XoX=X=X=X=X=X&X&X&XoXoX.X.X.X.X3.3.3.1.<.=.$.) W R ! y t t $ o = d.(././.'.{.h.m ",
"_.).fXhXcXz.M   .   o y =.5XBXBX0X3X3X3X3X=X=X&X&X&XoXoXoXoX.XoX=X3X3X3X3X3X3X3X3X3X3X3X3X3X3X=X&XoXoXoXoXoXoXoXoXoXoXoXoXoXoXoX3.5.<.<.<.<.<.<.<.<.<.<.<.5.5.3.oXoXoXoXoXoXoXoXoXoXoXoXoXoXoXoX&XoXoXoXoX.X.X.X3.5.<.<.2.2.2.2.<.<.<.<.<.<.<.<.<.<.<.<.<.<.<.<.$.` ` ` ) ) ) W W R R R R g g g f u u t $ o o     p K c k  .X.[ .X=X=X=X3X3X3X6X0X0XwXwXwXwXNXNXNXBXBXBXBXBXBXNXBXBXNXNXNXNXNXwX3X3X3X3X3X3X=X=X4X4X4X4X4X4X4X4X=X=X3X3X3X3X3X3X4X3X4X4X3X4X4X4X=X=X3X3X3X=X=X=X3X3X3X=X=X3X3X=X=X=X=X=X=X=X=X&X=X=X=X=X=X=X=X&X&XoXoXoX&X&X&X&X=X=X=X3X3X3X3X3X=X=X=X=X&X&X.X3.0.R d t o     # 9 9 w c ..:.8.OX=X3X3X3X3X=X&X&X&X&X&X&X&X&X&X&X&X&X&X&X&X&X&X&XoX.X.X.X.X3.3.3.<.*.*.$.$.$.$.$.%._ R y % o   .   3 F z a  .X.>.4XwXwXwXwX0X0X6X6X6X4X4X3X3X=X3X3X3X3X3X3X=X=X&X&X&XoXoXoXoX.XoX=X3X3X=X=X=X&X&X&XoXoX.X.X.X.X.X3.1.<.=.$.) W R ! y t & $ o = d.(././.'.{.h.m ",
"_.).fXhXcXz.M   .   o y =.5XBXBX0X3X3X3X3X=X=X&X&X&XoXoXoXoX.XoX=X3X3X3X3X3X3X3X3X3X3X3X3X3X3X=X&XoXoXoXoXoXoXoXoXoXoXoXoXoXoX.X.X3.3.3.3.3.3.3.3.3.3.3.3.3.3..X.XoXoXoXoXoXoXoXoXoXoXoXoXoXoXoXoXoXoXoXoX.X.X.X3.5.<.<.2.2.2.2.<.3.3.3.3.3.3.3.3.3.3.3.3.3.3.<.*.$.$.$.` ` ` ) ) ) W W R R R R h f u t $ o o     p K c k  .X.[ .X=X=X=X3X3X3X6X0X0XwXwXwXwXNXNXNXBXBXNXBXBXBXNXBXBXBXNXNXNXNXwX6X3X3X3X3X3X=X=X4X4X4X4X4X4X4X4X=X3X3X3X3X3X3X3X3X3X4X4X4X4X4X4X=X=X3X3X3X=X=X=X3X3X3X=X=X=X3X=X=X&X&X&X&X&X&X&X&X&X&X&X&X&X&X&XoX.X.XoXoXoX&X&X&X=X=X3X3X3X3X3X=X=X=X&X&X&X.X3.0.R d t o     # 9 9 w c ..:.8.OX=X4X3X3X3X=X&X&X&X&X&X&X&X&X&X&X&X&X&X&X&X&X&X&XoX.X.X.X3.3.3.<.*.*.$.$.$.$.$.` %._ R y % o   .   3 F z a  .X.>.4XNXwXwXwXwX0X0X6X6X6X4X4X3X3X3X3X3X3X3X3X=X=X&X&X&XoXoXoX.X.XoX=X3X3X3X=X=X=X&X&X&XoXoX.X.X.X.X3.1.<.=.$.) W R ! y t t $ o = d.(././.'.{.h.m ",
"_.).fXhXcXz.M   .   o y =.5XBXBX0X3X3X3X3X=X=X&X&X&XoXoXoX.X.XoX=X3X3X3X3X3X3X3X3X3X3X3X3X3X3X=XoXoX.XoXoXoXoXoXoXoXoXoX.XoXoX.X.X.X.X.X.X.X.X.X.X.X.X.X.X.X.X.XoXoXoXoX.XoXoXoXoXoXoXoXoXoXoXoXoXoXoXoXoX.X.X.X3.5.<.2.2.-.-.<.3.3.3.3.3.3.3.3.3.3.3.3.3.3.3.<.<.*.=.=.$.$.$.` ` ` ) ) ) W W R h f u t $ o o     p K c k  . .[ .X=X=X=X3X3X3X6X0X0XwXwXwXwXNXNXNXNXBXBXBXBXNXNXBXBXNXNXNXNXBXwX6X3X3X3X3X3X3X3X4X4X4X4X4X4X4X4X3X3X3X3X3X3X3X3X3X4X4X4X4X4X4X4X3X3X3X3X3X3X3X3X=X=X3X3X3X=X=X=X&X&X&X&X&X&X&X&X&X&X&X&X&X&X&XoX.X.X.X.X.XoXoX&X&X=X=X3X3X3X3X3X=X=X=X=X&X&XXX3.9.R d t o     # 9 9 w c ..:.8.OX=X3X3X3X=X=X&X&X&X&X&X&X&X&X&X&X&X&X&X&X&X&X&X&X.X.X.X.X3.5.<.2.*.*.$.$.$.` ` ` ' _ R y % o   .   3 F z a  .X.>.4XNXNXNXwXwX0X0X0X6X6X6X4X4X4X4X3X3X3X3X3X=X=X&X&X&XoXoXoX.X.XoX=X3X3X3X3X=X=X=X&X&XoXoXoXoX.X.X3.<.<.=.$.) W R ! y t t $ o = d.(././.'.{.h.m ",
"_.).fXhXcXz.M   .   o y =.5XBXBX0X3X3X3X3X=X=X&X&X&XoXoX.X.X.XoX=X3X3X3X3X3X=X=X=X=X3X3X3X3X3X=XoX.X.X.X.X.X.X.X.XoXoXoX.X.X.X.X.X.X.X.X.X.X.X.XoXoX.X.X.X.X.X.XoXoXoX.X.X.X.X.X.X.XoXoXoXoXoXoXoXoXoXoXoX.X.X.X3.3.<.2.<.-.2.<.3.3.3.3.3.3.3.3.3.3.3.3.3.3.3.3.<.<.<.<.*.*.*.$.$.$.` ` ) ) ) W h f u t $ o o     p K c k  .X.[ .X=X=X=X3X3X3X6X0X0XwXwXwXwXNXNXNXNXNXNXNXBXNXNXBXBXNXNXNXNXBXwX6X3X3X3X3X3X3X3X4X4X4X4X4X4X3X4X3X3X3X3X3X3X3X3X3X3X4X4X4X4X4X4X3X3X3X3X3X3X3X3X3X3X3X3X3X=X=X=X&X&X&X&X&X&X&X&X&X&X&X&X&X&X&XoX.X5.3..X.X.XoX&X&X=X=X3X3X3X6X3X=X=X=X=X&X&XXX3.9.R d t o     # 9 9 w c ..:.8.OX=X3X3X3X3X=X&X&X&X&X&X&X&X&X&X&X&X&X&X&X&X&X&X&X.X.X.X3.5.5.<.2.*.$.$.$.` ` ` ` ' _ R y % o   .   3 F z a  .X.>.4XNXNXNXwXwXwX0X0X0X6X6X4X4X4X4X3X3X3X3X3X=X=X&X&X&XoXoXoX.X.XoX3X6X3X3X3X3X=X=X&X&X&XoXoXoXoX.X3.<.<.=.$.) W R ! y t t $ o = d.(././.'.{.h.m ",
"_.).fXhXcXz.M   .   o y =.5XBXBX0X3X3X3X3X=X=X&X&X&XoXoX.X.X.XoX=X3X3X3X3X=X=X=X=X=X=X=X3X3X3X=XoX.X.X.X.X.X.X.X.X.X.X.X.X.X.X.XoXoXoXoXoXoXoXoXoXoXoXoXoXoXoXoXoX.X.X.X.X.X.X.X.X.X.X.X.X.X.XoXoXoXoXoXoX.X.X.X3.3.<.2.<.2.2.<.3.3.3.3.3.3.3.3.3.3.3.3.3.3.3.3.3.3.3.<.<.<.*.*.*.$.$.$.` ` ` ) h u u t $ o o     p K c k  .X.[ .X=X=X=X3X3X3X6X0X0XwXwXwXwXNXNXNXNXNXNXNXNXNXNXBXNXNXNXNXBXBXwX3X=X3X3X3X3X3X3X4X3X4X4X4X4X3X3X3X3X=X3X3X3X3X3X4X4X4X4X4X4X4X4X3X3X=X=X=X=X3X3X3X3X3X3X3X3X=X=X&X&X&X&X&X&XoXoXoXoX&X&X&X&X&XoX3.<.5.3..X.XoXoX&X=X=X3X3X3X6X3X=X=X=X=X&X&XXX3.9.R d t o     # 9 9 w c ..:.8.OX=X3X3X3X3X&X&X&X&X&X&X&X&X&X&X&X&X&X&X&X&X&X&X&X.X.X3.3.5.<.2.2.*.$.$.$.` ` ` ` ' _ R y % o   .   3 F z a  .X.>.4XNXNXNXNXwXwX0X0X0X6X6X6X4X4X4X3X3X3X3X3X=X=X&X&X&XoXoXoX.X.XoX3X6X6X3X3X3X=X=X=X&X&X&XoXoXoX.X3.<.<.*.$.) W R ! y t t $ o = d.(././.'.{.h.m ",
"_.).fXhXcXz.M o .   o t &.;XwXNX6X=X=X=X=X=X&X&X&XoXoXoX.X.X.XoX&X=X=X=X=X=X=X=X=X=X=X=X=X=X=X&XoX.X.X.X.X.X.X.X.X.X.X.X.X.X.XoX&X&X&X&X&X&X&X&X&X&X&XoXoXoXoXoX.X3.3.3.3.3.3.3.3.3.3.3.3.3.3..X.X.X.X.X.X.X3.3.3.<.<.2.<.-.*.<.3.3.3.3.3.3.3.3.3.3.3.3.3.3.3.3.3.3.<.<.<.<.*.*.$.$.$.` ` ` ` W h u i % $ o       p K c a  . .[ .X3X3X3X3X3X6X6X0X0X0XwXwXwXwXwXwXNXNXNXNXNXNXNXNXNXNXNXNXNXNXwX3X=X3X3X3X3X3X3X3X3X4X4X4X3X3X3X=X=X=X=X=X=X=X=X4X4X4X4X3X3X4X3X=X&X&X=X=X=X3X3X3X3X3X3X=X=X=X=X&X&X&X&X&X&XoXoXoXoXoXoXoX.X.X.X5.<.<.5.3..X.XoXoX&X&X=X=X3X3X=X&X&X&X&XoX.X3.<.>.R y t $     # 9 9 w c ..:.8.OX=X3X3X3X3X&X&X&X&X=X=X&X&X&X&X&X&X&X&X&X&XoXoXoX.X.X3.3.3.5.<.2.*.$.$.$.` ` ` ` ' _ h y % o   .   3 F z a  . .>.4XNXNXNXwX0X0X6X6X6X4X4X4X4X4X4X3X=X=X=X=X=X=X=X=X&X&X&X&X&X&X=X3X6X6X6X6X6X3X3X=X=X&XoX.X.X.X3.<.*.$.$.) W R g j t % % $ o = I (././.'.{.h.m ",
"[./.N.hXcXc.B o       t ) 3.3X0X=X&X&X&X&X&XoXoXoXoXoXoXoXoXoXoXoX&X&X&X&X&XoXoXoX&X&X&X&X&X&XoX.X.X.X.X.X.X.X.X.X.X.X.X.X.X.XoX=X3X3X3X3X=X=X=X=X;X=X&XoXoXoX.X<.*.*.*.*.*.*.*.*.*.*.*.*.*.*.*.*.*.*.*.*.*.*.*.*.$.$.$.$.$.$.*.<.3.3.3.3.3.3.3.XXXXXXXXXXXXXXXX<.*.*.*.*.$.$.$.` ` ) ) ) W W R f u t $ o         : K z a v  .[ oX6X6X6X6X6X6X6X0X0X0X0X0X0X0X0X0X0X0XwX0X0X0X0X0X0X0X0X0X0X0X6X3X3X3X3X3X3X3X3X3X=X3X3X3X3X3X=X3X3X3X3X3X3X3X3X=X=X=X=X=X=X=X&XoX.XoXoX&X=X3X3X6X3X3X3X=X&X&X&X=X=X=X&X&X&XoXoX.X3.3.<.<.<.<.*.<.<.<.5.5.3.3..X.X.XoXoXoX&X&XoX.X3.3.<.<.*.$.) W h y % $ o O O 9 9 w c ..:.8.OX=X3X3X3X3X=X&X&X&X=X=X=X&X&X&XoXoXoX.X.X.X.X.X.X.XXXXXXX3.3.<.<.*.$.$.$.$.` ` ` _ E h y % $ o .   : K z a J  .[ 7XVXVXwX0X3X=X&X&X&X&X&X=X=X3X3X&X&X&X&X&X=X=X3X3X3X6X6X6X6X6X6X6X6X0X0X0X0X0X6X6X3X=XoX5.-.$.` ` ) ) W W R g j j % $ * o o = I (././.'.{.h.m ",
"[.^.N.hXcXc.B o       & W 2.=X8X&XoXoXoXoXoXoXoXoXoXoXoXoXoXoXoXoXoXoXoXoXoXoXoXoXoXoXoXoXoXoX.X.X.X.X.X3.3.3.3..X.X3.3.3.3..XoX3X6X6X3X3X3X=X=X=X;X&X&XoX.X.X3.*.$.$.$.$.$.$.$.$.$.$.$.$.$.$.$.$.$.$.$.$.$.$.$.$.$.$.$.$.$.$.*.<.3.3.3.3.3.3.3.XXXXXXXXXXXXXX4.*.*.$.$.$.$.` ` ) ) ) W W W W R f i & $ +         - K z a J  .[ oX6X6X6X6X6X6X6X0X0X0X0X0X0X0X0X0X0X0X0X0X0X0X0X6X6X6X6X6X6X6X6X3X=X3X3X3X3X3X3X=X=X3X3X3X3X=X=X3X3X3X3X3X3X3X3X=X=X=X=X=X=X=X&X.X5..XoX&X=X3X6X6X6X3X3X=X&XoXoX=X=X=X&X&X&XoX.X3.<.<.*.*.$.$.*.2.<.<.5.5.5.3.3..X.X.X.X.X.X.X.X3.<.<.*.$.` ) W R f t % $ $ * , 9 9 w c ..:.8.OX=X3X3X3X3X=X&X&X=X=X=X=X&X&X&XoXoX.X.X.X3.3.3.3.XXXXXXXX4.4.4.1.*.*.$.$.$.$.` ) _ E f y % $ o +   : K z s H v [ 7XVXVXwX6X3X&XoXoXoXoX&X&X=X3X=X&XoXoX&X&X=X=X3X3X6X0X0XwXwXwXwX0X6X0X0XwXwXwX0X6X4X=X.X<.$.` ) W W W R R g j i l $ $ * o o = I (././.'.{.h.m ",
"[.^.N.hXcXc.B o       & W 2.=X8X&XoXoXoXoXoXoXoXoXoXoXoXoXoXoXoXoXoXoXoXoXoXoXoXoXoXoXoXoXoXoX.X.X.X.X.X.X.X3.3..X.X.X.X3..X.XoX=X3X3X3X3X3X=X=X=X;X=XoXoX.X.X3.*.$.$.$.$.$.$.$.$.$.$.$.$.$.$.$.$.$.$.$.$.$.$.$.$.$.$.$.$.$.$.*.<.3.3.3.3.3.3.3.XXXXXXXXXXXXXX4.*.*.$.$.$.$.` ` ` ) ) W W R W R f i & $ +         - K z a J  .[ oX6X6X6X6X6X6X6X0X0X0X0X0X0X0X0X0X0X0X0X0X0X0X0X6X6X6X6X6X6X6X6X3X3X3X3X3X3X3X3X=X3X3X3X3X=X=X=X4X3X4X3X4X3X4X3X=X=X=X=X=X=X=X&X.X3..XoX&X=X3X6X6X6X3X=X&XoXoXoX&X=X&X&X&XoXoX.X3.<.<.*.*.$.$.*.<.5.5.5.5.3.3.3..X.X.X.X.X.X.X.X3.<.<.*.$.` ) W R f t % $ $ * , 9 9 w c ..:.8.OX=X3X3X3X3X=X&X&X=X=X&X&X&X&XoXoXoX.X.X.X3.3.5.3.XXXXXXXX4.4.4.1.*.*.$.$.$.$.` ) _ E f y % $ o +   : K z s H v [ 7XVXVXwX6X3X&XoXoXoXoX&X&X=X3X=X&XoXoX&X&X=X=X3X3X6X6X0X0XwXwX0X6X6X6X0X0X0X0X6X6X3X=X.X<.$.` ) W W W R R g j i l $ $ * o   = I (././.'.{.h.m ",
"[.^.N.hXcXc.B o       & W 2.=X3X&XoXoXoXoXoXoXoXoXoXoXoXoXoXoXoXoXoXoXoXoXoXoXoXoXoXoXoXoXoXoX.X.X.X.X.X.X.X.X3..X.X.X.X3..X.XoX=X3X3X3X3X=X=X=X;X;X&XoXoX.X.X3.*.$.$.$.$.$.$.$.$.$.$.$.$.$.$.$.$.$.$.$.$.$.$.$.$.$.$.$.$.$.$.*.<.3.3.3.3.3.3.3.XXXXXXXXXXXXXX4.*.*.$.$.$.$.` ` ) ) ) W W R W R f i & $ +         5 K z a J  .[ oX6X6X6X6X6X6X6X0X0X0X0X0X0X0X0X0X0X0X0X0X0X0X0X6X6X6X6X6X6X6X6X3X3X3X3X3X3X3X=X=X=X3X3X3X=X=X=X4X4X4X4X4X4X4X4X3X=X3X=X3X=X3X&X.X.X.XoX&X=X3X6X6X3X3X=X&XoXoXoX&X&X&X&XoXoX.X.X3.<.<.*.*.*.$.*.<.5.3.3.3.3.3.3..X.X.X.X.X.X.X.X<.<.<.*.$.` ) W ! f t % $ o * , 9 9 w c ..:.8.OX=X3X3X3X3X=X&X&X&X=X&X&X&X&XoXoXoX.X.X.X3.3.5.3.XXXXXXXX4.4.4.1.*.*.$.$.$.$.` ) _ E f y % $ o o   : K z s H v [ 7XVXVXwX6X3X&XoXoXoXoX&X&X=X3X3X&XoX&X&X&X=X=X3X3X3X6X6X0X0X0X0X6X6X6X6X0X0X0X6X6X3X=X.X<.$.` ) ) W W R R g j i l $ $ * o   = I (././.'.{.h.m ",
"[.^.N.hXcXc.B o       & W 2.=X8X&XoXoXoXoXoXoXoXoXoXoXoXoXoXoXoXoXoXoXoXoXoXoXoXoXoXoXoXoXoXoX.X.X.X.X.X.X.X.X.X3.3.3..X.X.X.X.X=X3X3X3X=X=X=X&X;X;X&XoX.X.X.X3.*.$.$.$.$.$.$.$.$.$.$.$.$.$.$.$.$.$.$.$.$.$.$.$.$.$.$.$.$.$.$.*.<.3.3.3.3.3.3.3.4.4.4.4.4.4.4.4.*.*.$.$.$.$.` ` ) ) ) W W W W R f i & $ +         - K A a J  .~ oX6X6X6X6X6X6X6X0X0X0X0X0X0X0X0X0X0X0X0X0X0X0X0X6X6X6X6X6X6X6X6X3X3X3X3X3X3X=X=X3X3X3X3X3X3X3X3X4X4X4X4X4X4X4X4X3X3X3X3X3X3X3X=XoX.XoX&X=X3X3X6X6X3X3X=X&XoX.X.XoXoXoXoXoX.X.X.X<.<.<.*.*.*.*.*.5.3.3.3.3..X.X.X3.3.3..X.X.X.X3.<.<.*.$.$.` ) R ! d t $ $ o O , 9 9 w c ..:.8.OX=X3X3X3X=X=X&X&X=X=X=X&X&X&XoXoXoX.X.X.X3.3.5.3.XXXXXXXX4.4.4.1.*.*.$.$.$.$.` ) _ E f y % $ o o   : K z s H v [ 7XVXVXwX6X=X&XoXoXoXoX&X&X=X3X3X&X&X&X&X&X&X=X=X3X3X3X6X6X6X6X6X3X3X3X6X6X6X6X6X6X3X=X.X<.$.` ) ) W W R g g j i j $ $ * o   = I (././.'.{.h.m ",
"[.^.N.hXcXc.B o       & W 2.=X8X&XoXoXoXoXoXoXoXoXoXoXoXoXoXoXoXoXoXoXoXoXoXoXoXoXoXoXoXoXoXoX.X.X.X.X.X.X.X.X.X3.3..X.X.X.X.X.X=X3X3X=X=X=X&X&X;X&XoXoX.X.X3.<.*.$.$.$.$.$.$.$.$.$.$.$.$.$.$.$.$.$.$.$.$.$.$.$.$.$.$.$.$.$.$.*.<.<.<.<.<.<.<.<.4.4.4.4.4.4.4.1.*.*.$.$.$.$.` ` ) ) ) W W W W R f i & $ +         5 K A a J v ~ oX6X6X6X6X6X6X6X0X0X0X0X0X0X0X0X0X0X0X0X0X0X0X0X6X6X6X6X6X6X6X6X3X=X3X3X3X3X=X=X3X3X3X3X3X3X3X3X6X6X6X6X6X6X6X6X3X3X3X3X3X3X3X=XoX.XoX&X=X3X6X6X6X3X=X&XoX.X.X.X.XoX.X.X.X.X.X3.<.<.<.*.*.*.*.*.3..X.X.X.X.X.X.X3.3.3.3.3.3.3.5.<.*.*.$.` ) W R h y % $ o + O , 9 9 w c ..:.8.OX=X3X3X3X3X=X&X&X=X=X=X&X&X&XoXoXoX.X.X.X3.3.5.3.XXXXXXXX4.4.4.1.*.*.$.$.$.$.` ) _ E f y % $ o +   : K A s H v [ 7XVXVXwX6X=X&XoXoXoXoX&X&X=X3X3X&X&X&X&X&X&X=X=X=X3X3X3X3X3X6X3X=X=X3X3X6X6X6X6X6X=X=X.X<.*.$.) ) W W R g g j i j $ $ * o   = I (././.'.{.h.m ",
"[./.N.hXcXc.B o       & W 2.=X8X&XoXoXoXoXoXoXoXoXoXoXoXoXoXoXoXoXoXoXoXoXoXoXoXoXoXoXoXoXoXoX.X.X.X.X.X3.3..X.X3.3..X.X.X.X3..X&X=X=X=X=X&X&X&X;X+XoX.X.X3.3.<.*.$.$.$.$.$.$.$.$.$.$.$.$.$.$.$.$.$.$.$.$.$.$.$.$.$.$.$.$.$.$.$.<.<.<.<.<.<.<.<.4.4.4.4.4.4.4.1.*.*.$.$.$.$.` ` ) ) ) W W W W R f i & $ +         - K z a J  .[ oX6X6X6X6X6X6X6X0X0X0X0X0X0X0X0X0X0X0X0X0X0X0X0X6X6X6X6X6X6X6X6X3X=X=X3X3X3X=X=X3X3X=X=X=X3X3X3X6X6X6X6X6X6X6X6X3X3X3X3X3X3X3X3X&XoX&X&X=X3X6X6X6X3X=X&XoX.X5.5.3..X.X.X3.3.3.5.<.<.<.*.*.*.*.<..X.X.X.X.X.X.X.X3.3.5.5.5.<.<.<.*.*.$.$.` ) W R j i % $ o   O X 9 9 w c ..:.8.OX=X3X3X3X3X=X&X&X=X=X=X&X&X&X&XoXoX.X.X.X3.3.5.3.XXXXXXXX4.4.4.1.*.*.$.$.$.$.` ) _ E f y % $ o +   : K z s H v [ tXVXVXwX6X=X&XoXoXoXoX&X&X=X3X3X&X&X&X&X&X&X&X=X=X=X=X=X3X3X3X=X&X&X=X=X3X3X6X6X4X=X&X.X<.*.$.` ) W W R g g j i j $ $ * o   = I (././.'.{.h.m ",
"[.^.N.hXcXc.B o       & W 2.=X8X&XoXoXoXoXoXoXoXoXoXoXoXoXoXoXoXoXoXoXoXoXoXoXoXoXoXoXoXoXoXoX.X.X.X3.3.3.3.3.3..X.X.X.X.X.X3..X&X=X=X=X&X&X&XoX&X+X.X.X3.3.3.<.*.$.$.$.$.$.$.$.$.$.$.$.$.$.$.$.$.$.$.$.$.$.$.$.$.$.$.$.$.$.$.$.=.<.<.<.<.<.<.<.1.1.1.1.1.1.1.1.*.*.$.$.$.$.` ` ) ) ) W W W W R f i & $ +         - K z a J  .[ oX6X6X6X6X6X6X6X0X0X0X0X0X0X0X0X0X0X0X0X0X0X0X0X6X6X6X6X6X6X6X6X3X=X3X3X3X3X=X=X3X3X=X=X=X3X3X3X6X0X0X0X0X0X0X0X6X6X6X6X6X6X6X3X&X&X&X=X3X3X6X6X6X3X=X&X.X3.<.2.<.5.5.5.<.<.<.<.<.*.*.*.*.*.*.<..XoXoXoX.X.X.X.X3.5.5.<.2.2.2.2.*.$.$.` ) ) R g j i % o o   X X 9 9 w c ..:.8.OX=X3X3X3X3X&X&X&X=X=X=X&X&X&XoXoXoX.X.X.X3.3.5.3.XXXXXXXX4.4.4.1.*.*.$.$.$.$.` ) _ E f t % $ o +   : K z s H v [ tXVXVXwX6X=X&XoXoXoXoX&X&X=X3X3X=X&X&X&X&X&X&X&X&X&X=X=X=X=X=X&XoXoX&X&X=X3X3X3X4X=X&X.X5.*.$.` ) W W R g g j i j $ $ * o   = I (././.'.{.h.m ",
"[.^.N.hXcXc.B o .     % ! 5.;X3X&XoXoXoXoXoXoXoXoXoXoXoXoXoXoXoXoXoXoXoXoXoXoXoXoXoXoXoXoXoXoX.X.X3.3..X.X.X.X.X.X3.3.3..X.X.X.X;X=X=X;X;X;X;X+X.X.X.X3.3.3.3.<.$.$.$.$.$.$.$.$.$.$.$.$.$.$.$.$.$.$.$.$.$.$.$.$.$.$.$.$.$.$.$.$.=.*.*.*.*.*.*.*.1.1.1.1.1.1.1.1.*.*.$.$.$.$.` ` ) ) ) W W W W R f i & $ +         - K z a J  .[ *X0X0X0X0X0X0X0X0X0X0X0X0X0X0X0X0X0X0X0X0X0X0X0X0X0X0X0X0X0X0X6X3X3X3X3X3X3X3X3X3X3X3X3X3X3X3X3X6X0X0X0X0X0X0X0X0X0X0X0X0X0X0X6X=X&X=X3X3X6X6X6X6X3X=XoX.X<.*.*.*.*.*.*.*.*.*.*.2.2.2.2.<.<.<.3.oX&X&XoXoX.X.X.X<.<.<.*.*.*.$.$.$.$.$.` ) W R g y % $ o   + X X 9 9 w c ..:.8.OX=X3X3X3X3X=X&X&X=X=X=X&X&X&X&XoXoX.X.X.X3.3.5.3.XXXXXXXX3.3.4.1.*.*.$.$.$.$.` ) _ E f t % $ o +   : K z s H v [ 4XNXNX0X6X3X;X&X.X.XoX&X=X3X6X7X=X&X&X&X&X&X&X&X&X&X&X&X&X&X&XoX.X.XoXoX&X=X=X=X3X;X&X.X3.*.$.` ) W W R R g j i j $ $ * o   = I (././.'.{.h.m ",
"[.^.N.hXcXc.B o .     % ! 5.;X3X&XoXoXoXoXoXoXoXoXoXoXoXoXoXoXoXoXoXoXoXoXoXoXoXoXoXoXoXoXoXoX.X.X3..X.X.X.X.X.X3.3.3.3..X.X3..X;X;X;X;X;X&X&X+X.X.X3.5.5.<.<.<.$.$.$.$.$.$.$.$.$.$.$.$.$.$.$.$.$.$.$.$.$.$.$.$.$.$.$.$.$.$.$.$.$.=.=.=.*.*.*.*.=.=.=.=.*.*.*.*.*.*.$.$.$.$.` ` ) ) ) W W W W R f i & $ +         - K z a J  .~ *X0X0X0X0X0X0X0X0X0X0X0X0X0X0X0X0X0X0X0X0X0X0X0X0X0X0X0X0X0X0X6X3X3X3X=X3X3X3X3X=X3X3X3X3X3X3X3X0X0X0X0X0X0X0X0X0X0X0X0X0X0X0X0X=X=X=X3X6X6X6X6X6X3X=XoX3.2.*.$.$.$.$.$.$.$.$.*.2.2.2.2.<.<.<.3.&X&X&X&XoXoX.X.X<.<.*.*.$.$.$.$.$.$.` ` ) W R j t % $ o   . X X 9 9 w c ..:.8.OX=X3X3X3X3X=X&X&X&X=X=X&X&X&X&XoXoX.X.X.X3.3.5.3.XXXXXXXX3.3.4.1.*.*.$.$.$.$.` ) _ E f t % $ o +   : K z s H v [ 4XNXNX0X6X3X;X&X.X.XoX&X=X3X6X6X=X&X&X&X&X&X&X&X&XoXoXoXoXoXoX.X3.3..X.XoX&X=X=X=X;X&X.X3.*.$.` ) W W R R g j i j $ $ * o   = I (././.'.{.h.m ",
"[.^.N.hXcXc.B o .     % ! 5.;X3X&XoXoXoXoXoXoXoXoXoXoXoXoXoXoXoXoXoXoXoXoXoXoXoXoXoXoXoXoXoXoX.X.X.X.X.X.X.X.X3..X.X.X.X.X.X.X.X&X&X=X&X&XoXoX.X.X3.5.<.<.2.2.2.$.$.$.$.$.$.$.$.$.$.$.$.$.$.$.$.$.$.$.$.$.$.$.$.$.$.$.$.$.$.$.$.$.$.$.$.*.*.$.$.=.=.=.=.=.=.=.=.*.*.$.$.$.$.` ` ) ) ) W W W W R f i & $ +         5 K A a J  .~ *X0X0X0X0X0X0X0X0X0X0X0X0X0X0X0X0X0X0X0X0X0X0X0X0X0X0X0X0X0X0X6X3X3X=X=X=X=X3X3X=X=X=X3X=X=X3X3X0XwXwXwXwXwXwXwXwXwXwXwXwXwXwX0X3X3X3X3X6X6X6X6X6X4X&XoX5.-.$.` ` ` ` ` ` $.$.$.-.2.2.2.<.<.<..X&X=X=X&X&XoX.X.X<.<.*.*.$.$.` ` $.` ` ) W ! g j t $ o o   . X X 9 9 w c ..:.8.OX=X3X3X3X3X=X&X&X=X=X=X&X&X&X&XoXoX.X.X.X3.3.5.3.XXXXXXXX4.4.4.1.*.*.$.$.$.$.` ) _ E f t % $ o +   : K A s H v [ 4XNXwX0X6X3X;X&X.X.XoX&X=X=X3X4X=X=X=X&X&X&X&XoXoXoX.X.X.X.X.X3.<.<.5..XoX&X&X&X=X;X&X.X3.<.*.` ) W W R R g j i j $ $ * o   = I (././.'.{.h.m ",
"[.^.N.hXcXc.B o .     % ! 5.;X3X&XoXoXoXoXoXoXoXoXoXoXoXoXoXoXoXoXoXoXoXoXoXoXoXoXoXoXoXoXoXoX.X.X.X.X.X.X.X.X3..X.X.X.X.X.X.X.XoX&X&XoXoXoX.X.X3.5.<.<.2.2.2.-.$.$.$.$.$.$.$.$.$.$.$.$.$.$.$.$.$.$.$.$.$.$.$.$.$.$.$.$.$.$.$.$.$.$.$.$.$.$.$.$.$.$.$.$.$.$.$.$.$.*.$.$.$.$.` ` ) ) ) W W W W R f i & $ +         5 K A a J v ~ *X0X0X0X0X0X0X0X0X0X0X0X0X0X0X0X0X0X0X0X0X0X0X0X0X0X0X0X0X0X0X6X3X3X=X=X=X=X3X3X=X=X=X=X3X=X=X3X0XwXwXwXwXwXwXwXwXwXwXwXwXwXwX0X3X3X3X6X6X6X6X6X6X3X&X.X<.*.` ` ) ) ) ) ` ` ` $.*.-.2.<.<.3.3..X&X=X=X=X&XoXoX.X<.<.*.$.$.` ` ` ` ` ` ) W R g j t $ o     . X X 9 9 w c ..:.8.OX=X3X3X3X3X=X&X&X=X=X=X&X&X&X&XoXoX.X.X.X3.3.5.3.XXXXXX3.4.4.4.1.*.*.$.$.$.$.` ) _ E f y % $ o +   : K A s H v [ 4XNXNX0X6X3X;X&XoXoXoX&X=X=X3X3X=X=X=X=X&X&X&XoXoX.X.X.X3.3.5.<.-.-.<.5..XoX&X&X;X;X&X.X3.<.*.$.) W W R R g j i j $ $ * o   = I (././.'.{.h.m ",
"[.^.N.hXcXc.B o .     % ! 5.;X3X&XoXoXoXoXoXoXoXoXoXoXoXoXoXoXoXoXoXoXoXoXoXoXoXoXoXoXoXoXoXoX.X.X.X.X.X.X.X3.3..X.X3..X.X.X.X.XoXoXoXoX.X.X.X3.3.5.<.2.2.-.-.-.$.$.$.$.$.$.$.$.$.$.$.$.$.$.$.$.$.$.$.$.$.$.$.$.$.$.$.$.$.$.$.$.$.$.$.$.$.$.$.$.$.$.` ` ` ` $.$.$.*.$.$.$.$.` ` ) ) ) W W W W R f i & $ +         - K A a J  .[ *X0X0X0X0X0X0X0X0X0X0X0X0X0X0X0X0X0X0X0X0X0X0X0X0X0X0X0X0X0X0X6X3X3X3X=X=X=X=X3X3X=X3X3X3X3X3X3X0XwXwXwXwXwXwXwXwXwXwXwXwXwXwXwX6X3X6X6X0X0X0X6X6X3X&X.X<.$.` ) ) W ) ) ) ) ` $.*.-.2.<.<.5.5..X=X3X3X=X&X&XoX.X<.*.*.$.` ` ) ) ] ] ) ) W R g j % $ o     . X X 9 9 w c ..:.8.OX=X3X3X3X3X=X&X&X=X=X=X&X&X&X&XoXoX.X.X.X3.3.5.3.XXXXXXXX4.4.4.1.*.*.$.$.$.$.` ) _ E f t % $ o o   : K z s H v [ 4XNXNX0X6X3X;X&XoXoXoX&X&X=X3X3X3X=X=X=X&X&XoXoX.X.X3.5.5.<.<.2.*.&.-.<..X.XoX&X;X;X+X.X3.<.*.$.) W W R g g j i j % $ * o   = I (././.'.{.h.m ",
"[.^.N.hXcXc.B o .     % ! 5.;X3X&XoXoXoXoXoXoXoXoXoXoXoXoXoXoXoXoXoXoXoXoXoXoXoXoXoXoXoXoXoXoX.X.X.X.X.X.X.X3.3..X.X3.3..X.X.X.X.X.X.X.X.X.X3.3.5.<.2.2.-.-.-.*.$.$.$.$.$.$.$.$.$.$.$.$.$.$.$.$.$.$.$.$.$.$.$.$.$.$.$.$.$.$.$.$.$.$.$.$.$.$.` ` ` ` ` ` ` ` ` ` $.*.*.$.$.$.` ` ) ) ) W W W W R f i & $ +         - K A a J  .[ *X0X0X0X0X0X0X0X0X0X0X0X0X0X0X0X0X0X0X0X0X0X0X0X0X0X0X0X0X0X0X6X3X3X3X=X3X3X3X3X3X=X=X3X3X3X3X3XwXwXNXwXNXwXNXwXNXwXNXwXNXwXNXwX6X6X6X6X0X0X0X6X6X3X&X.X2.$.` ) W ! W W ) ) ` ` $.-.2.<.<.5.3..X=X3X3X=X=X&XoX.X<.*.$.$.` ) ) ) ] ] ] W ! g j i % $ o     . X X 9 9 w c ..:.8.OX=X3X6X3X3X=X&X&X=X=X=X&X&X&X&XoXoX.X.X.X3.3.5.3.XXXXXXXX4.4.4.1.*.*.$.$.$.` ` ) _ E f y % $ o o   : K z s H v [ 4XNXNX0X6X3X;X&X+XoXoX&X&X=X=X=X3X=X=X=X&X&XoXoX.X.X3.<.2.2.2.-.&.&.*.2.3..XoX&X;X;XoX.X3.<.*.$.) W W R g g j i j $ $ * o   = I (././.'.{.h.m ",
"[.^.N.hXcXc.B o .     % ! 5.;X3X&XoXoXoXoXoXoXoXoXoXoXoXoXoXoXoXoXoXoXoXoXoXoXoXoXoXoXoXoXoXoX.X.X3.3..X.X.X.X3..X3.3.3..X.X.X.X.X.X.X.X.X3.3.<.5.<.2.2.-.-.*.*.$.$.$.$.$.$.$.$.$.$.$.$.$.$.$.$.$.$.$.$.$.$.$.$.$.$.$.$.$.$.$.$.$.` ` ` ` ` ` ` ` ` ` ` ) ` ` ` $.*.$.$.$.$.` ` ) ) ) W W W W R f i & $ o         - K z a J  .[ *X0X0X0X0X0X0X0X0X0X0X0X0X0X0X0X0X0X0X0X0X0X0X0X0X0X0X0X0X0X0X6X3X3X3X3X3X3X3X3X3X3X=X3X3X3X3X6XwXNXNXNXNXNXNXNXNXNXNXNXNXNXNXwX6X6X6X0X0X0X0X6X6X=X&X3.-.$.) W ! ! ! ! W ) ) ` $.-.2.<.5.5.3.oX=X3X3X3X=X&XoX.X<.*.$.$.` ) ) ) ] ] ] W ! g j i % $ o     . X X 9 9 w c ..:.8.OX=X3X3X3X=X&X&X&X&X=X=X&X&X&X&XoXoX.X.X.X3.3.5.3.XXXXXXXX4.4.4.1.*.*.*.$.$.$.` ) _ E f y % $ o o   : K z a H v [ 4XNXNX0X6X3X;X&X+X&X&X&X&X=X=X=X3X=X=X=X&X&XoXoX.X3.3.<.2.-.-.*.&.&.$.-.5..XoXoX;X&XoX.X3.<.*.$.) W W R g g j i j $ $ * o   = I (././.'.{.h.m ",
"[.^.N.hXcXc.B o .     % ! 6.=X3X&XoXoXoXoXoXoXoXoXoXoXoXoXoXoXoXoX.XoX.XoX.XoX.XoX.XoX.XoX.XoX.X.X.X.X.X.X.X.X.X.X.X3.3.3.3.3.3.3.3.3.3.3.<.<.<.<.2.2.-.-.*.*.*.$.$.$.$.$.$.$.$.$.$.$.$.$.$.$.$.*.*.*.*.*.*.$.$.$.$.$.$.` ` ` ` ` ` ` ` ` ` ` ` ) ) ) ) W W W ) ` ` ` ` ` ` ` ` ` ) ) ) W W R g f i & $ o         - K z a J  .[ *X6X6X6X6X0X0X0X0X0X0X0X0X0X0X0X6X6X6X6X6X6X6X6X6X0X0X0X0X0X0X0X3X3X3X3X3X3X3X3X3X3X3X3X3X3X3X6XwXwXwXwXwXwXwXwXwXwXwXwXwXwXwXwX0X0X0X0X0X6X6X3X4X;XoX3.-.$.` ) ) ) ) ) ) ` ` $.*.2.2.5.5.5.3..X=X3X=X=X&XoX.X.X<.*.$.$.` ) ) ) ` ` ) ) W R g j % $ o     . X X 9 9 w c ..:.8.OX=X3X3X3X=X&X&X&X&X&X&X&X&X&XoXoXoX.X.X.X.X.X3.3.XXXX4.4.4.4.1.1.*.*.*.$.$.$.$.` _ E h y % $ o     : K z a J  .[ 4XBXNXwX0X6X3X;X;X;X;X&X&X&X&X&X&X&X&X&XoXoX.X.X3.3.<.2.<.-.-.*.$.$.*.2.<.3..XoX+X+X+X.X3.<.*.*.` ) W W R g g j j % $ * o   @ I (././.'.{.h.m ",
"[./.N.hXcXz.B o .     % ! 6.-X3X&XoXoXoXoXoXoXoXoXoXoXoXoXoXoXoX.X.X.X.X.X.X.X.X3.3.3.3..X.X+X+XoX&XOXOXoXoXXXXX3.3.3.<.<.<.<.<.*.*.*.*.*.*.*.*.$.$.$.$.$.$.$.$.$.$.$.$.$.$.$.$.$.$.$.$.$.$.$.*.<.3.3.3.<.<.*.*.$.$.` ` ) ) ) ) ` ` ` ` ` ) ) ) W W R R R R g g R R W ) ) ` ` $.$.` ) W W R R g u i & $ +         - K z a J  .~ +X4X4X4X6X6X6X0X0X0X0XwXwXwXwX0X3X=X=X=X=X3X3X3X3X3X3X3X6X6X6X6X0X0X0X0X0X0X0X0X6X6X6X6X6X6X6X6XwXwXwXwXwXwXwXwXwXwXwXwXwXwXwXwXwXwXwX0X0X6X4X3X;X+X.X5.-.$.` $.$.*.*.*.*.*.*.*.<.<.5.5.5.5.5..XoXoXoXXXXXXX3.3.*.*.$.$.$.` ` ` $.$.` ` ) W R g t % $ o   . @ @ 4 9 w c ..:.8.OX=X3X6X3X3X=X&X&XoXoXoXoXoXoXoXoXoXoXoXoX.X.X.X.X<.<.<.<.<.<.<.*.*.*.*.*.*.*.*.$.' _ h y % o   .   3 F z a  . .>.7XBXNXNXwX0X6X4X=X=X&X&X&XoXoXoX3.3.3.3.3.<.<.<.<.<.<.*.*.*.*.*.*.*.*.<.<.<.<.3.3.3.3.3.3.3.<.<.=.$.` ` ) R g d j % $ * o   @ I (././.'.{.h.m ",
"[.V.N.hXcXz.B o .     % ! 6.-X3X&XoXoXoXoXoXoXoXoXoXoXoXoXoXoX.X.X.X.X.X.X3.3.3.3.3.3.3..X.X@X+X&X*X*X*XOXOXOXXX3.3.<.<.<.<.*.*.$.$.$.$.$.$.$.$.$.$.$.$.$.$.$.$.$.$.$.$.$.$.$.$.$.$.$.$.$.$.$.*.3..X.X3.3.<.<.=.$.$.` ) ) ) W ) ` ` ` ` ` ) ) W R R g g g g d d g g R W ) ` ` $.$.` ` ) W R g j u i & $ +         - K z a J  .~ @X3X4X4X4X6X6X0X0X0XwXwXwXwXNXwX3X&X=X=X=X=X=X3X3X3X3X3X3X6X6X6X0X0X0X0X0X0X0X0X6X0X0X0X6X6X6X6X0X0X0X0X0X0X0X0X0X0X0X0X0X0X0XwXNXNXwXwX0X6X4X=X;X+X.X5.2.*.$.*.<.<.<.<.<.<.<.<.5.5.5.5.5.3.5.3.XXXXXX4.4.4.3.1.*.*.$.$.$.$.` $.*.$.$.` ) W R g y t $ o o o @ @ 4 9 w c ..:.8.OX=X3X6X3X3X=X&XoXoXoXoXoXoXoXoXoXoXoXoXoXoXoXoX.X<.*.*.*.*.*.*.*.*.*.*.*.*.*.*.=.%._ R y % o   .   3 F z a  .X.>.7XBXNXNXNXwX0X6X3X=X&X&XoXoX.X.X<.*.*.*.*.*.*.*.*.*.*.*.*.*.*.<.<.<.<.<.<.<.<.<.4.4.4.4.4.4.4.1.1.=.$.` ) W g d j % $ * o   @ I (././.'.{.h.m ",
"[.V.N.hXcXl.B o . .   % ! 6.-X3X&XoXoXoXoXoXoXoXoXoXoXoXoXoXoX.X.X.X.X.X.X.X.X3.3.3.3.3..X.X@X@XOX&X*X*XOXOXXXXX3.3.<.<.<.*.*.*.$.$.$.$.$.$.$.$.$.$.$.$.$.$.$.$.$.$.$.$.$.$.$.$.$.$.$.$.$.$.$.*.<.<.<.<.<.<.*.=.$.$.` ` ` ) ) ) ` ` ` ` ` ) ) W R R g g g g d d g g R W ) ` ` $.$.` ` ) W R g j u i & $ +         - K z a J  .~ @X3X4X4X4X6X6X0X0X0XwXwXwXwXNXwX3X=X=X=X=X=X=X3X3X3X3X3X3X3X3X6X0X0X0X0X0X0X0X0X6X6X6X6X6X6X6X6X0X0X0X0X0X0X0X0X0X0X0X0X0X0X0XwXNXNXNXwX0X0X6X3X;X&XoX3.3.<.*.*.<.3.3.3.3.3.3.3.3.3.3.3.3.3.3.3.XXXXXXXX4.4.4.1.*.=.$.$.$.$.` ` $.$.$.` ) W R g y t $ o o . @ @ 4 9 w c ..:.8.OX=X3X3X3X3X=X&X&XoXoXoXoXoXoXoXoXoXoXoXoXoXoXoX.X<.*.*.*.*.*.*.*.*.*.*.*.*.*.*.=.%._ R y % o   .   3 F z a  .X.>.7XBXNXNXwXwX0X6X3X=X&XoXoX.X.X3.<.*.*.*.*.*.*.*.*.*.*.*.*.*.*.<.<.<.<.<.<.<.<.<.1.1.1.1.1.1.1.1.1.=.$.` ) W R d j % $ * o   @ I (././.'.{.h.m ",
"/.V.N.hXcXl.B o . .   % ! 6.-X3X&XoXoXoXoXoXoXoXoXoXoXoXoXoXoX.X.X.X.X.X.X.X.X.X3.3.3.3..X.X@X@XOX&X*XOXOXOXXXXX3.<.<.<.*.*.*.*.$.$.$.$.$.$.$.$.$.$.$.$.$.$.$.$.$.$.$.$.$.$.$.$.$.$.$.$.$.$.$.$.*.*.*.*.=.=.$.$.$.$.$.$.$.` ` ` ` ` ` ` ` ) ) W R R R g g g d d g g R W ) ` ` $.$.` ` ) W R g j u i & $ +         - K z a J  .~ @X3X4X4X4X6X6X0X0X0XwXwXwXwXNXwX3X=X=X=X=X=X3X3X3X3X3X3X3X3X3X3X0X0X0X0X0X0X0X0X6X6X6X6X6X6X6X6X0X0X0X0X0X0X0X0X0X0X0X0X0X0X0X0XNXNXNXNXwX0X6X4X3X;X&XoX3.3.<.<.3.3.3.3.3.3.3.3.3.3.3.3.3.3.3..XXXXXXXXX4.4.4.1.*.*.$.$.$.$.` ` $.$.$.` ) W R g y t $ o   . @ @ 4 9 w c ..:.8.OX=X3X3X3X3X=X&X&XoXoXoXoXoXoXoXoXoXoXoXoXoXoXoX.X<.*.*.*.*.*.*.*.*.*.*.*.*.*.*.=.%._ R y % o   .   3 F z a  .X.>.4XNXNXNXwX0X0X6X=X=X&XoXoX.X.X3.<.*.*.*.*.*.*.*.*.*.*.*.*.*.*.*.<.*.<.*.<.<.<.<.1.1.1.1.1.1.1.<.1.=.$.` ) W R d j % $ * o   @ I (././.'.{.h.m ",
"/.V.B.hXcXl.B o . .   % ! 6.-X3X&XoXoXoXoXoXoXoXoXoXoXoXoXoXoX.X.X3.3..X.X.X3.3.3.3.3.3..X.X@X+XoXOXOXOXOXXXXXXX<.<.<.*.*.*.*.$.$.$.$.$.$.$.$.$.$.$.$.$.$.$.$.$.$.$.$.$.$.$.$.$.$.$.$.$.$.$.$.$.` ` ` ` $.$.$.$.$.$.$.$.$.*.*.$.$.` ` ` ` ) ) W R R g g g g g d g g R R ) ` ` $.$.` ` ) W R g j u i & $ +         - K z a J  .~ @X3X4X4X4X6X6X0X0X0XwXwXwXwXNXwX3X3X3X3X3X3X3X3X3X3X3X3X3X3X3X3X6X0X0X0X0X0X0X0X6X6X6X6X6X6X6X6X0X0X0X0X0X0X0X0X0X0X0X0X0X0X0X0XNXBXNXNXwXwX0X6X4X=X&XoXoX.X3.3..X.X.X.X.X.X.X.X.X.X.X.X.X.X.X.XXXXXXXXX4.4.4.1.*.*.$.$.$.$.` ` $.$.$.` ) W R g y t $ o   . @ @ 4 9 w c ..:.8.OX=X3X3X3X3X=X&XoXoXoXoXoXoXoXoXoXoXoXoXoXoXoXoX.X<.*.*.*.*.*.*.*.*.*.*.*.*.*.*.=.%._ R y % o   .   3 F z a  .X.>.4XNXNXwXwX0X6X6X=X&X&XoX.X.X.X3.<.*.*.*.*.*.*.*.*.*.*.*.*.*.*.*.*.*.*.*.*.*.*.*.1.1.1.1.1.1.1.1.1.=.$.` ) W R d j % $ * o   @ I (././.'.{.h.m ",
"/.V.B.hXcXl.B o . .   % ! 6.-X3X&XoXoXoXoXoXoXoXoXoXoXoXoXoXoX.X.X3.3.3..X3.3.3.3.3.3.3..X.X@X+XXXOXOXOXXXXXXX4.<.<.*.*.*.*.$.$.$.$.$.$.$.$.$.$.$.$.$.$.$.$.$.$.$.$.$.$.$.$.$.$.$.$.$.$.$.$.$.` ) ) ) ) ) ` ` ` $.$.*.*.*.<.<.*.$.` ` ` ` ) ) W R R g g g g g d g g R R ) ` ` $.$.` ` ) W R g j u i & $ +         5 K z a J v ~ @X3X4X3X4X6X6X0X0X0XwXwXwXwXNXwX6X3X3X3X3X3X3X3X3X3X=X=X=X=X=X3X6X6X6X6X6X6X6X6X3X3X3X3X3X3X3X3X6X6X6X6X6X6X6X6X6X6X6X6X6X6X6X0XNXBXNXNXNXwX0X0X6X4X=X=X&XoXoX.XoX.X.X.XoXoX.X.X.X.X.X.X.X.X.X.XXXXXXXXX4.4.4.1.*.*.$.$.$.$.` $.$.$.$.` ) W R g y t $ o   o @ @ 4 9 w c ..:.8.OX=X3X3X3X3X&X&XoXoXoXoXoXoXoXoXoXoXoXoXoXoXoXoX.X<.*.*.*.*.*.*.*.*.*.*.*.*.*.*.*.%._ R y % o   .   3 F z a  .X.>.4XNXNXwX0X0X6X4X=X&XoXoX.X.X3.3.<.*.*.*.*.*.*.*.*.*.*.*.*.*.*.*.*.*.*.*.*.*.*.*.1.1.1.1.1.1.1.1.=.=.$.` ) W R d j % $ * o   @ I (././.'.{.h.m ",
"^.V.B.hXcXl.B o . .   % ! 6.-X3X&XoXoXoXoXoXoXoXoXoXoXoXoXoXoX.X.X.X.X.X.X.X3.3.3.3.3.3..X.X@X@XXXOXXXXXXXXX4.4.<.*.*.*.$.$.$.$.$.$.$.$.$.$.$.$.$.$.$.$.$.$.$.$.$.$.$.$.$.$.$.$.$.$.$.$.$.$.$.` W R R W W ) ) ` $.$.*.*.<.<.<.<.$.` ` ` ` ) ) W R R g g g g g d g g R W ) ` ` $.$.` ` ) W R g j u i & $ +         5 K A a J v ~ @X3X4X4X4X6X6X0X0X0XwXwXwXwXNXwX6X6X3X3X3X3X3X3X3X=X=X=X=X=X=X=X4X6X6X6X6X6X6X6X3X3X3X3X3X3X3X3X6X6X6X6X6X6X6X6X6X6X6X6X6X6X6X0XNXBXNXNXNXwXwX0X6X6X3X=X&X&XoXoX+X@X@X@X+X+X+X+X.X.X.X.X.X.X.X.XXXXXXXXX4.4.4.1.*.*.$.$.$.$.` $.*.*.$.` ) W R g y t $ o   . @ @ 4 9 w c ..:.8.OX=X3X6X3X3X=X&XoXoXoXoXoXoXoXoXoXoXoXoXoXoXoXoX.X<.*.*.*.*.*.*.*.*.*.*.*.*.*.*.=.%._ R y % o   .   3 F z a  .X.>.4XwXwXwX0X6X6X3X&X&XoX.X.X3.5.<.<.*.*.*.*.*.*.*.*.*.*.*.*.*.*.*.*.=.*.*.*.*.*.*.=.=.=.=.=.=.=.=.=.=.$.` ) W R d j % $ * o   @ I (././.'.{.h.m ",
"^.V.B.hXcXl.B o . .   % ! 6.-X3X&XoXoXoXoXoXoXoXoXoXoXoXoXoXoX.X.X.X.X.X.X.X3..X3.3.3..X.X.X@X@XXXXXXXXXXX4.4.1.*.=.=.$.$.$.$.$.$.$.$.$.$.$.$.$.$.$.$.$.$.$.$.$.$.$.$.$.$.$.$.$.$.$.$.$.$.$.$.` R g g R R W ) ) ` $.*.*.<.<.<.<.$.` ` ` ` ) ) W W R R g g g g d g g R W ) ` ` $.$.` ` ) W R g j u i & $ +         5 K z a J v ~ @X3X4X4X4X6X6X0X0X0XwXwXwXwXNXwX0X6X6X6X6X3X3X3X=X=X=X&X&X&X&X&X4X4X4X4X4X4X4X4X3X3X3X3X3X3X3X3X4X4X4X4X4X4X4X4X4X4X4X4X4X4X4X6XwXNXNXNXwXwXwX0X0X6X3X3X=X&X&X&X&X+X+X+X+X+X+X+XoXoXoXoXoXoXoX.XXXXXXXXX4.4.4.1.*.*.$.$.$.$.` $.*.*.$.` ) W R g y t $ o   . @ @ 4 9 w c ..:.8.OX=X3X6X3X3X=X&X&XoXoXoXoXoXoXoXoXoXoXoXoXoXoXoX.X<.*.*.*.*.*.*.*.*.*.*.*.*.*.*.=.%._ R y % o   .   3 F z a  .X.>.-XwXwX0X0X6X4X=X&XoX.X.X3.5.<.<.*.*.*.*.*.*.*.*.*.*.*.*.*.*.*.*.$.$.$.$.$.$.$.$.=.=.=.=.=.=.=.=.=.=.$.` ) W R d j % $ * o   @ I (././.'.{.h.m ",
"^.V.B.hXcXl.B o . .   % ! 6.-X3X&XoXoXoXoXoXoXoXoXoXoXoXoXoXoX.X.X.X.X3.3.3..X.X3.3.3..X.X.X3.3.3.3.3.3.<.<.<.*.*.*.$.$.$.` ` ` $.$.$.$.$.$.$.$.$.$.$.$.$.$.$.$.$.$.$.$.$.$.$.$.$.$.$.$.$.$.$.` R g g g R W W ) ` ` $.*.<.<.<.<.$.` ` ` ` ) ) W W W R R R g g g g g R W ) ` ` $.$.` ` ) W R g j u i & $ +         - K z a J  .~ .X=X=X=X3X3X3X6X0X0XwXwXwXwXNXNXwX0X0X0X0X6X6X4X=X=X&X&X&X&XoX&X=X=X=X=X=X=X=X=X=X=X=X=X=X=X=X=X=X=X=X=X=X=X=X=X=X=X=X=X=X=X=X3X6X0X0X0X0X6X6X6X6X3X3X3X=X=X=X&X&XoXoXoXoXoXoXoXoXoXoXoXoXoXoXoX.X3.3.3.3.<.<.<.*.*.$.$.$.$.` $.*.$.$.` ) W R g y t $ o o o @ @ 4 9 w c ..:.8.OX=X3X3X3X3X=X&X&XoXoXoXoXoXoXoXoXoXoXoXoXoXoXoX.X<.*.*.*.*.*.*.*.*.*.*.*.*.*.*.=.%._ R y % o   .   3 F A a  .X.>.5XeXeX0X6X3X3X=X&XoX.X3.5.<.<.2.*.*.*.*.*.*.*.*.*.*.*.*.*.*.*.*.$.$.$.$.$.$.$.$.$.$.$.$.$.$.$.$.*.*.$.` ) W R g j % $ * o   @ I (././.'.{.h.m ",
"^.V.B.jXcXl.B o . .   % ! 6.-X3X&XoXoXoXoXoXoXoXoXoXoXoXoXoXoX.X.X.X3.3..X.X.X.X3.3.3..X.X.X.X3.3.3.3.<.<.<.*.=.*.$.$.$.` ` ` ` $.$.$.$.$.$.$.$.$.$.$.$.$.$.$.$.$.$.$.$.$.$.$.$.$.$.$.$.$.$.$.` R g g g R R W ) ) ` $.$.*.*.*.*.$.` ` ` ` ) ) W W W R R R g g g g g R W ) ` ` $.$.` ` ) W R g j u i & $ +         - K z a J  .~ .X=X=X=X3X3X3X6X0X0XwXwXwXwXNXNXwXwXwXwX0X0X6X6X=X=X&X&XoXoXoXoX&X=X=X=X=X=X=X=X=X=X=X=X=X=X=X=X=X=X=X=X=X=X=X=X=X=X=X=X=X=X=X=X3X6X6X6X3X3X3X3X3X3X=X=X=X=X=X&X&X&X&X&X&X&X&X&X&X&X&X&X&XoX&XoX.X3.3.3.3.<.<.<.*.*.$.$.$.$.` $.$.$.$.` ` W R g y t $ o o o @ @ 4 9 w c ..:.8.OX=X3X3X3X3X=X&X&XoXoXoXoXoXoXoXoXoXoXoXoXoXoXoX.X<.*.*.*.*.*.*.*.*.*.*.*.*.*.*.=.%._ R y % o   .   3 F A a  .X.>.5XeXqX0X6X3X=X&XoX.X.X3.<.<.2.2.*.*.*.*.*.*.*.*.*.*.*.*.*.*.*.*.$.` ` ` ` ` ` ` ` ` ` ` ` ` ` $.*.*.$.` ) W R g j % $ * o   @ I (././.'.{.h.m ",
"^.V.B.jXcXz.B o . .   % ! 6.-X3X&XoXoXoXoXoXoXoXoXoXoXoXoXoXoX.X.X.X.X.X.X.X.X.X3..X.X.X.X.X3.3.3.<.<.<.<.*.*.=.$.$.$.` ` ` ) ` $.$.$.$.$.$.$.$.$.$.$.$.$.$.$.$.$.$.$.$.$.$.$.$.$.$.$.$.$.$.$.` W R R R R R W W ) ) ` ` ` $.$.$.$.` ` ` ` ) ) W W W R R R g g g g g R W ) ` ` $.$.` ` ) W R g j u i & $ +         - K z a J  .~ .X=X=X=X3X3X3X6X0X0XwXwXwXwXNXNXNXNXNXwX0X0X6X6X=X=X&XoXoX.X.XoX&X=X=X=X=X=X&X&X=X=X=X=X=X=X=X=X=X=X=X=X=X=X=X=X=X=X=X=X=X=X=X=X=X=X=X=X=X=X=X=X=X=X=X&X&X&X&X&X&X&X&X&X&X&X&X&X&X&X&X&X&X&X&XoX.X3.3.3.3.<.<.<.*.*.$.$.$.$.` $.$.$.$.` ) W R g y t $ o o o @ @ 4 9 w c ..:.8.OX=X3X3X3X3X=X&XoXoXoXoXoXoXoXoXoXoXoXoXoXoXoXoX.X<.*.*.*.*.*.*.*.*.*.*.*.*.*.*.=.%._ R y % o   .   3 F A a  .X.>.-XqXqX6X4X=X=X&XoX.X3.5.<.2.-.-.*.*.*.*.*.*.*.*.*.*.*.*.*.*.*.=.$.` ` ` ` ` ` ` ` ` ` ` ` ` ` $.$.$.$.` ) W R g j % $ * o   @ I (././.'.{.h.m ",
"^.V.B.jXcXz.B o . .   % ! 6.-X3X&XoXoXoXoXoXoXoXoXoXoXoXoXoXoX.X.X.X.X.X.X.X.X.X.X.X.X.X.X.X3.3.<.<.<.<.*.*.*.$.$.$.` ` ) ) ) ) $.$.$.$.$.$.$.$.$.$.$.$.$.$.$.$.$.$.$.$.$.$.$.$.$.$.$.$.$.$.$.` W R R W W W W W W ) ) ) ) ) ) ) ` ` ` ` ` ) ) W W W R R R g g g g g R W ) ` ` $.$.` ` ) W R g j u i & $ +         5 K z a J  .~ .X=X=X=X3X3X3X6X0X0XwXwXwXwXNXNXNXNXNXNXwX0X0X6X=X&X&XoX.X.X.X.X&X&X&X&X&X&X&X&X&X&X&X&X&X&X&X&X&X&X&X&X&X&X&X&X&X&X&X&X&X&X&X&X&XoXoXoXoXoX&X&XoXoXoX&X&XoX&X&X&X&X&X&X&X&X&X&X&X&X&X&X&X&X&X&X.X3.3.3.3.<.<.<.*.*.$.$.$.` ` $.$.$.$.` ) W R g y t $ o o o @ @ 4 9 w c ..:.8.OX=X3X3X3X3X=X&XoXoXoXoXoXoXoXoXoXoXoXoXoXoXoXoX.X<.*.*.*.*.*.*.*.*.*.*.*.*.*.*.=.%._ R y % o   .   3 F A a  .O.>.-XqXqX6X4X=X&XoX.X.X5.<.2.-.*.-.*.*.*.*.*.*.*.*.*.*.*.*.*.*.*.*.` ` ` ` ` ` ` ` ` ` ` ` ` ` ` ` $.$.$.` ) W R g j % $ * o   @ I (././.'.{.h.m ",
"^.V.N.hXcXz.B o . .   % ! 6.-X=X&XoXoXoXoXoXoXoXoXoXoXoXoXoXoX.X.X3.3..X.X.X.X.X.X.X.X.X.X.X.X3.<.<.<.*.*.*.$.$.$.` ` ) ) ) ) ) ` $.$.$.$.$.$.$.$.$.$.$.$.$.$.$.$.$.$.$.$.$.$.$.$.$.$.$.$.$.$.` ) ) ) ) W W W W W W W R R R R W ` ` ` ` ` ) ) W W W R R R g g g g g R W ) ` ` $.$.` ` ) W R g j u i & $ +         5 K A a J  .~ .X=X=X=X3X3X3X6X0X0XwXwXwXwXNXNXBXBXNXNXwX0X0X6X=X&XoXoX.X.X3..XoX&X&X&X&X&X&X&X&X&X&X&X&X&X&X&X&X&X&X&X&X&X&X&X&X&X&X&X&X&X&XoX.X.X.X.X.X.X.X.X.X.X.X.X.X.XoXoX&X&X&X&X&X&X&X&X&X&X&X&X&X&X&X&X.X3.3.3.3.<.<.<.*.*.$.$.$.$.` $.$.$.$.` ) W R g y % $ o o o @ @ 4 9 w c ..:.8.OX=X3X3X3X3X=X&XoXoXoXoXoXoXoXoXoXoXoXoXoXoXoXoX.X<.*.*.*.*.*.*.*.*.*.*.*.*.*.*.*.%._ R y % o   .   3 F z a  .O.>.,XqX7X6X3X=X&XoX.X.X5.2.2.-.*.*.*.*.*.*.*.*.*.*.*.*.*.*.*.*.*.*.` ` ) ` ) ) ) ) ) ) ) ` ) ) ) ` $.$.$.` ) W R g j % $ * o   @ I (././.'.{.h.m ",
"/.V.N.hXcXz.B o .     % ! 6.-X3X&XoXoXoXoXoXoXoXoXoXoXoXoXoXoX.X.X3..X.X.X.X.X3..X.X.X.X.X.X.X3.<.<.*.*.*.*.$.$.` ` ` ) ) ) ) ) ` $.$.$.$.$.$.$.$.$.$.$.$.$.$.$.$.$.$.$.$.$.$.$.$.$.$.$.$.$.$.$.` ` ` ) ) ) W W W R R R g g g R ) ` ` ` ` ) ) W W W R R R g g g g g R W ) ` ` $.$.` ` ) W R g j u i & $ +         5 K A a J  .~ .X=X=X=X3X3X3X6X0X0XwXwXwXwXNXNXBXBXBXNXNXwX0X6X=X&XoX.X.X3.5.3.oX&X&X&X&X&X&X&X&X&X&X&X&X&X&X&X&X&X&X&X&X&X&X&X&X&X&X&X&X&X&XoX3.2.2.<.<.<.5.5.3.3.3..X.X.X.XoX&X&X&X&X=X=X&X&X=X=X=X=X=X=X=X&X.X3.3.3.3.<.<.<.*.*.$.$.$.$.` $.$.$.$.` ) W R g y % $ o o o @ @ 4 9 w c ..:.8.OX=X3X3X3X3X=X&X&XoXoXoXoXoXoXoXoXoXoXoXoXoXoXoX.X<.*.*.*.*.*.*.*.*.*.*.*.*.*.*.*.%._ R y % o   .   3 F z a  .O.>.,XqX7X4X3X=X&XoX.X3.<.2.-.*.$.*.*.*.*.*.*.*.*.*.*.*.*.*.*.*.*.$.` ) ) ) ) ) ) ) ) ) ) ) ) ) ) ` $.$.$.` ` W R g j % $ * o   @ I (././.'.Z.h.m ",
"/.V.N.hXcXz.B o .     % ! 6.-X3X&XoXoXoXoXoXoXoXoXoXoXoXoXoXoX.X.X3..X.X.X.X3.3.3.3..X.X.X.X.X3.<.*.*.*.*.$.$.$.` ` ) ) ) ) ) ) ` $.$.$.$.$.$.$.$.$.$.$.$.$.$.$.$.$.$.$.$.$.$.$.$.$.$.$.$.$.$.$.$.$.$.` ` ) ) W R R g g j j j g ) ` ` ` ` ) ) W W W R R R g g g g g R R ) ` ` $.$.` ` ) W R g j u i & $ +         - K z a J  .~ .X=X=X=X3X3X3X6X0X0XwXwXwXwXNXNXBXBXBXNXNXwX0X6X=X&XoX.X.X5.5.3.oX&X&X&X&XoX&XoX&X&X&X&XoXoXoXoX&X&X&X&XoXoXoXoX&X&X&X&XoXoXoX.X2.*.*.-.-.2.2.2.<.<.<.5.5.3.3..X&X=X=X=X=X=X=X=X=X=X=X=X=X=X=X&X.X3.3.3.3.<.<.<.*.*.$.$.$.$.` $.$.$.$.` ` W R g y % $ o o o @ @ 4 9 w c ..:.8.OX=X3X6X3X3X=X&X&XoXoXoXoXoXoXoXoXoXoXoXoXoXoXoX.X<.*.*.*.*.*.*.*.*.*.*.*.*.*.*.=.%._ R y % o   .   3 F z a  .X.[ <XtX7X4X=X=X&XoX.X3.<.2.-.*.$.*.*.*.*.*.*.*.*.*.*.*.*.*.*.*.*.$.` ) ) ) ) ) ) ) ) ) ) ) ) ) ) ` $.*.$.` ` W R g j % $ * o   @ I (././.'.{.h.m ",
"^.^.V.JXcXh.m . .     % Q 9.*X=XoXoXoXoXoXoXoXoX.X.XoXoXoXoXoX.X3.3.3.3.3.3.3.3.3.3.3.3.3.3.3.<.*.*.*.*.$.$.$.$.` ` ` ) ) ) ) ) ` ` ` ` ` ` ` ` ` ` ` ` ` ` ` ` ` ` ` ` ` ` ` ` ` ` ` ` ` ` ` ` ) ) ) ) W W W R R g j j i i i j W ) ) ) ) W W W R R R R g g g g g g R R W ) ) ` ` ) ) W R g g g f u i % $ o       : K z a J  .~ .X=X=X=X3X3X3X6X0X0XwXwXwXwXNXNXCXCXCXBXNXwX0X6X3X&X&XoX.X3.5.3.oXoXoXoXoX&X&X&X&X&X&X&X&X&X&X&X&X&X&X&XoXoXoXoXoXoXoXoXoX.X.X.X<.-.2.2.2.2.<.<.<.5.5.5.3.3.3..X&X&X&X&X&X&X&X&X&X&XoXoXoXoXoXoX3.3.3.3.<.<.<.*.*.$.$.$.` ` ` ` $.$.` ` ) W R g y % $ o o o O X 4 9 w c ..:.8.OX=X3X3X3X3X=X&X&XoXoXoXoXoXoXoXoXoXoXoXoXoXoXoX.X<.*.*.*.*.*.*.*.*.*.*.*.*.*.*.=.' Q h t $ o   .   3 F A s J  .~ %X<X*X+X@X.X3.2.2.*.$.$.` ` ] ' ` $.$.$.$.` ` ` ` ` ` ` ) ) ) ) R g g g g g g g g g g g g g g R W W W R R g j i l $ o + .   @ I (./.V.'.Z.v.m ",
"[.^.^. X Xk.8 . . . o i Q %.#X$XOXXXXXXXXXXXXXXXXXXXXXXXXXXXXXXX*.*.*.*.*.*.*.*.*.*.*.*.*.*.*.*.$.$.$.$.$.$.$.$.$.$.$.$.` ` ` ` ) W W W W W W W W W W R R R W W W W W W W W W W W W W W W W W R d y y y d d d d d y y t t t & t d g g g g g g d d d d d d d d d d d g g g g g g g g g g g g d g E E h y % $ o     : K z a J v ~ @X3X4X4X4X6X6X0X0X0XwXwXwXwXNXBXCXZXZXCXBXNXwX0X6X3X=X&XoX.X.X.X.XoXoXoXoXoX&X&X&X&X=X=X=X=X3X=X&X&X&X&X&XoXoXoX.X.X.X.X3.3.3.3..X.X.X.X.X.X.X.X.X.X.X.X.X.X.X.XoXoXoX.X.X.X.X3.<.<.<.<.*.*.*.*.<.<.<.<.<.*.*.$.$.$.` ` ` ) ) ) ) _ Q Q E E h f t % $ o o o O X 9 9 w c ..:.8.OX=X3X3X3X3X=X&X&X&X&X&X&X&X&X&X&X&X&X&X&X&X&X&X.X*.` ` ` ` ` $.$.$.$.$.$.*.*.*.$._ h d t $ o   . . - e : p K J j ~ _ _ _ _ _ _ _ R R g g g g g g R R R g h g h d d y u y t t t % * $ * $ * $ * $ * $ * $ * $ * * $ $ $ $ $ o o o @     . . . 8 I '.).N.JXjXh.m ",
"_.^.^. X Xk.8 @ .   $ u Q >.8.$XXXXXXXOXOXOXoXoXOXOXOXOXOXOXOXXX*.$.*.=.*.$.*.$.*.$.*.$.*.$.*.$.*.$.*.$.*.$.*.$.=.$.=.$.*.$.*.$.) W W W W W W W W W R R R R R R R R R R R R R R R R R R R R R g y t t y y d d d d d d y y t t t d d d d d d d d d d d d d d d d g g g g g g g g g g g g g g g g E E h y t $ o o   : K z a J v ~ @X3X4X4X4X6X6X0X0X0XwXwXwXwXNXBXZXZXZXCXCXBXNXwX6X3X=X&X&XoX.X.X.X.X.XoXoXoX&X&X&X=X=X3X3X3X3X3X=X&X&X&X&XoXoX.X.X.X3.5.5.5.<.5..XoXoXoXoXoXoXoXoXoXoXoXoXoXoXoX.X.X.X.X3.3.5.<.*.*.$.$.$.$.` $.*.<.<.*.*.*.=.$.$.` ` ` ) ) ) ) Q Q Q E E h f u t % $ o o + O X 9 9 w c ..:.8.OX=X3X3X3X3X=X&X&X&X&X&X&X&X&X&X&X&X&X&X&X&X&X&XoX$.) ) ) ` ` ` ` $.$.$.$.$.$.*.` Q f u % $ o   . . - e - : K H i % t t t t t t t t t t t t t t t t y t t t t % % $ $ $ o o o o o                                                 .   . . . . @ U '.).N.JXjXv.m ",
"LXGXN.'.|.k.8 . . o % f _ 7.#X$XOXOXOXOXOXOXOXOX-X*X-X-X*X*X*XOX<.<.<.<.<.<.<.*.<.*.<.*.<.*.<.<.<.<.<.*.<.<.<.<.<.<.<.<.<.<.<.*.` ) ` ` ) ) ) ) ) ) ) ) ) ) ) ) ) ) ) ) ) ) ) ) ) ) ) ) ) ) ) W g d d g g g g R R g g g g d d g g R R R R R R R R R R R R R R R R R R R R R R R R R R R R R R R h f y t $ o o     : K z a J v ~ @X3X4X4X4X6X6X0X0X0XwXwXwXwXNXBXCXZXZXCXBXNXNX0X6X3X=X&X&XoXoX.X.X.X.XoXoXoX&X&X&X=X=X3X3X3X3X3X=X&X&X&X&XoXoXoX.X.X.X3.5.<.<.3..XoXoXoXoXoXoXoXoXoXoXoXoXoXoXoX.X.X.X.X3.3.3.<.*.*.$.$.$.$.` $.*.<.<.<.*.*.*.$.$.` ` ` ) ) ) ) Q Q Q E E h f u t % $ o o + O # 9 9 w c ..:.8.OX=X3X3X3X3X=X&X&X&X&X&X&X&X&X&X&X&X&X&X&X&X&X&XoX*.` ` ` ` ` ` $.$.$.$.$.$.$.$.` Q f u % $ o   . . - e - p K H i % % % % % % % % % % % % % % % % % % % % % % $ $ $ $ o o o o o o o o o o o o o o o o o o o o o o + + + o o o o o o o o o o o = d.).).N.JXjXv.m ",
"IXkXgXKXUXh.m . o $ y h ' 7.#X:XoXOXoXoXOXoXoXoX>X>X>X>X>X-X>X,X3.<.<.<.<.<.<.<.<.<.<.<.<.<.<.<.<.<.<.<.<.<.<.<.<.<.<.<.<.<.<.*.$.` ` ` ` ` ` ` ` ` ) ) ` ) ) ) ) ) ) ) ) ) ) ) ) ) ) ) ) ) ) ) W R R R R W W W W W W R R R R R W W W W W W W W W W W W W W W W W W W W W W W W W W W W W W W R f u t $ o o       : K z a J  .~ @X3X4X4X4X6X6X0X0X0XwXwXwXwXNXNXCXCXCXCXBXNXwX0X6X3X=X&X&XoXoX.X.X.X.X.XoXoX&X&X&X=X=X3X3X3X3X3X=X&X&X&X&X&XoXoX.X.X.X3.3.5.5.3..XoXoXoXoXoXoXoXoXoXoXoXoXoXoXoX.X.X.X.X3.3.5.<.*.*.$.$.$.$.` $.*.<.<.<.*.*.*.$.$.` ` ` ) ) ) ) Q Q Q E E h f u t % $ o o + O # 9 9 w c ..:.8.OX=X3X3X3X=X&X&X&X&X&X&X&X&X&X&X&X&X&X&X&X&X&X&XoX*.` ` ` $.$.$.$.$.$.$.$.$.$.$.` Q f u % $ o   . . - e - p K H i o o $ $ $ $ $ $ & * & * & $ $ * * * $ $ $ $ * * * * * * * * * * $ % % % & & & & $ $ $ $ $ $ $ & & & & & % % & & i $ $ * * $ M d.'./.V.'.Z.h.m ",
"vXvXvXvXlXl.B * % t d E ' 7.8.$X.X.X.X.X.X.X.X.X*X*X*X*X*X*X*XOX<.<.<.<.<.<.<.<.<.<.<.<.<.<.<.<.<.<.<.<.<.<.<.<.<.<.<.<.<.<.<.*.$.` ` ` ` ` ` ` ) ) ) ) ) ) ) ) ) ) ) ) ) ) ) ) ) ) ) ) ) ) ` ) ) W W W W W W W W W W W W W W W W W W W W W W W W W W W W W W W W W W W W W W W W W W W W W W g u & * o .         5 K z a v  .~ @X3X4X4X4X6X6X0X0X0XwXwXwXwXNXNXBXCXBXBXNXNXwX0X3X3X=X&X&XoXoXoXoX.X.XoXoXoX&X&X&X=X=X3X3X3X3X3X=X=X=X&X&X&X&XoXoX.X.X.X3.3.3.3..XoXoXoXoXoXoXoXoXoXoXoXoXoXoXoX.X.X.X.X3.5.5.<.*.*.*.$.$.$.` $.*.<.<.<.*.*.*.$.$.` ` ` ) ) ) ) Q Q Q E E h f u t % $ o o + O X 9 9 w c ..:.8.OX=X3X3X3X=X=X&X&X&X&X&X&X&X&X&X&X&X&X&X&X&X&X&XoX*.$.$.$.$.$.$.$.$.$.$.$.$.$.$.` Q f u % $ o   . . - e : p K K > o o o o o o o o o o o o o o o o o   o o o o o o o o o o o $ $ $ % % % % % % % % % % % % % % % % % % % % % % % % t % % % & % l d.(.^.^.'.{.h.m ",
"vXvXvXvXlXl.B % % t y h _ >.7.8.<.<.<.<.<.<.<.<.4.4.4.4.4.4.4.1.*.$.$.$.$.$.$.$.$.$.$.$.$.$.$.$.$.$.$.$.$.$.$.$.$.$.$.$.$.$.$.$.) ) ) ) ) ) ) ) W W W W W W W W W W W W W W W W W W W W W W W W W ) W W W W R R R R W W W W ) W R R R R R R R R R R R R R R R R R g g g g g g g g g g g g g g d i * O . .         5 F z a v  .[ @X3X4X4X4X6X6X0X0X0XwXwXwXwXNXNXBXBXNXNXNXwX0X0X3X=X=X&X&X&XoXoX.X.XoXoXoXoX&X&X&X=X=X3X3X3X3X3X3X=X=X=X=X&X&X&XoXoX.X.X.X3.3..X.XoXoXoXoXoXoXoXoXoXoXoXoXoXoXoX.X.X.X.X3.5.5.<.*.*.*.$.$.$.` $.*.<.<.<.*.*.*.$.$.` ` ` ) ) ) ) Q Q Q E E h f u t % $ o o + O X 9 9 w c ..:.8.OX=X3X3X3X3X=X&X&X&X&X&X&X&X&X&X&X&X&X&X&X&X&X&XoX<.*.*.*.*.*.$.$.$.$.$.$.$.$.$.` Q f u % $ o   . . - e : p K H >                                                 o o o o o o $ $ $ % % % % % % % % % % % % % % % % $ $ % % % % % % % % % % % i @.(.^.^.'.|.j.m ",
"IXvXvXvXlXl.B * $ % t u h ~ [ [ ) ) ) ) ) ) ` ) ` ) ` ` ` ` ` ) W W W W W W W W W W W W W W W W W W W W W W W W W W W W W W W W R g g g g g g g d d d g d d d d d d g d d d d d d d d d d d d g R R R g g d d d d d g g g R R R d d d d d d d d d d d d d d d y y y y y y y y y y y y y y y y t * O X . .         5 F z a v  .[ @X3X4X4X4X6X6X0X0X0XwXwXwXwXNXNXNXNXNXwXwX0X0X6X3X=X=X&X&X&XoXoX.X.XoXoXoXoX&X&X&X=X=X3X3X3X3X3X3X3X3X=X=X&X&X&XoXoXoX.X.X.X.X.XoXoXoXoXoXoXoXoXoXoXoXoXoXoXoXoX.X.X.X.X3.5.5.<.*.*.$.$.$.` ` $.*.<.<.<.*.*.*.$.$.` ` ` ) ) ) ) Q Q Q E h h f u t % $ o o + O X 9 9 w c ..:.8.OX=X3X3X3X=X=X&X&X&X&X&X&X&X&X&X&X&X&X&X&X&X&X&XoX3.<.<.<.<.*.*.*.*.$.$.$.$.$.$.) Q f u % $ o   . . - e : : K H , X . . . . . . . . . . . . . . . . . . . . . . .   + o $ $ $ $ $ $ $ $ $ $ $ $ $ * * $ $ $ $ $ $ $ $ $ $ * $ $ $ * o o * * o = d.(.^.^.(.|.j.m ",
"IXkXkXkXcXv.m + o o $ & i f k ~ d d d d d d g g d d d d d d d d j d d d j j j j d j j j j j d d j j j j j j j j d d d d j j j i i i i i i i i i t t t t t t t t t t t t t t t t t t t t t t t t d d d y t t % $ % % t t y d g d t % & & & & & & % % % % & & & & $ * $ $ $ $ $ $ $ $ $ * * * $ $ O O X . .         5 F z a v  .[ @X3X4X4X4X6X6X0X0X0XwXwXwXwXNXNXwXwX0X0X0X0X6X6X3X=X=X&X&X&X&XoX.X.XoXoXoXoX&X&X&X=X=X3X3X3X3X3X3X3X3X3X=X=X=X&X&XoXoXoX.X.X.X.XoXoXoXoXoXoXoXoXoXoXoXoXoXoXoX.X.X.X.X.X3.5.5.<.*.*.$.$.$.` ` $.*.<.<.<.*.*.*.$.$.` ` ` ) ) ) ) Q Q Q E E h f u t % $ o o + O # 9 9 w c ..:.8.OX=X3X3X3X=X&X&X&X&X&X&X&X&X&X&X&X&X&X&X&X&X&X&X&X.X3.3.<.<.<.<.*.*.*.$.$.$.$.$.) Q f u % $ o   . . - e : p K H , 6 5 5 5 5 5 5 5 - 5 5 - 5 - 5 5 3 3 3 5 5 - : : p p p p p a a p p : : : : : : : : : : : : : : 1 1 1 1 : : : 6 7 N = = M 8 8 Z G.^.^.^.(.|.j.m ",
"LXHXGX].b.d.8 . .       o o o $ $ $ $ $ $ $ $ $ $ $ $ $ $ $ $ $ o o o o o o o o o o o o o o o o o o o o o o o o o o o o o o o o                                                               o % t % $ o @ @ @         $ % t % o                           o                                   o o o           . # : K K J k Q @X3X4X4X4X6X6X0X0X0XwXwXwXwXNXwX6X6X6X6X3X3X3X3X=X=X=X&X&X&X&XoXoX.XoXoXoXoX&X&X&X=X=X3X3X3X3X3X3X3X3X3X3X=X=X=X&X&X&XoXoXoX.X.XoXoXoXoXoXoXoXoXoXoXoXoXoXoXoX.X.X.X.X.X3.5.3.<.*.*.$.$.$.$.` $.*.<.<.<.*.*.*.$.$.` ` ` ) ) ) ) Q Q Q E E h f u t % $ o o + O # 9 9 w c ..:.8.OX=X3X6X3X3X=X&X&X&X&X&X&X&X&X&X&X&X&X&X&X&X&X&X&X*XOXOXXXXX3.<.<.*.=.$.$.$.$.` ) E f u % $ o   . . # e D A p s p A w w w w w w w w w w w w w w w w w w w w A A A p p p s s s s p w q q q q q q q q q q q q q q q q q q q q 5 5 7 e 8 8 7 7 8 7 k.^.^.^.'.b.s.m ",
"_._.[.(.b.U 8 . .           o o o                                                                                                                                                               $ $ o   . . . . . . .     o $ $                                   . . . . . . . . . . . . . .   $ % $ o         X , w K K J k ~ @X=X4X4X4X6X6X0X0X0XwXwXwXwXNXwX6X3X3X3X3X3X=X=X=X=X&X&X&X&X&X&XoX.XoXoXoXoX&X&X&X=X=X3X3X3X3X3X6X6X6X3X3X3X3X=X=X&X&X&XoXoXoXoXoXoXoXoXoXoXoXoXoXoXoXoXoXoXoX.X.X.X.X.X3.3.3.<.*.*.$.$.$.$.` $.*.<.<.*.*.*.=.$.$.` ` ` ) ) ) ) Q Q Q E E h f u t % $ o o + O # 9 9 w c ..:.8.OX=X3X6X3X3X=X&X&X&X&X&X&X&X&X&X&X&X&X&X&X&X&X&X&X*X*X*XOXXXXX3.<.<.*.$.$.$.` ` ) E f u % $ o   . . # e D A p s s z A A A z z z A z z z A A A A A A A A A z z z z p p p p p p p p q q q q q q q q q q q q q q q q q q q q q 5 5 5 7 8 8 7 8 8 7 k.(.[.`.'.C.s.m ",
"[.[.[.[.b.U 8 . .         o o o o                                                                                                                                                               $ % o   . . . . . . . .   $ % % o                               . . . . . . . . . . . . . . .   t d y t $ o o   , > A K K J v | @X=X3X3X4X6X6X0X0X0XwXwXwXwXNXwX3X=X=X=X=X=X=X=X=X&X&X&X&X&X&X&XoX.X.XoXoXoX&X&X&X=X=X3X3X3X3X3X6X6X6X6X3X3X3X=X=X&X&X&X&XoXoXoXoXoXoXoXoXoXoXoXoXoXoXoXoXoXoXoX.X.X.X.X3.5.3.<.*.*.$.$.$.$.` $.*.<.<.<.*.*.*.$.$.` ` ` ) ) ) ) Q Q Q E E h f u t % $ o o + O X 9 9 w c ..:.8.OX=X3X3X3X3X=X&X&X&X&X&X&X&X&X&X&X&X&X&X&X&X&X&X&X-X-X-X*XOXXX3.3.<.*.*.$.$.` ` ) E f u % $ o   . . # e D A p s k v v v v v v v v v v v v v v v v v v v v v v c c c c x x z z z z w w w w w w w w w w w w 6 6 w w 1 1 1 w w 6 6 7 N ; 7 7 7 8 Z j.(.).).JXC.s.m ",
"[.[.[.(.b.s.m o $ $ $ $ % % % $ $ o o o o o o o o o o o o o o o o o o o o o o o o o o o o o o o o o o o o o o o o o o o o o o o o o o o o o o o o o o o o o o o o o o o o o o o o o o o o o o $ t y % o   . . . . . . . $ t d d % $ $ $ $ $ $ $ % % $ $ $ $ $ $                               $ g R g d y % $ o > : p S H H c | @X=X3X4X4X6X6X0X0X0XwXwXwXwXNXwX3X&X&X&X&X&X&X&X&X&X&X&X&X&X&X&X.X.X.XoXoXoXoX&X&X=X=X3X3X3X3X3X6X6X6X6X6X3X3X3X=X=X=X&X&X&XoXoXoXoXoXoXoXoXoXoXoXoXoXoXoXoXoXoX.X.X.X.X3.5.5.<.*.*.$.$.$.$.` $.*.<.<.<.*.*.*.$.$.` ` ` ) ) ) ) Q Q Q E E h f u t % $ o o + O X 9 9 w c ..:.8.OX=X3X3X3X3X=X&X&X&X&X&X&X&X&X&X&X&X&X&X&X&X&X&X=X4X4X4X-X&XoX.X3.<.<.=.$.$.` ` ) E f u % $ o   . . # e D A p s k / / / / / / / / / / / / / / / / | | | / / / / k k k s p z z p p a k k k k k k c k k k k k k k k b b b c k k k k V l l V B M C x.fXHXGXKXjXl.B ",
"[.[./.'.Z.l.@.d d d g g g g g g d y y y y y y y y y y y y y y y y y y y y y y y y y y y y y y y y y y y y y y y y y y y y y y y y y d y d y d y d y d y d y d y d y d y d y d y d y d y d y d d R R g y $ o         o % d R ) ) R g g g g g g g g g g g g g g d y t t t t t t t t t t t t t t d ) $.` W g d t $ a > p p p s a ( @X3X4X4X4X6X6X0X0X0XwXwXwXwXNX0X=X&X&X&X&X&X&X&X&X&X&X&X&X&X=X&XoX.X.XoXoXoX&X&X&X=X=X3X3X3X3X6X6X0X0X6X6X6X3X3X3X=X=X&X&X&X&X&XoXoXoXoXoXoXoXoXoXoXoXoXoXoXoXoX.X.X.X.X3.5.5.<.*.*.$.$.$.$.` $.*.<.<.<.*.*.*.$.$.` ` ` ) ) ) ) Q Q Q E E h f u t % $ o o + O X 9 9 w c ..:.8.OX=X3X3X3X3X=X&X&X&X&X&X&X&X&X&X&X&X&X&X&X&X&X&X=X4X7X4X-X*XOXXX3.<.<.=.$.$.` ) ) E f u % $ o   . . # e D A p s v | } } } } } } } } } } } } } } :.>.>.:.:.} | / / k k a s p : : p / } } } } } } } } } } } } } } } } } } } } } } | } { { | ,.{ r.aXkXHXHXhXjXl.@.",
").).GXKXjXaXr.) ` $.%.=.=.=.=.$.` ) ) ) ) ) ) ) ) ) ) ) ) ) ) ) ) ) ) ) ) ) ) ) ) ) ) ` ) ) ) ) ` ` ) ) ) ) ) ` ) ) ) ) ) ) ) ` ` ` ` ` ` ` ` ` ` ` ` ` ` ` ` ` ` ` ` ` ` ` ` ` ` ` ` ` ` ` ` $.*.*.` W d t $ o o $ t d W $.1.4.*.*.*.*.*.*.*.*.*.*.*.*.*.*.*.$.) W ) W ) W ) W ) W ) W ) W W ` 3.XX1.=.' Q h u i & , > > > s / @X3X4X4X4X6X6X0X0X0XwXwXwXwXNX0X&XoXoXoXoX&XoX&X&X&X&X&X&X&X=X&XoX.X.X.XoXoX&X&X&X=X=X3X3X3X3X6X6X0X0X6X6X6X6X3X3X=X=X=X&X&X&X&XoXoXoXoXoXoXoXoXoXoXoXoXoXoXoXoX.X.X.X.X3.5.5.<.*.*.$.$.$.$.` $.*.<.<.<.*.*.*.$.$.` ` ` ` ) ) ) Q Q Q E E h f u t % $ o o + O # 9 9 w c ..:.8.OX=X3X3X3X3X=X&X&X&X&X&X&X&X&X&X&X&X&X&X&X&X&X&X=X7X7X7X4X-X&XoX.X3.<.=.$.` ` ) W E f u % $ o   . . # e D A p s  .} >.>.>.>.>.>.>.>.>.>.>.>.>.>.7.8.%X8.9.>.:.} ~ h l i > > , , i :.%X%X%X%X8.%X%X%X%X%X%X8.8.8.8.%X8.%X%X%X%X%X%X%X3.5.<X@X5.<XbXvXLXkXlXlXl.+.",
"fXfXkXvXzXpX1X<.XXOX:X>X>X>X>X*XXX4.4.4.4.4.4.4.4.4.4.4.4.4.4.4.XXXXXXXXXXXXXXXXXXXXXXXXXXXXXXXXXXXXXXXXXXXXXXXXXXXXXXXXXXXXXXXXXXXXXXXXXXXXXXXXXXXXXXXXXXXXXXXXXXXXXXXXXXXXXXXXXXXXXXXXXXXXXXOX*X*XXX*.) R d y t y g ) *.XX*X-X*X*X*X*X*X*X*X*X*X*X*X*X*X*X*XOXXX4.4.4.4.4.4.4.4.4.4.4.4.4.4.XX>X>X$X#X7.' ~ h t $ $ o o O , j @X3X4X4X4X6X6X0X0X0XwXwXwXwXNX0X&X.XoXoXoXoXoX&X&X&X&X&X&X=X=X&XoX.X.XoXoXoX&X&X&X=X=X3X3X3X3X6X0X0X0X0X6X6X6X3X3X3X=X=X=X&X&X&XoXoXoXoXoXoXoXoXoXoXoXoXoXoXoXoX.X.X.X.X3.5.5.<.*.*.$.$.$.` ` $.*.<.<.<.*.*.*.$.$.` ` ` ` ) ) ) Q Q Q E E h f u t % $ o o + O # 9 9 w c ..:.8.OX=X3X3X3X3X=X&X&X&X&X&X&X&X&X&X&X&X&X&X&X&X&X&X=X7XqX7X4X-X*XOX.X3.<.*.$.` ` ) W E h y % $ o   . . # e D A p s / :.8.8.8.8.8.8.8.8.8.8.8.8.8.8.8.$X$X$X%X8.>.:.[ h u i * O X . i 8.9X9X9X9X9X9X9X9X9X9X9X9X9X9X9X9X9X9X9X9X9X9X9XtX=X=XtX8X=XtXyXvXLXkXvXzXl.+.",
"fXfXkXvXvXbX1X.X-X4X9X9X9X7X7X7X4X-X-X-X-X-X-X*X*X*X*X*X*X*X*X*X-X-X-X-X-X-X-X-X-X-X-X-X-X-X-X-X4X-X-X4X-X-X-X-X-X-X-X-X-X-X-X-X4X4X4X4X4X4X4X4X4X4X-X-X-X-X-X-X-X-X-X4X4X4X-X-X-X-X-X-X-X-X-X4X7X4X-XXX=.) R f t y g ) <.*XqXeXqX7X7X7X7X7X7X7X7X7X7X7X7X7X7X7X-X-X-X-X-X*X*X*X*X*X*X*X*X*X*X*X9X9X9X>X$X8.>.[ y % $ o o $ & E @X3X4X4X4X4X6X6X6X0X0X0X0XwXwX0X&XoXoXoX&X&X&X&X&X&X=X=X=X=X=X&XoX.X.X.XoXoX&X&X&X=X=X3X3X3X3X6X6X0X6X6X6X6X6X3X3X3X3X=X=X=X=X&X&XoXoXoXoXoXoXoXoXoXoXoXoXoXoXoX.X.X.X.X.X3.3.<.*.*.*.$.$.` $.$.$.$.$.$.$.$.$.$.$.` ` ) ) ) W W Q Q Q E E h f u t % $ o o + O , 9 9 w c ..:.7.XX*X3X3X3X3X=X=X&X=X=X=X=X=X=X=X=X&X&X&X&X&X&X&X=X4X7X4X-X*XOXoX.X3.<.*.$.$.` ` ) Q h d t $ o   . . , A D A p a / 7.$X$X$X$X$X$X$X$X$X$X$X$X$X$X$X:X>X>X:X$X#X>.[ g t $ o       y $XqXqXqXqX7XqXqXqXqXqXqXqXqXqX7XqX7XqX7XqXqXqXqXeX6X6XrXwX6XrXyXvXLXkXvXzXaXr.",
").).fXkXzXpX1X.X=X4X7XqXqXqX0X0X6X6X7X7X7X4X4X3X=X&X&X&X&X&XoX&X-X3X4X3X4X3X4X3X3X3X3X3X3X3X4X4X6X6X6X6X3X3X3X3X=X=X=X=X&X&X&X=X3X6X6X6X6X3X3X3X3X=X=X=X&X&X&X=X=X3X3X3X3X3X3X3X3X3X3X3X3X3X3X3X&X&X&XoX1._ f % + o $ d *.-XNXNXwX0XqX0XqX0XqX0X6X6X6X6X6X6X6X6X7X6X7X7X4X4X4X3X-X=X=X&XoXoXoXoX&X&X3X3X6X3XoX1.W y % $ $ t f _ XX=X=X=X3X3X3X3X3X3X3X3X3X3X3X3X=X=X=X=X=X=X=X=X=X=X=X=X=X=X=X&X.X3..X.X.XoXoX&X&X=X3X3X6X6X6X6X6X6X6X6X3X3X3X3X3X3X3X3X3X3X3X=X&XoXoXoXoXoXoXoX;X;X&X&X;X;X;X&XoXXXXXXXXX3.3.3.<.1.<.=.=.=.=.$.W W W ) ` ` $.$.$.` ` ) W R R R R R R h h f d u t % $ o o + O O 2 < z c ..} >.4.oX&X=X3X3X3X3X3X3X6X6X3X3X3X3X=X3X=X=X;X;X;X;X;X&X*X*XOXOXXXXX4.<.<.*.$.$.$.$.` Q h f t % $ o o   : K z s H J ~ 3.&X&X&X&X&X&X&X&X&X&X&X=X=X&X&X.X.X&X=X=X*XXX=.R t $ o o $ t Q *XqXqXqXqXqXqXqXqXqXqXqXqXqXqXqX0X0X0X0X0X0X0X0XrX6X0XrXwX6XrXyXkXfXfXlXzXaXe.",
"`./.fXkXzXpX1X.X5X6X6X0X0X0X0X0X0X0X0X0X0X6X6X4X=X=X=X&X&X&XoX&X3X4X4X4X4X4X4X4X3X4X3X3X4X4X4X6X0X0X0X0X6X6X6X3X3X3X=X=X=X&X&X=X6X0X0X0X6X6X6X3X3X3X=X=X=X&X&X=X3X3X3X3X3X3X3X3X3X3X3X3X3X3X3X3X&X&X&XoX4.' f $ X   o y =.3XBXCXwX0X0X0X0X0X0X0X6X6X6X6X6X6X6X6X0X0X0X0X0X6X6X4X4X3X=X&X&XoXoXoXoX&X3X0XwX0X=XXX) d % $ % u h ' oX3X=X=X3X3X3X3X=X=X=X=X3X3X3X3X3X3X3X3X=X=X=X3X=X3X3X3X3X3X=X&X.X3.3..X.XoXoX&X=X=X3X3X6X6X6X6X3X3X3X3X3X3X3X3X3X3X3X3X3X3X3X3X&XoX&XoX&XoX&XoX;X&X;X&X;X;X;X;XoXXXXXXXXX4.4.4.1.1.1.=.=.=.=.' R g R W ) ` ` $.$.` ` ) R R g g R R R h h f d u t % $ o o + O O < < x c ..} >.1.XX&X=X3X3X3X3X3X6X6X6X6X6X3X3X3X3X=X=X;X;X;X;X&XoXXXXXXXXXXX4.4.<.*.*.*.$.$.$.` _ E f y % $ o o   : K z s H J ~ .X3X3X=X3X3X3X3X=X=X3X=X3X3X3X&X.X.X&X3X6X3XoX*.R t o   o $ u _ *X0X0X0X0X0X0X0X0X0X0X0X0X0X0X0X0X0X0X0X0X0X0X0XrX6X6XrXrX6XrXyXkX/.fXhXlXaXt.",
"`./.fXkXzXpX1X.X5X6X6X0X0X0X0X0X0X0X0X0X0X6X6X4X=X=X=X&X&X&X&X&X3X4X4X4X4X4X4X4X4X4X4X4X4X4X4X6X6X0X0X6X6X6X6X3X3X=X=X=X&X&X&X=X6X0X0X6X6X6X6X3X3X=X=X=X&X&X&X&X3X3X3X3X3X3X3X3X3X3X3X3X3X3X3X3X&X&X&XoX4.' f $ X   o y =.3XBXCXwX0X0X0X0X0X0X0X6X6X6X6X6X6X6X6X0X0X0X0X0X6X6X4X4X3X=X&X&XoXoXoXoX&X3X6X0X6X=X3.) d % $ % u h ' OX3X3X3X3X3X3X3X3X3X=X3X3X3X=X=X3X=X3X3X=X=X3X3X=X=X3X3X3X3X=X&X.X3..X.X.XoXoX&X=X=X3X3X3X6X6X6X3X3X3X3X3X3X3X3X3X3X3X3X3X3X3X=X&XoXoXoXoXoXoXoX&X&X&X+X&X&X&X&XoXOXXXXXXX4.4.4.<.*.*.=.=.$.$.` R g R W ) ` ` $.$.` ` ) R R g g R R R h h f d t t % $ o o + O O < < x v ..} >.1.XX&X=X3X3X3X3X3X6X6X6X6X6X3X3X=X=X=X=X&X=X&X&XOXoXXXXXXXXX4.4.4.<.*.*.$.$.$.$.` _ E f y % $ o o   : K z s H v ~ .X3X3X3X3X3X3X3X3X3X3X3X3X3X3X&X.X.X&X3X6X3XoX<.R t o   o $ u _ *X0X0X0X0X0X0X0X0X0X0X0X0X0X0X0X0X0X0X0X0X0X0X0XrX6X6XrXrX6XrXyXkX/.GXhXzXaXt.",
"`./.fXkXzXpX1X.X5X6X6X0X0X0X0X0X0X0X0X0X0X6X6X4X=X=X=X&X&X&X&X&X3X4X4X4X4X4X4X4X4X4X4X4X4X4X4X6X6X0X0X6X6X6X3X3X3X=X=X&X&X&X&X=X6X0X0X6X6X6X3X3X3X=X=X&X&X&X&X&X=X3X3X3X3X3X3X3X3X3X3X3X3X3X3X3X&X&X&XoX4.' f $ X   o y =.3XBXCXwX0X0X0X0X0X0X0X6X6X6X6X6X6X6X6X0X0X0X0X0X6X6X4X4X=X=X&X&XoXoXoXoX&X3X6X0X6X=X3.) d $ o $ t h ' oX3X3X3X3X3X3X3X3X3X3X3X=X=X=X=X=X=X3X3X3X3X3X3X3X=X3X3X3X3X=X=XoX.X.X.XoXoXoX&X&X=X3X3X3X3X6X6X3X3X3X3X3X3X3X3X3X3X3X3X3X3X3X=X&XoXoXoXoXoXoXoXoXoXoXoXoXoXoXoXoXXXXXXXXX4.4.1.*.*.=.$.$.$.$.` R g R W ) ` ` $.$.` ` ) R R g g R R R h h f d u t % $ o o + O , < < x v ..} >.1.XX&X=X3X3X3X3X3X3X3X3X3X3X3X=X=X=X&X&X&XoXoXoXoXXXXXXXXXXX4.4.1.*.*.*.$.$.$.$.` _ E f t % $ o +   : K z s H v ~ .X3X3X3X3X3X3X3X3X3X3X3X3X3X3X&X.X.X&X3X6X3XOX<.R t o   o $ u _ *X0X0X0X0X0X0X0X0X0X0X0X0X0X0X0X0X0X0X0X0X0X0X0XrX6X6XrXrX6XrXyXkX/.GXhXlXaXt.",
"`./.fXkXzXpX1X.X5X6X6X0X0X0X0X0X0X0X0X0X0X6X6X4X=X=X=X&X&X&XoX&X3X4X4X4X4X4X4X4X4X4X4X4X4X4X4X6X6X6X6X6X6X3X3X3X=X=X=X&X&X&X&X&X3X6X6X6X6X3X3X3X=X=X=X&X&X&X&X&X=X3X3X3X3X3X3X3X3X3X3X3X3X3X3X=X&X&X&XoX4.' f $ X   o y =.5XBXCXwX0X0X0X0X0X0X0X6X6X6X6X6X6X6X6X0X0X0X0X0X6X6X4X4X=X=X&X&XoXoX.X.XoX3X6X0X6X=X3.W d $ o $ t h ' oX3X3X3X3X3X3X3X3X3X=X=X3X3X3X=X=X=X3X3X3X3X3X3X3X3X3X3X3X3X3X=XoX.X.XoXoXoX&X&X=X=X=X3X3X3X3X3X3X3X3X3X3X3X3X3X3X3X3X3X3X3X3X=X&XoXoXoXoXoXoXoXoX.XoX.XoX.XoX.XXXXXXXXX4.4.4.1.*.$.$.$.$.` ` ) R g R W ) ` ` $.$.` ` ) W R g g R R R h h f d u t % $ o o + O , < < x c ..} >.1.XX&X=X3X3X3X3X3X3X3X3X3X=X=X=X&X&XoXoX.X.X.X.X.XXXXXXXXX4.4.4.1.*.*.$.$.$.` ` ) Q E f y % $ o +   : K z s H v ~ .X=X=X3X3X3X=X=X3X3X3X3X3X3X=X&X.X.X&X3X6X3XoX<.R t o   o $ u _ *X0X0X0X0X0X0X0X0X0X0X0X0X0X0X0X0X0X0X0X0X0X0X0XrX6X6XrXrX6XrXyXkX/.).hXlXaXt.",
"`./.fXkXzXpX1X.X5X6X6X0X0X0X0X0X0X0X0X0X0X6X6X4X=X=X=X&X&X&XoX&X3X4X4X4X4X4X3X3X3X3X4X4X4X4X4X6X6X6X6X6X3X3X3X=X=X&X&X&X&XoXoX&X3X6X6X6X6X3X3X=X=X&X&X&X&XoXoX&X=X=X=X=X=X=X=X=X=X=X=X=X=X=X=X=X&X&X&XoX4.' f $ X   o y =.5XBXCXwX0X0X0X0X0X0X0X6X6X6X6X6X6X6X6X0X0X0X0X0X6X6X4X4X=X=X&X&XoXoX.X.XoX=X6X0X6X&X3.W y $ o $ t f _ oX=X3X3X3X3X3X3X3X3X=X=X3X3X3X3X=X=X3X3X3X3X3X3X3X3X3X3X3X3X3X=XoXoXoXoXoXoX&X&X=X=X=X=X=X3X3X3X=X=X=X=X=X=X=X=X=X=X=X=X=X=X=X&XoXoX.X.X.X.X.X.X.X.X.X.X.X.X.X.XXXXXXX4.4.1.1.1.$.$.$.` ` ` ` W R g R W ) ` ` $.$.` ` ) W R g g R R R h h f d u t % $ o o + O , < < x c ..} >.1.XX&X=X3X3X3X3X3X3X=X=X=X=X&X&X&XoX.X.X.X3.3.3.3.XXXXXX4.4.1.1.1.*.$.$.$.` ` ` ) Q E f y % $ o +   : K z s H v ~ .X=X=X3X3X3X3X=X3X3X3X=X3X3X=X&X.X.X&X3X6X3XoX<.R t o   o $ u _ *X0X0X0X0X0X0X0X0X0X0X0X0X0X0X0X0X0X0X0X0X0X0X0XrX6X6XrXrX6XrXyXkX/.).hXlXaXt.",
"`./.fXkXzXpX1X.X5X6X6X0X0X0X0X0X0X0X0X0X0X6X6X4X=X=X=X&X&X&X&X&X5X3X4X4X4X4X3X3X3X3X4X4X4X4X4X6X3X6X6X3X3X3X3X=X=X&X&X&XoXoXoX&X3X6X6X3X3X3X3X=X=X&X&X&XoXoXoXoX&X=X=X=X=X=X=X=X=X=X=X=X=X=X=X=X&X&X&XoX1.' f $ X   o y =.5XBXCXwX0X0X0X0X0X0X0X6X6X6X6X6X6X6X6X0X0X0X0X0X6X6X6X4X=X=X&X&XoXoX.X.XoX=X3X6X3X&X<.W y $ o $ % f _ XX=X3X3X3X3X=X=X3X3X=X=X3X3X3X3X3X3X3X3X3X3X=X=X=X3X3X3X3X3X3X=X&XoX&X&X&X&X&X&X&X=X=X=X=X=X=X=X=X=X=X=X=X=X=X=X=X=X=X=X=X=X=X&XoX.X.X.X.X.X.X.X3.3.3.3.3.3.3.3.XX4.4.4.4.1.1.1.$.` ` ` ) ) ) W R g R W ) ` ` $.$.` ` ) W R g g R R R h h f y t t % $ o o + O O < q x c ..} >.1.XX&X=X3X3X3X3X3X=X&X&X&X&X&XoXoX.X3.3.3.<.<.<.<.3.3.4.4.4.1.1.1.$.$.$.` ` ` ` ) Q E f y % $ o +   : K z s c v ~ .X=X3X3X3X3X=X=X3X=X=X=X3X3X3X&X.X.X&X3X6X3XoX<.R t o   o $ u _ *X0X0X0X0X0X0X0X0X0X0X0X0X0X0X0X0X0X0X0X0X0X0X0XrX6X6XrXrX6XrXyXkX/.N.hXlXaXt.",
"`./.fXkXzXpX1X.X5X8X6X0X0X0X0X0X0X0X0X0X0X6X6X4X=X=X=X&X&X&X&X&X5X3X4X4X4X4X3X3X4X4X4X4X4X4X3X6X3X3X3X3X3X=X=X=X&X&X&XoXoXoXoXoX3X3X3X3X3X=X=X=X&X&X&XoXoXoX.XoX&X&X&X&X&X&X&X&X&X&X&X&X&X&X&X&X&X&X&XoX1.' f $ X   o y =.5XBXCXwX0X0X0X0X0X0X0X6X6X6X6X6X6X6X6X0X0X0X0X0X6X6X6X4X=X=X&X&XoXoX.X.X.X&X3X6X3XoX<.R t o o o % f _ XX=X=X3X3X3X=X=X3X3X=X=X3X3X3X3X3X3X3X3X=X=X=X=X=X3X3X3X3X3X3X=X&X&X&X&X&X&X&X&X&X&X&X&X&X&X&X&X&X&X&X&X&X&X&X&X&X&X&X&X&X&X&X&X.X.X.X.X.X.X.X.X3.3.3.3.3.3.3.3.3.4.4.1.1.1.1.=.` ` ) ) ) ) W R R g R W ) ` ` $.$.` ` ) W R g g R R R h h f d t t % $ o o + O O < < x c ..} >.1.XX&X=X3X3X3X3X3X&X&X&XoXoXoX.X.X3.<.<.<.*.*.*.*.3.4.4.1.1.1.1.=.$.$.` ` ` ) ) ) Q E f y % $ o +   : K z s c v ~ .X3X3X3X3X3X=X=X3X=X=X=X3X3X3X&X.X.X&X3X6X3XoX<.R t o   o $ u _ *X0X0X0X0X0X0X0X0X0X0X0X0X0X0X0X0X0X0X0X0X0X0X0XrX6X6XrXrX6XrXyXkX/.N.hXlXaXt.",
"_._.HXlXzXpX1X+X5X6X0X0X0X0X0X0X6X6X6X6X6X3X3X3X=X=X=X&X&X&X&X&X=X3X3X3X3X3X3X3X4X4X4X4X4X3X3X3X3X3X3X3X=X=X=X&X&XoXoXoX.X.X.XoX=X3X3X3X=X=X=X&X&XoXoXoX.X.X.X.X&X&X&X&X&X&X&X&X&X&X&X&X&X&X&X&X&X&X&XoX4.' f $ X   o y =.5XBXCXwX0X0X0X0X0X0X0X0X0X0X0X0X0X0X0X0X0X0X0X0X6X6X6X=X=X=X&X&X&X&XoX3..X&X3X6X3XoX*.R t o   o $ u _ XX=X=X3X3X3X=X=X3X3X3X3X=X=X3X3X3X3X3X3X3X3X3X3X3X3X4X4X4X4X3X3X=X=X&X&X&X&X&X&X&X&X&X&X&X&X&X&X&X&X&X&X&X&X&X&X&X&X&X&X&X&X&XoX3.3.3.3.3.3.3.3.3.3.3.3.3.3.3.3.<.<.<.*.*.*.$.$.$.` ` ) ) ) ) W R g R W ) ` ` $.$.` ` ) R R g g R R R h h f d u t % $ o o + O O < < x c ..} >.1.XX&X=X3X3X3X3X=X&XoXoX.X.X3.<.<.<.<.<.*.*.$.$.*.*.<.<.*.*.*.$.$.$.` ` ) ) ) ) W Q E h y t $ o o   : K z s H v ~ .X=X=X=X3X3X3X=X3X3X3X4X4X4X4X=X.X.X&X3X6X3XoX<.R t o   o $ u _ *X0X0X0X0X0X0X0X0X0X0X0X0X0X0X0X0X0X0X0X0X0X0X0XrX6X6XrXrX6XrXyXkX/.N.hXlXaXt.",
"_._.HXlXzXpX1X+X5X6X0X0X0X0X0X0X6X6X6X6X6X3X3X3X=X=X=X&X&X&X&X&X=X3X3X3X3X3X3X3X4X4X4X4X4X4X3X3X3X3X3X=X=X&X&X&XoXoXoX.X.X.X.XoX=X3X3X=X=X&X&X&XoXoXoX.X.X.X.X.XoX&X&X&X&X&X&X&X&X&X&X&X&X&X&X&X&X&X&XoX4.' f $ X   o y =.5XBXCXwX0X0X0X0X0X0X0X0X0X0X0X0X0X0X0X0X0X0X0X0X6X6X6X=X=X=X&X&X&X&X.X3.3.&X=X3X=XoX*.R &     o $ u Q XX=X3X3X3X3X=X=X3X3X3X3X=X=X3X3X=X3X3X3X3X3X3X3X3X3X4X4X4X4X3X3X=X=X=X=X=X=X=X&X&X&X&X&X&XoXoXoX&X&X&X&X&X&XoX&X&X&X&X&X&X&X&XoX3.<.<.<.<.<.<.<.3.3.3.3.5.5.5.5.<.*.*.*.*.$.$.$.` ` ) ) ) ) ) W g g R W ) ` ` $.$.` ` ) R R g g R R R h h f d u t % $ o o + O O < < x c ..} >.1.XX&X=X3X3X3X3X=XoX.X.X3.3.<.<.*.*.*.*.$.$.$.$.$.*.*.*.=.*.$.$.$.` ` ) ) ) ) ) W E E h y t $ o o   : K z s H J ~ .X=X=X=X3X3X3X3X3X3X3X4X4X4X4X=X.X.X&X3X6X3XoX<.R t o   o $ u _ *X0X0X0X0X0X0X0X0X0X0X0X0X0X0X0X0X0X0X0X0X0X0X0XrX6X6XrXrX6XrXyXkX/.N.hXlXaXt.",
"_._.HXlXzXpX1X+X5X6X0X0X0X0X0X0X0X0X6X6X6X3X3X3X=X=X=X&X&X&XoX&X=X3X3X3X3X3X3X3X4X4X4X4X4X4X4X4X=X=X=X=X=X&X&X&XoXoX.X.X.X3.3..X&X=X=X=X=X&X&X&XoXoX.X.X.X3.3..XoXoXoXoXoXoXoXoXoXoXoXoXoXoXoX&XoX&X&XoX4.' f $ X   o y =.5XBXCXwX0X0X0X0X0X0X0X0X0X0X0X0X0X0X0X0X0X0X0X0X6X6X4X=X=X=X&X&X&X&X.X5.3.oX=X3X=X.X=.g &       $ i Q XX3X3X3X3X3X3X3X3X3X3X3X=X=X3X3X=X=X=X3X=X=X3X=X3X3X4X4X4X4X4X4X3X3X3X=X=X=X=X&X&X&XoXoXoXoXoXoXoXoXoXoXoXoXoXoXoXoXoXoXoXoXoXoX<.<.<.<.<.<.<.<.<.<.<.<.<.<.<.<.*.*.*.*.$.$.$.` ` ) ) ) ) W W R g g R W ) ` ` $.$.` ` ) R R g g R R R h h f d u t % $ o o + O O < < x c ..} >.1.XX&X=X3X3X3X3X=XoX3.3.3.<.*.*.$.*.$.$.$.` ` ` ` $.*.*.*.$.$.$.` ` ) ) ) ) W W W E E f y t $ o o   : K z s H J ~ .X3X3X3X3X3X3X3X4X4X4X4X4X4X4X=X.X.X&X3X6X3XoX<.R t o   o $ u _ *X0X0X0X0X0X0X0X0X0X0X0X0X0X0X0X0X0X0X0X0X0X0X0XrX6X6XrXrX6XrXyXkX/.N.hXlXaXt.",
"_._.HXlXvXpX1X+X5X6X0X0X0X0X0X0X0X0X6X6X6X3X3X3X=X=X=X&X&X&XoX&X=X3X3X3X3X3X3X=X3X4X4X4X4X4X4X4X=X=X=X&X&X&X&XoXoX.X.X.X3.3.3..X&X=X=X&X&X&X&XoXoX.X.X.X3.3.3.3..XoXoXoXoXoXoXoXoXoXoXoXoXoXoXoXoX&X&XoX4.' f $ X   o y =.5XBXCXwX0X0X0X0X0X0X0X0X0X0X0X0X0X0X0X0X0X0X0X0X6X6X4X=X=X=X&X&X&X&XoX5.5.oX&X=X&X.X%.g %       o i Q XX3X3X3X3X3X3X3X=X3X3X3X=X=X3X3X=X=X=X3X=X=X=X=X4X4X4X4X4X4X4X6X3X3X3X3X3X=X=X&X&X&XoXoXoX.X.X.XoXoXoXoXoXoXoXoXoXoXoXoXoXoXoX.X<.*.<.*.<.*.<.*.<.2.<.<.<.2.<.<.*.*.*.$.$.$.` ` ) ) ) W W W W R g g R W ) ` ` $.$.` ` ) R R g g R R R h h f d u t % $ o o + O O < < x c ..} >.1.XX&X=X3X3X3X3X=X.X3.<.<.*.*.$.$.$.$.` ` ` ) ) ` $.*.*.$.$.$.` ` ) ) ) W W W W W E E f y % $ o     : K z s H v ~ .X3X3X3X3X3X3X3X4X4X4X4X4X4X4X=X.X.X&X3X3X3XoX<.R t o   o $ u _ *X0X0X0X0X0X0X0X0X0X0X0X0X0X0X0X0X0X0X0X0X0X0X0XrX6X6XrXrX6XrXyXkX/.N.hXlXaXt.",
"_._.HXlXzXpX1X+X5X6X6X0X0X0X0X0X0X0X6X6X6X3X3X3X=X=X=X&X&X&X&X&X=X3X3X3X3X3X=X=X3X3X4X4X4X4X4X4X=X&X&X&X&X&XoXoX.X.X.X3.3.5.5..X&X&X&X&X&X&XoXoX.X.X.X3.3.5.5.3..XoXoXoXoXoXoXoX.X.XoXoXoXoXoXoXoX&X&XoX4.' f $ X   o y =.5XBXCXwX0X0X0X0X0X0X0X0X0X0X0X0X0X0X0X0X0X0X0X0X6X6X4X=X=X=X&X&X&X&X.X<.<.oX&X=X&X.X$.d %       o t E XX3X3X3X3X3X3X3X=X=X=X=X3X3X3X3X3X3X3X3X=X3X3X3X4X4X4X4X4X4X4X4X3X6X3X3X3X3X=X&X&XoXoXoX.X.X.X.X.XoXoXoXoXoXoXoXoXoX.XoXoXoXoX.X<.*.*.*.*.*.*.*.<.2.<.2.2.2.2.2.*.$.$.$.$.` ` ` ) ) ) W W R R R g g R W ) ` ` $.$.` ` ) W R g g R R R R h f y t t % $ o o + O O < < x c ..} >.1.XX&X=X3X3X3X3X=X.X<.<.*.*.$.$.` ` ` ` ) ) ) ) ) $.$.$.$.$.` ` ` ) ) ) W W R R R E E f y t $ o     : K A s J v ~ .X3X3X3X3X3X3X3X4X4X4X4X4X4X4X=X.X.X&X3X3X3XOX<.R t o   o $ u ) *X0X0X0X0X0X0X0X0X0X0X0X0X0X0X0X0X0X0X0X0X0X0X0XrX6X6XrXrX6XrXyXkX/.N.hXlXaXt.",
"_._.HXlXzXpX1X+X5X6X6X0X0X0X0X0X0X0X6X6X6X3X3X3X=X=X=X&X&X&XoX&X=X=X3X3X3X3X=X=X3X3X4X4X4X4X4X4X=X&X&X&X&XoXoXoX.X.X.X3.5.<.<.3.oX&X&X&X&XoXoXoX.X.X.X3.5.<.<.5..X.X.X.X.X.X.X.X.X.XoXoX.X.X.XoXoX&X&XoX4.' f $ X   o y =.5XBXCXwX0X0X0X0X0X0X0X0X0X0X0X0X0X0X0X0X0X0X0X0X6X6X4X=X=X=X&X&X&X&X.X<.<..X&X=X&X.X$.d *       + t E XX3X3X3X3X3X3X3X=X=X3X3X3X=X3X3X3X3X3X3X3X3X3X3X4X4X4X4X4X4X4X6X6X6X6X3X3X3X=X&X&XoXoX.X.X.X3..X.X.X.X.X.XoXoXoX.X.X.X.X.X.X.X.X<.*.*.*.*.*.*.*.2.2.2.2.2.2.2.2.$.$.$.$.$.` ` ) ) ) W W W R R R g g R W ) ` ` $.$.` ` ) W R g g R R R R h f y t t % $ o o + O O < q A c ..} >.1.XX&X=X3X3X3X3X=X3.2.-.*.$.$.` ` ` ) ) ) ) W W ) ` $.$.$.$.` ` ) ) ) W W W R R R E E f y t $ o     : K A s J v ~ .X3X3X3X3X3X3X3X4X4X4X4X4X4X4X=X.X.X&X3X6X3XOX<.R t o   o $ u ) *X0X0X0X0X0X0X0X0X0X0X0X0X0X0X0X0X0X0X0X0X0X0X0XrX6X6XrXrX6XrXyXkX/.N.hXlXaXt.",
"_._.HXlXzXpX1X+X5X6X6X0X0X0X0X0X6X6X6X6X6X6X3X3X=X=X=X&X&X&X&X&X=X=X3X3X3X3X=X=X3X4X4X4X4X3X3X4X=X&X&X&X&XoXoX.X.X.X3.5.5.<.<.3.oX&X&X&X&XoXoX.X.X.X3.5.5.<.<.5..X.X.X.X.X.X.X.X.X.X.X.X.X.X.XoXoX&X&XoX4.' f $ X   o y =.5XBXCXwX0X0X0X0X0X0X0X0X0X0X0X0X0X0X0X0X0X0X0X0X6X6X4X=X=X=X&X&X&X&X.X2.2..X&X=X&X3.' d $       + t E XX=X=X=X3X3X3X3X3X3X3X3X=X=X3X3X3X3X=X=X3X3X3X3X4X4X4X4X4X4X4X6X6X6X6X6X3X3X=X&X&XoXoX.X.X3.3.3..X.X.X.X.X.X.X.X.X.X.X.X.X.X.X.X<.*.*.*.*.*.*.*.2.-.2.-.2.-.2.-.$.$.$.$.` ` ` ) ) W W W R R R R g g R W ) ` ` $.$.` ` ) W R g g R R R R h f y t t % $ o o + O O < < x c ..} >.1.XX&X=X3X3X3X3X&X3.-.-.*.$.` ` ) ` ) ) ) W W W ) ` $.$.$.` ` ` ) ) W W W R R R R E E f y t $ o o   : K z s c v ~ .X=X=X3X3X3X3X3X3X3X4X4X4X4X4X=X.X.X&X3X6X3XOX<.R t o   o $ u ) *X0X0X0X0X0X0X0X0X0X0X0X0X0X0X0X0X0X0X0X0X0X0X0XrX6X6XrXrX6XrXyXkX/.N.hXlXaXt.",
"_._.GXlXzXpX1X+X;X4X6X0X0X0X0X6X6X3X3X3X3X3X3X3X3X=X=X=X=X=X=X=X3X3X3X3X3X3X3X=X3X4X4X4X3X5X5X=X&X&X&X&XoXoXoX.X.X.X.X3.3.3.5..XoX&X&X&XoXoXoX.X.X.X.X3.3.3.5.3..X.X.X.X.X.X.X.X.X.X.X.X.X.X.X.X.XoXoX.X1.' f $ X   o t %.;XNXBXwX0X0X0X0X0X0X0X0X0X0X0X0X0X0X0X0X0X0X0X6X6X6X4X3X=X=X=X&X&X&XoX5.<..XoXoX.X<.' g & o   o o & E XX3X3X3X3X3X3X3X3X3X3X3X3X3X3X3X3X3X3X3X3X3X3X3X6X6X6X6X6X6X6X6X6X6X6X6X6X3X3X=X=X&X&X&XoXoXoX.X.X.X.X.X.X.X.X3.3.3.3.3.3.3.3.<.*.$.*.$.*.$.*.$.*.-.*.-.-.-.-.*.$.` ` ` ` ) ) ) ) W W W R R R R R R R W ) ` ` $.$.` ` ) W R R R W W W W R h f y t % $ o o + O O < 1 x c ..} >.1.3.oX&X&X&X=X&XoX<.*.*.$.$.` ` ) ` ` ) ) ) ) ) ) ` $.$.` ` ` ) ) ) W W R R R R R h h f u $ o o     : K z s b v ~ XX=X=X3X=X=X=X=X3X3X3X=X-X=X-X;X.X.XoX&X=X&XXX=.R y $ o o $ t W *X0X0X0X0X0X0X0X0X0X0X0X0X0X0X0X0X0X0X0X0XrXrX8XrX3X6XrX8X3XrXyXkX/.N.hXlXaXe.",
"[.^.V.gXzXpX1X3.;X3X4X6X6X6X6X3X=X=X=X=X=X=X=X=X4X4X6X6X6X6X6X6X6X6X6X6X3X3X3X3X=X=X=X&X&X&X&X&XoXoXoXoXoXoXoXoXoXoX.X.X.X.X.X.XoXoXoXoXoXoXoXoXoXoX.X.X.X.X.X.X3.<.5.<.3.<.3.<.3.<.3.<.5.<.3.5.3.3..XXX1.' h $ +   o t ] +XwXNXwX0X0X0X0X0X0X0X0X0X0X0X0X0X0X0X6X3X3X3X3X3X3X3X3X3X3X3X3X3X3X&X.X3.3.3.<.*.$.) R d t $ $ $ & E OX6X6X6X6X6X0X0X0X0X0X0X0X0X0X0X0X0X6X6X6X6X6X6X6X6X6X6X6X6X0X0X0X6X6X6X6X6X6X6X6X3X3X3X3X3X3X=XoX3.3.3.3.<.<.<.*.$.$.$.$.$.$.$.$.$.$.$.$.$.$.$.$.$.$.$.$.$.*.$.) ) ) W W W W W W W W W W R R W W ) ) ) ) ` ` ` ` ` ` ) ) ) ) ) %.=.%.%.' _ E h y t $ o o   X , < 1 x v X.| [ %.<.<.3.3.5.5.5.<.*.$.$.$.$.$.$.$.$.$.$.$.` ` ` ` $.` ` ` ` ) ) ) W W W R R R R g f u i $ o o       : K z s J v ~ XX3X=X=X=X=X*X*X&X&XOXOXoXoXoXXX.X.X.X3.3.<.$.) R d % $ o o $ g *XwXwXwXwXwXwXwXwXwXwXwXwXwXwXwX0X0X0X0X0X6X6X8X8X3X=X8X5X&X8XbXgX).).hXjXl.r.",
"[.^.V.gXzXpX1X5.;X=X4X4X6X3X8X5X&X&X&X&X&X=X=X=X4X6X6X0X0X0X0X0X6X0X6X6X6X3X3X3X=X=X=X&X&X&X&XoXoXoXoXoXoXoXoXoXoXoXoXoXoXoXoXoXoXoXoXoXoXoXoXoXoXoXoXoXoXoXoX.X3.2.2.2.<.<.<.<.<.<.<.<.2.2.2.2.<.<.3.3.1.' h $ +   o t ] +X0XwX0X0X0X0X0X0X0X0X0X0X0X0X0X0X0X0X3X3X3X3X3X3X3X3X3X3X3X3X3X3X3X=X.X3.3.<.*.$.` ) R g y t % $ & h oX6X6X6X6X6X6X6X0X0X0X0X0X0X0X0X6X6X6X6X6X6X6X6X6X6X6X6X6X6X6X6X6X3X3X3X3X3X3X3X3X3X6X3X6X6X3X=XoX3.4.1.1.1.1.=.$.$.` ` ` ) ) ` $.$.$.$.$.*.$.$.$.$.$.$.*.$.*.$.) W W W W W W W W W W W W W W ) ) ` ` ` ` ` ` ` ` ` ` ` ` ` ` $.=.1.1.=.%._ Q E y t $ o o   X , 1 1 x v X.| [ %.=.<.2.<.2.2.-.-.$.$.$.$.$.$.*.*.$.*.$.$.$.$.$.$.$.$.` ` ` ) ) ) W W W R R R R g u i & * +         - K z a J v ~ XX4X4X-X-X-X*X*X*XOXoXXXXXXXXXXX.X3.3.<.*.$.) W R d t % o o o j *XwXwXwXwXwXwXwXwXwXwXwXwXwXwXwX0X0X0X0X0X6X8X3X8X=X=X8X;XoX5XbXgX).GXhXjXl.+.",
"[.^.V.gXzXaX1X5.;X=X4X4X6X3X8X5X&XoX&X&X&X=X=X=X4X6X6X0X0X0X0X0X6X0X6X6X6X3X3X3X=X=X=X&X&X&XoXoXoXoXoXoXoXoXoXoXoXoXoXoXoXoXoXoXoXoXoXoXoXoXoXoXoXoXoXoXoXoXoX.X3.2.2.2.<.<.2.2.<.2.2.<.2.2.<.2.<.<.3.3.1.' h $ +   o t ] +X0XwX0X0X0X0X0X0X0X0X0X0X0X0X0X0X0X0X3X3X3X3X3X3X3X3X3X3X3X3X3X3X3X=X.X3.3.<.*.$.` ) R g y t % $ & h XX3X3X3X3X3X3X3X4X4X4X4X4X4X4X4X3X3X3X3X3X3X3X3X3X3X3X3X3X3X3X=X&X&X&X&X&X&X&X&X&X&X&X&X&X&X&XoXXX3.3.4.4.1.1.1.*.$.$.` ` ` ` ` $.*.*.*.*.*.*.*.=.=.=.=.*.*.*.$.) W ) ) ) ) ) ) ) ) ) ) ) ) ) ) ` ` ` ` ` ` ` ` ` ` ` ` ` ` ` $.=.1.=.%.' _ Q E y t $ o o   X # < 1 z v X.| [ %.*.<.3.3.3.5.5.<.*.*.=.=.*.*.*.*.*.*.*.*.=.=.=.=.$.$.$.$.` ` ` ) ) W W W R R R g f i & * +         - K z a J v ~ XX4X4X4X-X-X-X*X*XOXOXOXXXXXXXXX3.3.<.<.*.$.) W g d t $ o o o j *XwXwXwXwXwXwXwXwXwXwXwXwXwXwXwX0X0X0X0X0X6X8X3X8X=X=X8X;XoX5XbXgX).).KXjXl.+.",
"[.^.V.gXzXpX1X3.;X=X4X4X6X3X8X5X&X&X&X&X&X=X=X=X4X6X6X0X0X0X0X0X6X6X6X6X6X3X3X3X=X=X=X&X&X&X&XoXoXoXoXoXoXoXoXoXoXoXoXoXoXoXoXoXoXoXoXoXoXoXoXoXoXoXoXoXoXoXoX.X3.<.2.2.2.2.2.2.2.2.2.2.2.2.<.2.<.<.3.3.1.' h $ +   o t ] +X0XwX0X0X0X0X0X0X0X0X0X0X0X0X0X0X0X0X3X3X3X3X3X3X3X3X3X3X3X3X3X3X3X=X.X3.3.<.*.$.` ) R g y t % $ & f 3.&X&X&X&X&X=X=X=X=X=X=X=X=X=X=X=X=X=X&X=X=X=X=X&X&X&X&X&X&X=X&XoX.X.X.X.X.X.X.X.X.X.X.X.X.X.X.XXXXXXXXX4.4.1.1.*.*.$.$.$.$.` $.*.*.*.*.*.*.*.*.*.*.*.*.*.*.*.*.` ) ) ) ) ) ) ) ) ) ) ) ) ) ) ` $.$.$.$.$.$.$.$.$.$.$.$.$.$.$.$.=.=.=.%.' _ Q h y t $ o o   X # < 1 z c X.| [ =.<.3..X.XoX.X.X.X<.*.*.*.*.*.*.*.*.*.*.*.*.*.*.*.*.$.$.$.$.` ` ` ) ) ) W W W R R f i & * +         - K z a J  .[ OX4X4X4X4X-X-X*X*X*XOXOXOXXXXXXX3.<.<.*.$.` ) W g d t $ o o o j *XwXwXwXwXwXwXwXwXwXwXwXwXwXwXwX0X0X0X0X0X6X8X3X8X=X=X5X;XoX5XbXgX).GXhXjXl.+.",
"[.^.V.gXzXpX1X5.;X=X4X4X6X3X3X5X&XoX&X&X&X=X=X=X4X6X6X0X0X0X0X0X6X6X6X6X6X3X3X3X=X=X=X&X&X&X&XoXoXoXoXoXoXoXoXoXoXoXoXoXoXoXoXoXoXoXoXoXoXoXoXoXoXoXoXoXoXoXoX.X3.2.2.2.2.2.2.2.2.2.2.2.<.<.<.2.<.<.3.3.1.' h $ +   o t ] +X0XwX0X0X0X0X0X0X0X0X0X0X0X0X0X0X0X6X3X3X3X3X3X3X3X3X3X3X3X3X3X3X3X=X.X3.3.<.*.$.` ) R g y t % $ & f <.&X&X&X&X&X&X&X;X;X;X;X;X;X;X;X&X&X&X&X&X&X&X&X&X&X&X&X&X&X&X.X3.5.<.<.<.<.5.5.<.<.<.<.<.<.<.3.XXXXXXXXXX4.4.4.<.*.*.$.$.$.$.$.*.<.<.<.<.<.<.<.<.<.<.<.<.<.<.*.$.` ` ` ` ` ` ` ` ` ` ` ` ` ` $.$.$.$.$.$.$.$.$.$.$.$.$.$.$.$.$.=.%.%.' _ Q E h u % $ o o   X , < 1 x c X.} >.1.3.oX&X&X&X&X&XoX3.<.<.<.<.<.<.<.<.<.<.<.<.<.<.<.*.*.*.$.$.$.$.` ` ) ) ) W W W R f i & $ +         - K z a J  .[ OX4X4X4X4X4X-X-X*X*X*XOXOXOXXXXX<.<.*.$.$.` ) R g d t $ $ o o j *XwXwXwXwXwXwXwXwXwXwXwXwXwXwXwX0X0X0X0X0X6X8X3X8X=X=X5X;XoX5XbXgX).).hXjXl.+.",
"[.^.V.gXzXpX1X5.;X=X4X4X6X3X3X5X&XoX&X&X&X=X=X=X4X6X6X0X0X0X0X0X6X6X6X6X6X3X3X3X=X=X=X&X&X&X&XoXoXoXoXoXoXoXoXoXoXoXoXoXoXoXoXoXoXoXoXoXoXoXoXoXoXoXoXoXoXoXoX.X3.2.2.2.2.2.2.2.2.2.2.2.2.2.<.2.<.<.3.3.1.' h & +   o t ] +X0XwX0X0X0X0X0X0X0X0X0X0X0X0X0X0X0X6X3X=X=X=X=X=X=X=X=X=X=X=X=X=X=X&X.X3.3.<.*.$.` ) R g y t % $ & f <.&X&X&X&X&X&X&X;X;X;X;X;X;X;X;X&X&X&X&X&X&X&X&X&X&X&X&X&X&X&XoX3.<.<.2.<.2.<.<.<.2.<.2.<.2.<.5.XXOXXXXXXXXX4.4.<.*.*.*.$.$.$.$.*.<.<.<.<.<.<.<.<.<.<.<.<.<.<.*.$.$.$.$.$.$.$.$.$.$.$.$.$.$.$.$.$.*.*.*.*.*.*.*.*.*.*.*.*.*.*.$.%.%.' _ _ Q E h u % $ o o   X , < 1 A c ..} >.1.XXoX&X=X=X3X3X&X3.<.<.<.<.<.<.<.<.<.<.<.<.<.<.<.<.*.*.*.*.$.$.` ` ` ) ) ) W W R f i & $ +         - K z a J  .[ OX4X4X4X4X-X-X*X*X*XOXOXOXOXXXXX<.*.$.$.` ) W R g y t $ $ o * j *XwXwXwXwXwXwXwXwXwXwXwXwXwXwXwXwX0X0X0XrX8X8X3X8X=X=X5X;XoX5XbXgX).N.hXjXl.+.",
"[.^.V.gXzXpX1X3.;X=X4X4X6X3X3X5X&X&X&X&X&X=X=X=X4X6X6X0X0X0X0X0X0X0X6X6X6X3X3X3X=X=X=X&X&X&X&XoXoXoXoXoXoXoXoXoXoXoXoXoXoXoXoXoXoXoXoXoXoXoXoXoXoXoXoXoXoXoXoX.X3.2.2.2.2.2.<.<.<.<.2.2.2.2.2.2.<.<.3.3.1.' h & +   o t ] +X0XwX0X0X0X0X0X0X0X0X0X0X0X0X0X0X0X6X=X=X=X=X=X=X=X=X=X=X=X=X=X=X=X&X.X3.3.<.*.$.` ) W g d t % $ & h 3.=X=X=X3X=X3X=X4X4X4X4X4X4X4X4X3X=X=X=X=X=X=X=X=X=X3X=X3X=X3X&X.X3.3.3.3.3.3.3.3.3.3.3.3.3.3..XXXOXXXXXXXXX4.4.<.*.*.*.$.$.$.$.<.<.<.<.<.<.<.<.<.<.<.<.<.<.<.<.$.$.$.$.$.$.$.$.$.$.$.$.$.$.$.$.$.*.*.*.*.*.*.*.*.*.*.*.*.*.*.$.' _ _ _ Q E h f t % $ o o + O O < 1 x c ..} >.1.XX&X=X3X3X3X3X=X.X<.<.<.<.<.<.<.<.<.<.<.<.<.<.<.<.*.*.*.*.$.$.` ` ` ) ) ) W W R f i & $ +         - K z a J  .~ XX4X3X3X-X-X-X*X&X*XOXoXXXXXXX4.*.$.$.` ) W R R j y t $ $ o * g *XwXwXwXwXwXwXwXwXwXwXwXwXwXwXwXwX0X0X0XrX8X8X8X8X=X=X5X;XoX5XbXgX).fXhXjXl.+.",
"[.^.V.gXzXpX1X5.;X=X4X4X6X3X3X5X&X&X&X&X&X=X=X=X4X6X6X0X0X0X0X0X0X0X6X6X6X3X3X3X=X=X=X&X&X&X&XoXoXoXoXoXoXoXoXoXoXoXoXoXoXoXoXoXoXoXoXoXoXoXoXoXoXoXoXoXoXoXoX.X3.2.2.2.2.<.<.<.<.<.2.2.2.2.2.2.<.<.3.3.1.' h & +   o t ] +X0XwXwX0X0X0X0X0X0X0X0X0X0X0X0X0X0X6X=X&X&X&X&X&X&X&X&X&X&X&X&X&X&X&X.X3.3.<.*.$.` ) R g d t % $ & h oX6X6X6X6X6X6X6X0X0X0X0X0X0X0X0X6X6X6X6X6X6X6X6X6X6X6X6X6X6X6X3X&XoXoXoXoXoXoXoXoXoXoXoXoXoXoXoXXXXXXXXXXX4.4.1.*.*.*.$.$.$.$.$.=.<.<.<.<.<.<.<.<.<.<.<.<.<.*.*.$.$.$.$.$.$.$.$.$.$.$.$.$.$.$.$.$.$.$.$.$.$.$.$.$.$.$.$.$.$.$.$._ _ Q Q E h h f t % $ o o + O , < 1 x c ..} >.1.XX&X=X3X3X3X6X=X3.<.<.<.<.*.<.<.<.<.<.<.*.<.<.*.*.*.*.$.$.$.` ` ` ) ) ) W W W R f i & $ +         - K z a J  .~ XX=X-X=X=X*X*XOXOXOXXXXXXXXX4.1.$.` ` ) ) W R g j y t $ $ $ * g *XwXwXwXwXwXwXwXwXwXwXwXwXwXwXwXwX0X0X0XrX8X8X8X8X=X=X5X;XoX5XbXgX).fXhXjXl.+.",
"[.^.V.gXzXpX1X5.&X=X=X3X3X3X3X=X&X&X&X&X&X=X=X=X3X3X6X6X6X6X6X6X0X0X0X0X0X6X6X6X4X3X=X&X&XoXoXoXoXoXoXoXoXoXoXoXoXoXoXoXoXoXoXoXoXoXoXoXoXoXoXoXoXoXoXoXoXoXoX.X<.*.*.*.*.*.*.*.2.2.2.2.2.<.2.2.<.<.3.3.1.' h % +   o t ] +X0XwX0X0X0X0X0X0X0X0X6X6X6X6X6X6X6X3X=X&X&X&X&X&X&X&X&X&X&X&X&X&X&X&X.X3.3.<.*.$.` ) R g y t % $ & E *XwXwXwXwXwXwXwXwXwXwXwXwXwXwXwXwXwXwXwXwXwXwXwX0X0X0X0X0X0X0X6X=X&X&X&X&X&X&X&X&X&X&X&X&X&X&XoXoX4.4.4.4.4.1.1.*.$.$.` ` ` ` ` =.1.1.1.1.1.1.1.*.*.*.*.*.*.*.$.$.$.` ` $.$.$.$.%.%.%.%.%.%.%.%.` ` ` ` ` ` ` ` ` ` ` ` ` ` ` ` Q E E E h h f u t % $ o o o O , w e S b ..[ %.*.3.oXoX&X=X=X=XoX3.1.1.1.1.1.1.1.*.*.*.*.*.*.*.*.$.$.$.$.` ` ` ) ) W W W R R R g u t % $ o . . . X X > : a k k | 4.*XOXoX.X.X3.3.3.3.<.<.<.<.*.$.` ) ) W W R g g j y % $ $ $ * R *XwXwXwXwXwXwXwXwXwXwXwXwXwXwXwX0X0X0X0XrX8X8X8X8X&X&X;X=XoX;XyXgX).fXhXjXl.+.",
"[.^.V.gXzXpX1X5.&X&X=X3X3X3X3X=X&X&X&X&X&X=X=X=X3X3X3X6X6X6X0X6X0X0X0X0X0X6X6X4X4X3X=X&X&XoXoXoXoXoXoXoXoXoXoXoXoXoXoXoXoXoXoXoXoXoXoXoXoXoXoXoXoXoXoXoXoXoXoX.X<.*.*.*.*.*.*.*.2.2.2.2.<.<.2.2.<.<.3.3.1.' h % +   o t ] +X0XwX0X0X0X0X0X0X0X0X6X6X6X6X6X6X6X3X&X&X&X&X&X&X&X&X&X&X&X&X&X&X&XoX.X3.3.<.*.$.` ) R g y t % $ & E *XwXwXwXwXwXwXwXwXwXwXwXwXwXwXwXwXwXwXwXwXwXwXwXwXwXwXwXwXwXwX0X3X3X3X3X3X3X3X3X3X3X3X3X3X3X3X&XXX1.1.1.1.=.=.%.` ` ` ) ) ) W ) %.%.%.%.%.%.%.%.$.` $.` $.` $.` ` ) ` ) ` ` ` ` %.' %.' %.' %.' ) ) ) ) ) ) ) ) ) ) ) ) ) ) ) W E h h h f f u u % $ $ o o o , , w e S b ..| ' =.<..X.XoXoXoXoX.X=.%.%.%.%.%.%.%.$.` $.` $.` $.` ` ` ` ) ) ) W W W R R g g g g j u t % $ o . . . X , - p s k k ~ 1.OXXXXX3.3.<.<.<.*.*.$.$.$.$.` ) W W R R g g j j t % $ $ $ * R *XwXwXwXwXwXwXwXwXwXwXwXwXwXwXwX0X0X0X0XrX8X8X8X8X&X&X;X=XoX;XyXgX).fXhXjXl.+.",
"[.^.V.gXzXpX1X5.oX&X=X3X3X3X3X=X&XoX&X&X&X=X=X=X3X3X3X6X6X6X6X6X0X0X0X0X0X6X6X4X4X3X=X&X&XoXoXoXoXoXoXoXoXoXoXoXoXoXoXoXoXoXoXoXoXoXoXoXoXoXoXoXoXoXoXoXoXoXoX.X<.*.*.*.*.*.*.*.2.2.2.<.<.<.<.2.<.<.3.3.1.' h % +   o t ] +X0XwX0X0X0X0X0X0X0X0X6X6X6X6X6X6X6X3X&XoXoXoXoXoXoXoXoXoXoXoXoXoXoXoX.X3.3.<.*.$.` ) R g y t % $ & h OX0X0X0X0X0X0X0X0X0X0X0X0X0X0X0X0X0X0X0X0X0X0X0X0X0X0X0X0X0X0X6X3X3X3X3X3X3X3X3X3X3X3X3X3X3X3X&X<.$.$.$.$.$.` ] ) W W W R R R R _ ) ] ) ] ) ] ) ) ) ) ) ) ) ) ) W W W W W W W W ) _ ) _ ) _ ) _ W R R R R R R R R R R R R R R R h f f f u u u i % $ $ o o o O , A A S v / | ' $.<.3.3.3.3.5.5.2.$.) ] ) ] ) ] ) ) ) ) ) ) ) ) ) W W W W R R g g g d d d y y y y t t % $ o . . . # , : p c k k | >.6.6.1.1.*.=.$.` ` ` ) ) ) ) W R R g g g d d y y t % $ $ $ $ g *XwXwXwXwXwXwXwXwXwXwXwXwXwXwXwX0X0X0X0X0X6X8X8X8X&X&X;X=XoX;XyXgX).).hXjXl.+.",
"[.^.V.gXzXpX1X5.oX&X=X3X3X3X3X=X&XoX&X&X&X=X=X=X3X3X3X6X6X6X6X6X0X0X0X0X0X6X6X4X4X3X=X&X&XoXoXoXoXoXoXoXoXoXoXoXoXoXoXoXoXoXoXoXoXoXoXoXoXoXoXoXoXoXoXoXoXoXoX.X<.*.*.*.*.*.*.*.2.2.2.<.<.<.<.2.<.<.3.3.1.' h % +   o t ] +X0XwX0X0X0X0X0X0X0X0X6X6X6X6X6X6X6X3X&XoXoXoXoXoXoXoXoXoXoXoXoXoXoXoX.X3.3.<.*.$.` ) R g y t % $ & f 4.=X=X=X=X=X=X=X=X=X=X=X=X=X=X=X=X=X=X=X=X=X=X=X=X&X=X&X=X&X=X&X&X&X&X&X&X&X&X&X&X&X&X&X&X&X&X.X$.` ` ) ) ) W R R g g g d d d d R R R R R R R W R R R R R R R R R R R R R R R R R R R R R R W R g g g g g g g g g g g g g g g d y u u u t t t % $ $ $ o o o * , A S H v X.~ _ ` %.=.-.-.-.&.&.] W W W W R R R R R R R R R R R R g g g g g d d y y y t t t & & & t t % $ o . . . X , : p x k k ~ >.0.;.;.%.$.` ) W W W R R R g g g g d d d y y y t t % $ $ $ $ g *XwXwXwXwXwXwXwXwXwXwXwXwXwXwXwX0X0X0X0X0X6X8X8X8X&X&X;X=XoX;XyXgX).).hXjXl.+.",
"[.^.V.gXzXpX1X3.&X=X=X3X3X3X3X=X&X&X&X&X&X=X=X=X3X3X3X6X6X6X6X6X0X0X0X0X0X6X6X4X4X=X=X&X&XoXoXoXoXoXoXoXoXoXoXoXoXoXoXoXoXoXoXoXoXoXoXoXoXoXoXoXoXoXoXoXoXoXoX.X<.*.*.*.*.*.*.*.<.<.<.<.2.2.<.<.<.<.3.3.1.' h & +   o t ] +X0XwX0X0X0X0X0X0X0X0X6X6X6X6X6X6X6X3X&XoXoXoXoXoXoXoXoX.XoXoXoXoXoX.X.X3.3.<.*.$.` ) W h y t % $ & u ] *.-.*.-.*.-.*.-.*.-.*.-.*.-.*.-.*.-.*.-.*.-.*.-.-.-.-.-.-.-.-.2.2.2.2.2.2.2.2.2.2.2.2.2.2.2.*.) W R R R R g g d y y y t t t t j g g g g g g g d d d d d d d d d d d d d d d d g g g g g g g j y y y y y y y y y y y y y y y t t t t t % % % % $ $ $ o o o * > x S c v / ~ Q W ] ] ] ] ! ! ! ! g g g g g g g g d d d d d d d d y y y y t t t % % % $ $ o o o $ t t % $ o . . . X X , : a a a k [ ' ] ] _ W W R g g d d y y y y y y y y y y t t t t t % % * % g *XwXwXwXwXwXwXwXwXwXwXwXwXwXwXwX0X0X0X0X0X6X8X3X8X&X&X;X;X.X;XyXgX).GXhXjXl.+.",
"[.^.V.gXzXaX1X3.&X=X=X3X3X3X3X=X&X&X&X&X&X=X=X=X3X3X3X6X6X6X6X6X0X0X0X0X0X6X6X4X4X=X=X&X&XoXoXoXoXoXoXoXoXoXoXoXoXoXoXoXoXoXoXoXoXoXoXoXoXoXoXoXoXoXoXoXoXoXoX.X<.*.*.*.*.*.*.*.<.2.<.<.2.<.<.<.<.<.3.3.1.' h & +   o t ] +X0XwX0X0X0X0X0X0X0X0X6X6X6X6X6X6X6X3X&X.X.X.X.X.X.X.X.X.XoX.X.XoX.X.X3.3.3.<.*.$.` ) W h y t % $ & i d g g g g g g g g g g g g g g g g g g g g g g g g g g g g g g R W W W W W W W W W W W W W W W W R g g g d d d y t t % % % % $ % y y y y y y y y t t t t t t t t y y y y y y y y d d d d d d d y % % % % % % % % % % % % % % % % % % % % % % $ $ $ $ o o o * * > x c v v / ~ ~ R W R R g j i i i y y y y y y y y t t t t t t t t t % % % % % $ $ o o o         o % t % $ o . . .   . O , i i i f ! ! R R R g d d y y t t t % % t t y t t t t t % i i l l l l i R *XwXwXwXwXwXwXwXwXwXwXwXwXwXwXwXwX0X0X0X0X6X8X3X8X&X&X;X;XoX;XyXgX).GXhXjXl.+.",
"[.^.V.gXzXaX1X3.&X=X=X3X3X3X3X=X&XoX&X&X&X=X=X=X3X3X6X6X6X6X6X6X0X0X0X0X0X6X6X4X4X=X=X&X&XoXoXoXoXoXoXoXoXoXoXoXoXoXoXoXoXoXoXoXoXoXoXoXoXoXoXoXoXoXoXoXoXoXoX.X<.*.*.*.*.*.*.*.2.2.2.2.2.2.<.<.<.<.3.3.1.' h & +   o t ] +X0XwX0X0X0X0X0X0X0X0X6X6X6X6X6X6X6X3X&X.X.X.X.X.X.X.X.X.X.X.X.X.X.X.X3.3.3.<.*.$.` ) W g y t % $ & & $ $ $ $ o o $ o $ $ $ $ $ $ $ $ $ $ $ $ o o $ $ * * * * * * * % t y y y y y y y t t y y y y y y d d d d y y t t % % $ $ $ o o $ & t t t t t t t % % % % % % % % t t t t t t t t y y t t t t t t $ $ $ $ $ $ $ $ $ $ $ $ $ $ $ $ $ % % $ $ $ $ $ $ $ o o o * * > c c v  ./ / ! R g d d t % * * * & t t t t t t t % % % % % % % % $ $ $ $ $ o o o                 $ t $ $ o . . .       o & & t y d g g d y y y t t % % % $ $ $ $ t t t t t t t % j l k k k s l ! *XwXwXwXwXwXwXwXwXwXwXwXwXwXwXwX0X0X0X0X0X8X8X8X8X&X&X;X;X.X;XyXgX).).hXjXl.+.",
"^.^.N.gXzXpX1X3.&X=X3X3X3X3X3X=X&XoX&X&X&X&X&X=X=X=X3X3X3X3X3X3X6X6X6X0X0X0X6X6X6X4X3X=X&X&XoXoXoXoXoXoXoXoXoXoXoXoXoXoXoXoXoXoXoXoXoXoX.X.X.X.X.X.X.X.X.X.X.X3.<.*.*.*.*.*.*.*.2.2.2.2.2.2.<.2.*.2.<.<.=._ f $ +   o t ] +X0XwX0X6X6X6X6X6X6X6X6X6X6X6X6X6X6X=X.X3.3.3.3.3.3..X.X.X.X.X.X.X.X.X3.<.<.*.$.` ) W R d y % $ $ * *                                                                 $ $ $ $ $ $ $ $ $ $ $ $ $ $ $ $ t t t t t t % % $ $ $ o o o o o $ % % % % % % % $ $ $ $ % % % $ % % % % % % % % t t % % % % % % $ o o o o o o o o o o o o o o o $ $ $ $ $ $ $ $ $ $ o o o $ & & c c v v / k j j y t t % $ o     o o o $ $ $ $ $ $ $ $ $ $ $ $ $ o o o                 . . . .   o $ $ +   . . .         o o $ $ % % % % $ $ $ $ o o o o o     o $ % $ $ $ o o o ; s V  . ./ k ] -XwXwXwXwXwXwXwXwXwX0X0X0X0X0X0X0X0X0X0X6X8X3X8X5X&XoX;X&X.X;XyXgX).).KXjXl.+.",
"[./.N.kXzXpX1X.X=X3X3X6X6X6X6X3X&XoXoXoXoXoXoX&X&X&X&X&X&X&X&X&X=X3X4X6X0X0XwXwXwX0X6X3X=X&XoXoXoXoXoXoXoXoXoXoXoXoXoXoXoXoXoXoX.X.X.X.X.X3.3.5.<.<.*.*.*.*.*.*.*.*.*.*.*.*.*.*.*.*.*.*.*.*.*.*.$.&.-.*.%.Q u $ X     t ] +X0XwX6X3X3X3X3X3X3X3X3X3X3X3X3X3X3X&X*.$.$.$.$.*.*.<.3.3.XXXXoXoXoX.X<.*.$.$.` ) W R j y % $ o + + O   o     . . . . . .   + o $ $ $ $ o o o o o o o o o o o o o o $ $ $ $ $ $ $ $ $ $ $ $ $ $ $ $ $ $ $ $ $ $ $ $ $ $ $ $ $ $ $ $ $ $ $ $ $ $ $ $ $ $ $ $ $ $ $ $ $ $ $ $ $ $ $ $ $ $ $ $ $ $ $ $ $ $ $ $ $ $ $ $ $ $ $ $ $ $ $ $ $ $ $ $ $ $ $ $ $ & $ $ $ $ $ $ * a b c J b a % % % $ $ $ $ $ $ o . . . .       o $ $ $ $ $ $ $ o . . . . . . . . . . . . . . . . .       . . . . . . . .       . . . . . . . . . . . . . . . . . o o o   . . X @ X , p k X.O.w.%X7XNXwXwXwXwX0X0X0X0X6X6X6X6X4X6X3X3X3X3X3X3X=X=X=XoXoX;XoX3.+XyXgX).).GXjXl.+.",
"[./.fXkXzXpX1X.X=X3X6X6X6X6X6X3X&XoXoXoXoXoXoXoXoXoXoXoXoXoXoXoX;X;X=X4X6X0XwXwXNXwX0X6X=X&XoXoXoXoXoXoXoXoXoXoXoXoXoXoXoXoXoXoX.X.X.X.X3.3.5.<.*.*.$.$.$.$.` $.*.*.*.*.*.*.*.*.*.*.*.*.*.*.*.*.` ] &.$.' E u + X     t ] +X0XwX3X=X=X3X3X3X3X3X=X=X=X=X3X3X3XoX$.) ` ` ` $.$.*.1.4.XXXXOXOXOXXX<.$.$.` ) W R g d t % o o   . X                         o o $ $ o o o o + + o + + o o o o o o o o o + + o o + + o o + + o + o o o o o o o o o o o o + + o + o o o o o o + + o + o o o o o o o o o o o o o o o + o o o o o o o o o o + + o + o o o o o o + + + + o o o o o o o o $ o o o o o o o a x x H b > O o o o + + o o o                   o o o o o o o o                                                                                                 o o       . . . # # : k X.O.w.%X7XNXNXwXwXwX0X0X0X6X6X4X4X3X3X3X3X3X3X3X3X=X=X&X;XoXoX+XoX3.+XyXgX).).HXhXl.+.",
"`./.fXkXzXpX1X.X=X3X6X6X6X6X6X3X&XoXoXoXoXoXoXoXoXoXoXoXoXoXoXoX;X;X=X4X6X0XwXwXwXwX0X6X3X&XoXoXoXoXoXoXoXoXoXoXoXoXoXoXoXoXoX.X.X.X.X.X3.3.3.<.*.*.$.$.$.$.` $.*.*.*.*.*.*.*.*.*.*.*.*.*.*.*.*.` ] &.$.' E u o X     t ] +X0XwX3X=X3X3X3X3X3X3X3X3X=X=X=X3X=XoX*.` ` ` $.$.*.*.1.4.4.XXXXOXOXXX<.$.$.` ) W R g d t % o o   . X                         o o o o o o o o o o o o o o o o o o o o o o o o o o o o o o o o o o o o         + + + + o o o o o o   o o o o o o o o o o o     o o o o o o o o o o o o o   + + + + o + o o o o o o   o         o o o o         o o o o + +     o o o + p x S S x : , + o o o o o o o                   o o o o o o o $ $ % % $ % $ % $ % % % $ % $ % % t t y t t t t t t t t t t t t t % % % % % % % % % % % % % % % % % $ o     . . . # # : x X.O.} 9.7XNXNXwXwXwX0X0X0X6X6X4X4X3X3X3X3X3X3X3X3X=X=X&X;XoXoX+XoX3.+XyXgX).).HXhXl.+.",
"`./.fXkXzXpX1X.X=X3X6X6X6X6X6X3X&XoXoXoXoXoXoXoXoXoXoXoXoXoXoXoX&X;X=X4X6X0XwXwXwXwX0X6X=X&XoX.XoXoXoXoXoXoXoXoXoXoXoXoXoXoXoXoX.X.X.X.X3.3.5.<.*.*.$.$.$.$.` $.*.*.*.*.*.*.*.*.*.*.*.*.*.*.*.*.` ] &.$.' E u o X     t ] +X0XwX3X3X3X3X3X3X3X3X3X3X3X3X=X=X=X&X*.` ` ` $.$.*.*.1.4.4.XXXXXXOXXX<.$.$.` ) W R g d t % o o   . X O O O O + X X X X X X X X O O O O O O O O O O O O O O O O O O O O O O O O + + + O O O O O + + + O O O O O + O + O O O O + + + + O O + O O O O O O O O O O O O O O O O O O O O O O + O + O O O + O O O O + + + + O O O O O O O O O O O O + O O O , O +     + O O : 1 A A z : > O O O O O O + O X X X X X X X X O O O * * * * & i g R R R R R R R R R R R R R R W ) ) ) ) ) ) ) ) ) ) ) ) ) ) ) ) W W W W W W W W W W W W W W W R d t % * X X X @ # # - A v X.| 9.4XNXNXwXwXwX0X0X0X6X6X4X4X3X3X3X3X3X3X3X3X=X=X=X;XoXoX+XoX3.+XyXgX).GXHXhXl.+.",
"`./.fXkXzXpX1X.X=X3X6X6X6X6X6X3X&XoXoXoXoXoXoXoXoXoXoXoXoXoXoXoX&X;X;X3X6X0X0XwXwX0X6X3X=X&XoX.XoXoXoXoXoXoXoXoXoXoXoXoXoXoXoXoX.X.X.X.X3.5.5.<.*.*.$.$.$.$.` $.*.*.*.*.*.*.*.*.*.*.*.*.*.*.*.*.` ] &.$.' Q u o X     t ] +X0XwX6X3X3X3X3X3X3X3X3X3X=X=X=X3X3X&X*.` $.$.$.*.*.*.1.4.4.4.XXXXXXXX*.$.$.` ` W R g d t % o o   + X : : : : : : : : > - - - - - # # - - - - > > > > - - - - - - - > > > - - - - - - - > - > - - - - - > - > - - - - - > - > - - - - - - - - > > > > - - - - - - - > - - - > - > - - - > - > - - - - - > - > - - - - - - - - - > - > - - - - - > - - : - > , > > - - : 6 w w : - - > - > - > - - - - - # - - - - - - : : s s s a a / =.XXXXXXXXXXXXXXXXXXXXXXXXXXXXXXOXoXOXoXOXoXOXOXOXoXOXoXOXoXOXoXXXXXXXXXXXXXXXXXXXXXXXXXXXXXXX1.' ~ k a : - 4 4 # 4 5 A c k / >.4XNXwXwXwXwX0X0X0X6X6X4X4X3X3X3X3X3X3X3X3X=X=X&X;XoXoX+XoX3.+XyXgX).GXHXhXl.+.",
"`./.fXkXzXpX1X.X=X3X6X6X6X6X6X3X&XoXoXoXoXoXoXoXoXoXoXoXoXoXoXoX+X&X;X=X4X6X0X0X0X0X6X3X=XoXoX.XoXoXoXoXoXoXoXoXoXoXoXoXoXoXoXoX.X.X.X.X3.5.5.<.*.*.$.$.$.` ` $.*.*.*.*.*.*.*.*.*.*.*.*.*.*.*.*.` ] &.$.' Q u o X     t ] +X0XwX6X3X3X3X3X3X3X3X3X3X=X=X3X3X3X&X<.$.$.$.$.*.*.*.1.1.4.4.4.4.XX3.*.$.$.` ) W ! g d t $ o o   + X A N N N N N N A N A N 6 q 5 5 5 6 6 6 6 6 6 6 6 6 w 6 6 6 6 6 6 6 6 6 6 6 6 6 6 6 6 6 6 6 6 6 6 6 6 6 6 w w 6 6 6 6 6 6 6 6 6 6 w w w w 6 6 6 6 w w w w 6 6 6 6 w w 6 6 6 6 6 6 6 6 6 6 w w 6 6 6 6 6 6 6 6 6 6 w w 6 6 6 6 6 6 w w w w 6 6 6 6 A w 6 : 7 6 w A 6 6 6 6 6 6 6 6 6 6 6 6 6 6 6 w w w w w w w w w A A A S c c c O.OX7X7X7X7X7X7X7X7X7X4X7X7X7X7X7X7X7X7X7X7X7X7X7X7X7X7X7X7X7X7X7X7X4X4X4X4X4X4X4X4X4X4X4X4X4X4X,X9.} | X.c A e 0 4 4 0 w A a k ] 4XNXwXwXwXwX0X0X0X6X6X4X4X3X3X3X3X3X3X3X3X=X=X&X;XoXoX+XoX.X+XyXgX).GXHXhXl.+.",
"`./.fXkXzXpX1X.X=X3X6X6X6X6X6X3X&XoXoXoXoXoXoXoXoXoXoXoXoXoXoXoX+X+X;X;X4X6X0X0X0X6X6X=X&XoX.X.XoXoXoXoXoXoXoXoXoXoXoXoXoXoXoXoX.X.X.X.X3.5.5.<.*.*.$.$.$.` ` $.*.*.*.*.*.*.*.*.*.*.*.*.*.*.*.*.` ] &.$.' Q u o X     t ] +X0XwX6X3X=X=X3X3X3X3X3X3X3X=X3X3X3X&X<.$.*.*.*.*.*.*.1.1.1.4.4.4.4.3.*.$.$.` ) W ! g d t % o o   + X 6 N N N N N N N N N N 6 6 5 5 5 6 6 6 6 6 6 6 6 6 6 6 6 6 6 6 6 6 6 6 6 6 6 6 6 6 6 6 6 6 6 6 6 6 6 6 6 6 6 6 6 6 6 6 6 6 6 6 6 6 6 6 6 6 6 6 6 6 6 6 6 6 6 6 6 6 6 6 6 6 6 6 6 6 6 6 6 6 6 6 6 6 6 6 6 6 6 6 6 6 6 6 6 6 6 6 6 6 6 6 6 6 6 6 6 A 6 6 : : 6 N A 6 6 7 7 7 6 A A 6 6 6 6 6 6 6 N A z A A w w w w w w A z c c v } *XqXqX0XqXqXqXqXqXqX0X0X0X0XwXwXeXeXeXeXwXeXeXeXeXeXeXeXeXeXeXeXqXqXqXqXqXqX0X0X0XqXqXqXqXqXqX4X%X9.:.O. .S e q 4 0 0 q : p a Q -XwXNXwXwXwX0X0X0X6X6X4X4X3X3X3X3X3X3X3X3X=X=X&X;XoXoX+XoX.X+XyXgX).).HXhXl.+.",
"[./.fXkXzXpX1X.X=X3X6X6X6X6X6X3X&XoXoXoXoXoXoXoXoXoXoXoXoXoXoXoX@X+X&X;X3X6X6X0X0X6X3X=X&X.X.X3.oXoXoXoXoXoXoXoXoXoXoXoXoXoXoXoX.X.X.X.X3.5.5.<.*.*.$.$.$.` ` $.*.*.*.*.*.*.*.*.*.*.*.*.*.*.*.*.` ] &.$.' Q u o X     t ] +X0XwX3X=X=X=X3X3X3X3X3X3X=X=X3X3X3X&X<.*.*.*.*.*.*.*.1.1.1.1.1.1.1.<.*.$.$.` ) W R g d t % o o   + X 5 7 7 s s k k k k k s s 7 7 7 7 7 N p N s N s N s N s p s N s N p N s N s N s N s N s N s N s N N N s N s p s p s N s N s N s N s N s N s N s N s N s N s N s N s N p N p N s N N N s N s p s p s N s N s N s N s p s N N N s N s N s N N N N N N N p ; s p N N N N N N N N N D s N s N s N s s k k a p p : - - - : : p s k k } *XwXwXwXwXwXwX0XwXwXwXwXwXwXwXwXwXwXwXwXwXwXwXwXwXwXwXwXwXwXwX0X0X6X6X6X6X6X6X0X6X6X6X6X6X6X6X3X$X8.>.} / c w q 0 0 0 q 6 : > E -XNXNXwXwXwX0X0X0X6X6X4X4X3X3X3X3X3X3X3X3X=X=X&X;XoXoX+XoX.X+XyXgX).).HXhXl.+.",
"`./.fXkXzXpX1X.X=X3X6X6X6X6X6X3X&XoXoXoXoXoXoXoXoXoXoXoXoXoXoX.X.X.X.XoX=X3X3X6X6X3X3X&X&X.X.X.X.XoXoXoXoXoXoXoXoXoXoXoXoXoXoXoX.X.X.X.X3.5.3.<.*.*.$.$.$.$.` $.*.*.*.*.*.*.*.*.*.*.*.*.*.*.*.*.` ) ` ` ) R t + X     t ] +X0XwX6X3X4X4X4X4X3X3X3X3X3X3X=X=X=X&XXX1.1.1.1.1.1.1.*.*.*.*.*.*.*.*.*.*.$.` ) W R g j i $ o o   X X 3 7 7 N V k l j ( ( k k s s N N V V V V V V V V V V V V V V V V k k k k k k k k V V V V V V V V V V V V V V V V V V V V V V V V V V V V V V V V V V V V V V V V V V V V V V V V V V V V V V V V V V V V V V V V V V V V V V V V V V V V V V V V V V V V V V V V V V V V V V V V V V V V V V V V k k k a s p w q - - : p a k k } *X0X0X0X0X0X0X0X0X0X0X0X0X0X0X0X0X0X0X0X0X0X0X0X0X0X0X0X0X0X0X0X6X6X3X3X3X3X6X6X3X3X3X3X3X3X3X=XOX8.7.:...J D e # # # 3 w A p | -XNXNXwXwXwX0X0X6X3X3X3X3X=X=X=X3X3X3X3X3X=X=X&X;XoXoX+XoX3.+XyXgX).).HXhXl.+.",
"`./.fXkXzXpX1X.X=X3X6X6X6X6X6X3X&XoXoXoXoXoXoXoXoXoXoXoXoXoXoX.X.X.X.XoX&X=X3X3X3X3X=X&XoX.X.X.X.XoXoXoXoXoXoXoXoXoXoXoXoXoXoXoX.X.X.X.X3.3.3.<.*.*.$.$.$.$.` $.*.*.*.*.*.*.*.*.*.*.*.*.*.*.*.*.) ) ` ` ) R t + X     t ] +X0XwX6X4X4X4X4X4X3X3X=X3X3X3X=X=X=X&XXX4.4.4.4.1.1.1.*.*.*.*.*.$.$.$.*.*.$.` ) W R g j i $ o o   X X 4 8 7 N V B ^ ! { { | ^ ^ B B B ( ( ( ( ( ( ( ( ( ( ( ( ( ( ( ( ^ ^ ^ ^ ^ ^ ^ ^ ( ( ( ( ( ( ( ( ( ( ( ( ( ( ( ( ( ( ( ( ( ( ( ( ( ( ( ( ( ( ( ( ( ( ( ( ( ( ( ( ( ( ( ( ( ( ( ( ( ( ( ( ( ( ( ( ( ( ( ( ( ( ( ( ( ( ( ( ( ( ( ( ( ( ( ( ( ( ( ( ( ( ( ( ( ( ( ( ( ( ( ( ( ( ( ( ( ( ( ( ( ( ( ( ~ ~ / k s p w q - - - p a k k } &X6X6X6X6X6X6X6X6X6X6X6X6X6X6X6X6X6X6X6X8X8X8X8X8X8X8X8X6X6X6X3X5X=X=X=X=X;X=X;X=X&X=X&X&X&X=X&XOX#X7.:.~ k p - # # # 5 w A s | -XNXNXwXwXwX0X0X6X3X3X3X3X=X=X=X3X3X3X3X3X=X=X&X;XoXoX+XoX3.+XyXgX).).HXhXl.+.",
"`./.fXkXzXpX1X.X=X3X6X6X6X6X6X3X&XoXoXoXoXoXoXoXoXoXoXoXoXoXoX.X3.3..XoX&X=X=X3X3X=X=X&XoX.X5.3..XoXoXoXoXoXoXoXoXoXoXoXoXoXoXoX.X.X.X.X3.5.5.<.*.*.$.$.$.$.` $.*.*.*.*.*.*.*.*.*.*.*.*.*.*.*.*.) ) $.` ) R t o X     t ] +X0XwX6X4X4X4X4X4X4X4X=X=X3X3X3X3X3X=XoXXX4.4.4.4.1.1.*.*.*.$.$.$.$.$.*.$.$.` ) W R g j i $ o o   X X 4 4 8 N B ^ { ] q.q.q.;.{ { ^ ^ { { { { { { { { { { { { { { { { ,.,.,.,.,.,.,.,.{ { { { { { { { { { { { { { { { { { { { { { { { { { { { { { { { { { { { { { { { { { { { { { { { { { { { { { { { { { { { { { { { { { { { { { { { { { { { { { { { { { { { { { { { { { { { { { { { { { { { { { { { [ [ ~ k k p w q 3 3 - p a k / } +X3X3X3X8X8X8X8X8X8X3X3X3X8X8X3X5X5X5X5X5X5X5X5X5X5X5X5X5X5X5X=X;X;X;X;X;X;X;X;X&XoX&XoXoXoX&XoXOX#X7.' E i , . # # - q A z k } -XNXNXwXwXwX0X0X6X3X3X3X3X=X=X=X3X3X3X3X3X=X=X&X;XoX.X+XoX3.+XyXgX).).HXhXl.+.",
"`./.fXkXzXpX1X.X=X3X6X6X6X6X6X3X&XoXoXoXoXoXoXoXoXoXoXoXoXoXoX.X5.5..X.X&X&X=X=X3X=X=X&X.X.X5.5..XoXoXoXoXoXoXoXoXoXoXoXoXoXoXoX.X.X.X.X3.5.5.<.*.*.$.$.$.$.` $.*.*.*.*.*.*.*.*.*.*.*.*.*.*.*.*.) ) $.` ) R t + X     t ] +X0XwX6X4X4X4X4X4X4X4X=X=X3X3X3X3X3X=XOXXXXXXX4.4.4.1.*.*.$.$.$.$.` $.$.$.$.` ) W R g j i $ o o   X X 4 8 8 N B ^ &.2.@X@X@X@X5.2.;.-.-.<.<.<.<.<.<.<.<.<.<.<.<.<.<.<.5.5.5.5.5.5.5.5.<.2.2.2.<.<.<.<.<.<.<.<.<.<.<.<.<.<.<.<.<.<.<.<.<.<.<.2.<.<.<.<.<.<.<.<.<.<.<.<.<.<.<.<.<.<.<.<.<.<.<.<.<.<.<.<.<.<.<.<.<.<.<.<.<.<.<.<.<.<.<.<.<.<.<.<.<.<.<.<.<.<.<.<.<.<.<.<.<.<.<.<.<.<.<.<.<.<.<.<.<.<.<.1.>.[ [ / k p w q 4 # - : a k / :.;X8X8X8X8X8X8X8X8X8X8X8X8X8X8X8X5X5X5X5X5X5X5X5X5X5X5X5X5X5X5X;X;X;X;X;X;X;X;X;X&XoX&XoX&XoX&XoXOX8.%._ f % o   # # - w A c k :.4XNXNXwXwXwX0X0X6X3X3X3X3X=X=X=X3X3X3X3X3X=X=X&X;XoX.X+X.X3.+XyXgX).GXHXhXl.+.",
"`./.fXkXzXpX1X.X=X3X6X6X6X6X6X3X&XoXoXoXoXoXoXoXoXoXoXoXoXoXoX.X5.<.3..XoX&X=X=X=X=X&XoX.X3.<.5..XoXoXoXoXoXoXoXoXoXoXoXoXoXoXoX.X.X.X.X3.5.5.<.*.*.$.$.$.$.` $.*.*.*.*.*.*.*.*.*.*.*.*.*.*.*.*.) ) $.` ) R t + X     t ] +X0XwX6X4X4X4X4X4X4X4X=X3X3X3X3X3X3X=XOXXXXXXXXX4.4.1.*.*.$.$.` ` ` ` $.$.$.` ) W R g j i $ o o   X X 4 8 8 M @.{ -..X=X=X=X=X=XoX+X+XoXoXoXoXoXoXoXoXoXoXoXoXoXoXoXoX=X=X=X=X=X=X&X&XoXoXoXoXoXoXoXoXoXoXoXoXoXoXoXoXoXoXoXoXoXoXoXoXoXoXoXoXoXoXoXoXoXoXoXoXoXoXoXoXoXoXoXoXoXoXoXoXoXoXoXoXoXoXoXoXoXoXoXoXoXoXoXoXoXoXoXoXoXoXoXoXoXoXoXoXoXoXoXoXoXoXoXoXoXoXoXoXoXoXoXoXoXoXoXoXoXoXoXoXoXoXoX.X8.>.} / k z w q 4 4 - : a k / q.=X0X0X0X0X0X0X0X0X0X0X0X0X0X0X0X6X8X8X8X8X8X8X8X8X8X8X8X8X8X8X8X5X;X;X;X;X;X;X;X=X=X=X=X=X=X=X&XXX1.' R y % o   # , - z c  ./ :.4XNXNXwXwXwX0X0X6X3X3X3X3X=X=X=X3X3X3X3X3X=X=X=X;XoXoX+XoX3.<XyXgX).).HXhXl.+.",
"`./.fXkXzXpX1X.X=X3X6X6X6X6X6X3X&XoXoXoXoXoXoXoXoXoXoXoXoXoXoX.X5.<.5..XoX&X=X=X=X=X&XoX.X5.<.5..XoXoXoXoXoXoXoXoXoXoXoXoXoXoXoX.X.X.X.X3.5.5.<.*.*.$.$.$.$.` $.*.*.*.*.*.*.*.*.*.*.*.*.*.*.*.*.) ) $.` ) R t + X     t ] +X0XwX6X4X4X4X4X4X4X4X=X3X3X3X3X3X3X=X&XOXOXXXXX4.4.1.*.$.$.$.` ` ` ` $.$.$.` ) W R g j i $ o o   X X 4 8 8 M @.,.5.&X3X6X0X0X6X3X=X=X3X3X3X3X6X6X6X6X3X6X3X3X6X3X3X3X6X6X6X6X6X6X6X6X3X3X6X6X6X6X3X3X6X6X6X6X3X3X6X3X6X6X6X6X3X3X6X3X6X3X3X3X6X6X6X6X3X6X3X3X6X3X3X3X6X6X6X6X3X6X3X3X6X3X3X3X6X6X6X6X6X6X3X3X3X3X3X3X6X6X6X6X3X6X6X6X6X3X3X3X6X6X6X6X6X6X3X3X3X3X3X3X6X6X6X6X3X3X3X3X6X6X6X6X3X3X3X=X#X7.:.| k z w 0 4 4 - : a k / q.3XNXNXNXNXNXNXNXNXNXNXNXNXNXNXNXwX0X0X0X0X0X0X0X0X0X0X0X0X0X0X0X8X8X8X8X8X8X8X8X3X3X3X3X3X3X3X=X4.%.' R y % o   , > : x v ..| 9.4XNXwXwXwXwX0X0X6X3X3X3X3X=X=X=X3X3X3X3X3X=X=X=X;XoXoX+XoX3.<XyXgX).).HXhXl.+.",
"`./.fXkXzXpX1X.X=X3X6X6X6X6X6X3X&XoXoXoXoXoXoXoXoXoXoXoXoXoXoX.X<.2.5..XoX&X&X=X=X&X&XoX.X5.2.<..XoXoXoXoXoXoXoXoXoXoXoXoXoXoXoX.X.X.X.X3.5.5.<.*.*.$.$.$.` ` $.*.*.*.*.*.*.*.*.*.*.*.*.*.*.*.*.` ) ` ` ) R t o X     t ] +X0XwX6X4X3X3X4X4X4X4X3X3X3X3X3X3X3X=X&XOXOXOXXXXX4.1.*.$.$.` ` ` ) ` $.*.$.` ) W R g j i $ o o   X X 4 8 8 M @.,.@X=X0XwXNXNXwXwX0X0XwXwXwXwXwXwXwXwXwXwXwXwXwXwXwXwXwXwXwXwXwXwXwXwXwXwXwXwXwXwXwXwXwXwXwXwXwXwXwXwXwXwXwXwXwXwXwXwXwXwXwXwXwXwXwXwXwXwXwXwXwXwXwXwXwXwXwXwXwXwXwXwXwXwXwXwXwXwXwXwXwXwXwXwXwXwXwXwXwXwXwXwXwXwXwXwXwXwXwXwXwXwXwXwXwXwXwXwXwXwXwXwXwXwXwXwXwXwXwXwXwXwXwXwXwXwXwX6X$X9.:.| k z w 0 4 4 - : a k / 0.0XCXCXCXCXCXCXCXCXCXCXCXCXCXCXCXBXNXNXNXNXNXNXNXNXNXNXNXNXNXNXNXwXwXwXwXwXwXwXwX0X0X0X0X0X0X0X3X3.%._ h y $ o   , > p c  .X.| 9.4XwXwXwXwXwX0X0X6X3X3X3X3X=X=X=X3X3X3X3X3X=X=X=X;XoXoX+XoX3.<XyXgX).).HXhXl.+.",
"`./.fXkXzXpX1X.X=X3X6X6X6X6X6X3X&XoXoXoXoXoXoXoXoXoXoXoX.X.X.X.X.X.XoXoX&X&X=X=X=X&X&XoX.X3.5.3..XoXoXoXoXoXoXoXoXoXoXoXoXoXoX.X.X3.3.3.5.<.<.2.*.*.$.$.$.$.$.$.*.<.<.*.*.*.*.*.*.*.*.*.*.$.$.$.) ) $.` ) R t o .     t ] +X0XwX0X6X6X6X6X4X4X4X=X=X=X=X=X&X&X&X&XOXOXOXXXXX4.4.<.*.$.$.$.` ` ` $.$.$.` ) W R g j t $ o o   X X 4 4 8 N ( ,.@X=X0XwXNXNXNXwXwX0XNXNXNXNXNXNXNXNXNXNXNXNXNXNXNXNXwXwXwXwXwXwXwXwXNXNXNXNXNXNXNXNXNXNXNXNXNXNXNXNXNXNXNXNXNXNXNXNXNXNXNXNXNXNXNXNXNXNXNXNXwXwXwXwXNXNXNXNXNXNXNXNXNXNXNXNXNXNXNXNX0X0X0X0X0X0XwXwXwXwXNXNXNXNXNXNXNXNXNXNXNXNXNXNXNXNXNXNXNXNXNXwX0X0X0X0XwXwXwXwXNXNXwXwXwX0X0X3X#X>.:.| k z w q 3 # - : a k / q.0XCXCXCXCXCXCXCXCXCXCXCXCXCXCXCXBXBXBXBXBXBXBXBXBXBXBXBXBXBXBXNXwXwXwXwXwXwX0X0X0X6X6X6X6X6X6X=X<.' Q h t $ o   # > p c  .X.| 9.4XwXwXwXwXwX0X0X6X6X6X3X3X3X3X3X3X3X=X=X=X=X=X&X;X.X.X+XoX3.+X1XfX`.).HXhXl.+.",
"`./.fXkXzXpX1X.X5X6X6X0X0X0X0X6X=X&X&X&X&X&XoXoXoX.X.X.X.X.X3.oX=X6X6X6X3X3X3X3X=X&X&XoXoX.X.X.XoXoXoXoXoXoXoXoXoXoXoXoXoXoXoX.X5.2.2.2.2.2.2.2.2.-.-.-.-.-.-.-.*.<.<.<.*.*.*.$.$.$.$.` ` ` ` ` ) ` %.$.` R y o .     t ] *XqXwXwXwX0X0X0X6X6X4X=X&X&XoXoX.X.X.X&X*X*XOXOXOXXXXX3.<.<.*.*.*.*.$.*.$.$.` ) W R g j y $ o o   . @ 4 4 5 N ( :.XX*XqXeXNXNXNXwX0X0X0X0X0X0X0X0X0XwX0X0X0X0X0X0X0XwXwXwXwXwXwXwXwXwXwXwXwXwXwXwXwXwXwXwXwXwXwXwXwXwXwXwXwXwXwXwXwXwXwXwXwXwXwXwX0X0X0X6X6X6X6X4X4X6X0XwXwXwXwXwXwXwXwXwXwXwXwXwXwX6XoX5.3..X.XoX&X&X3X4X6X0X0XwXwXwXwXwXwXwXwXwXwXwXwXwXwXwXwXwXwX6X.X<.3..X&X=X3X3X6X6X3X=XoX.X3.<.:.} [ / k a > ,   - K z a J  .[ 3XNXNXNXNXNXNXNXNXNXNXNXNXNXNXNXNXNXNXNXNXNXNXNXNXNXNXNXNXNXNXwX6X6X6X6X6X3X3X3X=X=X=X&X&X&X&X.X1.' Q d % o       3 F z a  .O.>.4XwXwXwXwXwXwXwXwXwXwX0X0X0X0X0X=X=X=X&X&XoXoXoX+X3.3.@X3.<.@XaXN.^.`.GXhXl.r.",
"`./.fXkXzXpX1X.X5X6X6X0X0X0X0X6X3X=X=X&X&X&XoXoXoX.X.X.X3.3.5.oX6XwX0X0X0X6X3X3X=X=X&X&XoXoX.X.XoXoXoXoXoXoXoXoXoXoXoXoXoXoXoX.X<.-.2.-.2.-.2.-.2.-.2.-.2.-.-.<.<.<.<.<.*.*.*.$.$.` ` ` ) ) ) ) ) ` %.%.` R y o .     t ' ,XqXwXVXwXwXwX0X6X6X4X&X&XoX.X.X3.5..XOX*X*X*XOXOXOXXX3.3.<.<.<.<.*.*.*.$.$.` ) W R g j y $ o     . @ 4 9 w c ..:.#X*X7XeXeXNXwXwX0X0X0X0X0X0X0X0X0X0X0X0X0X0X0X0X0X0X0X0X0X0X0X0X0X0X0X0X0X0X0X0X0X0X0X0X0X0X0X0X0X0X0X0X0X0X0X0X0XwXwXwXwXwXwX0X0X6X6X4X4X3X3X=X=X3X6X0X0X0X0X0X0X0X0X0X0X0X0X0X0X3X5.&.*.-.2.3..XoX;X3X4X6X0XwXwXwX0X0X0X0X0X0X0X0X0X0X0X0X0X0X0X3X-.] &.2..XoX&X=X4X=X&XoX3.<.*.` _ E h f i & * +   : K z s H v [ -XwXwXwXwXwXwXwXwXwXwXwXwXwXwXwXwXwXwXwXwXwXwXwXwXwXwXwXwXwXwX0X6X3X3X3X3X=X=X&X&X&XoXoXoX.X.X3.>.' E y % o       3 F z a  .X.>.-XwXwXwXwXwXwXwXwXwXwXwXwXwXwX0X=X&X&X&XoXoXoX.X@X3.3.@X3.*.@XaXN.[.`.GXhXiXe.",
"`./.fXkXzXpX1X.X5X6X6X0X0X0X0X6X3X=X=X&X&X&X&XoXoX.X.X.X3.3.5.oX6X0X0X0X6X6X3X3X=X=X&X&XoXoXoXoXoXoXoXoXoXoXoXoXoXoXoXoXoXoXoX.X<.2.2.2.2.2.2.2.2.2.2.2.2.2.2.<.<.<.<.<.*.*.*.$.$.` ` ` ) ) ) ) ) ` %.%.` R y o .     t ' ,XqXNXVXwXwX0X0X6X4X3X&X&XoX.X.X3.5.3.OX*X*X*XOXOXXXXX3.3.<.<.<.*.*.*.*.$.$.` ) W R g j i $ o     . @ 4 9 w c ..:.8.*X7XeXeXNXwXwX0X0X0X0X0X0X0X0X0X0X0X0X0X0X0X0X0X0X0XwXwXwXwXwXwXwXwXwXwXwXwXwXwXwXwXwXwXwXwXwXwXwXwXwXwXwXwXwXwXwXwXwXwXwX0X0X0X0X6X6X4X4X3X=X=X4X6X0X0X0X0X0X0X0X0X0X0X0X0X0X0X4X3.-.2.<.3..XoX&X=X4X6X0XwXwXNXwX0X0X0X0X0X0X0X0X0X0X0X0X0X0X0X3X2.&.*.<..XoX&X=X3X=X&XoX3.<.*.` R g d t % $ o o   : K z s H v [ -XwXwXwXwXwXwXwXwXwXwXwXwXwXwXwXwXwXwXwXwXwXwXwXwXwXwXwXwXwXwX0X6X3X3X3X3X=X=X&X&X&XoXoXoX.X.X3.>.' E y % o       3 F z a  .X.>.-XwXwXwXwXwXwXwXwXwXwXwXwXwXwX0X=X&X&X&X&XoXoXoX+X3.3.@X3.*.@XaXN.[.`.GXhXiXe.",
"`./.fXkXzXpX1X.X5X6X6X0X0X0X0X6X3X=X=X&X&X&X&XoXoX.X.X.X3.3.5.oX3X0X0X6X6X6X3X3X=X=X&X&X&XoXoXoXoXoXoXoXoXoXoXoXoXoXoXoXoXoXoX.X5.2.2.2.<.2.<.2.2.2.2.2.<.2.<.<.<.<.<.<.*.*.*.$.$.` ` ` ) ) ) ) ) ` %.%.` R y o .     t ' ,XqXNXeXwXwX0X0X6X4X3X&XoX.X.X3.5.<.3.oX*X*XOXOXOXXXXX3.<.<.<.*.*.*.=.*.$.$.` ) W R g j i $ o     . @ 4 9 w c ..:.8.*X7XeXeXNXwXwX0X0X0X0X0X0X0X0X0X0X0X0X0X0X0X0X0X0XwXwXwXwXwXwXwXwXwXwXwXwXwXwXwXwXwXwXwXwXwXwXwXwXwXwXwXwXwXwXwXwXwXwXwXwXwX0X0X0X6X6X4X4X3X3X3X4X6X0X0X0X0X0X0X0X0X0X0X0X0X0X0X4X.X5.3..X.XoX&X=X4X6X0XwXwXNXNXNX0X0X0X0X0X0X0X0X0X0X0X0X0X0X0X3X<.&.-.<..XoX&X&X=X;X&XoX3.<.*.` R d y t % $ o     : K z s H v [ -XwXwXwXwXwXwXwXwXwXwXwXwXwXwXwXwXwXwXwXwXwXwXwXwXwXwXwXwXwXwXwX6X3X3X3X3X=X=X&X&X&XoXoXoX.X.X3.>.' E y % o       3 F z a  .X.>.-XwXwXwXwXwXwXwXwXwXwXwXwXwXwX0X3X&X&X&X&X&XoXoX+X3.3.@X3.<.@XaXN.[.`.GXhXiXe.",
"`./.fXkXzXpX1X.X5X6X6X0X0X0X0X6X3X=X&X&X&X&X&XoXoX.X.X.X3.3.5.oX3X6X6X6X6X6X3X3X3X=X=X&X&X&X&XoXoXoXoXoXoXoXoXoXoXoXoXoXoXoXoX.X5.2.<.2.<.<.<.<.<.<.<.<.<.2.<.<.<.<.<.<.*.*.*.$.$.` ` ` ) ) ) ) ) ` %.%.` R y o .     t ] ,XqXNXeXwX0X0X6X6X4X=X&XoX.X.X5.<.<.5.oXOXOXOXOXXXXXXX<.<.<.*.*.*.*.*.*.*.$.` ) W R g j i $ o o   . @ 4 9 q c ..:.8.*X7XeXwXNXwXwX0X0X0X0X0X0X0X0X0X0X0X0X0X0X0X0X0X0XwXwXwXwXwXwXwXwXwXwXwXwXwXwXwXwXwXwXwXwXwXwXwXwXwXwXwXwXwXwXwXwXNXNXNXwXwXwX0X0X0X6X6X4X4X4X3X4X6X0X0X0X0X0X0X0X0X0X0X0X0X0X0X4XoX.X.XoX&X&X=X3X6X0XwXNXNXNXBXNXwX0X0X0X0X0X0X0X0X0X0X0X0X0X0X3X5.-.2.5..XoX&X&X;X;XoX.X3.<.*.` W h f y % $ o     : K z s H v [ -XwXwXwXwXwXwXwXwXwXwXwXwXwXwXwXwXwXwXwXwXwXwXwXwXwXwXwXwXwXwXwX6X3X3X3X3X=X=X&X&X&XoXoXoX.X.X3.>.' E y % o       3 F z a  .X.>.-XwXwXwXwXwXwXwXwXwXwXwXwXwXwX0X3X=X=X&X&X&X&XoX+X3.3.+X.X<.@X1XN.[.`.GXhXiXe.",
"`./.fXkXzXpX1X.X5X6X6X0X0X0X0X6X3X=X&X&X&X&X&XoXoX.X.X.X3.3.3..X3X6X6X6X3X3X3X3X3X=X=X=X&X&X&X&XoXoXoXoXoXoXoXoXoXoXoXoXoXoXoX.X3.<.<.<.<.<.<.<.5.5.5.5.<.<.<.<.<.<.<.<.*.*.*.$.$.` ` ` ) ) ) ) ` ` %.%.` R y o .     t ] ,XqXwXeX0X0X0X6X4X3X;XoXoX.X3.5.<.2.5.XXoXOXOXXXXXXX3.<.<.*.*.*.*.$.$.*.*.$.` ) W R g j i $ o o   . @ 4 9 q c ..:.8.*X7XeXwXNXwXwX0X0X0X0X0X0X0X0X0X0X0X0X0X0X0X0X0X0XwXNXNXNXNXNXNXNXNXNXNXNXNXNXwXwXNXNXNXNXNXNXNXNXNXNXNXNXNXNXNXNXNXNXNXNXwXwXwX0X0X0X6X6X4X4X4X4X6X6X6X6X6X6X6X6X6X6X6X6X6X6X6X4X&X&X&X&X=X=X3X6X0XwXNXNXNXBXBXNX0X6X6X6X6X6X6X6X6X6X6X6X6X6X6X3X.X<.5.3..XoXoXoX&X+X+X.X3.<.*.` W E h u t $ o     : K A s H v [ -XwXwXwXwXwXwXwXwXwXwXwXwXwXwXwXwXwXwXwXwXwXwXwXwXwXwXwXwXwXwXwX6X3X3X3X3X=X=X&X&X&XoXoXoX.X.X3.>.' E y % o       3 F z a  .X.>.-XwXwXwXwXwXwXwXwXwXwXwXwXwXwX0X3X=X=X=X=X&X&X&X&X.X.X+X.X<.@X1XN.[.`.GXhXiXe.",
"`./.fXkXzXpX1X.X5X6X6X0X0X0X0X6X3X=X=X&X&X&X&XoXoX.X.X.X3.3.5..X=X3X3X3X3X3X3X3X3X=X=X=X=X=X=X&XoXoXoXoXoXoXoXoXoXoXoXoXoXoXoX.X3.5.5.5.5.3.3.3.5.5.5.5.5.5.5.3.<.<.<.<.*.=.=.$.$.` ` ` ` ) ) ) ) ` %.%.` R y o .     t ] ,XqXwXeX0X0X6X6X4X=X;XoX.X.X3.<.2.2.<.XXXXXXXXXXXX4.4.<.*.*.*.$.$.$.$.*.*.$.` ) W R g j t $ o o   . @ 4 9 q c ..:.8.*X7XeXwXNXwXwX0X0X0X0X0X0X0X0X0X0X0X0X0X0X0X0X0X0XwXNXNXNXNXNXNXNXNXNXNXNXNXNXNXNXNXNXNXNXNXNXNXNXNXNXNXNXNXNXNXNXNXNXNXNXNXwXwXwX0X0X0X6X6X6X6X6X6X6X6X6X6X6X6X6X6X6X6X6X6X6X6X4X=X=X=X3X3X3X6X0XwXwXNXBXBXBXBXNX0X6X6X6X6X6X6X6X6X6X6X6X6X6X6X3X.X.X.X.X.X.XoXoX+X+X.X5.<.*.*.$.W h h y % $ o o   : K z s H v [ -XwXwXwXwXwXwXwXwXwXwXwXwXwXwXwXwXwXwXwXwXwXwXwXwXwXwXwXwXwXwX0X6X3X3X3X3X=X=X&X&X&XoXoXoX.X.X3.>.' E y % o       3 F z a  .X.>.-XwXwXwXwXwXwXwXwXwXwXwXwXwXwX0X3X3X3X=X=X&X&X&X;X.X.X<X.X3.+X1XN.[.`.GXhXiXe.",
"`./.fXkXzXpX1X.X5X6X6X0X0X0X0X6X3X=X=X&X&X&X&XoXoX.X.X.X3.3.5..X=X3X3X3X3X3X3X3X3X3X3X3X=X=X=X=X&XoXoXoXoXoXoXoXoXoXoXoXoXoXoX.X.X3.3.3.3.3.3.3.3.3.3.3.3.3.3.3.<.<.<.<.*.=.=.$.$.` ` ` ` ) ) ) ) ` %.%.` R y o .     t ] ,XqXwXeX0X6X6X4X3X=X;XoX.X3.<.2.-.-.2.XXXXXXXXXX4.4.1.*.*.*.$.$.$.$.$.*.$.$.` ) W R g j t $ o o   . @ 4 9 q c ..:.8.*X7XeXwXNXwXwX0X0X0X0X0X0X0X0X0X0X0X0X0X0X0X0X0X0XNXNXNXNXNXNXNXNXNXNXNXNXNXNXNXNXNXNXNXNXNXNXNXNXNXNXNXNXNXNXNXNXBXBXBXNXNXNXNXwXwX0X0X0X6X6X6X6X4X4X4X4X6X4X4X4X4X4X4X4X4X4X4X4X3X3X3X3X6X6X0X0XwXNXNXNXBXBXBXNX0X4X4X4X4X4X4X4X4X4X4X4X4X4X4X3X&XoXoXoX.X.X.X.X@X@X5.5.2.*.*.$.W h d y % $ o o   : K z s H v [ -XwXwXwXwXwXwXwXwXwXwXwXwXwXwXwXwXwXwXwXwXwXwXwXwXwXwXwXwXwXwX0X6X3X3X3X3X=X=X&X&X&XoXoXoX.X.X3.>.' E y % o       3 F z a  .X.>.-XwXwXwXwXwXwXwXwXwXwXwXwXwXwX0X6X3X3X3X=X=X=X&X;XoX.X+XoX3.<X1XN.[.`.GXhXiXe.",
"`./.fXkXzXpX1X.X=X3X6X6X6X6X6X3X3X=X&X&X&X&X&XoXoX.X.X.X3.3.5..X&X=X=X=X3X3X3X3X4X4X4X4X6X6X6X3X;X+XoXoXoXoX.X.XoXoXoXoXoXoXoXoX.X.X.X.X.X.X.X.X.X.X.X.X.X.X.X3.3.4.1.1.<.<.=.=.$.` ` ` ) ) ) ) ) ` %.%.` R y o .     t ' ,XqXwX6X6X3X3X=X&X&XoX.X3.<.*.*.$.$.*.<.3.3.3.<.<.<.*.*.*.$.$.$.` ` $.$.$.$.` ) W R g d t % o o . . . 4 9 w c ..:.8.*X7XeXeXNXwXwX0X0X0X0X0X0X0X0X0X0X0X0X0X0X0X0X0X0XNXBXBXBXBXBXBXBXCXCXCXCXCXCXCXCXBXBXBXBXBXBXBXBXBXBXBXBXBXBXBXBXBXBXBXBXBXNXNXwXwXwX0X0X0X0X6X6X3X=X=X=X=X=X=X=X=X=X=X=X=X=X=X3X6X6X6X0X0X0X0XwX0XwXwXwXwXNXNXwX3X=X=X=X=X=X=X=X=X=X=X=X=X=X=X=X=X=X&XoXoX.X3.3.<.<.*.*.*.*.*.$._ E f t % $ o     : K z s H v [ -XwXwXwXwXwXwXwXwXwXwXwXwXwXwXwXwXwXwXwXwXwXwXwXwXwXwXwXwXwXwX0X6X3X3X3X3X=X=X&X&X&XoXoXoX.X.X3.=._ R y % o   .   3 F A a  .X.>.-XwXwXwXwXwXwXwXwXwXwXwXwXwXwXwX0X6X6X6X4X4X3X=X5X&X&X<X+X.X<XbXN.[.`.GXhXiXe.",
"`./.fXkXzXpX1X.X=X3X6X6X6X6X6X3X3X=X=X&X&X&X&XoXoX.X.X.X3.3.5..X&X=X=X=X=X=X=X3X4X6X6X6X6X6X6X4X;X+XoXoXoXoX.X.XoXoXoXoXoXoXoXoX.X.X.X.X.X.X.X.X.X.X.X.X.X.X.X.X3.4.1.1.<.=.=.=.$.` ` ` ) ) ) ) ) ` %.%.` R y o .     t ' ,XqXwX6X3X3X3X=X&X&XoX3.<.<.*.$.$.$.$.<.3.3.<.<.<.*.*.*.$.$.$.` ` ` ` $.$.$.` ) W R g d t % o o . . . 4 9 w c ..:.8.*X7XeXeXNXwXwX0X0X0X0X0X0X0X0X0X0X0X0X0X0X0X0X0XwXNXBXBXBXBXBXBXBXCXCXCXCXCXCXCXCXBXBXBXBXBXBXBXBXBXBXBXBXBXBXBXBXCXCXBXBXBXBXNXNXNXwXwX0X0X0X0X6X=X=X=X=X=X=X=X=X=X=X=X=X=X=X=X=X6X0X0X0X0X0X0X0X0X0X0X0XwXwXwX0X3X=X=X=X=X=X=X=X=X=X=X=X=X=X=X=X4X3X=X&XoX.X3.<.*.*.*.*.*.*.*.$._ E f y % $ o +   : K z s H v [ -XwXwXwXwXwXwXwXwXwXwXwXwXwXwXwXwXwXwXwXwXwXwXwXwXwXwXwXwXwXwXwX6X3X3X3X3X=X=X&X&X&XoXoX.X.X.X3.=._ R y % o   .   3 F A a  .X.>.-XwXwXwXwXwXwXwXwXwXwXwXwXwXwXwX0X6X6X6X6X4X4X3X8X&X&X-X;X.X<XbXN.[.`.GXhXiXe.",
"`./.fXkXzXpX1X.X=X3X6X6X6X6X6X6X3X=X=X&X&X&XoXoXoX.X.X.X3.3.5..XoX&X&X&X=X=X=X3X4X6X6X6X0X0X0X6X;X+XoXoXoXoX.X.XoXoXoXoXoXoXoXoXoX.XoX.X.X.X.X.X.X.X.X.X.X.X.X.X3.4.1.1.<.<.=.=.$.` ` ` ) ) ) ) ) ` %.%.` R y o .     t ' ,XqXwX6X3X3X=X&X&XoX.X3.<.*.*.$.$.` $.<.<.<.<.<.*.*.=.$.$.$.` ` ` ) ` $.$.$.` ` W R g d t % o   . . . 4 9 w c ..:.#X*X7XeXeXNXwXwX0X0X0X0X0X0X0X0X0X0X0X0X0X0X0X0X0XwXNXBXBXBXBXBXBXBXCXCXCXCXCXCXCXCXBXBXBXBXBXBXBXBXBXBXBXBXBXBXBXCXCXCXCXCXBXBXBXNXNXwXwXwX0X0X0X6X=X=X=X=X=X=X=X&X=X=X=X=X=X=X=X=X3X6X6X6X6X6X6X0X6X6X6X6X6X0X6X6X=X=X=X=X=X=X=X=X=X=X=X=X=X=X=X=X6X6X3X=XoX.X<.*.*.$.$.$.$.*.*.$._ E f y % $ o o   : K A s H v [ -XwXwXwXwXwXwXwXwXwXwXwXwXwXwXwXwXwXwXwXwXwXwXwXwXwXwXwXwXwXwXwX6X3X3X3X3X=X=X&X&X&XoXoXoXoX.X3.=._ R y % o   .   3 F A a  .X.>.-XwXwXwXwXwXwXwXwXwXwXwXwXwXwXwX0X0X0X6X6X6X4X4X8X&X&X-X;XoX5XbXfX[.`.GXhXiXe.",
"`./.fXkXzXpX1X.X=X3X6X6X6X6X6X6X3X=X=X&X&X&X&XoXoX.X.X.X3.3.5..XoX&X&X&X&X=X=X3X4X6X6X0X0X0X0X6X;X+XoXoXoXoX.X.XoXoXoXoXoXoXoXoXoXoXoXoXoXoXoXoXoXoXoXoXoXoXoX.X3.4.1.1.1.<.=.=.$.` ` ` ) ) ) ) ` ` %.%.` W y o .     t ' ,XqXwX6X3X=X=X&X&XoX.X<.<.*.$.$.` ` $.*.<.<.<.*.*.*.$.$.$.` ` ) ) ) ` $.$.$.` ) W R g d t % o   . . . 4 9 w c ..:.8.*X7XeXeXNXwXwX0X0X0X0X0X0X0X0X0X0X0X0X0X0X0X0X0XwXBXCXCXCXCXCXCXCXZXZXZXZXZXZXCXCXCXCXCXCXCXCXCXCXCXCXCXCXCXCXCXCXCXCXCXCXCXBXBXBXNXNXwXwXwX0X0X0X=X&X&X&X&X&X&X&X&X&X&X&X&X&X&X=X3X3X3X3X3X3X3X3X3X3X3X3X3X3X3X3X=X&X&X&X&X&X&X&X&X&X&X&X&X&X&X=X0X0X6X=XoX.X<.*.$.$.` $.$.$.*.$.] E f y % $ o +   : K z s H v [ -XwXwXwXwXwXwXwXwXwXwXwXwXwXwXwXwXwXwXwXwXwXwXwXwXwXwXwXwXwXwXwX6X3X3X3X3X=X=X&X&X&XoXoXoX.X.X3.=._ R y % o   .   3 F A a  .X.>.-XwXwXwXwXwXwXwXwXwXwXwXwXwXwXwX0X0X0X0X0X6X6X4XtX=X=X5X-XoX5XbXfX[.`.GXhXiXe.",
"`./.fXkXzXpX1X.X=X3X6X6X6X6X6X6X3X=X=X&X&X&X&XoXoX.X.X.X3.3.3.3.oXoXoX&X&X&X=X=X6X6X0X0X0X0XwX0X;X&X+XoXoX.X.X.XoXoXoXoXoXoXoXoXoXoXoXoXoXoXoXoXoXoXoXoXoXoXoX.X3.4.1.1.1.1.=.=.$.` ` ` ) ) ) ) ) ` %.%.' R y o .     t ] ,XqXwX3X=X=X&X&XoX.X.X<.*.*.$.` ` ` ` *.<.<.*.*.=.$.$.$.` ` ) ) ) ) ) $.*.$.` ) W R g d t % o   . . . 4 9 q c ..:.8.*X7XeXwXNXwXwX0X0X0X0X0X0X0X0X0X0X0X0X0X0X0X0X0XwXBXCXCXCXCXCXCXCXZXZXZXZXZXZXZXZXCXCXCXCXCXCXCXCXCXCXCXCXCXCXCXCXZXZXCXCXCXCXBXBXNXNXNXwXwXwXwX0X=X&X&X&X&X&X&X&X&X&X&X&X&X&X&X&X=X=X=X=X=X=X=X=X=X=X=X=X=X&X=X&X&X&X&X&X&X&X&X&X&X&X&X&X&X&X&X=X0XwX0X3X&X.X<.$.` ` ` ` $.$.*.$.] E f y % $ o +   : K z s H v [ -XwXwXwXwXwXwXwXwXwXwXwXwXwXwXwXwXwXwXwXwXwXwXwXwXwXwXwXwXwXwXwX6X3X3X3X3X=X=X&X&X&XoXoXoXoX.X3.%._ R y % o   .   3 F z a  .X.>.-XwXwXwXwXwXwXwXwXwXwXwXwXwXwXwXwX0X0X0X0X6X6X6XtX=X=X8X;X&X5XbXfX[.`.GXhXiXe.",
"`./.fXkXzXpX1X.X=X3X6X6X6X6X6X3X3X=X&X&X&X&X&XoXoX.X.X.X3.3.3.3..XoXoXoX&X&X=X=X6X6X0X0XwXwXwX0X=X&XoXoXoX.X.X.XoXoXoXoXoXoXoXoXoXoXoXoXoXoXoXoXoXoXoXoXoXoXoXoX3.4.1.1.1.1.=.=.$.` ` ` ) ) ) ) ) ` %.%.' R y o .     t ] ,XqXwX3X=X=X&X&XoX.X.X<.*.$.$.` ` ) ` *.<.*.*.*.*.$.$.` ` ` ) ) ) ) ) $.*.$.` ) W R g d t % o   . . . 4 9 q c ..:.8.*X7XeXwXNXwXwX0X0X0X0X0X0X0X0X0X0X0X0X0X0X0X0X0XwXBXCXCXCXCXCXCXCXZXZXZXZXZXZXZXZXCXCXCXCXCXCXCXCXCXCXCXCXCXCXCXCXZXZXZXCXCXCXBXBXBXNXNXNXwXwXwX0X=X&X&X&X&X&X&X&X&X&X&X&X&X&X&X&X&X=X&X&X&X&X&X&X&X&X&X&XoXoXoXoX&X&X&X&X&X&X&X&X&X&X&X&X&X&X&X=XwXNX0X3X&X.X*.$.` ) ) ` ` $.*.$.] E f y % $ o o   : K z a H v ~ -XwXwXwXwXwXwXwXwXwXwXwXwXwXwXwXwXwXwXwXwXwXwXwXwXwXwXwXwXwXwXwX6X3X3X3X3X=X=X&X&X&XoXoXoXoX.X3.%._ R y % o   .   3 F z a  .X.>.-XwXwXwXwXwXwXwXwXwXwXwXwXwXwXwXwXwXwX0X0X0X6X6XtX=X=X8X5X&XtXbXfX[.`.GXhXiXe.",
"`./.fXkXzXpX1X.X=X3X6X6X6X6X6X3X3X=X&X&X&X&X&XoXoX.X.X.X3.3.5.3..X.XoXoX&X&X=X=X6X6X0X0XwXwXwX0X=X&XoXoXoX.X.X.XoXoXoXoXoXoXoXoXoXoX&XoX&XoX&XoX&XoX&XoX&XoX&XoX3.4.1.1.1.1.=.=.$.` ` ` ` ) ) ) ) ` %.$.' R y o .     t ] ,XqXwX3X=X&X&X&XoX.X3.<.*.$.$.` ` ) ` *.*.*.*.*.$.$.$.` ` ) ) ) ) ) ) $.*.$.` ) W R g d t % o o . . . 4 9 q c ..:.8.*X7XeXwXNXwXwX0X0X0X0X0X0X0X0X0X0X0X0X0X0X0X0X0XwXBXZXCXCXCXCXCXCXZXZXZXZXZXZXZXZXCXZXCXCXCXCXCXCXCXCXZXCXZXZXCXCXZXZXZXZXCXCXCXBXBXNXNXNXwXwXwX0X=X&X&X&X&X&XoXoX&XoX&X&X&X&X&X&X&X&X&X&X&XoXoXoXoXoXoXoX.X.X.XoXoX&X&X&XoXoXoXoX&X&X&X&XoXoX&X=XwXNXwX3X&X3.*.$.) ) ) ` ` $.*.$.] E f y % $ o +   : K z a J v [ -XwXwXwXwXwXwXwXwXwXwXwXwXwXwXwXwXwXwXwXwXwXwXwXwXwXwXwXwXwXwX0X6X3X3X3X3X=X=X&X&X&XoXoXoX.X.X3.%._ R y % o   .   3 F z a  .X.>.-XwXwXwXwXwXwXwXwXwXwXwXwXwXwXwXwXwXwX0X0X0X0X6XtX=X=X8X5X&X8XbXfX[.`.GXhXiXe.",
"`.).fXkXzXpX1X.X&X3X3X3X3X3X3X3X=X=X&X&X&X&X&XoXoXoX.X.X.X.X.X.XoXoXoX&X&X&X=X=X4X6X0X0X0XwXwX0X4X=X=X&X&XoXoXoXoXoXoXoXoX.X.XoXoXoXoXoXoXoXoXoXoXoXoXoXoXoXoXoX3.4.4.1.1.1.1.=.$.$.` ` ` ) ) ) ) ` ' ] W g t o .   o t ' $X7X6X=XoXoXoX.X.X3.3.*.*.$.$.` ` ` ` $.$.$.$.$.$.$.` ` ` ) ) ) ) ) ) $.$.$.` ) W R g d t % o o   . . 4 9 q c ..:.8.*X7XeXwXNXwXwX0X0X0X0X0X0X0X0X0X0X0X0X0X0X0X0X0XwXBXCXCXCXCXCXCXCXZXZXZXZXZXZXZXZXCXCXCXCXCXCXCXCXCXCXCXCXCXCXCXCXZXZXZXZXZXCXCXBXBXNXNXNXNXwXwX0X=X&X&X&X&X&X&X&X&XoX&XoXoXoXoXoXoXoXoXoXoX.X.X.XoX.X.X.X.X.X.X.X&X&X&X&X&X&X&XoX&XoXoXoXoXoXoX&X0XwX0X3X&X.X<.$.` ) ) ` ` $.$.` _ E f y % $ o o   : K z a J v ~ *XwXwXwXwXwXwXwXwXwXwXwXwXwXwXwXwXwXwX0X0X0X0XwXwX0XwX0X0X0X0X0X3X3X3X3X=X=X&X&X&XoXoXoX.X.X.X3.%._ R y % o   .   3 F z a  .X.>.-XwXwXwXwXwXwXwXwXwXwXwXwXwXwXwXwXwXwXwX0X0X0X6XtX3X3XtX5X&X8XbXfX^.`.GXjXiXr.",
"`.).fXkXzXpX1X.X&X&X=X=X=X=X=X&X&X&X&X&X&X&X&X&X&X&X&X&X&XoXoX&X&X=X=X=X=X=X=X=X4X4X6X6X6X6X6X6X0X0X0X0X6X4X4X=X&X&XoX.X.X.X.X.X.XXXXXoXXXXXXXXXXXXXXXXXXXXXXXXX3.<.3.<.<.*.*.*.$.$.$.` ` ` ` ) ) ) _ ! d % o       % g ` 4.*X>XXX4.4.1.1.1.1.1.=.=.%.%.$.$.$.` ' ' ' ` ' ` ' ) _ _ _ ) _ ) _ ' %.%.%.' _ _ E h y t % $ o o O X 9 9 q c ..:.8.*X7XeXeXNXwXwX0X0X0X0X0X0X0X0X0X0X0X0X0X0X0X0X0XwXBXBXCXBXCXBXCXBXCXBXCXBXCXBXCXBXBXNXNXNXNXNXNXBXBXBXBXBXBXBXBXCXCXZXZXZXCXCXCXBXCXVXBXNXwXwXwX0X3X3X=X=X=X=X&X&X&X&XoXoXoXoXoX.X.X.X.X.X.X.X.X.X.X.X.X.X.X.X.X.X&X=X=X=X&X&X&X&XoXoXoX.X.X.X.XoX4X7X7X=X*X.X3.<.*.$.` ` ) ) ) W Q E f y % $ o +   : K z a J v ~ *X0X0X0X0X0X0X0X0X0X0X0X0X0X0X6X6X6X6X6X6X6X6X6X3X3X3X3X3X3X3X3X3X=X=X=X&X&X&XoX&X+XoX.X3.3.3.<.$._ E d % o       3 F z a  .X.>.-XwXwXwXwXwXwXwXwXwXwXwXwXwXwXwXNXNXwXwXwX0X0X0XrX3X3XtX8X=X8XbXgX/.).JXjXl.+.",
").).fXkXzXpX1X3.oX&X&X&X&X&X&X&X&X&X&X&X&X&X&X&X&X&X&X&X&X&X&X&X=X3X=X=X3X3X3X3X4X4X4X4X4X4X4X6XwXwXwXwX0X6X6X4X&X&XoX.X.X3.3.3.XXXXXXXXXXXXXXXXXXXXXXXXXXXXXXXX3.<.<.<.<.<.*.*.$.$.$.` ` ` ` ` ` ) ! j i * .     o t g ) =.XXXX7.>.>.>.>.>.>.%.%.%.%.%.%.%.%.' _ _ _ _ _ _ _ _ _ _ _ _ _ _ _ _ ' ' ' _ _ Q E h u t $ $ o o O , 9 9 q c ..:.8.*X7XeXeXwXwXwX0X0X0X0X0X0X0X0X0X0X0X0X0X0X0X0X0XwXNXBXBXBXBXBXBXBXBXBXBXBXBXBXBXBXNXNXNXNXNXNXNXNXVXVXVXVXVXVXVXVXCXZXZXZXCXCXCXBXCXVXNXNXwXwXwX0X6X3X3X3X3X=X=X&X&X&XoXoX.X.X.X.X.X.X.X.X3.3..X.X.X.X3.3..X.X.X.X&X=X=X=X=X&X&X&XoXoX.X.X.X.X3..X-X4X4X-X*XoXXX<.*.*.$.` ) W W W Q E f t % $ o o   : K z a J v ~ +X6X6X6X6X6X6X6X6X6X6X6X6X6X6X6X4X4X4X4X4X4X4X4X3X3X=X=X3X3X3X=X=X=X=X&X&X&X&XoX+X+X.X.X3.3.<.*.$._ E d % o       3 F z a  .X.>.-XwXwXwXwXwXwXwXwXwXwXwXwXwXwXwXNXNXNXwXwXwX0X0XrX3X3X8X8X=X8XyXgX).).hXjXl.+.",
").).fXkXzXpX1X3.oX&X&X&X&X&X&X&X&X&X&X&X&X&X&X&X&X&X&X&X&X&X&X&X=X3X3X3X3X3X3X3X4X4X4X4X4X4X4X6XwXwXwX0X0X6X4X3X&X&XoX.X.X3.3.3.XXXXXXXXXXXXXXXXXXXXXXXXXXXXXXXX3.<.<.<.<.*.*.*.$.$.` ` ` ` ) ` ` ` _ ! j * o     o % d W $.1.1.%.' ' ' ' ' ' ' _ _ _ _ _ _ _ _ Q E E E E E E E E E E E R E E Q ) ) ) Q E h h f t % $ o o + O X 9 9 w c ..:.8.*X7XeXeXNXwXwX0X0X0X0X0X0X0X0X0X0X0X0X0X0X0X0X0XwXNXBXBXBXBXBXBXBXBXBXBXBXBXBXBXBXNXwXNXwXNXwXNXwXVXVXVXVXVXVXVXVXCXZXZXCXCXCXBXBXVXVXNXNXwXwX0X0X6X3X3X3X3X=X=X&X&X&XoXoXoXoX.X.X.X.X.X.X.X.X.X.X.X.X3.3..X.X.X.X&X=X=X=X&X&X&XoXoXoX.X.X.X3.3..X-X4X-X*XOXXX3.<.*.$.` ` ) W W W Q E f y % $ o o   : K z a J v ~ +X6X6X6X6X6X6X6X6X6X6X6X6X6X6X6X4X4X4X4X4X4X4X4X3X3X3X3X3X3X3X=X=X=X=X&X&X&X&XoX+X+X.X.X3.3.<.*.$._ E d % o       3 F z a  .X.>.-XwXwXwXwXwXwXwXwXwXwXwXwXwXwXwXNXNXNXwXwXwX0X0XrX3X3X8X8X=X8XyXkX).fXhXjXl.+.",
").).fXkXzXpX1X3.oX&X&X&X&X&X&X&X&X&X&X&X&X&X&X&X&X&X&X&X&X&X&X&X=X3X3X3X3X3X3X3X4X4X4X4X4X4X4X6X0XwXwX0X0X6X4X3X&XoX.X.X3.5.<.3.3.XXXXXXXXXXXXXXXXXXXXXXXXXXXX4.<.<.<.<.<.*.*.$.$.$.` ` ` ) ) ` $.$.' ! j t o       $ t g W ` ` _ Q Q Q Q Q Q Q W R W R W R R R h h h h h h h h h h h h h h h h R R R h h f y t $ $ o     . X X 9 9 q c ..:.8.*X7XeXeXNXwXwX0X0X0X0X0X0X0X0X0X0X0X0X0X0X0X0X0X0XNXBXBXBXBXBXBXBXBXBXBXBXBXBXBXNXNXwXwXwXwXwXwXwXwXwXwXwXwXwXwXNXCXZXCXCXCXCXBXBXVXVXNXwXwXwX0X0X6X3X3X3X3X=X=X&X&X&XoXoXoX.X.X.X.X.X.X.X.X.X.X.X.X.X.X3..X.X3..X&X=X=X=X&X&X&XoXoX.X.X.X3.3.3..X-X-X-X*XOXXX3.<.*.$.` ` ) ) W W Q E f y % $ o +   : K z a J v ~ *X0X0X6X0X0X0X0X0X0X0X0X0X0X0X6X4X4X4X4X4X4X4X4X3X3X3X3X3X3X3X=X=X=X=X&X&X&X&XoX+X+X.X.X3.3.<.*.$._ E d % o       3 F z a  .X.>.-XwXwXwXwXwXwXwXwXwXwXwXwXwXwXwXNXNXNXwXwXwX0X0XrX3X3X8X8X=X8XyXkX).N.hXjXl.+.",
").).fXkXzXpX1X3.oX&X&X&X&X&X&X&X&X&X&X&X&X&X&X&X&X&X&X&X&X&X&X=X=X=X=X3X3X3X3X=X4X4X4X4X4X4X3X6X0XwX0X0X6X6X4X=X&XoX.X.X5.<.<.<.3.4.4.4.4.4.4.4.3.3.3.3.4.4.4.4.<.<.<.<.*.*.$.$.$.` ` ` ) ) ) ` *.*.%.] ! y $ o     o % t d R R h h h h h h h h d d d d d d d d y y y y y y y y y y y y y y y y d d d y y t % $ $ o       . X X 9 9 w c ..:.8.*X7XeXeXNXwXwX0X0X0X0X0X0X0X0X0X0X0X0X0X0X0X0X0X0XNXBXNXNXNXNXBXBXNXNXNXNXNXNXNXNXwXwXwXwXwXwXwXwXwXwXwXwXwXwXwXNXCXCXCXCXCXBXBXBXVXVXVXwXwX0X0X6X6X3X3X3X3X=X=X&X&X&XoXoXoX.X.X.X.X3.3.3..X.X3.3..X.X3.3.3.3..X.X&X=X=X&X&X&XoXoXoX.X.X.X3.5.5..X*X-X*XOXXXXX3.<.*.$.` ` ) ) W W Q E f y % $ o +   : K z s H v ~ *X0X0X0X0X0X0X0X0X0X0X0X0X0X0X6X6X4X4X4X4X4X4X4X=X=X=X3X3X3X3X=X=X=X=X&X&X&X&XoX+X+X.X.X3.3.<.*.$._ E d % o       3 F z a  .X.>.-XwXwXwXwXwXwXwXwXwXwXwXwXwXwXwXwXNXwXwXwXwX0X0XrX3X3X8X8X=X8XyXkX).fXhXjXl.+.",
").).fXkXzXpX1X3.oX&X&X&X&X&X&X&X&X&X&X&X&X&X&X&X&X&X&X&X&X&X&X=X=X=X3X3X3X3X3X=X4X4X3X3X4X4X4X6X0X0X0X0X6X4X3X;XoXoX.X3.5.<.2.2.3.4.4.4.4.4.4.4.3.3.4.4.4.4.4.4.<.<.*.*.*.$.$.$.` ` ` ) ) ) ) ` <.<.=.' R d % o       o $ % t t u u u u u u u u t t t t t t t t % % % % % % % % % % % % % % % % t t t % % $ $ o           . X X 9 9 w c ..:.#X*X7XeXeXNXwXwX0X0X0X0X0X0X0X0X0X0X0X0X0X0X0X0X0X0XNXNXNXNXNXNXNXNXNXNXNXNXNXNXNXNXwXwXwXwXwXwXwXwX0X0X0X0X0X0X0XwXBXCXCXCXBXBXBXNXVXVXVXwX0X0X0X6X3X3X3X3X3X=X=X&X&X&XoXoXoX.X.X.X.X3.3.3..X3.3.3..X.X3.3..X3..X.X&X&X&X&X&XoXoXoX.X.X.X3.5.5.<.3.OX*XOXOXXX3.<.*.*.$.` ` ) ) ) W Q E f y % $ o +   : K z s H v ~ *X0X0X0X0X0X0X0X0X0X0X0X0X0X0X0X6X4X4X4X4X4X3X3X=X=X3X3X3X3X3X=X=X=X=X&X&X&XoXoX+X+X.X.X3.3.<.*.$._ E d % o       3 F z a  .X.>.-XwXwXwXwXwXwXwXwXwXwXwXwXwXwXwXNXNXwXwXwXwX0X0XrX3X3X8X8X=X8XyXkX).fXhXjXl.+.",
").).fXkXzXpX1X3.oX&X&X&X&X&X&X&X&X&X&X&X&X&X&X&X&X&X&X&X&X&X&X=X=X=X3X3X3X3X=X=X4X3X3X3X4X4X4X6X0X0X0X6X6X4X=X;XoX.X.X5.<.2.2.2.<.4.4.4.4.4.4.4.4.4.4.4.4.4.4.1.<.*.=.=.$.$.$.` ` ` ) ) ) W W ` <.3.1.%.W j % o           o o $ $ $ $ $ $ $ $ $ $ $ $ $ $ $ $ $ o o o o o o o o o o o o o o o $ $ $ $ $ o o o   .         . X # 9 9 w c ..:.8.*X7XeXwXNXwXwX0X0X0X0X0X0X0X0X0X0X0X0X0X0X0X0X0X0XwXNXNXNXNXNXNXNXNXNXNXNXNXNXNXwXwX0X0X0X0X0X0X0X0X0X0X0X0X0X0XwXBXCXBXBXBXBXNXNXVXVXeX0X0X6X6X6X3X3X3X3X3X=X=X&X&X&XoXoXoX.X.X.X.X.X.X.X.X.X3.3..X.X.X3..X.X.X.X&X&X&X&XoXoXoX.X.X3.3.5.<.<.2.5.XXOXXXXX4.<.<.*.$.$.` ` ) ) ) W Q E f y % $ o +   : K z s H J ~ *XwX0X0X0X0X0X0X0XwX0X0X0X0XwX0X6X3X4X4X4X4X3X3X=X=X3X3X3X3X=X=X=X=X=X&X&X&X&XoX+X+XoX.X3.3.<.*.$._ E d % o       3 F A a  .X.>.-XwXwXwXwXwXwXwXwXwXwXwXwXwXwXwXNXwXwXwXwXwX0X0XrX3X3X8X8X=X8XyXgX).).KXjXl.+.",
").).fXkXzXpX1X3.oX&X=X&X&X&X&X&X&X&X&X&X&X&X&X&X&X&X&X&X&X&X&X=X=X3X3X3X3X3X=X=X4X3X3X3X4X4X4X6X6X0X6X6X4X3X;X;XoX.X3.<.2.-.-.-.<.1.1.1.1.1.1.1.1.1.1.1.1.1.1.1.*.=.=.$.$.$.` ` ` ) ) ) W W W ) <.3.1.$._ g t $                 o + + + + + + + o o o o o   o o o o o o o o o o o o o o o o o o o o o o o       .         . X # 9 9 w c ..:.#X*X7XeXwXNXwXwX0X0X0X0X0X0X0X0X0X0X0X0X0X0X0X0X0X0XwXwXwXwXwXwXwXwXwXwXwXwXwXwXwXwX0X0X0X0X0X0X0X0X6X6X6X6X6X6X6X0XNXBXBXBXBXNXNXwXVXeXeX0X0X6X6X6X3X3X3X3X3X=X=X&X&X&XoXoXoX.X.X.X.X.X.X.X.X.X.X.X.X.X.X3..X.X.X.XoX&X&XoXoXoX.X.X3.5.5.<.<.2.2.2.XXXX6.4.1.<.*.$.$.$.` ` ) ) ) ) Q E f y % $ o +   : K z s H v ~ -XwXwXwXwXwXwXwXwXwXwXwXwXwXwX0X6X3X4X4X4X4X3X3X=X3X3X3X3X3X3X=X=X=X=X&X&X&X&XoX+X+XoX.X3.3.<.*.$._ E d % o       3 F A a  .X.>.-XwXwXwXwXwXwXwXwXwXwXwXwXwXwXwXNXwXNXwXwXwX0X0XrX3X3X8X8X=X8XyXgX).).KXjXl.+.",
").).fXkXzXpX1X3.oX&X&X&X&X&X&X&X&X&X&X&X&X&X&X&X&X&X&X&X&X&X&X=X=X=X=X3X3X3X=X=X3X3X3X3X=X=X=X3X6X3X3X3X=X&X&XoX.X3.<.*.*.$.$.$.*.*.*.*.*.*.*.*.*.*.*.*.*.*.*.*.*.$.$.$.$.` ` ` ) ) ) W W W R ) *.<.*.$.W g t $ o     . . . .                                                                                                   9 9 q c ..:.8.*X7XeXeXNXwXwX0X0X0X0X0X0X0X0X0X0X0X0X0X0X0X0X0X0XwXwXwXwXwXwXwXwXwXwXwXwXwXwXwX0X0X0X0X0X0X0X0X0X6X6X6X6X6X6X6X0XNXBXBXNXNXNXNXwXwX0X0X0X6X6X6X6X3X3X3X3X3X=X=X&X&X&XoXoXoX.X.X.X.X3.3.3.3.3..X.X.X.X.X.X3.3..X.XoXoXoXoXoX.X.X.X<.<.<.*.*.*.*.*.*.*.*.*.*.*.$.$.$.` ` ` ) ) ) W Q E f y % $ o +   : K z s H v [ -XwXwXwXwXwXwXwXwXwXwXwXwXwXwX0X6X4X4X4X4X3X3X3X3X3X3X3X3X3X3X=X=X=X=X&X&X&X&XoXoX.X.X.X3.3.3.<.%._ R y % o   .   3 F z a  .X.>.-XwXwXwXwXwXwXwXwXwXwXwXwXwXwXwXNXNXNXwXwXwX0X0XrX3X3X8X8X=X8XyXgX).).hXjXl.+.",
").).fXkXzXpX1X3.oX&X&X&X&X&X&X&X&X&X&X&X&X&X&X&X&X&X&X&X&X&X&X=X=X3X=X=X3X3X3X3X=X3X3X3X=X=X=X3X3X3X3X3X=X&X&XoX3.<.<.*.$.$.$.$.$.*.*.*.*.*.*.*.*.*.*.*.*.*.*.$.$.$.$.$.` ` ` ) ) W W W R R R ) $.*.*.` W g t $ o   . . . @ . . X X X X X X X X X X X X X X X X X X X X X X X X X X X X X X X X X X X X X X X X X X X X X X X X 9 9 q c ..:.#X*X7XeXeXNXwXwX0X0X0X0X0X0X0X0X0X0X0X0X0X0X0X0X0X0X0X0XwXwX0X0X0X0XwXwX0X0X0X0XwX0X0X6X6X6X6X6X6X6X3X3X3X3X3X3X3X6XNXNXNXNXNXwXwXwX0X0X0X6X6X6X4X4X3X3X3X3X3X=X=X&X&X&XoXoX.X.X.X.X.X.X3.3..X3..X.X.X.X.X.X3.3..X.XoXoXoX.X.X.X.X3.<.<.*.*.*.$.$.$.$.$.$.$.$.$.$.$.` ` ` ` ` ) ) ) Q E f y % $ o o   : K z s H v [ -XNXNXNXNXNXNXNXNXNXNXNXNXNXNXwX6X4X4X4X4X4X3X3X3X3X3X3X3X3X3X=X=X=X=X&X&X&XoXoXoX.X.X.X3.3.3.<.%._ R y % o   .   3 F z a  .X.>.-XwXwXwXwXwXwXwXwXwXwXwXwXwXwXwXNXNXNXwXwXwX0X0XrX3X3X8X8X=X8XyXgX).).JXjXl.+.",
").).fXkXzXpX1X3.oX&X&X&X&X&X&X&X&X&X&X&X&X&X&X&X&X&X&X&X&X&X&X=X=X3X3X3X3X3X3X3X=X=X3X3X3X3X3X3X3X3X3X=X&X&XoX.X3.<.*.*.$.$.` ` $.$.$.$.$.$.$.$.$.$.$.$.$.$.$.$.$.$.` ` ` ` ) ) ) W W R R R R W ` $.` ) W d t % o     . @ 4 4 @ # - - - - - - - - - - - - - - - - - - - - - - - - - - - - - - - - - - - - - - - - - - - - - - # 9 9 q c ..:.8.*X7XeXeXNXwXwX0X0X0X0X0X0X0X0X0X0X0X0X0X0X0X0X0X0X0X0X0X0X0X0X0X0X0X0X0X0X0X0X0X0X6X6X6X6X6X6X6X6X3X3X3X3X3X3X3X6XwXNXNXNXwXwXwX0X0X0X6X6X4X4X4X4X3X3X3X3X3X=X=X&X&X&XoXoXoXoX.X.X.X.X.X.X.X.X.X.X.X.X.X.X3.3..X.X.X.X.X.X.X3.3.5.<.*.*.$.$.$.$.$.$.$.` ` ` ` ` ` ` ` ` ` ` ` ` ) Q E f y % $ o o   : K z s H v [ -XNXNXNXNXNXNXNXNXNXNXNXNXNXNXwX6X4X4X4X4X4X4X4X3X3X3X3X3X3X3X=X=X=X=X&X&X&X&XoXoX.X.X.X3.3.5.<.%._ R y % o   .   3 F z a  .X.>.-XwXwXwXwXwXwXwXwXwXwXwXwXwXwXwXNXwXNXwXwXwX0X0XrX3X3X8X8X=X8XyXkX).N.hXjXl.+.",
").).fXkXzXpX1X3.oX&X&X=X&X&X&X&X&X&X&X&X&X&X&X&X&X&X&X&X&X&X&X=X=X3X3X3X3X3X3X3X=X=X3X3X3X3X3X3X3X3X=X=X&X&XoX.X<.<.*.$.$.` ` ` $.$.$.$.$.$.$.$.$.$.$.$.$.$.$.$.$.` ` ` ` ) ) ) W W R R R R g R W ) ) W R d t % $     . 4 0 0 4 3 5 5 5 5 5 5 5 5 q q q 5 5 5 5 6 6 6 6 w w w 6 : 6 6 : w w w 6 : 6 6 6 w w w 6 6 6 6 6 6 : : < 9 9 q c ..:.8.*X7XeXeXNXwXwX0X0X0X0X0X0X0X0X0X0X0X0X0X0X0X0X0X0X0X0X0X0X0X0X0X0X0X0X0X0X0X0X0X0X6X4X4X4X4X4X4X4X3X3X3X3X3X3X3X3XwXNXNXwXwXwX0X0X0X6X6X4X4X4X3X4X3X3X3X3X3X=X=X&X&X&XoXoXoX.X.X.X.X.X.X.X.X.X.X.X3.3..X.X.X3..X.X.X.X.X.X3.3.5.<.*.*.$.$.$.$.$.` ` ` ` ` ` ` ` ` ` ` ` ` ` ` ` ) Q E f y % $ o +   : K z s H v [ 4XNXNXNXNXNXNXNXBXNXNXBXNXNXNXwX6X4X4X4X4X4X4X4X3X3X3X3X3X3X3X=X=X=X=X&X&X&X&XoXoX.X.X.X3.3.5.<.%._ R y % o   .   3 F z a  .X.>.-XwXwXwXwXwXwXwXwXwXwXwXwXwXwXwXNXNXNXwXwXwX0X0XrX3X3X8X8X=X8XyXkX).N.hXjXl.+.",
").).fXkXzXpX1X3.oX&X=X=X&X&X&X&X&X&X&X&X&X&X&X&X&X&X&X&X&X&X&X&X=X3X3X3X3X3X=X=X=X3X3X3X3X3X3X3X=X=X=X&X&XoX.X.X<.*.*.$.` ` ` ` ` $.$.$.$.$.$.$.$.$.$.$.$.$.$.$.` ` ` ` ) ) ) W R R R R g g g R R R R R g y t % $ o   . 3 r r 4 3 - - - - - - - - - - - - - - - : : : : : : : : : : : : : : : : : : : : : : : : : : p p p p p - 9 9 q c ..:.8.*X7XeXeXNXwXwX0X0X0X0X0X0X0X0X0X0X0X0X0X0X0X0X0X0X0X0X0X0X0X0X0X0X0X0X0X0X0X0X0X6X4X4X4X4X4X4X4X4X3X=X3X=X3X=X3X3XwXwXwXwXwX0X0X0X6X6X4X4X3X3X3X3X3X3X3X3X3X=X=X&X&X&XoXoXoXoX.X.X.X3..X.X.X.X3.3.3.3.3..X.X.X.X.X.X.X.X.X3.5.<.2.*.*.$.$.$.` ` ` ) ) ) ) ) ) ) ) ) ` ` ` ` ` ` ) Q E f y % $ o +   : K z a J v [ 4XBXBXBXBXBXBXBXBXBXBXBXBXBXBXNX6X4X4X4X4X4X4X4X=X=X3X3X3X3X=X=X=X=X=X&X&X&X&XoXoX.X.X.X3.3.5.<.%._ R y % o   .   3 F z a  .X.>.-XwXwXwXwXwXwXwXwXwXwXwXwXwXwXwXNXNXwXwXwXwX0X0XrX3X3X8X8X=X8XyXkX).).hXjXl.+.",
").).fXkXzXpX1X3.oX&X&X=X&X&X&X&X&X&X&X&X&X&X&X&X&X&X&X&X&X&X&X&X=X=X3X3X3X3X3X=X=X=X3X3X3X3X3X=X=X=X=X&X&XoX.X.X<.*.$.$.` ` ) ` ` $.$.$.$.$.$.$.$.` $.` $.$.$.` ` ` ` ) ) ) W W W R R R g g g g d g g g d y t % $ o   . 8 5 r 4 # - - - - - - - - - - - - - - - : : : : : : : : : : : : : : : : : : : : : : p s s s s s s s a : 9 9 q c ..:.8.*X7XeXeXNXwXwX0X0X0X0X0X0X0X0X0X0X0X0X0X0X0X0X0X0X6X6X6X6X6X6X6X6X6X6X6X6X6X6X6X6X4X3X4X3X4X3X4X3X=X=X=X=X=X=X=X3X0XwXwXwX0X0X0X0X6X6X4X4X3X=X=X3X3X3X3X3X3X=X=X&X&X&XoXoXoXoX.X.X.X3..X.X.X.X.X.X3.3..X.X.X3..X.X.X.X.X3.5.5.<.2.*.$.$.$.` ` ` ` ) W W ) ) ) ) ) ) ) ` ` ` ` ` ) Q E f y % $ o +   : K z a J v [ 4XBXBXBXBXBXBXBXBXBXBXBXBXBXBXNX6X3X4X4X4X4X4X4X=X=X3X3X3X3X=X=X=X=X=X&X&X&X&XoXoX.X.X.X3.3.5.<.%._ R y % o   .   3 F z a  .X.>.-XwXwXwXwXwXwXwXwXwXwXwXwXwXwXwXwXNXwXwXwXwX0X0XrX3X3X8X8X=X8XyXkX).GXhXjXl.+.",
").).fXkXzXpX1X3.oX&X&X&X&X&X&X&X&X&X&X&X&X&X&X&X&X&X&X&X&X&X&X&X=X=X3X3X3X3X3X=X3X3X3X3X3X3X3X=X=X=X&X&X&XoX.X3.<.*.$.$.` ` ) ) ` ` ` ` ` ` ` ` ` ` ` ` ` ` ` ` ` ` ) ) ) ) W W R R R g g g g j d d d d d y t % $ $   . # 3 4 4 5 - - - - - - - - - - - - - - : p p p p p p p p p p p p p p p p p p p p p p p s s s a a k k k p 9 9 w c ..:.8.*X7XeXeXNXwXwX0X0X0X0X0X0X0X0X0X0X0X0X0X0X0X0X0X0X6X6X6X6X6X6X6X6X6X6X6X6X6X6X6X6X4X3X3X3X3X3X3X3X=X=X=X=X=X=X=X3X0XwXwXwX0X0X0X6X6X4X4X3X3X=X=X3X3X3X3X3X3X=X=X&X&X&XoXoX.X.X.X.X.X3..X.X.X.X.X.X.X.X.X.X3.3..X.X.X.X3.3.3.<.2.2.*.$.$.$.` ` ` ) W W W W W ) ) ) ) ) ` ` ` ` ` ) Q E f y % $ o +   : K z a J v [ 4XBXBXBXBXBXBXBXBXBXBXBXBXBXBXNX6X4X4X4X4X4X4X3X=X3X3X3X3X=X=X=X=X=X=X&X&X&X&XoXoX.X.X.X3.3.5.<.%._ R y % o   .   3 F z a  .X.>.-XwXwXwXwXwXwXwXwXwXwXwXwXwXwXwXNXNXwXwXwXwX0X0XrX3X3X8X8X=X8XyXgX).).hXjXl.+.",
").).fXkXzXpX1X3.oX&X&X&X&X&X&X&X&X&X&X&X&X&X&X&X&X&X&X&X&X&X&X=X3X3X3X3X3X3X3X3X3X3X3X=X=X=X=X=X=X=X&X&XoXoX.X3.<.*.*.$.$.` ` ` ` $.` ` ` $.$.$.` $.$.$.$.$.$.` ` ` ` ` ) ) ) W W R R R R g g g g g h g d y t % $ o o   @ 7 # @ 5 6 N N V k k k k V V V V V k / ( ( ( ( ( ( ( ( ( ( ( ( ( ( ( ( ( ( ( ( ( ( ( (  .v v c c c x A 9 9 w c ..:.8.*X7XeXeXNXwXwX0X0X0X0X0X0X0X0X0X0X0X0X0X0X0X0X0X0X6X6X6X6X6X6X6X6X4X4X4X4X4X4X4X3X=X=X=X=X=X3X3X3X=X=X=X=X3X3X3X3X0XwXwX0X0X6X6X4X4X4X3X3X4X4X4X4X6X6X6X3X3X3X=X&X&XoXoX.X.X.X.X.X.X.X.X.X.X.X.X.X.X.X.X.X.X.X.X.X3.3.3.3.3.<.<.2.*.$.$.$.$.$.` ` ) ) ) ) ) ) ) ) ) ` ` ` ` ` ` ) Q h d t % $ o +   : K z a v  .[ 4XNXNXNXNXBXNXNXBXBXBXBXBXBXBXNX0X6X6X6X4X3X3X3X=X=X=X=X3X3X3X3X=X=X=X=X=X&X&X&XoXoX.X3.5.<.2.-.%._ R y % o   .   3 F z a  .X.>.4XwXwXwXwXwXwXwXwXwXwXwXwX0X0X0XwXNXwXwXwXwX0X0XrX3X3XtX8X=X8XyXkX).GXhXjXl.+.",
").).fXkXzXpX1X3.oX&X&X&X&X&X&X&X&X&X&X&X&X&X&X&X&X&X&X&X&X&X&X=X6X0X6X6X6X6X3X3X3X3X=X=X=X=X=X&X&X*X&X&XOXOXXXXX3.<.<.<.*.*.*.$.$.$.$.$.$.$.$.$.$.$.$.$.$.$.$.$.$.$.$.$.` ` ` ) ) ) W W R R R W ) ` _ W h y t $ o o   + - A A 5 4 8 ; j ] *.5.6.-.;.{ { { ;.2.6.6.6.6.6.6.6.6.6.6.6.6.6.4.4.4.6.0.0.0.0.0.0.q.:.:.O. .c A w q 0 9 9 w c ..:.8.*X7XeXwXNXwXwX0X0X0X0X0X0X0X0X0X0X0X0X0X0X0X0X0X0X3X3X3X3X3X3X=X=X=X&X&X&X&XoXoXoX&X&X&X&X&X=X=X=X4X4X6X6X6X6X0X0X0XwX0X6X3X=X=X=X&X&X&X=X3X6X0XwX0X0X0X0X6X3X3X=X&XoX.X3.5.<.2.<..XoXoXoXoXoXoXoXoXoXoXoXoXoXoXoX3.3.<.<.<.<.<.<.*.*.*.*.*.*.*.*.*.*.*.$.$.$.$.$.` ` ` ` ) ) ) W E f u % $ o o     p K c a  . .[ *X0X0X0XwXwXwXwXNXNXNXBXBXBXBXNXwX0X6X3X=X&XoXoX&X&X&X=X3X6X6X6X=X=X=X=X3X3X3X=X=X=XoX5.-.$.` ` ' _ R y % o   .   3 F A a  .X.>.4XNXwXwXwXwX0X0X6X6X6X3X3X3X3X3X0XwXwXwX0X0X0X6XtX3X3XtX5X&XtXyXkXHXHXlXjXl.+.",
").).fXkXzXpX1X3.oX&X&X&X&X&X&X&X&X&X&X&X&X&X&X&X&X&X&X&X&X&X&X=X6X0X0X0X6X6X6X3X3X3X=X=X=X&X&X&X*X*X*X*XOXOXoXXX3.3.<.<.<.<.*.*.$.$.$.$.$.$.$.$.$.$.$.$.$.$.$.$.$.*.$.$.$.$.` ` ) ) ) W W W W ) $.=.%._ R d % $ o     . : A S 6 4 8 M ! <.oX=X=X+X@X5.2.5.@X;X;X=X=X=X=X;X;X;X;X;X=X;X=X=X=X=X;X;X;X;X;X;X<X@X0.q.} / a 1 9 9 9 9 9 w c ..:.8.*X7XeXwXNXwXwX0X0X0X0X0X0X0X0X0X0X0X0X0X0X0X0X0X0X3X3X3X3X3X=X=X&X&X&XoXoXoX.X.X.XoX&X&X&X&X=X=X=X4X6X6X0X0X0X0XwX0XwX6X6X3X=X&X&XoXoX&X3X6X0XwXNXwXwXwX0X6X6X3X=X&XoX.X5.<.-.-.2..XoX&XoX&XoX&XoX&XoX&XoX&XoX&XoX3.1.1.1.1.1.1.1.*.*.*.*.*.*.*.<.<.<.<.<.*.*.*.$.$.` ` ` ) ) ) W E f u % $ o o     p K c k  .X.[ *X6X6X0X0X0XwXwXwXNXNXBXBXBXBXNXNX0X0X3X=X&XoX.XoXoX&X=X3X6X0X6X=X=X=X3X3X3X3X3X3X=XoX5.-.] ] ) ' _ R y % o   .   3 F A a  .X.>.4XNXNXwXwXwX0X0X6X3X3X3X3X=X=X3X0XwXwX0X0X0X0X6XtX=X=XtX5X&XtXyXvXHXHXlXjXl.+.",
").).fXkXzXpX1X3.oX&X&X&X&X&X&X&X&X&X&X&X&X&X&X&X&X&X&X&X&X&X&X=X6X0X0X6X6X6X6X3X3X=X=X&X&X&X&X&X&X*X*X*XOXOXXXXX3.3.<.<.<.*.*.*.$.$.$.$.$.$.$.$.$.$.$.$.$.$.$.$.$.*.$.$.$.$.` ` ) ) ) W W W W ) $.=.%._ E d % $ o     . : A S 6 8 8 l ] 3.&X3X3X;X@X@X5.@X+X;X3X=X;X=X=X=X=X=X=X;X;X=X=X=X=X=X;X;X;X;X;X;X+X@X0.q.} / a : # 9 9 9 9 w c ..:.#X*X7XeXwXNXwXwX0X0X0X0X0X0X0X0X0X0X0X0X0X0X0X0X0X0X6X3X3X3X3X=X=X&X&X&XoXoXoX.X.X.XoXoX&X&X&X=X=X=X4X6X6X0X0X0X0X0X0X0X6X6X3X=X&XoXoXoX&X=X6X0XwXwXwXwXwX0X6X3X3X=X&XoX.X3.<.2.-.<..XoXoXoXoXoXoXoXoXoXoXoXoXoXoX.X3.1.1.1.1.1.1.1.*.*.*.*.*.*.*.<.<.<.<.<.*.*.*.$.$.` ` ` ) ) ) W E f t % $ o o     p K c k  .X.[ *X6X6X0X0X0X0XwXwXNXNXBXBXBXBXNXNX0X0X3X=X&XoX.XoXoX&X=X3X6X0X6X=X=X=X3X3X3X3X3X3X;XoX5.*.` ) ) ' _ R y % o   .   3 F A a  .X.>.4XNXNXwXwXwX0X0X6X3X3X3X3X=X=X3X0XwXwX0X0X0X6X6XtX=X=X8X5X&X8XyXvXHXHXlXlXl.+.",
").).fXkXzXpX1X3.oX&X&X&X&X&X&X&X&X&X&X&X&X&X&X&X&X&X&X&X&X&X&X=X6X0X0X6X6X6X3X3X3X=X=X&X&X&X&X&X&X*X*XOXOXOXXXXX3.<.<.<.*.*.*.*.$.$.$.$.$.$.$.$.$.$.$.$.$.$.$.$.$.*.$.$.$.$.` ` ) ) ) W W W W ) $.=.%._ E d % $ o     . : A S 6 7 7 B ] .X=X6X6X3X;X@X@X@X;X4X4X=X;X=X=X=X=X=X=X=X;X=X=X=X=X=X;X;X;X;X;X+X+X@X6.q.} / c w 0 9 9 9 9 w c ..:.8.*X7XeXwXNXwXwX0X0X0X0X0X0X0X0X0X0X0X0X0X0X0X0X0X6X6X3X3X3X3X=X=X&X&X&XoXoXoX.X.X.XoX&X&X&X&X=X=X=X4X6X6X0X0X0X0X0X0X0X6X3X=X&X&XoXoXoX&X=X6X0XwXwXwXwX0X0X6X3X3X=X&XoX.X3.3.2.2.<..XoXoXoXoXoXoXoXoXoXoXoXoXoXoX.X3.1.1.1.1.1.1.1.*.*.*.*.*.*.*.<.<.<.<.*.*.*.*.$.$.` ` ` ) ) ) W E f t % $ o o     p K c k  .X.[ *X6X6X0X0X0X0XwXwXNXNXNXBXBXBXBXNX0X0X3X=X&XoX.XoXoX&X=X3X6X0X6X=X=X=X3X3X3X3X3X3X;XoX5.*.` ) ) ' _ R y % o   .   3 F A a  .X.>.4XNXNXwXwXwX0X0X6X3X3X3X3X=X=X3X0X0X0X0X0X6X6X6XtX=X=X8X;X&X5XyXvXHXHXlXlXl.+.",
").).fXkXzXpX1X3.oX&X&X&X&X&X&X&X&X&X&X&X&X&X&X&X&X&X&X&X&X&X&X=X6X6X6X6X6X3X3X3X=X=X=X&X&X&X&X&X&XOXOXOXOXOXXXXX<.<.<.*.*.*.*.$.$.$.$.$.$.$.$.$.$.$.$.$.$.$.$.$.$.*.$.$.$.$.` ` ) ) ) W W W W ) $.=.%._ E d % $ o     . : A S N 7 M ^ -.&X6XwXwX6X=X&X&X;X3X6X6X3X=X=X=X=X=X=X=X=X=X=X=X;X;X;X;X=X=X=X=X+X+X@X2.0.O.X.H A e 0 9 9 9 q c ..:.8.*X7XeXeXNXwXwX0X0X0X0X0X0X0X0X0X0X0X0X0X0X0X0X0X6X6X3X3X3X3X=X=X&X&X&XoXoXoXoX.XoXoX&X&X&X&X=X=X=X4X6X6X0X0X0X0X0X0X0X6X3X=X&XoXoX.XoX&X=X3X6X0XwXwX0X0X6X6X3X3X=X&XoX.X.X3.<.<.3..XoXoXoXoXoXoXoXoXoXoXoXoXoXoX.X3.1.1.1.1.1.1.1.*.*.*.*.*.*.*.<.<.<.<.<.*.=.*.$.$.` ` ` ` ) ) W E f t % $ o o     p K c k  .X.[ *X6X6X0X0X0X0XwXwXNXNXNXBXBXBXBXNX0X0X3X=X&XoX.XoXoX&X=X3X6X0X6X=X=X=X3X3X3X3X3X3X;XoX5.*.` ) ) ' _ R y % o   .   3 F z a  .X.>.4XNXNXwXwXwX0X0X6X3X3X3X3X=X=X3X0X0X0X0X0X6X6X4X8X=X=X5X;XoX5XyXvXHXkXlXlXl.+.",
").).fXkXzXpX1X3.oX&X&X&X&X&X&X&X&X&X&X&X&X&X&X&X&X&X&X&X&X&X&X=X3X6X6X6X3X3X3X=X=X&X&X&X&XoXoXoXoXOXOXOXOXXXXX4.<.<.*.*.*.*.$.$.$.$.$.$.$.$.$.$.$.$.$.$.$.$.$.$.$.*.$.$.$.$.` ` ) ) ) W W W W ) $.=.%._ E d % $ o     . : A S N N M ^ 2.=X0XNXNX0X4X=X;X3X6XwX0X4X=X=X=X=X=X=X=X=X=X=X=X;X;X=X;X=X=X=X&XoX.X4.1.0.} X.H A 0 0 9 9 9 q c ..:.8.*X7XeXeXNXwXwX0X0X0X0X0X0X0X0X0X0X0X0X0X0X0X0X0X6X3X3X3X3X3X=X=X&X&X&XoXoXoXoX.XoXoX&X&X&X&X=X=X=X4X6X6X0X0X0X0X0X0X6X6X3X=X&XoXoX.XoXoX&X3X6X0X0X0X0X6X6X3X3X=X=X&XoX.X.X3.3.3.3..X.X.X.X.X.X.X.X.XoX.X.X.X.X.X.X3.1.1.1.1.1.1.1.*.*.*.*.*.*.*.<.<.<.<.<.*.=.*.$.$.` ` ` ` ) ) W E f t % $ o o     p K c k  .X.[ *X6X6X0X0X0X0XwXwXNXNXNXBXBXBXBXNX0X0X3X=X&XoX.XoXoX&X=X3X6X0X6X=X=X=X3X3X3X3X3X3X;X+X5.*.` ) ) ' _ R y % o   .   3 F z a  .X.>.4XNXwXwXwXwX0X0X6X3X3X3X3X=X=X3X6X0X0X6X6X6X4X4X8X&X&X-X;XoX-XyXvXHXgXlXlXl.+.",
").).fXkXzXpX1X3.oX&X&X&X&X&X&X&X&X&X&X&X&X&X&X&X&X&X&X&X&X&X&X=X3X6X6X3X3X3X3X=X=X&X&X&XoXoXoXoXXXXXXXXXXXXX4.4.<.*.*.*.$.$.$.$.$.$.$.$.$.$.$.$.$.$.$.$.$.$.$.$.$.*.$.$.$.$.` ` ) ) ) W W W W ) $.=.%._ E d % $ o     . : A S N N B { 3.3XwXBXBXwX0X4X3X6X0XNXwX4X=X=X=X=X=X;X;X;X=X=X=X=X;X=X;X&X&X&X&XoX.X3.1.>.~ k a > # # # 9 9 q c ..:.8.*X7XeXeXNXwXwX0X0X0X0X0X0X0X0X0X0X0X0X0X0X0X0X0X0X3X3X3X3X3X=X=X&X&X&XoXoX.X.X.XoXoX&X&X&X&X=X=X=X4X6X6X0X0X0X0X0X6X6X3X=X&XoXoX.X.X.XoX&X=X6X6X0X6X6X6X3X3X3X=X=X&XoXoX.X.X.X3.3..X.X.X.X.X.X.X.X.X.X.X.X.X.X.X.X<.1.1.1.1.1.1.1.*.*.*.*.*.*.*.<.<.<.<.<.*.=.=.$.$.` ` ` ) ) ) W E f u % $ o o     p K c k  .X.[ *X6X6X0X0X0X0XwXwXNXNXNXBXBXBXNXNX0X0X3X=X&XoXoXoXoX&X=X3X6X0X6X=X=X=X3X3X3X3X3X3X*X+X5.*.` ] ) ' _ R y % o   .   3 F z a  .X.>.4XNXNXwXwXwX0X0X6X3X3X3X3X=X=X=X6X6X6X6X6X4X4X3X5X&X&X-X;XoX<XyXkXHXgXlXlXl.+.",
").).fXkXzXpX1X3.oX&X&X&X&X&X&X&X&X&X&X&X&X&X&X&X&X&X&X&X&X&X&X=X3X3X3X3X3X=X=X=X&X&X&XoXoXoX.X.XXXXXXXXXXX4.4.1.*.*.*.$.$.$.$.$.$.$.$.$.$.$.$.$.$.$.$.$.$.$.$.$.*.*.$.$.$.$.` ` ) ) ) W W W W ) $.=.%._ E d % $ o     . : A S N N B { .X6XNXCXCXNX0X6X6X0XwXNXNX4X=X=X=X=X;X;X;X;X=X=X=X=X=X=X;X&X&X&XoXoX.X3.=.` R f & O X X X 9 9 q c ..:.8.*X7XeXeXNXwXwX0X0X0X0X0X0X0X0X0X0X0X0X0X0X0X0X0X0X3X3X3X3X3X=X=X&X&X&XoXoXoX.X.X.XoX&X&X&X&X=X=X=X4X6X6X0X0X0X0X0X6X6X3X=X&XoX.X.X3..X.X&X=X3X6X0X6X3X3X3X3X=X=X&X&X&XoXoX.X.X.X.X.X.X.X.X.X.X.X.X.X.X.X.X.X.X.X3.<.1.1.1.1.1.1.1.*.*.*.*.*.*.*.<.<.<.<.<.*.=.*.$.$.` ` ` ) ) ) W E f u % $ o o     p K c k  . .[ *X6X6X0X0X0XwXwXwXNXNXNXBXBXBXNXNX0X0X3X=X&XoXoXoXoX&X=X3X6X0X6X=X=X=X3X3X3X3X3X3X;XoX5.-.] ] ) ' _ R y % o   .   3 F z a  .X.>.4XNXNXwXwXwX0X0X6X3X3X3X3X=X=X=X6X6X6X6X4X4X3X=X5X&X&X<X+X.X<XbXkXHXgXlXlXl.+.",
"/.).fXlXzXpX1X3.oX&X&X=X=X&X&X&X&X&X&X&X&X&X&X&X&X&X&X&X&X&X&X=X3X3X3X3X=X=X=X&X&XoXoXoXoX.X.X.X3.3.3.3.<.<.<.*.*.*.$.$.$.` ` ` $.$.$.$.$.$.$.$.$.$.$.$.$.$.$.$.*.*.$.$.$.$.` ` ) ) ) W W W W ) $.=.%._ E d % $ o     . : A S p N ^ ,..X6XNXCXCXNXwX6X6X0XwXBXNX3X&X&X&X&X&X&X&X&X&X&X&X&X&X&X&XoXoX&XoXoX.X3.*.>.g y $       # 9 9 q c ..:.8.*X7XeXeXNXwXwX0X0X0X0X0X0X0X0X0X0X0X0X0X0X0X0X0X0X3X3X3X3X3X=X=X&X&X&XoXoX.X.X.X.XoXoX&X&X&X=X=X=X3X3X3X6X6X6X0X6X6X3X3X&X&X.X.X.X.X.X.XoX=X3X3X3X3X3X3X3X=X=X&X&X&X&XoXoXoXoXoX.X3.3.3.3.3.3.3.3.3.3.3.3.3.3.3.3.*.*.*.*.*.*.*.*.*.*.*.*.*.*.*.<.<.<.<.<.*.*.*.$.%.$.$.` ) ) W R h u u t $ o o     p K c k  .X.[ *X6X6X0X0X0X0XwXwXNXNXBXBXBXBXNXwX0X6X3X=X&X&XoXoXoX&X=X3X6X0X6X=X=X=X3X3X3X3X3X3X;XoX5.*.` ) ) ' _ R y % o   .   3 F z a  .X.>.4XNXNXwXwXwX0X0X6X3X3X3X3X=X=X=X3X3X3X3X=X=X=X&X;XoX.X+XoX3.+XyXkXHXHXlXlXl.+.",
"/.).fXlXzXpX1X3.oX&X&X&X&X&X&X&X&X&X&X&X&X&X&X&X&X&X&X&X&X&X&X=X=X3X3X=X=X&X&X&XoXoXoX.X.X.X.X.X3.3.3.<.<.<.*.*.*.$.$.$.` ` ` ` $.$.$.$.$.$.$.$.$.$.$.$.$.$.$.$.*.*.$.$.$.$.` ` ) ) ) W W W W ) $.=.%._ E d % $ o     . : A S p N ^ ,..X6XNXCXCXNXwX6X6X0XwXBXNX3X&X&X&X&X&X&X&X&X&X&X&X&X&X&X&X&XoX&XoXoX.X3.*.>.g y $       # 9 9 q c ..:.8.*X7XeXeXwXwXwX0X0X0X0X0X0X0X0X0X0X0X0X0X0X0X0X0X0X3X3X3X3X3X=X=X&X&X&XoXoX.X.X.X.XoX&X&X&X&X=X=X=X3X3X3X6X6X6X0X6X6X3X=X&XoX.X.X3.3..X.XoX&X=X3X3X3X=X=X=X=X=X&X&X&X&X&X&XoXoXoXoX3.<.<.<.<.<.<.<.5.5.5.5.3.3.3.3.*.*.*.*.*.*.*.*.*.*.*.*.*.*.*.<.<.<.<.<.*.*.*.$.%.$.$.` ) ) W R h u u t $ o o     p K c k  .X.[ *X6X6X0X0X0X0XwXwXNXNXBXBXBXBXNXwX0X6X3X=X&X&XoXoXoX&X=X3X6X0X6X=X&X=X3X3X3X3X3X3X;XoX5.*.` ) ) ' _ R y % o   .   3 F z a  .X.>.4XNXNXwXwXwX0X0X6X3X3X3X3X=X=X=X=X3X3X=X=X&X&X&X;X.X.X+X.X3.+XyXkXHXLXlXlXl.+.",
"/.N.fXlXzXpX1X3.oX&X&X&X&X&X&X&X&X&X&X&X&X&X&X&X&X&X&X&X&X&X&X=X=X=X=X=X=X&X&X&XoXoX.X.X.X3.3.3.<.<.<.<.<.*.*.*.$.$.$.` ` ` ) ` $.$.$.$.$.$.$.$.$.$.$.$.$.$.$.$.$.*.$.$.$.$.` ` ) ) ) W W W W ) $.=.%._ E d % $ o     . : A S N N B ,..X6XNXCXCXNX0X6X6X0XwXNXNX3X&X&X&X&X&X&X&X&X&X&X&X&X&X&X&X&XoX&XoXoX.X3.*.>.g t $       # 9 9 w c ..:.8.*X7XeXeXNXwXwX0X0X0X0X0X0X0X0X0X0X0X0X0X0X0X0X0X0X3X3X3X3X3X=X=X&X&X&XoXoXoXoX.X.XoX&X&X&X&X=X=X=X3X3X3X6X6X6X6X6X3X=X=X&XoX.X3.3.5.3..XoX&X=X=X3X=X=X=X=X&X&X&X&X&X&X&X&X&X&X&XoX3.<.<.<.<.<.<.<.5.5.<.<.<.<.<.<.<.*.*.*.*.*.*.*.*.*.*.*.*.*.*.<.<.<.<.<.*.*.*.$.%.$.$.` ) ) W R h u u t $ o o     p K c k  .X.[ *X6X6X0X0X0X0XwXwXNXNXNXBXBXBXNXwX0X6X3X=X&X&XoXoXoX&X=X3X6X0X6X=X=X=X3X3X3X3X3X3X;X+X5.*.` ) ) ' _ R y % o   .   3 F z a  .X.>.4XNXNXwXwXwX0X0X6X3X3X3X3X=X=X=X=X=X=X=X=X&X&X&X&X.X3.+X@X<.@XyXkXHXHXlXlXl.+.",
"/.).fXlXzXpX1X3.oX&X&X&X&X&X&X&X&X&X&X&X&X&X&X&X&X&X&X&X&X&X&X&X=X=X=X&X&X&X&XoXoX.X.X.X3.3.3.3.<.<.<.<.*.*.*.$.$.$.` ` ) ) ) ) $.$.$.$.$.$.$.$.$.$.$.$.$.$.$.$.$.*.$.$.$.$.` ` ) ) ) W W W W ) $.=.%._ E d % $ o     . : A S N N B { 3.3XNXBXBXNX0X4X4X6X0XNXwX3X&X&X&X&X&X&X&X&X&X&X&X&X&X&X&X&XoX&XoXoX.X3.*.>.g t $       # 9 9 q c ..:.8.*X7XeXeXNXwXwX0X0X0X0X0X0X0X0X0X0X0X0X0X0X0X0X0X0X3X3X3X3X3X=X=X&X&X&XoXoXoXoX.X.XoXoX&X&X&X=X=X=X3X3X6X6X6X6X6X6X3X=X&X&X.X.X3.<.<.5..X.X&X&X=X=X&X&X&X&X&X&X&X&X&X&X&X&X&X&X&XoX<.*.<.*.<.*.<.*.<.<.<.2.<.2.<.<.*.*.*.*.*.*.*.*.*.*.*.*.*.*.*.<.<.<.<.<.*.*.*.$.%.$.$.` ) ) W R h f u t $ o o     p K c k  .X.[ *X6X6X0X0X0X0XwXwXNXNXNXBXBXBXNXwX0X6X3X=X&X&XoXoXoX&X=X3X6X0X6X=X=X=X3X3X3X3X3X3X;X+X5.*.` ) ) ' _ R y % o   .   3 F z a  .X.>.4XNXNXwXwXwX0X0X6X3X3X3X3X=X=X=X=X=X=X&X&X&X&XoX+X3.3.@X@X<.@X1XkXHXLXlXlXl.+.",
"/.).fXlXzXpX1X3.oX&X&X&X&X&X&X&X&X&X&X&X&X&X&X&X&X&X&X&X&X&X&X&X&X&X&X&X&X&XoXoX.X.X.X3.3.5.5.5.<.<.<.*.*.*.$.$.$.` ` ) ) ) ) ) ` $.$.$.$.$.$.$.$.$.$.$.$.$.$.$.$.*.$.$.$.$.` ` ) ) ) W W W W ) $.=.%._ E d % $ o     . : A S N N B { 5.=XwXBXBXwX6X3X=X4X6XwXwX3X&X&X&X&X&X&X&X&X&X&X&X&X&X&X&X&X&X&XoXoX.X3.*.>.g t $       # 9 9 w c ..:.8.*X7XeXeXNXwXwX0X0X0X0X0X0X0X0X0X0X0X0X0X0X0X0X0X0X3X3X3X3X3X=X=X&X&X&XoXoXoXoX.XoXoX&X&X&X&X=X=X=X3X3X3X6X6X6X6X6X3X=X&XoX.X5.<.2.<.<.3..XoX&X=X=X&X&X&X&X&X&X&X&X&X&X&X=X=X=X=X&X<.*.*.*.*.*.*.*.<.2.2.2.2.2.2.<.*.*.*.*.*.*.*.*.*.*.*.*.*.*.*.<.<.<.<.*.*.*.*.$.%.$.$.` ) ) ) W h f u t $ o o     p K c k  . .[ *X6X6X0X0X0XwXwXwXNXNXNXBXBXBXNXwX0X6X3X=X&X&XoXoXoX&X=X3X6X0X6X=X=X=X3X3X3X3X3X3X;XoX5.*.` ) ) ' _ R y % o   .   3 F z a  .X.>.4XNXNXwXwXwX0X0X6X3X3X3X3X=X=X=X=X&X&X&X&X&XoXoX+X3.3.@X3.<.@X1XkXHXLXlXlXl.+.",
"/.N.fXlXzXpX1X3.oX&X&X&X&X&X&X&X&X&X&X&X&X&X&X&X&X&X&X&X&X&X&X&X&X&X&X&X&XoXoXoX.X.X.X3.5.<.<.<.<.<.*.*.*.*.$.$.` ` ` ) ) ) ) ) ` $.$.$.$.$.$.$.$.$.$.$.$.$.$.$.$.*.$.$.$.$.` ` ) ) ) W W W W ) $.=.%._ E d % $ o     . : A S N N M ^ 2.=X0XNXNX0X4X=X;X3X6X0X0X=X&X&X&X&X&X&X&X&X&X&X&X&X&X&X&X&X&X&XoXoX.X3.*.>.g t $       # 9 9 w c ..:.#X*X7XeXeXNXwXwX0X0X0X0X0X0X0X0X0X0X0X0X0X0X0X0X0X0X3X3X3X3X3X=X=X&X&X&XoXoXoXoX.XoXoX&X&X&X&X=X=X=X3X3X6X6X6X6X6X6X3X=X&XoX.X5.<.2.2.<.5..XoX&X=X=X&XoXoX&X&X&X&X&X&X&X=X=X=X=X=X&X<.*.*.*.*.*.*.*.2.2.2.2.2.2.2.2.*.*.*.*.*.*.*.*.*.*.*.*.*.*.*.<.<.<.<.<.*.*.*.$.%.$.$.` ) ) W R h f u t $ o o     p K c k  .X.[ *X6X6X0X0X0XwXwXwXNXNXNXBXBXBXNXwX0X6X3X=X&X&XoXoXoX&X=X3X6X0X6X=X=X=X3X3X3X3X3X3X=XoX5.*.` ) ) ' _ R y % o   .   3 F z a  .X.>.4XNXwXwXwXwX0X0X6X3X3X3X3X=X=X=X&X&X&X&X&XoXoXoX+X3.3.@X5.*.6.1XkXHXLXlXlXl.+.",
"/.N.fXlXzXpX1X3.oX&X&X&X&X&X&X&X&X&X&X&X&X&X&X&X&X&X&X&X&X&X&X&X&X&X&X&X&XoXoX.X.X.X3.5.5.<.<.<.<.*.*.*.*.$.$.$.` ` ) ) ) ) ) ) ` $.$.$.$.$.$.$.$.$.$.$.$.$.$.$.*.*.$.$.$.$.` ` ) ) ) W W W W ) $.$.%._ E d % $ o     . : A S N 7 M ^ -.&X6XwXwX0X3X;X;X;X4X0X0X=X&X&X&X&X&X&X&X&X&X&X&X&X&X&X&X&X&X&XoXoX.X3.*.>.g t $       # 9 9 w c ..:.8.*X7XeXwXNXwXwX0X0X0X0X0X0X0X0X0X0X0X0X0X0X0X0X0X0X6X3X3X3X3X=X=X&X&X&XoXoXoX.X.X.XoX&X&X&X&X=X=X=X3X3X3X6X6X6X6X6X3X&X&XoX.X5.2.2.2.2.5..XoX&X&X&X&XoXoXoX&X&X&X&X&X&X=X=X=X=X=X&X<.*.*.*.*.*.*.*.2.-.2.-.2.-.2.2.*.*.*.*.*.*.*.*.*.*.*.*.*.*.*.<.<.<.<.<.*.=.=.$.%.$.$.` ) ) W R h f u t $ o o     p K c k  . .[ *X6X6X0X0X0X0XwXwXNXNXBXBXBXBXNXwX0X6X3X=X&X&XoXoXoX&X=X3X6X0X6X=X=X=X3X3X3X3X3X3X=XoX5.*.` ) ) ' _ R y % o   .   3 F A a  .O.>.4XwXwXwXwXwX0X0X6X3X3X3X=X=X=X=X&X&X&X&X&XoXoX.X@X3.3.@X5.*.@X1XkXHXHXlXlXl.+.",
"/.N.fXlXzXpX1X3.oX&X&X&X&X&X&X&X&X&X&X&X&X&X&X&X&X&X&X&X&X&X&X&X&X&XoXoXoXoX.X.X.X.X3.3.5.5.5.<.*.*.*.*.$.$.$.$.` ` ` ) ) ) ) ` $.$.$.$.$.*.*.*.*.*.*.*.*.*.*.*.*.*.$.$.$.$.` ` ) ) ) W W W W ) ` $.' Q h y % o o     . : A S N 7 M ^ -.&X6XwXwX6X3X;X&X;X4X0X0X=X&X&X&X&X&X&X&X&X&X&X&X&X&X&X&X&X&X&XoXoX.X<.=.>.g t $ +     # 9 9 w c ..:.#X*X7XeXwXNXwXwX0X0XwXwXwXwXwXwX0X0X0X6X6X6X6X6X6X6X3X3X3X3X3X3X=X=X=X=X=X&X&X&X&X&X=X=X=X=X=X=X=X3X3X3X3X3X3X6X6X3X=X&XoX.X.X5.<.2.2.<.5..X.XoX&X&X&XoX&X&X&X&X&X&X&X=X=X=X=X=X=X&X<.$.$.$.$.$.$.$.-.-.-.-.-.-.-.-.*.*.*.*.*.*.*.*.*.*.*.*.*.*.*.*.<.<.<.<.<.*.*.$.=.$.$.` ) ) ) R h u i % $ o       p K c a  . .[ *X6X6X0X0X0X0XwXwXwXNXNXNXNXNXNX0X6X3X3X&X&XoXoXoX&X&X3X6X0XwX0X3X=X=X3X3X3X3X3X3X=XoX5.*.` ) ) ' _ R y % o   .   3 F A a  .X.>.4XNXNXwXwXwX0X0X3X3X=X=X=X&X&X&X&X&X&X&X&XoXoXoX+X3.3.@X.X<.@XyXkXHXHXlXlXl.+.",
"/.).fXlXzXpX1X3.oX&X&X&X&X&X&X&X&X&X&X&X&X&X&X&X&X&X&X&X&X&X&X&XoX.X.X.X.X.X.X.X.X.X.X3.3.3.3.5.*.$.$.$.$.$.$.$.$.$.$.$.` ` ` $.*.*.*.*.<.<.<.<.4.XXXXXXXXOXOXXX<.*.$.$.$.$.` ` ) ) ) W W W W W _ _ Q R d % $ o       . : S S N 7 M ^ -.&X0XwXwX6X=X&XoX&X3X6X6X=X&X&X&X&X&X&X&X&X&X&X&X&X&X&X&X=X=X=X+X@X@X6.;.[ d y t $     # 9 9 q c ..:.8.*X7XeXeXNXwXwX0XwXBXCXCXCXBXNXNXwX6X6X3X=X=X&X&X&X4X6X6X6X6X6X6X6X0X0X0X0X0X0X0X0X6X6X6X6X6X6X3X3X3X3X3X=X=X=X=X&XoX.X.X.X3.3.3.3.5.5.3..X.X.X.XoX;X;X;X;X=X=X=X=X=X=X=X=X3X3X3X*X<.$.$.$.$.$.$.$.$.$.$.$.$.$.$.$.$.$.$.$.$.$.$.$.$.$.$.$.$.$.$.*.<.3.3.<.<.<.<.*.*.$.$.$.` ` ` W h u t $ o         : K z a v  .[ *X0X0X0X0X0X0X0X0X0X0X0X0XwXwX0X6X3X=X&XoX.X.X.X;X;X4X6XwXNXBXNX3X=X=X3X3X3X3X3X3X;XoX5.*.` ) ) ' _ R y % o   .   3 F z a  .X.>.4XNXNXwXwXwX0X6X3X=X&X&XoXoX.XoXoX&X&X&X&X&XoXoX;X.X.X+XoX.X+XyXkXHXgXlXlXl.+.",
"/.).fXlXzXpX1X3.oX&X&X&X&X&X&X&X&X&X&X&X&X&X&X&X&X&X&X&X&X&X&X&X.X.X.X.X3.3..X.X.X.X.X.X3.3.3.3.*.$.$.$.$.$.$.$.$.$.$.$.$.$.$.$.*.*.<.<.<.<.3.3.XXOXOXOX*X*X*XOX<.*.$.$.$.$.` ` ) ) ) W W W W W _ _ E h y % o o       . : S S N N M ^ -.&X0XNXNX6X=X&XoX&X3X6X6X=X&X&X&X&X&X&X&X&X&X&X&X&X&X&X&X=X=X=X+X@X6.2.;.[ d y t $ o + - 9 9 q c ..:.#X*X7XeXeXNXwXwX0XwXCXZXZXCXCXBXNXwX6X3X=X=X&XoXoXoX3X4X4X6X6X6X0X0X0XwXwXNXNXNXNXNX0X0X0X0X6X6X6X3X3X3X=X=X=X&X&X&X.X.X.X.X3.3..X.X3..X.X.X.X3.3..X;X;X;X;X;X;X;X;X=X=X=X=X;X;X;X*X*.$.$.$.$.$.$.$.$.$.$.$.$.$.$.$.` ` ` ` ` ` ` ` ` ` ` ` ` ` ` $.<.3.3.<.<.<.*.*.*.$.$.$.` ` ` W f i & $ +         - K p a J  .[ *X0X0X0X0X0X0X0X0X0X0X0X0X0X0X6X4X=X=X&XoX.X.X.X;X=X4X0XwXBXCXNX3X=X=X3X3X3X3X3X3X;XoX5.*.` ) ) ' _ R y % o   .   3 F z a  .X.>.4XNXNXNXwX0X0X6X=X&X&XoX.X.X.X.XoXoX&XoX&XoX&XoX;XoXoX;X&X.X;XyXvXHXgXlXlXl.+.",
"/.).fXlXzXpX1X3.oX&X&X=X&X&X&X&X&X&X&X&X&X&X&X&X&X&X&X&X&X&X&X&X.X.X.X.X3.3..X.X3.3..X.X.X.X3.3.*.$.$.$.$.$.$.$.$.$.$.$.$.$.$.$.*.*.*.<.<.<.3.3.XXXXOXOX*X*X*XoX<.*.$.$.$.$.` ` ) ) ) W W W W W _ _ E h u % o o       . : S S N N M ^ -.&X0XNXNX6X=X&X&X=X3X6X6X=X&X&X&X&X&X&X&X&X&X&X&X&X&X&X&X=X=X=XoX@X5.-.;.[ d t t $ o   # 9 9 q c ..:.8.*X7XeXeXNXwXwX0XwXCXCXCXCXBXNXwX0X6X3X=X&XoXoX.XoX=X4X4X4X6X6X0X0X0XwXwXwXNXNXNXNX0X0X0X0X6X6X6X3X3X=X=X=X&X&X&XoX.X.X.X.X3.3..X.X3.3..X.X.X.X.X.XoX&X&X&X&X&X&X&X&X&X&X&X&X&X&X+X*.$.$.$.$.$.$.$.$.$.$.$.$.$.$.$.` ` ` ` ` ` ` ` ` ` ` ` ` ` ` $.*.<.<.<.*.*.*.$.$.$.` ` ) ) ) W f i & $ +         5 K A a J  .~ *X0X0X0X0X0X0X0X0X0X0X0X0X0X0X6X4X=X=X&XoX.X.X.X;X;X4X0XwXNXBXNX3X&X=X3X3X3X3X3X3X;XoX5.*.` ) ) ' _ R y % o   .   3 F z a  .X.>.4XNXNXNXwX0X0X6X=X&X&XoX.X.X.X.XoXoXoXoXoXoXoXoX;X.XoX;X&X.X;XyXvXHXgXlXlXl.+.",
"/.).fXlXzXpX1X3.oX&X&X=X&X&X&X&X&X&X&X&X&X&X&X&X&X&X&X&X&X&X&X&X.X.X.X.X.X3..X.X3.3..X.X.X.X3.3.*.$.$.$.$.$.$.$.$.$.$.$.$.$.$.$.*.*.*.*.<.<.<.3.XXXXOXOXOX*X*XoX<.*.$.$.$.$.` ` ) ) ) W W W W W _ _ E h u % o o       . : S S N N M ^ -.&X0XNXwX6X=X&X&X&X3X6X6X=X&X&X&X&X&X&X&X&X&X&X&X&X&X&X&X&X&X&XoX.X2.;.] [ d t % $ +   # 9 9 q c ..:.8.*X7XeXeXNXwXwX0XwXBXBXBXNXNXwX0X6X3X=X&XoXoX.X.X.X;X4X4X4X6X6X6X0X0X0XwXwXNXNXNXNX0X0X0X6X6X6X3X3X3X=X=X&X&X&X&XoX.X3..X.X.X.X.X.X3.3..X.X.X.X.X.X.X.X.X.X.X.X.X.XoX.XoXoX.X.X.X.X*.$.$.$.$.$.$.$.$.$.$.$.$.$.$.$.` ` ` ` ` ` ` ` ` ` ` ` ` ` ` ` =.=.=.=.$.$.$.` ` ` ) ) ) W W R f i & $ +         5 K A a J v ~ *X0X0X0X0X0X0X0X0X0X0X0X0X0X0X6X6X3X=X&XoXoX.X.X;X;X4X6XwXNXBXNX3X=X=X3X3X3X3X3X3X;XoX5.*.` ) ) ' _ R y % o   .   3 F z a  .X.>.4XNXNXNXwX0X0X6X=X=X&XoXoX.X.X.XoXoXoXoXoXoXoXoX;X.X.X+XoX.X;XyXkXHXgXlXlXl.+.",
"/.N.fXlXzXpX1X<.oX&X&X=X&X&X&X&X&X&X&X&X&X&X&X&X&X&X&X&X&X&X&X&X.X.X.X.X.X.X.X.X3..X.X.X.X.X.X3.*.$.$.$.$.$.$.$.$.$.$.$.$.$.$.$.$.*.*.*.*.<.<.<.XXXXXXOXOXOXOXXX<.*.$.$.$.$.` ` ) ) ) W W W W W _ Q R h u % o o       . : S S N N M ^ -.&X0XNXwX6X=X&X&X=X3X6X6X=X&X&X&X&X&X&X&X&X&X&X&X&X&X&X&X&XoXoX.X5.-.$.] ~ y t % $ o   # 9 9 q c ..:.8.*X7XeXwXNXwXwX0X0XwXNXwXwX0X0X6X4X=X&XoX.X.X3.3..X;X3X3X4X4X6X6X6X0X0XwXwXwXwXNXwX0X6X6X6X6X3X3X3X=X=X=X&X&X&X&XoX.X.X.X.X.X.X.X.X3..X.X.X.X.X.X3.3.3.3.3.3.3.5.5.5.5.5.5.5.5.5.<.*.$.$.$.$.$.$.$.$.$.$.$.$.$.$.$.` ) ` ) ` ) ` ) ` ) ` ) ` ) ` ` $.$.$.$.` ` ` ) ) ) W W R R R g f i & $ +         - K A a J  .[ *X0X0X0X0X0X0X0X0X0X0X0X0X0X0X0X6X4X3X=X&XoX.X.X&X;X3X6X0XNXNXNX3X=X=X3X3X3X3X3X3X=XoX5.-.` ) ) ' _ R y % o   .   3 F z a  .X.>.4XNXNXNXwX0X0X6X=X=X&XoX.X.X.X.X.XoXoXoXoXoXoXoX+X.X.X+XoX3.+XyXkXHXLXlXlXl.+.",
"/.N.fXlXzXpX1X<.oX&X&X&X&X&X&X&X&X&X&X&X&X&X&X&X&X&X&X&X&X&X&X&X.X.X.X.X.X3..X.X3..X.X.X.X.X.X3.*.$.$.$.$.$.$.$.$.$.$.$.$.$.$.$.$.$.*.*.*.*.<.<.4.XXXXXXOXOXOXXX<.*.$.$.$.$.` ` ) ) ) W W W W W _ Q E h u % o o       . : S S N N M ^ -.&X0XNXwX6X=X&X&X&X3X6X6X=X&X&X&X&X&X&X&X&X&X&X&X&X&X&X&XoXoX.X3.<.*.` ) ~ y t % $ o   # 9 9 q c ..:.8.*X7XeXwXNXwXwX0X0X0X0X0X0X6X4X3X=X&XoX.X.X3.5.5..X;X=X3X3X4X4X6X6X6X0X0XwXwXwXwXwX6X6X6X6X3X3X3X=X=X&X&X&X&XoXoXoX.X.X.X.X.X.X.X.X.X.X.X.X.X.X.X3.<.*.*.*.*.*.-.-.-.-.-.*.*.-.*.*.$.$.$.$.$.$.$.$.$.$.$.$.$.$.$.$.` ) ) ) ) ) ) ) ) ) ) ) ) ) ) ) ` ` ` ` ) ) ) W W R R R g g g g u i & $ +         - K A a J  .[ *X0X0X0X0X0X0X0X0X0X0X0X0X0X0X0X6X6X3X=X&XoX.X.X&X;X3X6X0XwXNXwX3X&X=X3X3X3X3X3X3X=XoX5.*.` ] ) ' _ R y % o   .   3 F z a  .X.>.4XNXNXNXwX0X6X6X=X=X&XoX.X.X.X.X.X.X.X.X.X.X.X.X+X.X.X+XoX3.+XyXkXHXLXlXlXl.+.",
"/.).fXlXzXpX1X3.oX&X&X&X&X&X&X&X&X&X&X&X&X&X&X&X&X&X&X&X&X&X&X&X.X3..X.X3.3.3.3..X.X.X.X.X.X.X3.*.$.$.$.$.$.$.$.$.$.$.$.$.$.$.$.$.$.$.$.*.*.*.<.4.4.XXXXXXXXOXXX<.*.$.$.$.$.` ` ) ) ) W W W W W _ _ E h y % o o       X : S S N N M ^ -.&X0XNXwX6X=X&X&X&X3X6X6X=X&X&X&X&X&X&X&X&X&X&X&X&X&X&X&XoX.X.X3.<.$.` W ~ y % $ o     # 9 9 w c ..:.8.*X7XeXwXNXwXwX0X0X6X6X6X4X4X3X;X;XoX.X.X.X3.5.5.3.;X;X=X=X3X4X4X6X6X0X0X0X0XwXwX0X6X6X6X3X3X3X3X=X=X&X&X&XoXoXoX.X.X.X.X.X3.3.3.3..X.X.X.X.X.X3.5.*.$.$.$.$.$.$.$.$.$.$.$.$.$.$.$.$.$.$.$.$.$.$.$.$.$.$.$.$.$.$.` ) ) ) ) ) ) ) ) ) ) ) ) ) ) ) ) ) ) ) ) ) W W W R R R g g j j j u i & $ o         - K z a J  .[ *X0X0X0X0X0X0X0X0X0X0X0X0X0X0X0X0X6X6X3X&XoXoX.X&X;X=X4X0XwXwXwX3X=X=X3X3X3X3X3X3X=XoX5.*.] ] ) ' _ R y % o   .   3 F z a  .X.>.4XNXNXNXwX0X6X6X=X&X&XoX.X.X.X.X.X.X.X.X.X.X.X.X@X3.3.@X.X3.<XyXkXHXHXlXlXl.+.",
"/.).fXlXzXpX1X3.oX&X&X&X&X&X&X&X&X&X&X&X&X&X&X&X&X&X&X&X&X&X&X&X.X.X.X.X3.3.3..X.X.X.X.X.X.X.X3.*.$.$.$.$.$.$.$.$.$.$.$.$.$.$.$.$.$.$.$.$.*.*.*.1.4.4.XXXXXXXXXX*.=.$.$.$.$.` ` ) ) ) W W W W W _ _ R h y % o o       X : S S N N M ^ -.&X0XNXwX6X=X&X&X&X3X6X6X=X&X&X&X&X&X&X&X&X&X&X&X&X&X&X&XoX.X3.<.*.$.) W ~ t % $ +     # 9 9 q c ..:.8.*X7XeXwXNXwXwX0X6X4X4X3X3X=X;X;X;XoX.X.X.X3.5.5..X&X;X;X;X=X3X3X4X6X6X6X0X0X0X0X0X6X3X3X3X3X=X=X=X&X&X&XoXoXoX.X.X.X.X.X.X3.3.3.3..X.X.X.X3.3.3.5.$.` ` ` ` ` ` ` ` ` ` ` ` ` ` ` $.$.$.$.$.$.$.$.$.$.$.$.$.$.$.` ) W W W W W W W W W W W W W W ) ) ) ) ) W W W R R g g g j j j d u i & $ o         - K z a J  .[ *X0X0X0X0X0X0X0X0X0X0X0X0X0X0X0X0X0X6X3X=X&XoX.X&X;X;X4X6X0XwX0X3X=X=X3X3X3X3X3X3X=X+X5.*.] ] ) ' _ R y % o   .   3 F z a  .X.>.4XNXNXNXwX0X0X6X=X&X&XoX.X.X.X.X.X.X.X.X.X.X.X.X@X3.3.@X.X<.+XyXkXHXHXlXlXl.+.",
"/.).fXlXzXpX1X3.oX&X=X=X&X&X&X&X&X&X&X&X&X&X&X&X&X&X&X&X&X&X&X&X.X3..X.X.X.X.X.X3.3.3.3.3.3.3.<.*.$.$.$.$.$.$.$.$.$.$.$.$.$.$.$.` ` ` $.$.$.*.*.*.<.<.<.3.3.3.3.*.*.$.$.$.$.` ` ) ) ) W W W W W _ _ R h y % o o       . : S S N N M ^ -.&X0XNXwX0X4X;X;X=X4X0X0X=X&X&X&X&X&X&X&X&X&X&X&X&X&X&X&X.X.X3.<.*.$.) R j u $ o     X X 9 9 w c ..:.8.*X7XeXeXNXwXwX0X6X=X=X=X&X&X&X&XoXoX.X.X.X.X3.3..XoXoX&X&X&X&X=X=X3X3X3X6X6X6X6X6X3X3X3X3X=X=X=X&X&XoXoXoX.X.X.X.X3.3.3.3.3.3.3.3.3.3.3.3..X.X.X<.$.` ` ` ` ` ` ` ` ` ` ` ` ` ` ` $.$.$.$.$.$.$.$.$.$.$.$.$.$.$.` ) W W W W W W W R R R R W W R W ) ) ) ) W W W R R g g g j j j d u i & $ +         - K p a J  .~ *X0X0X0X0X0X0X0X0X0X0X0X0X0X0X0XwXwX0X6X4X;X;X&XoXoX&X=X3X6X6X6X=X=X=X3X3X3X3X3X3X;X+X5.*.` ) ) ' _ R y % o   .   3 F A a  .X.>.4XNXNXNXwX0X6X6X4X=X*XoX.X.X3.3.3.3.3.3.3.3.3.3.@X3.3.@X@X<.@XyXkXHXLXlXlXl.+.",
"/.).fXlXzXpX1X<.oX&X&X=X&X&X&X&X&X&X&X&X&X&X&X&X&X&X&X&X&X&X&X&X.X3..X.X.X.X3.3.3.3.3.3.3.3.3.<.*.$.$.$.$.$.$.$.$.$.$.$.$.$.$.$.` ` ` ` $.$.$.*.=.*.<.<.<.3.3.<.*.*.$.$.$.$.` ` ) ) ) W W W W W _ _ R h y % o o       . : S S N N M ^ -.&X0XNXwX0X4X;X;X=X6X0X0X=X&X&X&X&X&X&X&X&X&X&X&X&X&X&X&X.X3.<.<.$.` ) R j i $ o     X X 9 9 w c ..:.8.*X7XeXeXNXwXwX0X6X=X&X&X&X&X&X&X&XoXoXoXoX.X.X.X.XoXoXoX&X&X&X&X=X=X3X3X3X6X6X6X6X3X3X3X=X=X&X&X&XoXoXoX.X.X.X.X.X3.3.3.3.3.3.3.3.3..X3.3..X.X.X<.$.` ` ` ` ` ` ` ` ` ` ` ` ` ` ` $.$.$.$.$.$.$.$.$.$.$.$.$.$.$.` ) W W W W W W W R R R R R R R R ) ) ) ) ) W W W R R R g g j j j u i & $ +         - K p a J  .~ *X0X0X0X0X0X0X0X0X0X0X0X0X0X0X0XwXwXwX0X4X=X;X&XoXoX&X&X3X3X6X3X=X=X=X3X3X3X3X3X3X;X+X5.*.` ) ) ' _ R y % o   .   3 F A a  .X.>.4XNXNXNXwX0X6X6X4X=X*XoX.X.X3.3.3.5.5.5.3.3.3.5.@X<.<.@X5.2.@X1XkXHXLXlXlXl.+.",
"/.N.fXlXzXpX1X3.oX&X&X&X&X&X&X&X&X&X&X&X&X&X&X&X&X&X&X&X&X&X&X&X.X.X.X.X.X.X3.3.3.3.3.3.3.3.3.<.*.$.$.$.$.$.$.$.$.$.$.$.$.$.$.$.` ) ` ` ` $.$.$.=.*.*.<.<.<.<.<.*.*.$.$.$.$.` ` ) ) ) W W W W W _ Q R h u % o o       . : S S N N M ^ -.&X0XNXwX0X4X;X;X=X6X0X0X=X&X&X&X&X&X&X&X&X&X&X&X&X&X&X&X.X3.<.*.$.` W R j i $ o     X X 9 9 w c ..:.#X*X7XeXeXNXwXwX0X6X=X=X&X&X&X&X&X&X&X&X&X&X&X&X&XoXoXoXoXoXoX&X&X&X=X=X3X3X3X3X6X3X3X=X=X=X=X&X&X&XoXoX.X.X.X3.3.3.3.3.3.3.3.3.3.3..X.X.X.X.X.X.X5.$.` ` ` ` ` ` ` ` ` ` ` ` ` ` ` $.$.$.$.$.$.$.$.$.$.$.$.$.$.$.` W R R R R R R R g g g g g g g R ) ` ` ` ) ) ) W W R R R R g g g u i & $ +         - K p a J  .[ *X0X0X0X0X0X0X0X0X0X0X0X0X0X0X0XNXNXwX0X6X3X;X&XoXoX&X&X=X3X3X3X=X=X=X3X3X3X3X3X3X;X+X5.*.` ) ) ' _ R y % o   .   3 F A a  .X.>.7XNXNXNXwX0X0X6X4X=X*XoX.X.X3.3.5.<.<.<.<.<.<.<.5.<.<.5.5.*.@X1XkXHXLXlXjXl.+.",
"/.N.fXlXzXpX1X3.oX&X&X&X&X&X&X&X&X&X&X&X&X&X&X&X&X&X&X&X&X&X&X&X.X3..X.X.X3.3.3.3.3.3.3.3.3.3.<.*.$.$.$.$.$.$.$.$.$.$.$.$.$.$.$.) ) ) ) ` ` $.$.$.=.*.*.<.<.<.<.*.*.$.$.$.$.` ` ) ) ) W W W W W _ Q R h y % o o       . : S S N N M ^ -.&X0XNXwX0X4X;X;X=X4X0X0X=X&X&X&X&X&X&X&X&X&X&X&X&X&X&X&X3.<.<.*.$.) W g j i o       X X 9 9 w c ..:.8.*X7XeXeXNXwXwX0X6X3X=X=X=X=X=X=X=X=X=X=X=X=X=X=X&XoX.X.XoXoXoX&X&X&X=X=X3X3X3X3X3X=X=X=X&X&X&X&XoXoX.X.X.X3.3.3.3.3.3.3.3.3.3.3.3..X.X.X.X.X.X.X5.$.$.` ` ` ` $.$.` ` ` ` ` ` ` $.$.$.$.$.$.$.$.$.$.$.$.$.$.$.$.` W R R R R R R R g g g g g g g R ` $.$.$.` ` ` ) ) ) W W R R R g f i & $ +         - K z a J  .[ *X0X0X0X0X0X0X0X0X0X0X0X0X0X0XwXNXNXNX0X6X3X;X&XoXoXoX&X&X=X3X3X=X=X=X3X3X3X3X3X3X;X+X5.*.` ) ) ' _ R y % o   .   3 F A a  .X.>.7XNXNXNXwX0X0X6X4X=X&XoX.X.X3.<.<.2.<.2.<.2.<.2.5.*.<.5.5.*.6.1XkXHXLXlXjXl.+.",
"/.N.fXlXzXpX1X3.oX&X&X&X&X&X&X&X&X&X&X&X&X&X&X&X&X&X&X&X&X&X&X&X.X.X.X.X.X.X.X.X3.3.3.3.3.3.3.<.*.$.$.$.$.$.$.$.$.$.$.$.$.$.$.` ) ) ) ) ) ` ` $.$.$.*.*.*.<.<.<.*.*.$.$.$.$.` ` ) ) ) W W W W W _ Q R h y % o o       . : S S N N M ^ -.&X0XNXwX0X4X;X;X=X4X0X0X=X&X&X&X&X&X&X&X&X&X&X&X&X&X&XoX3.<.<.*.` ) W g d t o       X X 9 9 q c ..:.8.*X7XeXwXNXwXwX0X6X3X3X3X3X3X3X3X3X3X3X3X3X6X6X6X3XoX.X.X.XoXoX&X&X&X=X=X=X3X3X3X3X=X&X&X&X&X&XoXoX.X.X.X3.3.5.5.5.3.3.3.3.3.3.3.3..X.X.X.X.X.X.X5.*.$.$.$.$.$.$.$.$.$.$.$.$.$.$.$.$.$.$.$.$.$.$.$.$.$.$.$.$.$.$.` W R R R R R R R g g g g g g g W $.*.*.*.$.$.$.` ` ` ) ) W W W R f i & $ +         5 K z a J  .[ *X0X0X0X0X0X0X0X0X0X0X0X0X0X0XwXBXBXNXwX6X4X;X;XoXoXoXoX&X=X=X=X=X&X=X3X3X3X3X3X3X=XoX5.*.` ) ) ' _ R y % o   .   3 F z a  .X.>.4XNXNXNXwX0X0X6X4X=X=XoX.X.X3.<.<.2.2.2.2.2.<.2.5.*.*.5.2.*.6.1XkXHXgXlXjXl.+.",
"/.N.fXlXzXpX1X3.oX&X&X&X&X&X&X&X&X&X&X&X&X&X&X&X&X&X&X&X&X&X&X&X.X.X.X.X.X.X.X.X3.3.3.3.3.3.3.<.*.$.$.$.$.$.$.$.$.$.$.$.$.$.$.` ) ) ) ) ) ` ` ` $.$.*.*.*.*.<.*.*.*.$.$.$.$.` ` ) ) ) W W W W W _ _ R h y % o o       . : S S N N M ^ -.&X0XNXwX0X4X;X;X=X4X0X0X=X&X&X&X&X&X&X&X&X&X&X&X&X&X&XoX3.<.*.$.` ) R g d & o       X X 9 9 q c ..:.8.*X7XeXwXNXwXwX0X0X3X3X3X3X3X6X6X6X6X6X6X0X0X0X0X3XoX.X.X.X.XoXoX&X&X&X=X=X=X3X3X3X=X&X&X&X&XoXoXoX.X.X.X3.5.<.<.5.3.3.3.3.3.3.3.3.3.3..X.X.X.X.X3.<.*.*.*.*.*.*.*.*.*.*.*.*.*.*.*.$.$.$.$.$.$.$.$.$.$.$.$.$.$.$.` W g R g g g R g g d g d g g g W $.<.<.<.*.*.*.$.$.$.` ` ) ) ) W f i & $ +         5 K z a J v ~ *X0X0X0X0X0X0X0X0X0X0X0X0X0X0XwXBXBXNXwX0X4X;X;XoX.XoXoX&X&X=X=X=X=X=X3X3X3X3X3X3X=XoX5.*.` ) ) ' _ R y % o   .   3 F z a  .X.>.4XNXNXNXwX0X0X6X4X=X=XoX.X.X3.<.<.2.2.2.2.2.2.2.5.*.*.5.2.*.6.1XkXHXgXlXlXl.+.",
"/.).fXlXzXpX1X3.oX&X=X&X&X&X&X&X&X&X&X&X&X&X&X&X&X&X&X&X&X&X&X&X.X.X3.3.3.3..X.X3.3.3.3.3.3.3.<.*.$.$.$.$.$.$.$.$.$.$.$.$.$.$.` ) ) ) ) ) ) ` ` $.$.$.*.*.*.*.*.*.*.$.$.$.$.` ` ) ) ) W W W W W _ _ E h y % o o       . : S S N N M ^ -.&X0XNXwX0X4X;X;X=X4X0X0X=X&X&X&X&X&X&X&X&X&X&X&X&X&X&XoX3.<.*.$.` ) R g j & o       X X 9 9 q c ..:.8.*X7XeXwXNXwXwX0X0X6X6X6X6X6X6X0X0X0X0XwXwXwXwXwX6X&X.X.X.X.XoXoXoX&X&X=X=X=X3X3X=X=X&X&X&X&XoXoX.X.X.X3.5.5.<.<.5.3.3.3.3.3.3.3.3.3.3..X3..X.X.X3.<.<.<.<.<.<.<.<.<.<.<.<.<.<.<.*.$.$.$.$.$.$.$.$.$.$.$.$.$.$.$.` W g g g g g g g g d d d g d g R *.3.3.<.<.<.*.=.*.$.$.$.` ` ` W f i & $ +         5 K z a J v ~ *X0X0X0X0X0X0X0X0X0X0X0X0X0X0XwXBXCXBXwX0X4X=X;XoX.XoXoX&X&X=X=X&X&X=X3X3X3X3X3X3X=X+X5.-.] ] ) ' _ R y % o   .   3 F z a  .X.>.4XNXNXNXwX0X0X6X4X=X=XoX.X.X3.<.<.-.2.-.2.-.2.-.2.*.*.2.2.$.6.1XkXHXkXlXlXl.+.",
"/./.fXlXzXpX1X<.oX&X&X&X&X&XoX&X&X=X&X&X&X&X=X=X=X=X=X=X&X&X&X&X.X.X3.3.3.3..X.X3.3.3.3.3.3.3.<.*.*.*.*.*.*.$.$.$.$.$.$.$.$.$.` ) ) ) ) ) ) ` ` ` $.$.$.$.$.*.$.$.$.$.$.$.` ` ` ) ) ) ) ) W W W _ _ R h u % o o       . : S S N N M ^ 2.=X0XNXNX0X4X;X;X3X6X0X0X3X=X=X=X=X=X&X&X&X&XoXoXoXoXoX.X<.*.*.$.` W R g j & o       X X 9 9 q c ..:.8.*X7XqXwXwX0X0X6X6X6X6X6X6X6X6X6X6X6X6X6X6X6X0X0X6X&XoXoXoXoXoXoX&X&X&X&X&X&X=X=X&X&X&X&XoXoXoXoX.X.X.X.X3.3.3.3.5.<.<.<.<.<.<.<.<.3.3.3.3..X.X.X.X<.<.<.<.<.<.<.<.<.<.<.<.*.*.*.*.$.$.$.$.$.$.$.$.$.$.$.$.$.$.$.` W W R R R R R R R R R R R R R W *.<.<.<.<.*.=.$.$.$.` ` ` ) ) W f i & $ +         5 K z a J v [ +X6X6X0X0X0X0X0X0X0X0X0X0X6X6X0XNXNXNXwX0X4X=X;XoXoXoXoXoX&X&X&XoX.XoXoX&X&X&X&X*X+X@X<.*.$.` ) ' _ R y % o   .   3 F z a  .X.>.4XNXNXwXwX0X0X6X6X=X=X&XoX.X.X3.3.3.3.5.3.3.3.3.5.<.<.5.5.*.6.1XkXHXgXlXlXl.+.",
"^./.GXhXzXpXt.*..XoXoXoXoXoXoXoX&X=X=X&X=X=X=X=X=X&X=X=X=X=X&X&X.X.X.X.X.X.X.X3.3.3.3.3.3..X.X.X3.4.4.4.4.1.1.1.*.$.$.$.$.$.$.` ` ) ) ) ) ` ` ` ` ` ` ` ` ` ` ` ` ` ` ` ` ` ` ` ` ) ) ) ) ) ) ) _ _ E h y % o o       + : S S N N B { 5.=XwXNXNXwX6X3X=X4X6XwXwX6X3X3X3X=X=X&XoXoX.X.X3.5.<.<.2.*.*.$.` ) ) R g d t $ o     . X 9 9 w c ..:.8.OX4X7X0X6X3X=X&X&X=X3X3X3X3X3X4X4X=X=X=X&X&X&X&X&X=X=X=X=X=X&X&X&X;X;X=XoXoXoXoX.XoXXXXXXXXXXXXXXX3.3.3.3.3.3.3.<.*.$.$.$.*.*.*.<.3.3.3.3.XXXXXXXXXX3.XX3.3.3.3.<.*.*.*.$.$.$.$.$.` ` ` ` ` ` ` ` ` ` ` ` ` ` ` ` ` ` ` ` ` ` ` ` ` ` ` ` ` ` ` $.$.$.$.$.$.` ` ) ) ) W W W R R g f i & $ +         - K z a J  .~ @X4X6X6X0XwXwXNXNXwXwX0X6X6X4X4X6X6X6X6X3X=X=X&X&XoXoXoXoXoXoX.X*.$.$.$.*.*.*.*.*.*.*.*.$.$.$.$.` _ E d % o       3 F z a  .X.>.4XNXNXwXwXwX0X0X3X3X=X=X=X&X&X&X&X&X&X&X&X&X&XoX+X.X.X+X.X<.+XyXkXHXHXKXjXl.+.",
"^.^.).hXzXaXt.*..XoXoXoXoXoX.XoX&X=X=X=X=X=X=X=X=X=X=X=X=X=X=X&X.X.X.X.X.X.X3.3.3..X3.3..X.X.X.XXXXXXX4.4.4.4.1.*.*.$.$.$.$.` ` ` ` ` ` ` ` ` ` ` ` ` ` ` ` ` ` ` ` ` ` ` ` ` ` ` ` ` ` ` ` ` ) _ _ E h y % o o       + : S S N N B { 5.3XwXBXBXwX6X4X3X4X0XNXNX0X6X3X3X=X=X&XoX.X.X5.<.2.-.*.-.$.$.$.` ) W R g d t % o o   . X 9 9 w c ..:.8.OX4X7X6X3X=X&X&X&X=X3X3X3X3X3X=X=X&X&XoXoXoX.X.XoX=X3X3X3X3X=X=X&X;X;X&XoX.X.X.X.XXXXXXXXXXXXXXXXX3.3.3.3.3.3.3.<.$.` $.$.$.$.*.*.1.4.4.4.XXXXXXXXXXXXXXXX4.4.4.1.*.*.$.$.$.$.` ` ` ` ` ` ` ` ` ` ` ` ` ` ` ` ` ` $.*.*.*.*.*.*.*.*.*.*.*.*.*.*.$.$.` ` ` ` ) ) W W W R R R g g j u i % $ +         - K z a J  .~ @X3X4X6X0XwXNXNXNXNXwX0X6X4X3X3X3X3X3X3X3X=X=X&X&X&XoXoXoX.X.X3.$.) ) ) ` ` ` ` $.$.$.$.$.$.*.$.' _ E d % o       3 F z a  .X.>.4XNXNXwXwXwX0X0X6X3X3X3X3X=X=X=X3X3X3X3X3X=X=X&X;XoXoX+XoX3.+XyXkXGXHXKXjXl.@.",
"^.^.).hXzXaXt.*..XoXoXoXoXoX.XoX&X=X&X&X=X=X=X=X=X=X=X=X=X=X=X&X.X.X.X.X.X3.3.3..X.X.X.X.X.X.X.XXXXXXX4.4.4.4.1.*.*.$.$.$.$.` ` ` ` ` ` ` ` ` ` ` ` ` ` ` ` ` ` ` ` ` ` ` ` ` ` ` ` ` ` ` ` ` ) _ _ E h y % o o       + : S S N N B { 5.3XwXBXBXwX6X4X3X4X0XNXNX0X6X3X3X=X=X&XoX.X.X5.<.2.-.*.-.$.$.$.` ) W R g d t % o o   . X 9 9 w c ..:.8.OX4X7X6X3X=X&X&X&X=X3X3X3X3X3X=X=X&X&XoXoX.X.X.XoX=X3X3X3X3X=X=X&X;X;X&XoX.X.X.X.XXXXXXXXXXXXXXXXX3.3.3.3.3.3.3.<.$.` $.$.$.$.*.*.1.4.4.4.XXXXXXXXXXXXXXXX4.4.4.1.*.*.$.$.$.$.` ` ` ` ` ` ` ` ` ` ` ` ` ` ` ` ` ` $.$.$.$.$.$.$.$.$.$.$.$.$.$.$.$.$.` ` ` ` ) ) W W W R R R g g j u i & $ +         - K z a J  .~ @X3X4X6X0XwXNXNXNXNXwX0X6X4X3X3X3X3X3X3X3X=X=X&X&X&XoXoXoX.X.X3.$.` ` ` ` ` ` $.$.$.$.$.$.$.$.$.' _ E d % o       3 F z a  .X.>.4XNXNXwXwXwX0X0X6X3X3X3X3X=X=X=X3X3X3X3X3X=X=X&X;XoX.X+XoX3.+XyXkXHXHXKXjXl.@.",
"^.^.).hXzXaXt.*..XoXoXoXoXoX.XoX&X=X&X&X&X&X&X&X&X&X&X&X&X&X&X&X.X.X.X.X.X3.3.3..X.X.X.X.X.X.X.XXXXXXX4.4.4.4.1.*.*.$.$.$.$.` ` ` ` ` ` ` ` ` ` ` ` ` ` ` ` ` ` ` ` ` ` ` ` ` ` ` ` ` ` ` ` ` ) _ _ E h y % o o       + : S S N N B { 5.3XwXBXBXwX6X4X3X4X0XNXNX6X6X3X3X=X=X&XoX.X.X5.<.2.-.*.-.$.$.$.` ) W R g d t % o o   . X 9 9 w c ..:.8.OX4X7X6X3X=X&X&X&X=X3X3X3X3X3X=X=X&X&XoXoXoX.X.XoX=X3X3X3X3X=X=X&X;X;X&XoX.X.X.X3.XXXXXXXXXXXXXXXX3.3.3.3.3.3.3.<.$.` $.$.$.$.*.*.1.4.4.4.XXXXXXXXXXXXXXXX4.4.4.1.*.*.$.$.$.$.` ` ` ` ` ` ` ` ` ` ` ` ` ` ` ` ` ` $.$.$.$.$.$.$.$.$.$.$.$.$.$.$.$.$.` ` ` ` ) ) W W W R R R g g j u i & $ +         5 K z a J  .~ @X3X4X6X0XwXNXNXNXNXwX0X6X4X3X3X3X3X3X3X3X=X=X&X&X&XoXoXoX.X.X3.$.` ` $.$.$.$.$.$.$.$.$.$.$.$.$.' _ E d % o       3 F z a  .X.>.4XNXNXwXwXwX0X0X6X3X3X3X3X=X=X=X3X3X3X3X3X=X=X&X;XoX.X+X.X3.+XyXkXHXHXKXjXl.@.",
"^.^.).hXzXaXt.*..XoXoXoXoXoXoXoX&X&X&X&X&X&X&X&X&X&X&X&X&X&X&X&X.X.X.X.X.X.X.X.X.X.X.X.X.X.X.X.XXXXXXXXX3.3.4.1.*.*.*.$.$.$.` ` ` ` ` ` ` ` ` ` ` ` ` ` ` ` ` ` ` ` ` ` ` ` ` ` ` ` ` ` ` ` ` ) _ _ R h u % o o       . : S S p N B { 5.3XwXBXBXwX6X4X3X4X0XNXNX6X6X3X3X=X=X&XoX.X.X3.<.2.-.*.*.$.$.$.` ` W ! g d t $ o o + + X 9 9 w c ..:.8.OX-X4X6X3X=X&X&X&X=X3X3X3X3X3X=X=X&XoXoXoXoX.X.XoX=X3X3X3X3X=X=X&X;X;X&XoX.X.X.X3.XX3.3.3.4.4.4.4.3.3.3.3.3.3.3.<.$.` $.$.$.$.*.*.1.4.4.4.XXXXXXXXXXXXXXXX4.4.4.1.*.*.*.$.$.$.` ` ` ` ` ` ` ` ` ` ` ` ` ` ` ` ` ` $.$.$.$.$.$.$.$.$.$.$.$.$.$.$.$.$.` ` ` ` ) ) W W W R R R g g j u i & $ +         5 K A a J  .~ @X3X4X6X0XwXNXNXNXNXwX0X6X4X3X3X3X3X3X3X3X=X=X&X&X&XoXoXoX.X.X3.*.$.$.$.$.$.$.$.$.$.$.$.$.$.$.$.' _ E d % o       3 F z a  .X.>.4XNXNXwXwXwX0X0X6X3X3X3X3X=X=X=X3X3X3X3X3X=X=X&X;XoXoX+X.X3.+XyXkXGXGXhXjXl.@.",
"^.^.).hXzXaXt.*..XoXoXoXoXoXoXoXoX&X&X&X&X&X&X&X&X&X&X&X&X&X&XoX.X.X.X.X.X.X.X.X3.3..X.X.X.X.X3.XXXXXXXX3.3.4.1.*.*.*.$.$.$.` ` ` ` ` ` ` ` ` ` ` ` ` ` ` ` ` ` ` ` ` ` ` ` ` ` ` ` ` ` ` ` ` ) _ _ R h u % o o       . : S S p N B { 5.3XwXBXBXwX6X4X3X4X0XNXNX6X6X3X3X=X=X&XoX.X.X3.<.2.-.*.*.$.$.$.` ` W ! g d t $ o o + + X 9 9 w c ..:.8.OX4X7X6X3X=X&X&X&X=X3X3X3X3X3X=X=X&X&XoXoXoX.X.XoX=X3X3X3X3X=X=X&X;X;X&XoX.X.X.X3.3.3.4.3.4.4.4.4.<.<.<.<.<.<.<.<.$.` $.$.$.$.*.*.1.4.4.4.XXXXXXXXXXXXXXXX4.4.4.1.*.*.*.$.$.$.` ` ` ` ` ` ` ` ` ` ` ` ` ` ` ` ` ` ` $.$.$.$.$.$.$.$.$.$.$.$.$.$.$.` ` ` ` ` ) ) W W W R R R g g j u i & $ +         5 K A a J  .~ @X3X4X6X0XwXNXNXNXNXwX0X6X4X3X3X3X3X3X3X3X=X=X&X&X&XoXoXoX.X.X.X<.*.=.=.*.*.$.$.$.$.$.$.$.$.$.$.' _ E d % o       3 F z a  .X.>.4XNXwXwXwXwX0X0X6X3X3X3X3X=X=X=X3X3X3X3X3X=X=X&X;XoXoX+XoX3.+XyXkXGXGXhXjXl.@.",
"^.^.).hXzXaXt.*..X.XoXoXoXoX.X.XoX&X&X&XoXoX&XoX&X&X&X&X&X&X&XoX.X.X3.3.3..X.X.X3.3..X.X.X.X3.3.XXXXXXXX4.4.4.1.*.*.$.$.$.` ` ` ` ` ` ` ` ` ` ` ` ` ` ` ` ` ` ` ` ` ` ` ` ` ` ` ` ` ` ` ` ` ` ) _ _ R h u % o o       . : S S N N B { 5.3XwXBXBXwX6X4X3X4X0XNXNX6X6X3X3X=X=X&XoX.X.X5.<.2.-.*.*.$.$.$.` ` W ! g d t $ o o   + X 9 9 w c ..:.8.OX4X7X6X3X=X&X&X&X=X3X3X3X3X3X=X=X&X&XoXoXoXoX.XoX=X3X3X3X3X=X=X&X;X;X&XoX.X.X.X3.3.4.4.4.4.4.4.4.<.<.<.<.<.<.<.*.$.` $.$.$.$.*.*.1.4.4.4.XXXXXXXXXXXXXXXX4.4.4.1.*.*.$.$.$.$.` ` ` ` ` ` ` ` ` ` ` ` ` ` ` ` ` ` ` ` ` ` ` ` ` ` ` ` ` ` ` ` ` ` ` ` ` ` ` ) ) W W W R R R g g j u i & $ +         - K z a J  .~ @X3X4X6X0XwXNXNXNXNXwX0X6X4X3X3X3X3X3X3X3X=X=X&X&X&XoXoXoX.X.X.X<.<.<.<.<.*.*.*.*.$.$.$.$.$.$.$.' _ E d % o       3 F A a  .X.>.4XwXwXwXwXwX0X0X6X3X3X3X3X=X=X=X3X3X3X3X3X=X=X=X;XoXoX+XoX3.+XyXkXGXGXhXjXl.@.",
"^.^.N.hXzXaXt.*..X.XoXoXoXoX.X.XoXoXoXoXoXoXoXoXoXoXoXoXoXoXoXoX.X.X3.3.3..X.X.X3.3..X.X.X.X3.3.XXXXXXXX4.4.4.1.*.*.$.$.$.` ` ` ` ` ` ` ` ` ` ` ` ` ` ` ` ` ` ` ` ` ` ` ` ` ` ` ` ` ` ` ` ` ` ) _ _ R h u % o o       . : S S N N B { 5.3XwXBXBXwX6X4X3X4X0XNXNX0X6X3X3X=X=X&XoX.X3.5.<.-.-.*.*.$.$.$.` ` W ! g d t $ o o   + X 9 9 w c ..:.8.OX4X7X6X3X=X&X&X&X=X3X3X3X3X3X=X=X&X&XoXoXoXoX.XoX=X3X3X3X3X=X=X&X;X;X&XoX.X.X.X3.3.1.1.1.1.1.1.1.<.<.<.<.<.<.<.*.$.` $.$.$.$.*.*.1.4.4.4.XXXXXXXXXXXXXXXX4.4.4.1.*.*.$.$.$.` ` ` ` ` ` ` ` ` ` ` ` ` ` ` ` ` ` ` ` ` ` ` ` ` ` ` ` ` ` ` ` ` ` ` ` ` ` ` ` ) ) W W W R R R g g j u i & $ +         - K z a J  .~ @X3X4X6X0XwXNXNXNXNXwX0X6X4X3X3X3X3X3X3X3X=X=X&X&X&XoXoXoX.X.X.X3.3.3.<.<.<.<.*.*.*.$.$.$.$.$.` ' _ E d % o       3 F A a  .X.>.4XNXNXwXwXwX0X0X6X3X3X3X3X=X=X=X3X3X3X3X3X=X=X=X;XoXoX+XoX3.+XyXkXGXGXhXjXl.@.",
"^.^.N.hXzXpXt.*..XoXoXoXoXoX.X.XoXoXoXoXoXoXoXoXoXoXoXoXoXoXoX.X3.3.3.3.3.3.3.3..X.X.X.X.X.X3.3.XXXXXXXX4.4.4.1.*.*.$.$.$.$.` ` ` ` ` ` ` ` ` ` ` ` ` ` ` ` ` ` ` ` ` ` ` ` ` ` ` ` ` ` ` ` ` ) ) W Q h u % o o       . : S S N N B { 5.3XwXBXBX0X6X=X=X3X6XwXwX0X6X3X3X=X=X&XoX<X<X@X5.-.$.` ` *.*.$.` ) W R g j i $ o o   X X 9 9 w c ..:.8.OX4X7X6X6X4X=X;X=X=X3X3X3X3X=X=X&X&X&XoXoXoXoX.XoX=X3X3X3X3X=X=X&X;X;X&XoX.X.X.X3.<.*.*.*.*.*.*.*.*.*.*.*.*.*.*.*.$.` $.$.$.$.*.*.<.<.<.3.3.3.3.3.3.3.3.3.3.<.<.<.*.*.$.$.$.$.` ` ` ` ` ` ` ` ` ` ` ` ` ` ` ` ` ` ) ) ) ) ) ) ) ) ) ) ) ) ) ) ) ` ` ` ` ` ` ) ) W W W R R R g g j u i & $ +         - K z a J  .~ @X3X4X6X0XwXNXNXNXNXwX0X6X4X=X3X3X3X3X3X3X=X=X&X&X&XoXoXoX.X.X.XXXXXXXXXXX4.4.1.*.*.$.$.$.$.` ` ' _ R y % o   .   3 F z a  .X.>.4XNXNXwXwXwX0X0X6X3X3X3X3X=X=X=X3X3X3X3X3X=X=X&X;XoXoX+XoX.X+XyXkXGXGXKXjXl.+.",
"^./.N.hXzXpXt.*..XoXoXoXoXoX.X.X.X.X.X.X.X.X.X.X.X.X.X.X.X.X.X.X3.3.3.3.3.3.3.3..X.X.X.X.X.X3.3.XXXXXXXX4.4.4.1.*.*.$.$.$.$.` ` ` ` ` ` ` ` ` ` ` ` ` ` ` ` ` ` ` ` ` ` ` ` ` ` ` ` ` ` ` ` ` ) ) W Q h u % o o       . : S S p N B { 5.3XwXBXBXwX6X=X=X3X6XwXwX0X6X3X3X=X=X&XoX<X+X@X5.-.$.$.` *.*.$.` ) W R g j i $ o o   X X 9 9 w c ..:.8.OX4X7X6X6X4X=X;X=X=X3X3X3X3X=X=X&X&X&XoXoXoX.X.XoX=X3X3X3X3X=X=X&X;X;X&XoX.X.X.X3.*.=.*.*.*.*.*.*.*.*.*.*.*.*.*.$.$.` $.$.$.$.*.*.<.<.<.3.3.3.3.3.3.3.3.3.3.<.<.<.*.*.$.$.$.$.` ` ` ` ` ` ` ` ` ` ` ` ` ` ` ` ` ) ) ) ) ) ) ) ) ) ) ) ) ) ) ) ) ) ` ` ` ` ` ) ) W W W R R R g g j u i & $ +         - K z a J v ~ @X3X4X6X0XwXNXNXNXNXwX0X6X4X3X3X3X3X3X3X3X=X=X&X&X&XoXoX.X.X.XoXOX*XOXOXXXXXXX4.<.*.$.$.$.` ` ` ' _ R y % o   .   3 F z a  .X.>.4XNXNXwXwXwX0X0X6X3X3X3X3X=X=X=X3X3X3X3X3X=X=X&X;XoXoX+XoX3.+XyXkXGXGXKXjXl.+.",
"^.^.).hXzXaXt.*..X.XoXoXoXoX.X.X.X.X.X.X.X.X.X.X.X.X.X.X.X.X.X.X3.3.3.3.3.3.3.3.3.3..X.X.X.X.X.XXXXXXXXX4.4.4.1.*.*.$.$.$.$.` ` ` ` ` ` ` ` ` ` ` ` ` ` ` ` ` ` ` ` ` ` ` ` ` ` ` ` ` ` ` ` ` ) ) W Q h u % o o       . : S S p N B { 5.3XwXBXBX0X6X=X=X3X6XwXwX6X3X3X3X=X=X&XoX<X+X@X<.-.$.$.$.*.$.$.` ) W R g j i $ o o   X X 9 9 w c ..:.8.OX4X7X7X6X4X=X;X=X3X3X3X3X3X=X=X&X&X&XoXoXoXoX.XoX=X3X3X3X3X=X=X&X;X;X&XoX.X.X.X3.*.$.$.$.$.$.$.$.$.$.$.$.$.$.$.$.$.` $.$.$.$.=.*.<.<.<.3.3.3.3.3.3.3.3.3.3.<.<.<.*.*.$.$.$.$.` ` ` ` ` ` ` ` ` ` ` ` ` ` ` ` ` ) ) ) ) ) ) ) ) ) ) ) ) ) ) ) ) ) ` ` ` ` ` ) ) W W W R R R g g j u i & $ +         5 K A a J  .~ @X3X4X6X0XwXNXNXNXNXwX0X6X4X3X3X3X3X3X3X3X=X=X&X&X&XoXoXoXoX.XoX&X*X*X*XOXoXXX4.<.*.*.$.$.` ` ` ' _ R y % o   .   3 F z a  .X.>.4XNXNXwXwXwX0X0X6X3X3X3X3X=X=X=X3X3X3X3X3X=X=X&X;XoXoX+XoX3.+XyXkXGXHXKXjXl.@.",
"^.^.).hXzXaXt.*..X.XoXoXoXoX.X.X.X3..X.X.X.X.X.X.X.X.X.X.X.X.X.X3.3.3.3.3.3.3.3.3.3..X.X.X.X.X.XXXXXXXXX4.4.4.1.*.*.$.$.$.$.` ` ` ` ` ` ` ` ` ` ` ` ` ` ` ` ` ` ` ` ` ` ` ` ` ` ` ` ` ` ` ` ` ) ) W Q h u % o o       . : S S p N B { 5.3XwXBXBX0X6X=X=X3X6XwXwX6X6X3X3X=X=X&XoX+X@X5.<.-.*.$.$.$.$.$.` ) W R g j i $ o o   X X 9 9 w c ..:.8.OX4X7X6X6X4X=X;X=X3X3X3X3X3X=X=X&X&X&XoXoXoX.X.XoX=X3X3X3X3X=X=X&X;X;X&XoX.X.X.X3.*.$.$.$.$.$.$.$.$.$.$.$.$.$.$.$.$.` $.$.$.$.=.*.<.<.<.3.3.3.3.3.3.3.3.3.3.<.<.<.*.*.$.$.$.$.` ` ` ` ` ` ` ` ` ` ` ` ` ` ` ` ` ) ) W W W W W W W W W W W W W W ) ` ` ` ` ` ) ) W W W R R R g g j u i & $ +         5 K A a J v ~ @X3X4X6X0XwXNXNXNXNXwX0X6X4X3X3X3X3X3X3X3X=X=X&X&X&XoXoXoX.X.XoX=X-X-X*X*XOXoXXX<.<.*.$.$.` ` ` ' _ R y % o   .   3 F z a  .X.>.4XNXNXwXwXwX0X0X6X3X3X3X3X=X=X=X3X3X3X3X3X=X=X&X;XoXoX+XoX.X+XyXkXGXHXKXjXl.@.",
"^./.).hXzXaXt.*..XoXoXoXoXoX.X.X.X3.3.3.3.3.3.3.3.3.3.3.3.3.3.3.3.3.3.3.3.3.3.3.3.3..X.X.X.X.X.XXXXXXXXX4.4.4.1.*.*.*.$.$.$.` ` ` ` ` ` ` ` ` ` ` ` ` ` ` ` ` ` ` ` ` ` ` ` ` ` ` ` ` ` ` ` ` ) ) W Q h u % o o       . : S S N N B { 5.3XwXBXBX0X6X=X=X3X6XwXwX6X6X3X3X=X=X&XoXoX.X3.<.2.*.$.$.$.$.$.` ) W R g j i $ o o   X X 9 9 w c ..:.8.OX4X7X7X6X4X=X=X=X3X3X3X3X3X=X=X&X&X&XoXoX.X.X.XoX=X3X3X3X3X=X=X&X;X;X&XoX.X.X.X3.*.$.$.$.$.$.$.$.$.$.$.$.$.$.$.$.` ` $.$.$.$.*.*.<.<.<.3.3.3.3.3.3.3.3.3.3.<.<.<.*.=.*.$.$.$.` ` ` ` ` ` ` ` ` ` ` ` ` ` ` ` ` ) ) W W W W W W W W W W W W W W ) ` ` ` ` ` ) ) W W R R R R g g j u i & $ +         - K A a J  .~ @X3X4X6X0XwXNXNXNXNXwX0X6X4X3X3X3X3X3X3X3X=X=X&X&X&XoXoXoX.X.XoX=X4X4X-X*X*XOXXX<.<.*.$.$.` ) ) ' _ R y % o   .   3 F z a  .X.>.4XNXNXwXwXwX0X0X6X3X3X3X3X=X=X=X3X3X3X3X3X=X=X&X;XoXoX+XoX3.+XyXkXGXHXKXjXl.@.",
"^./.).hXzXaXt.*..XoXoXoXoXoX.X.X3.3.3.3.3.3.3.3.3.3.3.3.3.3.3.3.3.3.3.3.3.3.3.3.3.3..X.X.X.X.X3.XXXXXXXX4.4.4.1.*.*.*.$.$.$.` ` ` ` ` ` ` ` ` ` ` ` ` ` ` ` ` ` ` ` ` ` ` ` ` ` ` ` ` ` ` ` ` ) ) W Q h u % o o       . : S S N N B { 5.3XwXBXBX0X6X=X=X3X6XwXwX6X6X6X3X=X=X&XoX.X.X5.<.2.-.*.-.$.$.$.` ) W R g j i $ o o   X X 9 9 w c ..:.8.OX4X7X7X6X4X=X=X=X3X3X3X3X=X=X=X&X&X&XoXoXoX.X.XoX=X3X3X3X3X=X=X&X;X;X&XoXoX.X.X<.$.$.$.$.$.$.$.$.$.$.$.$.$.$.$.$.` ` $.$.$.$.*.*.<.<.<.3.3.3.3.3.3.3.3.3.3.<.<.<.*.*.*.$.$.$.` ` ` ` ` ` ` ` ` ` ` ` ` ` ` ` ` ) W W W W W W W W W W W W W W W ) ` ` ` ` ` ) ) W W R R R R g g j u i & $ +         - K z a J  .~ @X3X4X6X0XwXNXNXNXNXwX0X6X4X3X3X3X3X3X3X3X=X=X&X&X&XoXoXoXoX.XoX3X6X4X4X-X*XOXXX3.<.*.$.` ` ) ) ' _ R y % o   .   3 F z a  .X.>.4XNXNXwXwXwX0X0X6X3X3X3X3X=X=X=X3X3X3X3X3X=X=X&X;XoXoX+XoX3.+XyXkXGXHXKXjXl.@.",
"^.^.).hXzXaXt.*..XoXoXoXoXoX.X.X3.3.5.5.5.5.5.5.5.5.5.5.5.5.5.3.3.3.3.3.3.3.3.3.3..X.X.X.X3..X3.XXXXXXXX4.4.4.1.*.*.$.$.$.` ` ` ` ` ` ` ` ` ` ` ` ` ` ` ` ` ` ` ` ` ` ` ` ` ` ` ` ` ` ` ` ` ` ) ) W Q h u % o o       + : S S N N B { 5.3XwXBXBX0X6X=X=X3X6XwXwX0X6X3X3X=X=X&XoX.X3.3.<.2.-.-.-.*.*.$.` ) W R g j i $ o o   X X 9 9 w c ..:.8.OX-X7X7X6X4X=X=X=X3X3X3X3X3X=X=X&X&X&XoXoXoX.X.XoX=X3X3X3X3X=X=X&X;X;X&XoX.X.X.X<.$.` ` ` ` ` ` ` ` ` ` ` ` ` ` ` ` ` $.$.$.$.*.*.<.<.<.3.3.3.3.3.3.3.3.3.3.<.<.<.*.*.$.$.$.` ` ` ` ` ` ` ` ` ` ` ` ` ` ` ` ` ` ) W W W W W W W W W W W W W W W W ` ` ` ` ` ) ) W W R R R R g g j u i & $ o         - K z a J  .~ @X3X4X6X0XwXNXNXNXNXwX0X6X4X3X3X3X3X3X3X3X=X=X&X&X&XoXoXoX.X.X&X3X6X7X4X-X*X*XXX3.<.=.$.` ` ) ) ' _ R y % o   .   3 F z a  .X.>.4XNXNXwXwXwX0X0X6X3X3X3X3X=X=X=X3X3X3X3X3X=X=X&X;XoX.X+XoX3.+XyXkXGXGXKXjXl.@.",
"^.^.).hXzXaXt.*..XoXoXoXoXoX.X.X3.3.5.5.5.5.5.<.5.5.<.<.<.2.2.<.<.<.<.<.<.<.<.<.3.3.3.3.3.3.3.3.3.3.3.3.4.1.1.1.*.$.$.$.$.` $.` ` ) ) ) ) ) ) ) ) ) ) ) ` ) ` ) ) ) ) ) ) ) ) ) ) ) ) ) ) ) ) ) W W Q h u % o o       + : S S p N B { 5.=XwXBXBX0X3X=X&X=X3X0X0X6X3X3X=X&X&XoX.X3.3.<.<.2.2.-.-.-.*.$.$.` ) R g j i % $ o   O X 9 0 w c ..:.7.OX-X4X7X7X4X4X-X-X3X3X3X3X=X=X=X=X&X&X&X&XoXoXoX&X3X6X3X3X3X=X=X&X*X*XOXXX.X3.3.<.$.` ` ` ` ` ` ` ` ` ` ` ` ` ` ` ` ` ` ` $.$.$.$.=.*.*.<.<.<.<.<.<.<.<.<.*.*.*.=.$.$.$.$.` ` ` ` ) ) ) ) ) ) ) ) ) ) ) ) ) ) ) ) W W W W W W W W W W W W W W W W ) ` ) ) ) ) ) W W W R R R R R h u i & $ o         - K z a J  .~ @X4X6X6X0XwXwXNXNXwXwX0X6X6X4X4X3X3X3X3X=X=X=X=X&X&X&X&X&XoXoX&X3X4X4X4X-X*XOXXX3.<.*.=.$.` ` ` ' _ h y % o   .   3 F z a  . .>.-XwXwXwXwX0X0X0X3X3X3X=X=X=X=X=X=X3X=X=X=X&X&X&X;X.X.X+X.X<.+XyXkXGXGXKXjXl.@.",
"^.^.).hXzXaXt.*..XoXoXoXoX.X.X.X.X3.3.5.5.<.<.2.*.*.$.$.$.$.$.$.*.<.<.<.<.<.<.<.<.<.<.<.<.<.<.<.*.*.*.*.*.*.$.$.$.$.$.$.$.$.$.` ) ) ) ) ) ) ) ) ) ) ) ) ) ) ) ) ) ) ) ) ) ) ) ) ) ) ) ) ) ) ) ) W W Q h y % o o       . : S S p N B { 5.3XwXNXNX6X=X&XoX&X=X3X3X=X&X&X&XoX.X3.5.*.*.*.-.2.5.5.5.<.-.*.$.` ) W R g y t $ o o O X q q S J O.w.9.,X*X-X4X4X4X-X-X-X4X4X4X4X4X4X4X4X=X=X=X=X=X=X=X=X7XqX7X7X4X-X-X*XXX4.<.<.*.=.$.%.' _ _ ) _ ) _ _ _ _ _ ) _ _ _ ) _ _ _ ` ' ' ' ' ' ` ' ` ' %.%.%.%.%.%.' ' ' ' ` ' ` ' ' ' ) _ ) _ Q Q Q Q Q Q Q Q Q Q Q Q Q Q Q Q Q Q Q Q Q Q Q Q Q Q Q Q Q Q Q Q _ Q Q Q Q Q Q Q Q Q Q Q E E E y % % o o         - K z a J  .~ +X6X6X0X0X0X0X0X0X0X0X0X0X6X6X6X=X=X=X=X=X=X=X=X3X3X4X4X4X4X4X4X=X=X=X*X*XOXoXXX3.3.<.<.*.=.*.$._ E h y % $ o .   : K z a J  .[ *X0X0X0X0X0X6X6X3X=X=X=X&X&X&X&X&X&X&X&X&XoXoX.X<X3.<.3.3.*.@XaXkXGXGXhXjXl.@.",
"^.^.).hXzXaXt.*..XoXoXoXoX.X.X.X.X.X3.3.5.<.2.2.*.$.$.$.` ` ` ` *.*.*.*.*.*.*.*.*.*.*.*.*.*.*.*.$.$.$.$.$.$.$.$.$.$.$.$.$.$.$.` ) W W W W W W W W W W W W W W W W W W W W W W W W W W W W W W ) W W Q h y % o o       . : S S p N B { 5.3XwXNXNX6X=XoX.XoX&X3X3X&X&XoXoX.X3.<.2.*.*.*.-.2.2.5.5.<.2.*.*.$.` ) R g y t % $ o $ O w w S  .O.w.9.%X:X>X>X>X>X>X:X>X*X*X*X*X-X=X=X=X-X-X-X-X-X-X-X4X7X7X9X9X9X>X:X$X4.1.=.%.' ' _ _ _ _ _ _ _ _ _ _ _ _ _ _ _ _ _ _ _ _ _ _ _ _ _ _ _ _ _ _ _ _ _ _ _ _ _ _ _ _ _ _ _ _ _ _ _ _ _ Q Q E E E E E E E E E E E E E E E E E E E E E E E E E E E E E E E E E E E E E E E E E E E E E E h y % % o o         - K z a J  .~ *X0X0X0X0X0X0X0X0X0X0X0X0X0X0X6X=X&X&X&X&X&X=X=X3X4X4X4X6X6X6X4X=X*X*XOXOXOXoXXX3.3.<.<.<.<.*.$._ E f y % $ o +   : K z a H v ~ *X0X0X0X0X6X6X4X=X=X=X&X&X&X&X&X&XoXoXoXoX.X.X.X+X<.<.2.<.$.6.aXgXGXGXhXjXl.@.",
"^.^.).hXzXaXt.*.@XoXoXoXoXoX.X.X.X.X.X3.5.5.<.2.*.$.$.$.` ` ` $.*.*.*.*.*.*.*.*.*.*.*.*.*.*.*.*.$.$.$.$.$.$.$.$.$.$.$.$.$.$.$.` ) W W W W W W W W W W W W W W W W W W W W W W W W W W W W W W ) W Q Q h u % o o       . : S S p N B { 3.3XwXNXNX6X=XoX.XoX&X=X=X&X&XoXoX.X.X5.<.*.*.-.-.2.2.2.5.<.<.*.*.$.` ) R g d t % $ o $ O w A H  .X.} >.8.%X:X:X:X%X%X%X#XXXXXXXXXXXXXXXXXOXOXOXOXOXOXOX,X>X9X9X>X:X:X%X8.=.' ' _ Q Q E E E E E E R R E E E E R R R E E E E E R R E R E E R R R R E E E E E E E E R E E E E E E E E E R R h h h h h h h h h h h h h h h h h h h h h h h h h h h h h h h h h h h h h h h h h h h h h h h f t % $ o o         - K z a J  .[ *X0X0X0X0X0X0X0X0X0X0X0X0X0X0X6X&XoXoXoX&X&X&X&X=X=X=X=X3X3X3X=X*X*X*X*XOXOXXXXX3.3.<.<.<.*.*.$._ E f y % $ o +   : K z a J v ~ *X0X0X0X0X6X6X4X=X=X=X&X&X&X&X&X&XoXoXoXoX.X.X.X+X<.<.2.2.$.6.aXgXGXGXhXjXl.@.",
"^.^.).hXzXaXt.*.@XoXoXoXoXoX.X.X.X.X.X.X3.5.<.2.*.*.$.$.$.` ` $.*.*.*.*.*.*.*.*.*.*.*.*.*.*.*.*.$.$.$.$.$.$.$.$.$.$.$.$.$.$.$.` ) W W W W W W W W W W W W W W W W W W W W W W W W W W W W W W ) W Q Q h u % o o       . : S S p N B { 3.3XwXNXNX6X=XoX.XoX&X3X=X&X&XoXoX.X.X.X3.3.<.<.2.2.2.2.2.<.<.*.*.$.` ) R g d t % $ o $ O A A H v ..[ [ %.7.7.7.7.7.=.>.%.$.*.*.*.*.*.*.*.=.=.=.=.=.=.*.1.XX#X#X8.8.7.=.>.) W R h h f d d h h h h h h h h h h h h h h h h h h h h h h h h h h h h h h h h h h h h h h h h h h h h h h h f d y y y y y y d d d d d y y y y y y y y d d y y y y y y d d y y d y y y y y y y d y d d y y y y t % $ o o         - K z a J  .[ *X0X0X0X0X0X0X0X0X0X0X0X0X0X0X6X&XoXoXoXoXoXoXoX&X&X&X&X&X&X&X&X&X*X*XOXOXOXXXXX3.<.<.<.*.*.*.$._ E f y % $ o o   : K z a J v ~ *X0X0X0X0X6X6X4X=X=X=X&X&X&X&X&X&XoXoXoXoX.X.X.X+X<.<.2.<.$.6.aXgXGXGXhXjXl.+.",
"^.^.N.hXzXpXt.*..XoXoXoXoXoXoX.X.X.X.X.X3.3.5.<.*.*.$.$.$.$.$.$.*.*.*.*.*.*.*.*.*.*.*.*.*.*.*.*.$.$.$.$.$.$.$.$.$.$.$.$.$.$.$.` ) W W W W W W W W W W W W W W W W W W W W W W W W W W W W W W ) W Q Q h f % o o       + : S H N N B { 3.3XwXNXNX6X=XoX.XoX&X3X3X&XoXoXoXoX.X.X.X.X3.5.<.2.-.-.2.<.<.*.*.$.` ) R g d t % $ o O O A S H v k / E Q W W W W R R h g W W W W W W W W R R R R R R R W ` ` ` ) ) W R h d d y t t % % % t y y y y y y y y y y y y y y y y y y y y y y y y y y y y y y y y y y y y y y y y y y y y y y t t % % % % % % % t t % % % % % % t % % % % % % % t % % % % % % % t % % % % % t % % % % % % t % % % % $ o o         5 K z a J  .[ *X0X0X0X0X0X0X0X0X0X0X0X0X0X0X6X&X.X.X.X.X.X.X.X.X.X.X.X.X.X.X.XOXOXOXOXOXXXXXXX<.<.<.*.*.*.*.$._ E f y % $ o o   : K A a J v ~ *X0X0X0X0X6X6X4X=X=X=X&X&X&XoXoX&XoXoXoXoX.X.X.X+X<.<.2.2.$.6.aXgXGXGXKXjXl.+.",
"^.^.N.hXzXaXt.*..XoXoXoXoXoXoX.X.X.X.X.X.X3.3.5.<.*.*.$.$.$.$.$.*.*.*.*.*.*.*.*.*.*.*.*.*.*.*.*.$.$.$.$.$.$.$.$.$.$.$.$.$.$.$.` ) W W W W W W W W W W W W W W W W W W W W W W W W W W W W W W ) W Q Q h u % o o       X : S S N N B { 3.3XwXNXNX6X=XoX.XoX&X3X3X&XoXoXoXoXoXoXoX+X.X.X5.<.-.*.*.<.<.*.*.$.` ) R g d t % $ o O O S S H c k l f f d d y y t t t t y y y y y y y y y y y y y y y y g g g g d d y t % % $ $ o o o o $ % % % % % % % % % % % % % % % % % % % % % % % % % % % % % % % % % % % % % % % % % % % % % % % $ o $ o $ o $ o $ $ $ o $ o $ o $ o $ o $ o $ o $ o $ o $ o $ o $ o $ o $ o $ o $ o $ o $ $ $ $ % % $ o o         5 K z a J v ~ *X0X0X0X0X0X0X0X0X0X0X0X0X0X0X4XoX.X.X.X.X.X.X3.3.3.3.3.3.<.<.3.oXOXOXOXXXXXXX4.<.<.*.*.*.*.$.` _ E f y % $ o o   : K A a J v ~ *X0X0X0X0X6X6X4X=X=X=X&X&X&XoXoX&XoXoXoXoX.X.X.X+X<.<.2.2.$.6.aXkXGXGXKXjXl.+.",
"^.^.N.hXzXaXt.*..XoXoXoXoXoX.X.XoXoXoX.X.X.X.X3.<.<.*.*.*.$.$.$.*.*.*.*.*.*.*.*.*.*.*.*.*.*.*.*.$.$.$.$.$.$.$.$.$.$.$.$.$.$.$.` ) W W W W W W W W W W W W W W W W W W W W W W W W W W W W W W ) W W Q h u % o o       X : S S N N B { 3.3XwXNXNX6X=XoX.XoX&X3X=X&XoXoX&X&X&X&X&X;X&X.X.X<.*.$.$.<.<.*.*.$.` ) R g d t % $ $ O O S H H k a i t % % % $ $ $ o o o o $ $ $ $ $ $ $ $ $ $ $ $ $ $ $ t t t % % $ $ o o o             o o o o o o o o o o o o o o o o o o o o o o o o o o o o o o o o o o o o o o o o o o o o o o o o o   o   o       o           o   o   o   o   o   o   o   o       o   o       o       o   o   o o % % $ o o         5 K z a J v ~ *X0X0X0X0X0X0X0X0X0X0X0X0X0X0X4XoX.X.X3.3.3.5.5.<.<.<.*.*.*.*.<.XXOXXXXXXXXX4.4.<.*.*.=.$.$.$.` _ E f y % $ o +   : K z a J v ~ *X0X0X0X0X6X6X4X=X=X=X&X&X&XoXoX&XoXoXoXoX.X.X.X+X<.<.2.2.$.6.aXkXGXGXKXjXl.+.",
"^.^.N.hXzXaXt.*..XoXoXoXoXoX.X.XoXoXoXoXoX.X.X.X<.<.<.*.*.*.*.*.*.*.*.*.*.*.*.*.*.*.*.*.*.*.*.*.$.$.$.$.$.$.$.$.$.$.$.$.$.$.$.` ) W W W W W W W W W W W W W W W W W W W W W W W W W W W W W W ) W W Q h u % o o       . : S S N N B { 3.3XwXNXNX6X=XoX.XoX&X3X=XoXoXoX&X&X=X=X=X5X;XoX.X5.*.$.$.<.<.*.*.$.` ) R g d t % $ $ O O H H H s a & $ o o +   . . . . .                         .   .   o $ $ o o +   .                   o o o o o o o o o o o o o o o o o o o o o o o o o o o o o o o o o o o o o o o o o o o o o o                                                                                                 o $ % $ o o         - K z a J v ~ *X0X0X0X0X0X0X0X0X0X0X0X0X0X0X4XoX.X.X.X3.3.5.<.*.*.*.$.$.$.$.*.3.XXXXXXXX4.4.1.*.=.=.$.$.$.$.` _ E f y % $ o +   : K z a J v [ *X0X0X0X0X6X6X4X=X=X=X&X&X&XoXoX&XoXoXoXoX.X.X.X+X<.<.2.2.$.6.aXkXGXGXKXjXl.+.",
"^.^.).hXzXaXt.*..XoXoXoXoXoX.XoXoX&X&XoXoXoX.X.X3.5.3.<.<.2.2.2.*.*.*.*.*.*.*.*.*.*.*.*.*.*.*.*.$.$.$.$.$.$.$.$.$.$.$.$.$.$.$.` ) W W W W W W W W W W W W W W W W W W W W W W W W W W W W W W ) _ _ E h y % o o       . : S S p N B { 5.3XwXNXNX6X=XoX.XoX&X=X=XoX.XoX&X=X3X3X3X4X=X&XoX3.*.$.$.*.<.*.*.$.` ) R ! d t % $ o O , x c x p s , X                                                                                                                                                                                                                                                                                   $ % % o o       # - : A c k k [ *X0X0X0X0X0X0X0X0X0X0X0X0X0X0X6X&X.X.X.X.X3.5.<.2.2.-.*.$.&.&.*.<.3.3.3.<.<.<.*.*.*.$.$.$.` ` ) Q h f y t $ o o   : K z s H v ~ *X0X0X0X0X6X6X4X=X=X=X&X&X&X&X&X&XoXoXoXoX.X.X.X@X<.<.6.2.*.6.1XkXGXHXKXjXl.@.",
"^.^.).hXzXaXt.*..XoXoXoXoXoX.XoX&X&X&X&XoXoXoX.X.X3.3.3.<.<.2.2.*.*.*.*.*.*.*.*.*.*.*.*.*.*.*.*.$.$.$.$.$.$.$.$.$.$.$.$.$.$.$.` ) W W W W W W W W W W W W W W W W W W W W W W W W W W W W W W ) _ _ E h y % o o       . : S S p N B { 5.3XwXNXNX6X=XoX.XoX&X=X=XoX.XoX&X3X3X6X6X0X6X=XoX3.*.$.$.*.<.*.*.$.` ) R ! d t % $ o O , x x z p : , X . X X X X X X X X X X X X X X X X X X X X X X X X X X X X X X X X X X X X X X X X X X X X X X X X X X X X X X X X X X X X X X X X X X X X X X X X X X X X X X X X X X X X X X X X X X X X X X X X X X X X X X X X X X X X X X X X X X X X X X X X X X X X X X X X X X X X X X X X & u i & , O X X # - : A c k k [ *X0X0X0X0X0X0X0X0X0X0X0X0X0X0X6X&X&XoXoX.X.X.X5.<.2.-.*.&.&.&.*.<.3.3.<.<.<.*.=.*.$.$.$.` ` ` ) Q E f y t $ o o   : K z s H v ~ *X0X0X0X0X6X6X4X=X=X=X&X&X&X&X&X&XoXoXoXoX.X.X.X@X<.<.6.2.*.6.1XkXGXHXKXjXl.@.",
"^.^.).hXzXaXt.*..X.XoXoXoXoX.XoX&X&X&X&X&XoXoX.X.X.X.X3.5.3.<.<.<.*.*.*.*.*.*.*.*.*.*.*.*.*.*.*.$.$.$.$.$.$.$.$.$.$.$.$.$.$.$.` ) W W W W W W W W W W W W W W W W W W W W W W W W W W W W W W ) _ _ E h y % o o       . : S S p N B { 3.3XwXNXNX6X=XoX.XoX&X3X=XoX.XoX&X3X6X0X0XwX6X3X&X3.*.` $.*.<.*.*.$.` ) R ! d t % $ o O , s p z p - # X X 4 4 # # # # # # # # # # 9 9 9 9 9 9 9 9 9 9 9 # - - - - - - - - # # # # # # # # - - - - - - - - - - - - - - - - - - - - - - - - - - - - - - - - - - - - - - - - - - - - - - - - - # # # # # # # # # # # # # # # # # # # # # # # # # # # # # # # # # # # # # # # # # # # # # # - a k a s p - - - # - : A c k k [ *X0X0X0X0X0X0X0X0X0X0X0X0X0X0X6X3X=X=X&X&XoX.X.X3.<.2.-.*.&.&.*.<.<.<.<.<.*.*.=.$.$.$.` ` ` ) ) Q E h y t $ o o   : K A s H v ~ *X0X0X0X0X6X6X4X=X=X=X&X&X&X&X&X&XoXoXoXoX.X.X.X@X<.<.6.2.$.6.1XkXGXGXKXjXl.@.",
"^.^.).hXzXaXt.*..X.XoXoXoXoX.XoX&X=X=X&X&X&XoXoXoX.X.X.X3.3.5.5.<.*.*.*.*.*.*.*.*.*.*.*.*.*.*.*.$.$.$.$.$.$.$.$.$.$.$.$.$.$.$.` ) W W W W W W W W W W W W W W W W W W W W W W W W W W W W W W ) _ _ E h y % o o       . : S S p N B { 3.3XwXNXNX6X=XoX.XoX&X3X=X.X.XoX=X3X0XwXwXNX0X3X&X3.*.` ` *.<.*.*.$.` ) R ! d t % $ o O , s p A w 5 # # @ 4 4 4 3 5 5 1 1 < 2 2 2 2 2 2 2 2 2 2 2 2 2 2 < q 6 5 5 5 5 w w 6 6 6 6 6 6 6 6 w w w w 6 6 6 : 6 6 6 : 6 : w w 6 6 : : : 6 6 6 6 w w w : : 6 6 : : 6 6 6 6 6 6 6 6 6 6 6 6 6 : 5 q q q 5 5 5 5 5 5 5 5 5 5 q q 5 5 5 5 5 5 5 5 5 q q q 5 5 5 5 5 5 5 5 5 5 q q 5 5 5 5 5 5 5 6 k k k s z : 6 5 # - : A c k k [ *X0X0X0X0X0X0X0X0X0X0X0X0X0X0X0X6X3X3X3X=X&X&XoX.X3.<.2.-.*.&.*.<.<.<.<.*.*.=.$.$.$.` ` ) ) ) ) E E f y % $ o o   : K z s H v ~ *X0X0X0X0X6X6X4X=X=X=X&X&X&X&X&X&XoXoXoXoX.X.X.X@X<.<.6.2.$.6.aXkXGXGXKXjXl.@.",
"^.^.).hXzXaXt.*..XoXoXoXoXoX.XoX&X=X=X=X&X&X&XoXoX.X.X.X3.3.3.5.<.*.*.*.*.*.*.*.*.*.*.*.*.*.*.*.$.$.$.$.$.$.$.$.$.$.$.$.$.$.$.` ) W W W W W W W W W W W W W W W W W W W W W W W W W W W W W W ) _ Q R h u % o o       X : S H N N B { 3.3XwXNXNX6X=XoX.XoX&X3X=X.X.XoX=X6XwXNXNXNXwX6X&X.X-.` ` *.<.*.*.$.` ) R R d t % $ o * , p z A w 0 4 # # 4 4 4 # - : p p 1 < < < < < < < < < < < < < < < : : : : : : : p : p p p p p p p : : : : : : : : : : : : : : : : : : : : : : : : : : : : : : : : : : : : : : : : : : : : : : : : - - - - - - - - - - - - - - - - - - - - - - - - - - - - - - - - - - - - - - - - - - - - - - - : a k a s p : - - # - : A c k k [ *X0X0X0X0X0X0X0X0X0X0X0X0X0X0X0X0X0X6X6X3X3X=X&XoX.X3.<.2.-.*.*.<.<.<.*.*.*.$.$.$.` ` ) ) ) ) W E E h y % $ o     : K z s H v ~ *X0X0X0X0X6X6X4X=X=X=X&X&X&XoXoX&XoXoXoXoX.X.X.X@X<.<.5.2.*.6.aXgXGXGXhXjXl.@.",
"^.^.N.hXzXaXt.*..XoXoXoXoXoX.XoX&X=X=X=X&X&X&XoXoXoX.X.X.X3.3.3.<.*.*.*.*.*.*.*.*.*.*.*.*.*.*.*.$.$.$.$.$.$.$.$.$.$.$.$.$.$.$.` ) W W W W W W W W W W W W W W W W W W W W W W W W W W W W W W ) _ _ R h u % o o       X : S S N N B { 3.3XwXNXNX6X=XoX.XoX&X3X=X.X.XoX=X6XwXBXBXBXNX0X=X.X-.` ` *.<.*.*.$.` ) R ! d t % $ o * , p p w e 0 0 4 4 4 4 # - : s a a 1 1 1 1 1 1 1 1 1 1 1 1 1 1 1 1 : : : : s s p p s a a a a a a a s : : : : : : : : : : : : : : : : : : : : : : : : : : : : : : : : : : : : : : : : : : : : : : : - - - - - - - - - - - - - - - - - - - - - - - - - - - - - - - - - - - - - - - - - - - - - - - : a k a s p : - - # - : A c k k [ *X0X0X0X0X0X0X0X0X0X0X0X0X0X0X0XwXwXwX0X6X6X3X=X&XoX.X3.<.2.2.-.*.<.*.*.*.*.$.$.` ` ` ) ) ) W W E E h y % $ o     : K z s H v ~ *X0X0X0X0X6X6X4X=X=X=X&X&X&XoXoX&XoXoXoXoX.X.X.X@X<.<.5.2.*.6.aXgXGXGXhXjXl.+.",
"^.^.N.hXzXaXt.*..X.XoXoXoXoX.XoX=X=X=X=X=X&X&X&XoXoX.X.X.X.X3.3.<.*.*.*.*.*.*.*.*.*.*.*.*.*.*.*.*.$.$.$.$.$.$.$.$.$.$.$.$.$.$.` ) W W W W W W W W W W W W W W W W W W W W W W W W W W W W W W ) _ Q R h u % o o       . : S S N N B { 3.3XwXNXNX6X=XoX.XoX&X3X=X.X3.oX=X6XwXBXBXCXNX0X=X.X-.` ` *.<.*.*.$.` ) R ! d t % $ o * , : p w e 0 9 9 4 4 4 # - p k k b x 1 x x x x x x x x x x x x x x p s s s a a a a k k k k k k k k s p p p p p p p p p p p p p p p p p p p p p p p p p p p p p p p p p p p p p p p p p p p p p p p : : - : : : : : - - - - - : : : : : - - - - : - - - - : : : : : - - - - : : - : : : : : - : : p k k k s p : - - # - : A c k k [ *X0X0X0X0X0X0X0X0X0X0X0X0X0X0X0XwXNXNXwX0X6X3X3X=X&XoX.X5.<.2.2.*.*.*.*.*.$.$.$.` ` ) ) ) W ) W E E h y t $ o     : K z s J v ~ *X0X0X0X0X6X6X4X=X=X=X&X&X&XoXoX&XoXoXoXoX.X.X.X@X<.<.5.2.*.5.1XgXGXGXhXjXl.+.",
"^.^.).hXlXaXt.*.3..XoX&X&X&X&X&X=X=X=X=X=X=X&X&X&X&XoXoXoXoXoX.X*.$.*.*.*.*.*.*.*.*.*.*.*.<.<.*.*.*.*.*.$.$.$.$.$.` ` ` ` ) ) ) W W W W W W W W W W W W W W W W W W W W W W W W W W W W W W W W Q Q R h u % $ o       . - A A N N B { 5.=X0XNXNX6X=XoXoXoX&X3X=XoX.XoX=X3X0XwXwXwX0X3X&X3.-.` ` *.*.*.$.` ) W R j d t $ o o O , : : A A e e q 6 A N V k ( | | O.o.o.o.o.o.o.o.o.o.o.o.o.o.o.o.o.X.( ( ( ( ( ( ( ( | | | | | | | ( ( ( ( ( ( ( ( ( ( ( ( ( ( ( ( ( ( ( ( ( ( ( ( ( ( ( ( ( ( ( ( ( / / / / / / / / / / / / / / / k k k V V V k k k V V V k k k k V V V V k V k k k k k / / / k k k V V V k k k V V V k k k k k k .... .c S A w w # - : A c k k [ *X0X0X0X0X0X0X0X0X0X0X0X0X0X0X0XwXwXwXwX0X6X6X3X=X&X&XoX.X.X.X3.<.<.<.<.*.*.$.$.` ` ) ) ) W W W E h f u % $ o     : K z s H J ~ *X0X0X6X6X6X6X4X=X=X=X&X&X&X&X&X&XoXoXoX.X.X.X3.@X<.*.6.2.$.6.1XgXGXGXhXjXl.+.",
"^./.).hXjXaXe.` 5.OX>X>X9X9X7X7X6X3X3X3X5X5X5X5X=X=X=X=X=X=X=XoX$.` ` ` ` $.$.$.=.1.1.1.1.4.4.4.3.3.<.<.<.=.$.` ) W R R g g d d g g g g g g g g g g g g g g g g g g g g g g g g g g g g g g g g R R h f y t % $ o     . # 0 0 3 7 M ^ 2.=X0XNXwX0X4X;X;X;X4X0X6X&XoXoX&X&X&X&X&X&XoX.X3.<.$.$.` *.*.$.$.` ) R g j y % $ o   @ @ : z x c v k ~ ~ [ [ ;.;.-.-.2.;.;.;.;.;.;.;.;.;.;.;.;.;.;.;.;.;.;.;.;.;.;.;.;.;.-.-.-.;.;.;.2.;.;.;.;.;.;.;.;.;.;.;.;.;.;.;.;.;.6.6.6.6.6.6.6.6.4.6.4.6.6.6.6.2.;.,.,.{ { { { { ,.,.,.,.,.{ ,.,.;.;.;.;.;.;.;.;.q.q.q.q.q.q.q.q.,.q.q.q.q.;.q.q.;.-.2.2.6.6.6.6.-.;.;.;.;.;.;.;.;.;.;.;.;.;.;.;.:.} |  .c S e e # # - A c k / >.*X0X0X0X0X0X0X0X0X0X0X0X0X0X0X0X0X0X6X6X6X6X6X4X=X=X=X=X&X&X&X&X.X3.3.3.<.<.=.$.$.` ) ) W W R R h f f t $ o       5 F w : S H ~ @X3X3X3X8X3X3X3X8X8X8X8X8X8X8X8X&XoXOXXXXXXX3.3.%X<.=.0.0.$.0.aXgXGXGXKXjXl.@.",
"/./.).hXjXl.e.` 6.#X:X>X9X9X7X7X4X=X=X=X=X=X=X=X=X=X=X=X=X=X&XoX*.` ` ` $.$.$.$.1.1.1.4.4.4.4.XX.XXX.X3.<.<.=.$.) W R g d d y d g g g g g g g g g g g g g g g g g g g g g g g g g g g g g g g g g h f d y t % $ o     . # 0 0 4 7 M ^ -.&X0XNXwX0X4X;X;X=X4X0X0X=XoXoXoXoXoX.X.X3.3.<.*.*.*.$.$.*.$.$.` ) W R g j t $ o o   . @ : z x v ..} [ =.6.6..X@X@X@X@X@X@X@X@X@X5.@X5.5.@X@X@X@X@X@X@X@X@X@X@X@X@X@X@X@X@X@X@X@X@X@X@X@X@X@X@X@X@X@X@X@X@X@X@X@X@X@X@X+X&X;X;X;X;X;X;X;X;X;X;X;X;X;X;X+X@X5.5.5.5.5.5.5.5.5.5.5.5.5.5.5.@X@X+X+X+X+X+X+X<X<X<X<X<X<X<X+X@X6.@X@X@X@X+X<X@X+X&X;X;X;X;X;X+X@X@X@X+X+X+X+X+X+X+X+X@X@X@X@X9.:.[ / k z w q # # 5 A c k / >.*X0X0X0X0X0X0X0X0X0X0X0X0X0X0X6X6X4X4X4X4X4X4X4X3X3X3X3X3X3X3X=XoX.X.X3.3.<.*.$.$.` ) W W R R R h f u t $ o       - F w : S H ~ .X3X3X3X3X3X3X3X3X3X3X3X3X3X3X3X&XOXOXXXXXXXXX3.%X<.1.9.9.=.0.aXhXGXGXKXjXl.@.",
"^./.).hXjXl.r.) 2.4.$X:X>X9X9X4X*X&X&X&XoXoX&X&XoXoXoXoXoXoXoX.X*.$.$.*.*.*.<.<.3.3.XXXXXXoXoXoXoXoXoX.X3.3.<.=.` ) W R R g g g R R R R R R R R R R R R R R R R R R R R R R R R R R R R R R R R d d y u u t $ $ o     . # q 0 3 7 M ^ -.&X0XNXwX0X4X;X;X=X4X0X0X=XoXoXoXoX.X.X.X3.3.<.*.*.$.$.$.*.$.$.` ) W R g j t $ o o   . @ : 1 x v ..} [ =.6.@X@X@X@X@X@X@X@X@X@X@X@X@X@X@X@X@X@X@X@X@X@X@X@X+X+X+X+X+X+X+X+X+X+X+X+X+X+X+X+X+X+X+X+X+X+X+X+X+X+X+X+X+X+X+X;X;X;X;X;X;X;X;X;X;X*X;X;X;X;X&X@X@X@X@X@X@X5.@X@X@X@X@X@X5.5.@X+X+X+X+X+X+X+X+X+X+X+X+X+X+X+X+X+X@X@X@X+X+X<X<X+X;X;X;X=X=X=X;X;X+X+X+X+X+X+X+X+X+X+X+X+X+X+X@X7.:.[ / k p q 0 # # 5 A c k / >.*X0X0X0X0X0X0X0X0X0X0X0X0X0X0X6X6X4X4X4X4X4X4X4X3X3X3X3X3X3X=X=XoX.X.X3.3.<.*.$.$.` ) W W R R R h f u t $ o       5 F w : S H ~ .X3X3X3X6X6X3X6X3X3X3X3X3X3X3X3X&XOXOXOXOXoXoXXX,XXXXX%XXX3.%XyXkXHXGXhXjXl.@.",
"^./.).JXjXl.r.) ;.1.#X$X:X:X>X*XXX.X.X.X3.3.3..X3.3.3.3.3.3.3.<.<.*.*.<.<.<.3.3.XXXXXXoXoXoXoXOXoXoXoX.X.X3.<.*.` ` ) W R R g R R W W W W W W W W W W W W W W W W W W W W W W W W W W W W W W R d t t t t % $ $ o o   . - e e 5 7 M ^ 2.&X0XNXwX0X4X;X;X=X4X0X0X=XoXoXoXoX.X.X.X3.3.<.*.*.$.$.$.*.$.$.` ) W R g j t $ o     . @ : z x v ..} >.=.6.@X+X+X+X+X+X+X&X;X;X;X;X;X&X&X&X;X;X;X;X&X;X;X;X;X;X;X;X;X;X;X;X;X;X;X;X;X;X;X;X;X;X;X;X;X;X;X;X;X;X;X;X;X;X;X;X;X;X;X;X;X;X;X;X;X;X;X;X;X;X;X+X+X+X+X+X+X+X+X@X@X@X@X@X@X+X+X;X;X;X;X;X;X;X;X;X;X;X;X;X;X;X&X@X@X@X@X+X+X&X;X;X;X=X3X4X4X4X3X;X;X;X;X;X;X;X;X;X;X;X;X;X;X;X+X9.:.} / v S e e # # 5 A c k / >.*X0X0X0X0X0X0X0X0X0X0X0X0X0X0X6X6X4X4X4X4X4X4X4X3X3X3X3X=X=X=X=XoX.X.X3.3.<.*.$.$.` ) W W R R R h f u t $ o       5 F w : A H ~ +X6X6X6X6X6X6X6X3X3X3X3X3X3X3X=X&XOXOXOXOXOXoXoX,XoXoX,X*X.X,XyXkXHXGXhXjXl.@.",
"/./.).JXjXl.+.W ` =.1.8.#X#XOXXX<.*.*.*.*.*.-.*.$.$.$.$.$.$.$.$.*.*.*.<.<.<.3.3..X.X.X.XoXoXoXoXoX.X.X.X3.<.<.*.` ) ) W R R R R R W W W W W W W W W W W W W W W W W W W W W W W W W W W W W W g t $ $ $ $ $ $ $ o o o o : A A N N M ^ -.&X0XNXwX0X4X;X;X=X4X0X0X=XoXoXoXoX.X.X.X3.3.<.*.*.$.$.$.*.$.$.` ) W R g j i $ o o   . @ - 1 x b ..} >.=.XX+X+X&X&X;X;X;X=X=X=X=X3X3X3X3X=X=X3X3X3X3X=X=X=X=X=X=X3X3X3X3X=X3X=X=X3X3X3X3X3X3X3X=X=X=X3X3X=X3X3X3X3X3X3X=X=X;X;X;X;X;X;X;X;X;X;X;X;X;X=X;X;X;X;X;X;X;X;X;X;X;X;X;X;X;X;X;X=X=X3X=X3X=X3X=X=X=X=X=X=X=X=X=X&X+X+X&X;X;X;X=X3X4X4X6X6X6X6X6X4X=X3X=X3X=X3X=X3X=X3X=X3X=X3X*X9.w.O.O. .K F e # # 5 A c k / >.*X0X0X0X0X0X0X0X0X0X0X0X0X0X0X6X6X4X4X4X4X4X4X4X3X=X3X3X3X3X=X=XoXXX.X3.3.<.*.$.$.` ) W R R R R h f u t $ o       - F w : S H ~ OX7X7X7X7X7X7X7X3X3X3X3X3X3X3X=XoX.X.X.X.X.X.X.X*XoXoX>X-XoX>XyXkXHXHXhXjXl.@.",
"/./.).JXjXl.+.R ) ` %.%.1.1.4.1.$.` ) ) ) ) ] ] ) ) ) ) ) ) ) ) $.$.$.$.*.*.*.<.<.<.3.3.3.3.3.3.3.<.<.<.*.$.$.` W W R R g g d g g g g g g g g g g g g g g g g g g g g g g g g g g g g g g g g d $ $ $ $ $ $ $ $ o o o * s H H N N M ^ -.&X0XNXwX0X4X;X;X=X4X0X0X=XoXoXoXoX.X.X.X3.3.<.*.*.$.$.$.*.$.$.` ) W R g j i $ o o   . @ - 1 x b ..} >.1.XX+X;X;X;X=X;X=X4X6X6X6X6X6X6X6X6X6X6X6X6X6X6X6X6X6X6X6X6X6X6X6X6X6X6X6X6X6X6X6X6X6X6X6X6X6X6X6X6X6X6X6X6X6X6X4X3X=X=X=X=X=X=X=X=X=X=X=X=X=X=X=X=X=X3X=X3X=X=X=X3X=X3X=X3X=X=X3X4X4X4X4X4X4X4X4X3X3X3X3X3X3X3X=X&X&X&X&X=X=X=X3X6X6X6X0X0X0X0X0X6X4X4X4X4X4X4X4X4X4X4X4X4X4X4X*X9.:.} X.v S e e # # 5 A c k / >.*X0X0X0X0X0X0X0X0X0X0X0X0X0X0X6X6X4X4X4X4X4X4X4X3X3X3X3X3X3X=X=XoXXXXX3.3.<.*.$.$.` ) W R R R R h f u t $ o       - F w : S H ~ 6.*X*X*X*X*X*X*X*X&X*X&X*X&X*XOX<.*.<.<.<.<.<.3.OX3..X*XOX.X*XyXkXHXHXKXjXl.@.",
"/./.).JXjXl.+.g R W _ ' ' %.%.' W ! R R R R R ! g g g g g g g g W W W W ) ) ) ` ` ` ` ` $.$.$.$.` ) ) ) ) W R R g d d y y t t t y y y y y y y y y y y y y y y y y y y y y y y y y y y y y y y t * +   + + + o $ o o $ & a J J s N M ^ -.&X0XNXwX0X4X;X;X=X6X0X0X=XoXoXoXoX.X.X.X3.3.<.*.*.*.$.$.*.$.$.` ` W R g j i $ o o   . @ - 1 x b ..} >.1.XX*X;X=X=X5X5X3X0XwXwXwXwXwXwXwXwXwXwXwXwXwXwX0X0X0X0X0X0X0X0X0X0X0X0X0X0X0X0X0X0X0X0X0X0X0X0X0X0X0X0X0X0X0X0X6X4X3X3X3X3X3X3X3X3X3X3X3X3X3X3X3X4X4X6X4X6X4X6X4X6X4X6X4X6X4X6X6X6X6X6X6X6X6X6X6X6X6X6X6X6X6X6X3X=X=X=X=X=X=X3X3X6X0X0X0XwXwXwXwX0X6X6X6X6X6X6X6X6X6X6X6X6X6X6X-X1.' ~ k a p - # # # 5 A c k / >.*X0X0X0X0X0X0X0X0X0X0X0X0X0X0X6X6X4X3X3X4X4X4X4X=X=X=X3X3X3X3X=XoX.X.X3.3.<.*.$.$.` ) W R R R R h f u t $ o       5 F w : A H k ) *.*.*.*.*.*.*.*.*.*.*.*.*.*.$.) W ) ) ` ` ` ` =.$.*.4.1.*.6.1XkXHXHXhXjXl.@.",
"/./.).JXZ.l.@.j g R E Q Q Q _ W g j j j j j j j y y y y y y y y i y j j j j g g g g R R R R R R R g j j j d i i t % % $ $ $ o * $ $ $ $ * * $ $ * * $ $ $ $ $ $ $ $ $ * * * $ $ $ $ $ $ * * $ $ + . .     + o $ o $ $ & a J J k N M ^ -.=X0XNXwX0X4X;X;X=X6X0X0X=XoXoXoXoX.X.X.X3.3.<.*.*.$.$.$.*.$.$.` ` W R g j i $ o o   . @ - 1 x c ..} >.1.OX*X=X4X4X3X3X6XwXNXNXNXNXNXNXNXNXNXNXNXNXNXNXNXwXwXwXwXwXwXwXwXwXwXwXwXwXwXwXwXwXwXwXwXwXwXwXwXwXwXwXwXwXwXwX0X6X4X4X4X4X4X4X4X4X4X4X4X4X4X4X4X6X6X6X6X6X6X6X6X6X6X6X6X6X6X6X6X0X0X0X0X0X0X0X0X6X6X6X6X6X6X6X3X=X=X=X=X3X3X3X6X0X0X0XwXwXwXNXwX0X0X0X0X0X0X0X0X0X0X0X0X0X0X0X-X$.W R f i , X X # # 5 A c k / >.*X0X0X0X0X0X0X0X0X0X0X0X0X0X0X6X6X3X3X3X3X4X4X4X=X=X=X=X3X3X3X=XoX.XXX3.3.<.*.$.$.` ) W R R R R h f u t $ o       5 F 6 : S H l d R R g R R R R R R R R R R R R d d d d g g g R _ R W ] ` ) ;.t.kXHXHXhXjXl.@.",
"V.V.).KXZ.s.B t y y y y y d d y t % % % % % % % % % % % % % % $ o . o o o * * * $ $ % % % t t % $ o o o o o                   . . . . . . . . . . . . . . . . . . . . . . . . .                 X X +     + + o > & & i k J v a N M ^ -.&X0XNXwX0X4X;X;X=X4X0X0X=XoXoXoXoX.X.X.X3.<.<.*.*.*.*.*.*.$.$.` ) W R g d t % o   . . . - < x c ..} >.4.OX-X4X6X6X6X0X0XNXBXBXBXBXBXBXBXBXBXBXBXBXBXBXNXNXwXwXwXwXwXwXwXwXwXwXwXwXwXwXwXwXwXwXwXwXwXwXwXwXwXwXwXwXwXwX0X6X4X4X4X4X4X4X4X3X3X3X3X3X3X3X3X6X6X6X6X6X6X6X6X6X6X6X6X6X6X6X6X6X6X6X6X6X6X6X6X6X6X6X6X6X6X6X3X=X&X=X=X3X3X3X6X0X0X0XwXwXwXNXwX6X6X6X6X6X6X6X6X6X6X6X6X6X6X6X&X1._ R y % o   .   3 F z a  .X.[ *X0X0X0X0X0X0X0X0X0X0X0X0X0X0X6X3X=X=X=X=X=X3X3X=X3X3X3X=X=X=X=X*XOXOXXX4.<.<.=.$.` ) W R R R R h f u t $ o     . - e - : K H i t t t t t t t t t t t t t t t t % $ % % % & t t l t t y t t j @.hXHXfXKXjXl.@.",
"V.^.).KXZ.s.M & % % t % % % % % $ $ $ $ $ $ $ $ $ $ $ $ $ $ $ o   . . . . . . .       o   o o o               . . . . . . . . . . . . . . . . . . . . . . . . . . . . . . . . . . . . . . . .   .       o o o o & $ $ & a H c s N M ^ -.&X0XNXwX0X4X;X;X=X4X0X0X=XoXoXoXoXoX.X.X3.<.<.*.*.*.*.*.*.$.$.` ) W R g d t % o o . . . - < x c ..} >.4.*X-X7X0X0X0X0XwXNXBXBXBXBXBXBXBXBXBXBXBXBXBXBXBXNXwXwXwXwXwXwXwXwXwXwXwXwXwXwXwXwXwXwXwXwXwXwXwXwXwXwXwXwXwXwX0X6X6X6X6X6X6X6X6X3X3X3X3X3X3X3X3X6X6X6X6X6X6X6X6X6X6X6X6X6X6X6X6X6X6X3X3X3X3X3X3X3X3X3X3X3X3X3X3X=X&X=X=X=X=X3X3X6X0X0X0XwXwXwXwX6X3X3X3X3X3X3X3X3X3X3X3X3X3X3X&X1._ R y % o   .   3 F z a  .X.[ *X0X0X0X0X0X0X0X0X0X0X0X0X0X0X6X3X3X=X=X3X3X3X3X=X3X3X3X3X=X=X=X*XOXOXXX3.<.<.=.$.` ) W R R R R h f u t $ o     . - e : : K H & o o o o o o o o o o o o o o o o                 =     + o o = d.hXHXfXKXjXl.@.",
"^././.].Z.s.m * $ $ $ $ o o o o o o o o o o o o o o o o o o o   . . . . . . . . . . . .         .             . . . . . . .   . . . . . . .   . . . . . . . . .   . .   . . . . . . . . . . .   o o o o o o o o $ o o * s S S p N M ^ -.&X0XNXwX0X4X;X;X=X4X0X0X=XoXoXoXoX.X.X.X3.<.<.*.*.*.*.*.*.$.$.` ) W R g d t % o o . . . - < z c ..} >.4.*X4X7X0XwXwXNXNXBXBXBXBXBXBXBXBXBXBXBXBXBXBXBXNXwXwXwXwXwXwXwXwXwXwXwXwXwXwXwXwXwXwXwXwXwXwXwXwXwXwXwXwXwXwXwX0X0X6X6X6X6X6X6X6X3X3X6X6X3X3X3X3X6X6X6X6X6X6X3X6X6X3X3X3X6X6X3X3X3X3X3X3X3X3X3X3X3X3X3X3X3X3X3X=X&X&X&X&X=X=X=X3X3X6X6X6X0X0X0X0X3X3X3X3X3X3X3X3X3X3X3X3X3X3X3X&X=._ R y % o   .   3 F z a  .X.>.*X0X0X0X0X0X0X0X0X0X0X0X0X0X0X6X3X3X3X3X3X3X3X3X=X=X3X3X3X3X=X=X*XOXOXXX4.<.*.$.` ` ) W W R R R h f u t $ o     . - e : p K H , o o o o o o o o o o o o o o o o o o o           @   . . .   @ I hXHXfXKXcXl.B ",
"/././.'.C.h.m o o o o           o o o o o o o o o o o o o o o   . . . . . . . . . . . . . .                     . . . .                                                             . . . .   o $ $ $ $ $ $ o o o o o + > A A : N M ^ -.&X0XNXwX0X4X;X;X=X4X0X0X=XoXoXoXoX.X.X.X3.<.<.*.*.*.*.*.*.$.$.` ) W R g d t % o o . . . - q A c ..} >.XX*X4XqXwXNXNXNXNXBXBXBXBXBXBXBXBXBXBXBXBXBXBXBXNXwX0X0X0X0X0X0X0X0X0X0X0X0X0X0X0X0X0X0X0X0X0X0X0X0X0X0X0X0X0X0X0X0X0X0X0X0X0X0X0X6X6X6X6X6X6X6X6X3X3X3X3X3X3X3X3X3X3X3X3X3X3X3X3X=X=X=X=X=X=X=X=X=X=X=X=X=X=X=X&XoXoXoXoX&X&X&X&X=X3X3X3X6X6X6X3X=X=X=X=X=X=X=X=X=X=X=X=X=X=X=XoX=._ R y % o   .   3 F z a  .X.>.*X0X0X0X0X0X0X0X0X0X0X0X0X0X0X6X3X3X3X3X3X3X3X3X=X=X3X3X3X3X=X=X*XOXOXXX4.<.*.$.$.` ) W W R R R h f u t $ o     . - e : p K H & $ o $ o o o $ o $ o o o o o $ $ $ $ $ $ o o o   @   . . . . @ U hXgXfXhXcXl.B ",
"`././.(.C.h.m = @ . . . . . . . + * * * * * * * * * * * * * * + @ @ . . .       o o * * % % % & t t t t t t y y y y y y y y y y t t t t t t t t t t t t t t t t t t t t t t t t y y y y y y y y t t % % % % $ $ o o   X - w q 5 7 M ^ -.&X0XNXwX0X4X;X;X=X4X0X0X=XoXoXoXoX.X.X.X3.<.<.*.*.*.*.*.*.$.$.` ) W R g d t % o   . . . 3 q A c ..} >.XX-X7XqXNXBXBXBXBXBXNXNXNXNXNXNXNXNXNXNXNXNXNXNXNX0X6X6X6X6X6X6X6X6X6X6X6X6X6X6X6X6X6X6X6X6X6X6X6X6X6X6X6X6X6X6X6X0X0X0X0X0X0X0X0X6X6X6X6X6X6X6X6X3X=X=X=X=X=X=X=X=X=X=X=X=X=X=X=X&X&X&X&X&X&X&X&X&X&X&X&X&X&X&XoX.X.X.X.X.XoXoXoX&X&X&X=X=X=X=X=X&X&X&X&X&X&X&X&X&X&X&X&X&X&X&X.X%._ R y % o   .   3 F z a  .X.>.*X0X0X0X0X0X0X0X0X0X0X0X0X0X0X6X3X3X3X3X3X3X=X=X=X3X3X3X3X3X3X=X*XOXOXXX4.<.*.$.$.` ) W W R R R h f u t $ o     . - e : p K H i t y y y y y y y y y y y y y y y d g d d y t % $ =     . . . @ U hXgXgXhXjXv.B ",
"_.`./.B.C.h.Z = = @ # # # # # # , > > > > > > > > > > > > > > > s ; ; = = % % & t y y y y d d d g R R R R R W W W W W W ) ) ) ) W W W W W W W W W W W W W W W W W W W W W W W W W W W W W W W W d y y y u i i & > O X # 3 q 0 4 7 M ^ -.&X0XNXwX0X4X;X;X=X6X0X0X=XoXoXoXoX.X.X.X3.<.<.*.*.*.*.*.*.$.$.` ) W R g d t % o   . . . 3 q w c ..} 7.XX-X7XeXNXBXBXCXBXNXNXNXNXNXNXNXNXNXNXNXNXNXNXNXwX6X6X6X6X6X6X6X6X6X6X6X6X6X6X6X6X6X6X6X6X6X6X6X6X6X6X6X6X6X6X6X6X0X0X0X0X0X0X0X0X6X6X6X6X6X6X6X6X=X&X=X=X=X=X=X=X=X=X=X=X=X=X=X&XoXoXoXoXoXoX.X.XoXoXoXoXoXoX.X.X3.5.5.3..X.X.X.X.XoXoX&X&X&X&X&XoX.XoXoXoXoXoX.XoXoXoXoXoXoXoX3.%._ R y % o   .   3 F z a  .X.>.*X0X0X0X0X0X0X0X0X0X0X0X0X0X0X6X3X=X3X3X3X3X3X=X=X3X3X3X3X3X3X=X*XOXOXXX4.<.*.$.$.` ) W W R R R h f u t $ o     . - e : p K H u h Q Q Q W W W W W W Q Q Q Q Q ) ` $.` ) W R g d j $ o @ .   @ I hXgXgXhXjXv.B ",
"_.`./.B.C.h.U 8 7 7 3 4 4 4 4 4 1 x x x x x x x x x x x x x x a  .( ( ( j j j g g R R W W W W ) ` $.$.$.*.*.*.*.*.<.<.<.<.<.<.<.<.<.<.<.<.<.<.<.<.<.<.<.<.<.<.<.<.<.<.<.<.<.<.<.<.<.<.<.<.<.<.$.R d f f f l a a S : # # 0 0 4 # 7 M ^ -.&X0XNXwX0X4X;X;X=X6X0X0X=XoXoXoXoX.X.X.X3.<.<.*.*.*.*.*.*.$.$.` ) W R g d t % o   . . . 3 0 w c ..} 7.XX-X7XwXNXBXCXCXBXNXwXwXwXwXwXwXwXwXwXwXwXwXwXwXwX6X4X4X4X4X4X4X4X4X4X4X4X4X4X4X4X4X4X4X4X4X4X4X4X4X4X4X4X4X4X4X6X0X0X0X0X0X0X0X0X6X6X6X6X6X6X6X6X=X&X&X&X&X&X&X&X&X&X&X&X&X&X&X&X.X.X.X.X.X.X.X.X.X.X.X.X.X.X.X3.<.2.<.<.5.3..X.X.X.XoXoXoXoXoXoX.X.X.X.X.X.X.X.X.X.X.X.X.X.X.X3.%._ R y % o   .   3 F z a  .X.>.*X0X0X0X0X0X0X0X0X0X0X0X0X0X0X6X3X=X3X3X3X3X=X=X3X3X3X3X3X3X3X=X*XOXOXXX4.<.*.$.$.` ) W W R R R h f u t $ o     . - e : : K H f ' 7.7.7.7.7.7.7.7.7.7.7.7.7.7.4.XXOXXXXX<.=.` _ ! y % * o   @ I hXgXgXhXjXl.m ",
"HXGXN.B.C.h.I m 7 7 q 0 0 0 0 0 w w w w w w w w A w w w w w w A  .X.X.( ( ^ ! ! R W ) ) ) ` ` $.*.<.<.3.<.3.3.3.3..X.X.X.X.X.X.XoXoXoXoXoXoXoXoXOXoXoXoXoXoXoXoXXXXXXXXXXXXXXXXX.X.X.X.X.X.X.X<.` ) W Q ~ k k p L A 5 q e e 0 # 7 M ^ -.&X0XNXwX0X4X;X;X=X6X0X0X&XoX.X.X.X.X.X.X3.<.<.<.<.<.<.*.*.*.$.$.` ) R g j y % $ o   . . - q A c ..} >.XX-X7XeXNXBXBXCXBXNXwXwXwXwXwXwXwXwXwXwXwXwXwXwXwX0X6X6X6X6X4X4X4X4X3X3X3X3X=X=X3X4X4X4X4X4X4X4X4X4X4X4X4X4X4X4X6X0XwXwXwXwXwXwXwX6X6X6X6X6X6X6X3X=X&X&X&X&X&X&X&X&X&X&X&X&X&X&X&XoX.X.X.X.X.X.X.X.X.X.X.X.X.X.X.X<.2.2.<.<.<.5.3.3.3.3.3..X.X.X.X.X.X.X.X.X.X.X.X.X.X.X3.3.3.5.<.%._ R y % o   .   3 F z a  .X.[ *X6X6X6X0X0X0X0X0X0X0X0X6X6X6X6X3X3X3X=X=X=X=X=X=X=X=X=X=X=X&X&XOXXXXX4.4.<.=.$.` ` ) W W R R R h f u % $ o     . - e : p K H h 7.$X$X$XOXOX$X$X$X#X#X#X#X#X#XOX-X-X-X*XXX4.=.%.] d t t $ o = d.hXHXfXKXcXv.m ",
"LXkXkXhXjXv.@.M N N w w w e e q 4 4 4 4 4 4 4 4 9 4 9 4 9 4 9 3 A H H V k l j j g R W ) ) ` ` $.*.<.<.<.<.<.<.<.3.3.3.3.3.3.3.3.3..X.X.X.X.X.X.X.X.X.X.X.X.X.X3.3.3.3.3.3.3.3.3.3.3.3.3.3.3.3.3..X3.*.` ! j l p 6 6 w w w A x A N M ^ 2.&X0XNXwX6X=X&X&X&X3X6X3XoX3.3.3.3.3.3.3..X.X.X.X.X.X.X.X<.*.*.$.` ) W R g y t $ o o O X < < z c ..} >.XX-X7XqXwXNXNXBXNXNXwXwXwXwXwXwXwXwXwXwXwXwXwXwXwXwXwXwXwX0X0X0X6X6X4X3X=X;X;X;X=X4X6X6X6X6X6X6X6X6X6X6X6X6X6X6X0XNXBXBXBXNXNXwXwX0X6X6X3X=X=X&X&X=X=X&X&X=X=X=X=X=X=X=X=X=X=X=X=X&X&X&X&X&X&X&X&X&X&X&X&X&X&X&XoX3.2.<.<.<.<.5.5.5.5.3.3.3.3.3.3.3.3..X.XoXoX&X&XoXoX.X5.<.-.-.$.%._ R y % o   .   3 F z a  .X.[ @X=X3X4X6X0X0XwXwX0X0X6X4X3X=X=X=X3X=X=X=X=X&X&X&X&XoXoXoXoX.X.X<.*.*.*.*.$.$.` ` ) ) W W W W R f u t $ o         - F z s H v ~ 4.*X&X&X&XOXOXoXoXXXXXXX3.3.3.XX&X*X*XXXXX<.=.' ! d t t $ o = I '.).V.].Z.v.m ",
"vXkXkXlXjXl.@.M N N p A A A S w 4 4 4 4 4 4 4 4 4 4 4 4 4 4 4 5 A N H V k k j g R W ) ` ' $.%.*.<.3.3.3.3.3.3.3.3.3.3.3.3.3.3.3..X.X.X.X.X.X.X.X.X.X.X.X.X.X.X.X3.3.3.3.3.3.3.3.3.3.3.3.3.3.3.3.&XoX3.$.) j l 7 6 6 6 w A x b c N M ^ 2.&X0XNXwX6X=X&X&X&X3X6X3X.X<.<.5.5.3.3.3..X.X.X.X.X.X.X.X<.<.*.*.$.` ) R g d t % $ $ O O < < z c ..} >.XX-X4XqXwXNXNXNXNXNXwXwXwXwXwXwXwXwXwXwXwXwXwXwXwXNXNXNXNXwXwX0X0X6X4X3X=X;X;X;X;X6X0X0X0X0X0X0X0X0X0X0X0X0X0X0XwXBXCXCXBXBXNXwXwX0X6X4X=X&X&XoXoX&X=X=X=X=X=X=X=X3X3X3X3X3X3X3X3X=X=X=X=X=X=X=X=X=X=X=X=X=X=X=X&X.X5.5.5.5.5.5.5.5.5.3.3.3.3.5.5.5.3..XoXoX&X&X&X&XoX.X5.-.&.] ] ' _ R y % o   .   3 F z a  .X.[ 6.;X;X3X6X0X0XwXwX0X0X6X3X;X;X;X=X=X=X=X=X&X&X&XoXoX.X.X.X.X3.3.*.*.$.$.$.$.` ` ) ) ) W W W W R f i & $ +         - K z a J  .~ .X=X=X&X&X&X&XoXoX.X.X3.3.3.3..XOX*XOXXX3.<.%.' ! y t t $ o = I (.`./.'.{.h.m ",
"LXkXkXhXjXv.@.M N N p x x x c k s s s s s s s s N N N N N N N V k k / ( ( ~ ! W ) ` %.=.*.<.<.3..X.X.X.X.X.X.X.X.X.X.X.X.X.X.X.XoXoXoXoXoXoXoXoXoXoXoXoXoXoXoXoX.X.X.X.X.X.X.X.X.X.X.X.X.X.X.XoX=X&X.X*.) ^ M N 6 5 6 w A x c H N M ^ -.&X0XNXwX6X=X&X&X&X3X6X3X.X5.5.5.5.3.3.3..X.X.X.X.X.X.X.X<.<.*.*.$.` ) R g d t % $ $ O O < < z c ..} >.XX-X4XqXwXNXNXNXNXNXwXwXwXwXwXwXwXwXwXwXwXwXwXwXwXNXNXNXNXwXwX0X0X6X6X3X=X;X;X;X=X6X0X0X0X0X0X0X0X0X0X0X0X0X0X0XwXBXCXCXBXBXNXwX0X0X6X4X=X&XoXoXoX&X=X&X&X=X=X=X=X=X=X=X=X=X=X=X=X=X=X=X=X=X=X=X=X=X=X&X=X=X&X=X&X.X3.3.3.3.3.3.3.3.3.3.3.3.3.3.3.3.3..X.XoX&X&X&X&XoX.X5.-.&.] ` ' _ R y % o   .   3 F z a  .X.[ 6.;X;X3X6X0X0XwXwX0X0X6X3X;X;X;X=X=X=X=X&X&X&XoXoXoX.X.X.X3.3.5.*.*.$.$.$.$.` ` ) ) ) W W W W R f i & $ +         - K z a J v ~ .X=X&X&X&X&X&XoXoX.X.X.X3.3.5..XOX*XOXXX3.<.%.' ! d t t $ o = I (././.'.{.h.m ",
"LXHXHXKXZ.v.@.M N N k k k k k / ~ ~ ~ ~ ~ ~ ~ ~ | | | | | | | | ( | | | } [ ] ` =.=.1.4.XXXXOXoXoXoXoX&XoX&XoXoXoX&XoXoXoXoXoX&X&X=X=X=X=X=X=X=X=X=X=X=X=X=X=X&X&XoXoXoXoXoXoXoXoXoXoXoXoXoXoX&X3X=X.X2.] ^ B N 6 5 6 w A x c H N M ^ -.&X0XNXwX6X=X&X&X&X3X6X3XoX5.3.3.3.3.3.3..X.X.X.X.X.X.X.X<.<.*.*.$.` ) R g d t % $ o O O < < z c ..} >.XX-X4XqXwXNXNXNXNXNXwXwXwXwXwXwXwXwXwXwXwXwXwXwXwXNXNXNXNXwXwX0X0X6X6X4X3X=X=X;X3X6X0X0X0X0X0X0X0X0X0X0X0X0X0X0XwXBXCXCXBXNXNXwX0X6X6X3X=X&XoXoXoX&X=X&X&X&X&X&X&X=X=X=X=X=X=X=X=X&X&X&X&X&X&X&X&X&X&X&X&X&X&X&X&XoX.X.X.XoX.XoX.X.X.X.X.X.X.X.X.X3.3..X.XoX&X&X&X&XoX.X5.-.&.] ` ' _ R y % o   .   3 F A a  .O.[ 6.;X;X3X6X0X0XwXwX0X0X6X3X;X;X;X&X=X=X=X&X&X&XoXoX.X.X.X3.3.3.5.*.*.$.$.$.$.` ` ) ) ) W W W W R f i & $ +         - K z a J  .~ .X=X=X&X&X&X&XoXoX.X.X.X3.3.5..XOX*XOXXX3.<.%.' ! d t t $ o = I (././.(.{.h.m ",
"HXHXGXJXZ.h.Z M N V k k / ~ ~ [ 1.4.6.4.6.4.6.4.%X%X%X%X%X%X%X0.;.;.q.0.0.2.<.<.XXOX*X*X-X-X4X3X=X=X=X=X=X=X=X=X=X=X=X=X=X=X=X=X3X6X3X6X3X3X3X3X3X3X6X3X6X6X6X3X3X=X=X=X=X=X=X=X=X=X=X=X=X=X=X3X8X5XoX5.&.^ B N 6 6 6 w A x c H N M ^ -.&X0XNXwX6X=X&X&X=X3X6X6XoX3.3.3.3..X.X.X3.3.3..X.X.X.X3.<.<.*.*.$.` ) R g d t % $ o O O < < x c ..} >.XX-X4XqXwXNXNXNXNXNXwXwXwXwXwXwXwXwXwXwXwXwXwXwXwXNXNXNXwXwXwX0X0X0X6X6X4X4X3X3X4X6X0X0X0X0X0X0X0X0X0X0X0X0X0X0XwXBXCXBXBXNXNXwX0X6X4X=X&X&XoX.X.X&X&X&X&X&X&X&X&X&X&X&X&X&X&X&X&X&X&X&X&X&X&X&X&X&X&X&X&X&X&X&X&X&XoX&XoX&XoX&XoX&XoX&XoX&XoX&XoX.X3..X.XoX&X&X&X&XoX.X5.-.&.] ` ' _ R y % o   .   3 F z a  .O.[ 6.;X;X3X6X0X0XwXwX0X0X6X3X;X;X;X&X=X=X&X&X&XoXoXoX.X.X.X3.5.5.<.*.*.$.$.$.$.` ` ) ) ) W W W W R f i & $ +         - K z a J  .~ .X=X=X&X&X&X&XoXoX.X.X.X3.3.5..XOX*XOXXX4.1.%.' ! d t t $ o = I (././.'.{.h.m ",
"HXGX).'.b.j.Z m V V / / [ [ >.=.OX*X=X=X-X-X-X*X-X-X-X-X-X-X-X*X3.4.4.@X+XOXOXoX-X4X4X7XqXqXqX0X6X3X6X3X6X3X6X3X6X3X6X3X6X3X6X6X0X0X0X0X0X0X0X0X0X0X0X0X0X0X0X0X6X3X6X3X6X3X6X3X6X3X6X3X6X3X6X6X0X6X=X@X;.{ ( V N 6 6 w A x c H N M ^ -.&X0XNXwX6X=X&X&X=X3X6X6X&X.X.X.X.X.X.X.X3.3.3.3.3.3.3.5.<.<.*.*.$.` ) R g d t % $ + O O < < x c ..} >.XX-X4XqXwXNXNXNXNXNXwXwXwXwXwXwXwXwXwXwXwXwXwXwXwXNXNXNXwXwXwX0X0X0X0X6X6X6X6X4X6X0X0X0X0X0X0X0X0X0X0X0X0X0X0X0XwXNXBXBXBXNXwX0X0X6X3X=X&XoX.X.X.X&X&X&X&X&X&X&X&XoXoXoXoXoXoXoXoX&X&X&X&X&X&X&X&X&X&X&X&X&X&X&X&X&X&X&X&X&X&X&X&X=X&X&X&X&X&X=X&X.X3..X.XoX&X&X&X&XoX.X5.-.&.] ` ' _ R y % o   .   3 F z a  .O.[ 6.;X;X3X6X0XwXwXwX0X0X6X3X;X;X;X&X&X&X&X&XoXoXoX.X.X.X3.5.5.<.<.*.*.$.$.$.$.` ` ) ) ) W W W W R f i & $ +         - K z a J  .~ .X=X=X&X&X&X&XoXoX.X.X.X3.3.5..XOX*XOXXX4.1.%.' ! d t t $ o = I (././.'.{.h.m ",
"GX).).(.b.k.Z = V V / [ [ =.=.3.=X6X6X6X6X3X3X4X7X7X7X7X7X7X7X7X&X&X=X-X3X3X3X3XqXqXeXVXVXVXVXNXwX0X0X0X0X0X0X0X0X0X0X0X0X0X0X0XwXwXwXwXwXwXwXwXwXwXwXwXwXwXwXwX0X0X0X0X0X0X0X0X0X0X0X0X0X0X0X0XwX0X5X@X2.{ ( V N 6 6 w A x c S N M ^ -.&X0XNXwX6X=X&X&X&X3X6X6X&X.X.X.X.X.X.X.X3.3.5.5.5.<.<.<.<.<.*.*.$.` ) R g y t % $ + O O < < x c ..} >.XX-X4X0XwXNXNXBXNXNXwXwXwXwXwXwXwXwXwXwXwXwXwXwXwXwXwXwXwXwXwXwXwX0X0X0X0X0X0X0X0X0X0X0X0X0X0X0X0X0X0X0X0X0X0X0X0XNXBXNXNXwXwX0X6X4X=X=X&XoX.X.X.XoX&X&X&X&X&X&X&XoXoXoXoXoXoXoXoX&X&X&X&XoXoX&X&X&X&X&X&X&X&X&X&X=X=X=X=X=X=X=X=X=X=X=X=X=X=X=X&X.X3..XoXoX&X&X&X&XoX.X5.-.$.] ` ' _ R y % o   .   3 F z a  .X.[ 6.;X;X3X6X0X0XwXwX0X0X6X3X;X;X;X&X&X&X&XoXoXoX.X.X3.3.3.<.<.2.2.*.*.$.$.$.$.` ` ) ) ) W W W W R f i & $ +         - K z a J  .~ 3.=X=X&X&X&X&XoXoX.X.X.X3.3.5..XOX&XOXXX4.1.%.' ! d t t $ o = I (././.'.{.h.m ",
"_.).`.(.b.k.U 8 N V / } >.1.4.OX3X6X6X6X6X6X6X6X0X0X0X0X0X0X0X0X3X3X6X6X0X0X0X0XwXNXBXBXBXCXCXBXNXwXwXwXwXwXwXwXwXwXwXwXwXwXwXwXNXNXNXNXNXNXNXNXNXNXNXNXNXNXNXNXwXwXwXwXwXwXwXwXwXwXwXwXwXwXwXwXVXwX8X+X6.,.( V N 6 6 w A x c S N M ^ -.&X0XNXNX6X=X&X&X&X3X6X6X&XoXoXoX.X.X.X.X3.5.5.<.2.2.2.2.<.<.*.*.$.` ) R g d t % $ o O O < q x c ..} >.XX-X4X0XwXNXNXBXNXNXwXwXwXwXwXwXwXwXwXwXwXwXwXwXwXwXwXwXwXwXwXwXwXwXwXwXwX0X0X0X0X0X0X0X0X0X0X0X0X0X0X0X0X0X0X0X0XNXNXNXNXwX0X0X6X4X=X&XoX.X.X.X3.oXoXoXoXoXoXoXoX.X.X.X.X.X.X.X.XoXoXoXoXoXoXoXoXoXoXoXoXoXoXoX&X=X=X=X=X=X=X=X=X=X=X=X=X=X=X=X&X.X3..XoXoX&X&X&X&XoX.X5.-.$.] ` ' _ R y % o   .   3 F z a  .X.[ 6.;X;X3X6X0X0XwXwX0X0X6X3X;X;X;X&X&X&XoXoXoX.X.X3.5.5.<.<.2.2.2.*.*.$.$.$.$.` ` ) ) ) W W W W R f i & $ +         5 K z a J  .~ .X=X=X&X&X&X&XoXoX.X.X.X3.3.5..XOX&XOXXX4.<.%.' ! d t t $ o = I (././.'.{.h.m ",
"HX).`.(.b.k.U 8 M k / [ 7.#X>X-X6X6X6X6X6X6X8X8X6X6X6X6X6X6X6X0X0XwXwXwXNXNXNXNXBXBXCXCXCXCXCXCXNXwXwXwXwXwXwXwXwXwXwXwXwXwXwXwXNXNXNXNXNXNXNXNXNXNXNXBXNXNXNXNXNXwXwXwXwXwXwXwXwXwXwXwXwXwXwXNXNXwX0X;X@X,.^ l K N - : D K S p N M ^ -.&X0XNXwX6X=X&X&X&X3X6X6X=X&X&XoXoX.X.X.X<.<.<.*.*.*.$.*.<.<.*.*.$.` ) R g d t % $ o $ O < < z c ..} >.XX-X7XqXwXNXNXBXNXNXwXwXwXwXwXwXwXwXwXwXwXwXwXwXwXwXwXwXwXwXwXwXwXwXwXwXwXNXNXNXwX0X0X0X0X0X0X0X0X0X0X0X0X0X0X0X0XwXwXwXwX0X6X6X3X=X&X&XoX.X.X.X.X.XoXoXoXoXoXoXoXoXoXoXoXoXoXoXoXoX.XoXoXoXoXoXoXoXoXoXoXoXoXoXoX=X=X=X=X=X=X=X=X=X=X=X=X=X=X=X&X.X3..XoXoX&X&X&X;XoX.X5.-.$.` ) ' _ R y % o   .   3 F z a  .X.[ 6.;X;X3X6X0X0XwX0X0X6X3X=X&XoXoXoXoXoXoXoX.X.X.X<.<.<.*.*.*.*.$.*.*.$.$.$.$.` ` ' ' ) ) W R R g f i & $ +         5 K z a J  .~ .X=X=X&X&X&X&XoXoX.X.X.X3.3.5..XoXoX.X.X<.*.$.) ! y t t $ o = I (././.'.{.h.m ",
"HXGX).(.b.k.U 8 M k / } 7.$X>X4X4X5X5X5X5X5X5X5X5X5X5X5X5X5X5X6XwXNXNXNXNXNXBXBXBXBXCXCXCXCXCXBXNXwXwXwXwXwXwXwXwXwXwXwXwXwXwXNXNXNXNXNXNXNXNXNXNXNXBXBXNXNXNXNXNXwXwXwXwXwXwXwXwXwXwXwXwXwXwXNXNXNXwX8X+X;.^ l N - , - A D S p N M ^ -.&X0XNXwX6X=X&X&X&X3X6X6X=X&X&X&XoXoX.X.X<.<.*.*.$.$.$.$.*.<.*.*.$.` ) R g d t % $ o $ O < < z c ..} >.XX-X7XqXwXNXNXBXNXNXwXwXwXwXwXwXwXwXwXwXwXwXwXwXwXwXwXwXwXwXwXwXNXNXNXNXNXBXBXBXNX0X0X0X0X0X0X0X0X0X0X0X0X0X0X0X0XwXwXwX0X6X6X3X=X=X&XoX.X.X3.3.3..X.X.X.X.X.X.X.X.X.X.X.X.X.X.X.X.X.X.X.X.X.X.X.X.X.X.X.X.X.X.XoX&X=X=X=X=X=X=X=X=X=X=X=X=X=X=X&X.X3..XoXoX&X&X&X;XoX.X5.-.$.` ) ' _ R y % o   .   3 F z a  .X.[ 4.;X;X3X6X0XwXwX0X0X6X3X=X&XoXoXoXoXoX.X.X.X.X3.<.<.*.*.*.$.$.$.$.*.$.$.$.$.` ` ' ] ) ) W R R g f i % $ +         5 K z a J  .~ .X=X=X&X&X&X&XoXoX.X.X.X3.3.5..XoXoX.XXX<.*.$.) ! d t t $ o = I (././.'.{.h.m ",
"LXHXGX'.b.k.U 8 7 a / } 8.$X9X4X3X;X=X=X;X;X;X;X;X;X;X;X;X;X;X3XwXNXNXBXNXBXNXBXBXBXBXBXBXBXBXNXwXwXwXwXwXwXwXwXwXwXwXwXwXwXwXwXNXNXNXNXNXNXNXNXNXNXNXNXNXNXNXNXwXwXwXwXwXwXwXwXwXwXwXwXwXwXwXNXBXBXwX6X@X;.! j = + . X : D S p N M ^ -.&X0XNXwX6X=X&X&X&X3X6X6X3X=X=X&X&XoX.X.X<.<.*.*.$.$.` $.*.<.*.*.$.` ) R g d t % $ o $ O < < z c X.} >.XX-X4XqXwXNXNXNXNXNXwXwXwXwXwXwXwXwXwXwXwXwXwXwXwXwXwXwXwXwXwXNXNXNXNXBXBXBXBXCXBXwX0X0X0X0X0X0X0X0X0X0X0X0X0X0X0X0X0X0X0X6X3X3X=X&XoXoX.X3.3.5.5..X.X.X.X.X.X.X.X.X.X.X.X.X.X.X.X.X.X.X.X.X.X.X.X.X.X.X.X.X.X.X.X&X&X=X&X=X&X&X&X&X&X&X&X=X&X=X&X.X3..X.XoX&X&X&X;X+X.X5.-.$.` ) ' _ R y % o   .   3 F z a  .X.[ 4.;X;X3X6X0X0XwX0X0X6X3X=X&X&XoXoX.X.X.X.X3.3.3.<.*.*.$.$.$.$.$.*.*.$.$.$.$.` ` ' ] ) W W R R g f i & $ +         5 K z a J v ~ .X=X=X&X&X&XoXoXoX.X.X.X3.3.5..XoXoX.X.X<.*.$.) ! d t t $ o = I (././.'.{.h.m ",
"IXkXgXJXb.k.U 8 7 s / [ 7.$X9X4X3X;X=X;X=X;X;X;X;X;X;X;X;X;X;X8XwXNXNXNXNXNXNXNXNXNXNXNXNXNXNXwX0X0X0X0X0X0X0X0X0X0X0X0X0X0X0X0XwXNXNXNXNXNXNXNXNXNXNXNXNXNXNXwX0X0X0X0X0X0X0X0X0X0X0X0X0X0X0XNXCXCXNX6X+X-.! i o     . : D S A N M ^ -.&X0XNXwX6X=X&X&X&X3X6X6X3X=X=X=X&XoXoX.X<.<.*.$.$.` ` $.*.<.*.*.$.` ) R g d t % $ o $ O < < z c ..} >.XX-X4XqXwXNXNXNXNXNXwXwXwXwXwXwXwXwXwXwXwXwXwXwXwX0X0X0XwXwXwXNXNXBXBXBXCXCXCXCXBXwX0X0X0X0X0X0X0X0X0X0X0X0X0X0X0X0X0X0X6X6X3X3X=X&XoX.X.X3.5.<.3.3.3..X.X.X.X.X.X.X.X.X.X.X.X.X.X.X3..X.X.X.X.X.X.X.X.X.X.X.X.X.XoXoX&XoX&XoX&XoX&XoX&XoX&XoX&XoX.X3..X.XoX&X&X&X;X+X.X5.-.$.` ) ' _ R y % o   .   3 F z a  .X.[ @X;X=X3X6X0X0XwX0X0X6X3X=X&X&XoX.X.X.X.X3.3.3.<.*.*.$.$.$.$.$.$.$.*.$.$.$.$.` ` ' ] ) W W R R g f i & $ +         5 K z a J  .~ .X=X=X&X&X&XoXoXoX.X.X.X3.3.5..XoXoX.X.X<.*.$.) ! d t t $ o = I (././.'.{.h.m ",
"vXvXkXhXZ.j.Z 8 7 s k [ 7.$X>X7X6X8X8X8X8X8X8X8X8X8X8X8X8X8X6X6XwXwXwXwXwXwXwXwX0X0X0X0X0X0X0X0X0X6X6X6X6X6X6X6X6X6X6X6X6X6X6X0XwXwXwXwXwXwXwXwXwXwXwXwXwXwXwX0X0X6X6X6X6X6X6X6X6X6X6X6X6X6X6XwXCXZXBX0XoX*.R y $ o   . - A D A N M ^ -.&X0XNXwX6X=X&X&X=X3X6X0X6X3X3X=X&X&XoX.X<.*.*.$.` ` ) ` *.<.*.*.$.` ) R g d t % $ $ O O < < z c ..} >.XX-X4XqXwXNXNXNXNXNXwXwXwXwXwXwXwXwXwXwXwXwXwXwXwX0X0X0XwXwXwXNXNXBXCXCXCXZXZXZXCXwX0X0X0X0X0X0X0X0X0X0X0X0X0X0X0X0X0X6X6X6X3X=X&X&XoX.X3.5.<.2.<.3.3.3.3.3.3.3.3.3.3.3.3.3.3.3.3.3.3.3.3.3.3.3.3.3.3.3.3.3.3.3..X.X.X.X.X.X.X.X.X.X.X.X.X.X.X.X.X3.3..X.XoX&X&X&X;X+XoX5.-.$.` ) ' _ R y % o   .   3 F z a  .X.[ 6.;X;X3X6X0X0XwX0X0X6X3X=X&X&XoX.X.X.X.X3.5.<.2.*.*.$.$.$.` ` $.$.*.$.$.$.$.` ` ' ] ) W W R R g f i & $ +         - K A a J  .~ .X=X=X&X&X&X&XoXoX.X.X.X3.3.5..XoXOX.X.X<.*.$.) ! d t t $ o = I (././.'.{.h.m ",
"vXvXvXkXZ.j.U 8 7 p k [ 7.$X>X7X0XwXwXwXwXwXwXwXwXwXwXwXwXwXwXwX0X0X0X0X0X0X0XrX6X8X6X8X8X8X8X8X8X6X6X6X6X6X6X6X6X6X6X6X6X6X6X6X0X0X0X0X0X0X0X0X0X0X0X0X0X0X0X0X6X6X6X6X6X6X6X6X6X6X6X6X6X6X6XwXZXZXBX0X&X*.R t $ o   . - A D A N M ^ -.&X0XNXwX6X=X&X&X&X3X6X0X6X3X3X=X=X&XoX.X<.*.$.$.` ) ) ` *.<.*.*.$.` ) R g y t % $ $ O O < < z c ..} >.XX-X4XqXwXNXNXNXNXNXwXwXwXwXwXwXwXwXwXwXwXwXwXwXwX0X0X0XwXwXwXNXBXBXCXCXZXZXZXZXCXwX0X0X0X0X0X0X0X0X0X0X0X0X0X0X0X0X0X6X6X3X3X=X&XoXoX.X3.5.<.2.2.3.3.3.3.3.3.3.3.3.3.3.3.3.3.3.3.3.3.3.3.3.3.3.3.3.3.3.3.3.3.3.3.3.3.3.3.3.3.3.3.3.3.3.3.3.3.3.3.3.3..X.XoX&X&X&X;X&XoX5.-.$.` ) ' _ R y % o   .   3 F z a  .X.[ 4.;X;X3X6X0X0XwX0X0X6X3X=X&X&XoX.X.X.X3.5.5.<.2.*.$.$.$.` ` ` ` $.*.$.$.$.$.` ` ' ] ) W W R R g f i & $ +         - K z a J  .~ .X=X=X&X&X&X&XoXoX.X.X.X3.3.5..XoXOX.X.X<.*.$.) ! d t t $ o = I (././.'.{.h.m ",
"vXvXvXkXZ.h.U 8 8 ; k ~ 7.#X>X7XNXBXBXBXBXBXBXBXBXBXBXBXBXBXBXNX0XrX8X8X8X8X8X8X8X8X5X5X5X;X;X5X5X4X4X4X4X4X4X4X4X4X4X4X4X4X4X4X6X6X0X6X0X6X0X6X0X6X0X6X0X6X0X6X4X4X4X4X4X4X4X4X4X4X4X4X4X4X4X0XZXZXCX0X&X$.R y % o   X : A D A 7 M ^ -.&X0XNXwX6X=X&X&X&X3X6X0X6X3X3X3X=X&XoX.X<.*.$.$.` ) ) ` *.<.*.*.$.` ) R g d t % $ o $ O < < z c ..} >.XX-X4XqXwXNXNXNXNXNXwXwXwXwXwXwXwXwXwXwXwXwXwXwXwX0X0X0X0XwXwXNXBXBXCXZXZXZXZXSXZXwX0X0X0X0X0X0X0X0X0X0X0X0X0X0X0X6X6X6X6X3X3X=X&XoX.X.X3.<.2.2.2.3.3.5.5.5.5.5.5.5.5.5.5.5.5.5.5.3.3.5.5.5.5.5.5.5.5.5.5.3.3.5.3.5.5.5.5.5.5.3.3.3.3.5.5.5.5.5.5.5.3..X.XoX&X&X&X;X+XoX5.-.$.` ) ' _ R y % o   .   3 F z a  .X.[ 6.;X;X3X6X0X0XwX0X0X6X3X=X&X&XoX.X.X3.3.5.<.2.2.*.$.$.$.` ` ` ` $.*.$.$.$.$.` ` ' ] ) W W R R g f i & $ +         - K z a J  .~ 3.=X=X&X&X&X&XoXoX.X.X.X3.3.3..XoXOX.X.X3.*.$.) ! d t t $ o = I (././.'.{.h.m ",
"vXvXvXlXjXh.Z 8 7 : a ~ >.OX4X0XNXBXBXBXBXBXBXBXBXBXBXBXBXBXBXNX0X8X6X8X6X8X8X8X8X8X3X8X3X8X8X3X6X6X6X6X6X4X4X4X4X4X4X4X3X3X3X4X0X0X0X0X0X0X0X6X6X6X6X6X6X4X4X4X3X3X3X3X3X3X4X4X4X4X6X6X6X6X6XwXCXZXBX6XoX$.g t = o   X 1 D S p N B ^ 2.&X6XNXNX0X6X3X=X=X3X6X6X6X6X3X3X=X&XoX.X<.*.$.$.` ) ) ) *.<.*.$.$.` W R h d t % $ $ * O < < z c ..} >.XX-X4XqXwXNXNXNXNXNXwXwXwXwXwXwXwXwXwXwXwXwXwXwXwX0X0X0XwXwXNXNXBXBXCXZXZXZXZXSXZXBXwXwXwXwXwX0X0X0X0X0X6X6X6X6X6X6X6X6X3X3X=X=X&XoXoX.X.X5.<.<.<.3.3.5.5.5.5.5.<.5.5.<.<.<.2.2.<.<.3.3.5.3.5.3.5.3.5.3.5.3.3.3.5.3.5.3.5.3.5.3.3.3.3.3.5.3.5.3.3..X.X.XoXoX&X&X&X*X+X.X5.*.$.` ` ' _ h y % o   .   5 F z a  . .[ @X;X=X3X4X6X0X0X6X6X3X=X&X&XoX.X3.3.3.<.<.2.2.-.$.$.$.$.$.` ` ` $.$.$.` ` ` ` ) ' ) _ W W R R g f i & $ +         - K z a J  .~ 3.&X&X&X&X&XoXoX.X.X.X3.3.3.3.3..XXX3.<.*.$.` W ! y t % $ o = I (././.'.{.h.m ",
"LXHXkXlXxXx.C ; q w p / 0.-XwXBXNXwXwXwXwXwXwXwXwXwXwXwXwXwXwX0X6X6X6X6X0X0X0X0X0XwXwXwXwXwXNXwXwXwX0X0X0X0X0X6X6X6X4X4X4X3X3X6XwXNXNXwXwXwX0X0X6X6X6X4X3X=X=X=X&X&X&X=X=X=X3X3X6X0X0XwXwXwXNXNXBXBXwX=X3.` d % o     . : S S c  .@.,.5.;X6XVXZXCXBXNXwX0X6X3X3X6X6X6X3X=X&XoX.X<.<.*.$.] ] ) ` $.*.=.$.` ) _ E d y t % $ $ , , < < x c X.} >.XX-X4X0XwXNXNXNXNXNXwXwXwXwXwXwXwXwXwXwXwXwXwXwXwXwXwXwXwXNXNXNXBXBXCXCXZXZXZXZXZXZXZXCXCXBXBXNXwX0X6X3X=X&X&X&X=X3X3X3X3X3X=X=X&X&XoXoX.X.X.X.X.X3.3.3.5.5.<.<.2.*.*.$.$.$.$.$.$.*.<.<.<.<.<.<.<.<.<.<.<.<.<.<.<.3.XXXXXXXXXX3.3.3.XX3.3.XXXXXXXXoXOXOXOXOXOXOXoX.X3.3.<.<.*.*.$._ E h y % $ o .   : K z a J  .~ .X=X=X=X=X=X=X=X=X;X&XoX.X.X3.3.<.*.*.*.*.*.$.$.$.$.$.$.$.$.$.` ) ) ) ) ) W W W W W W W W W W R f i & $ +         - K z a J  .~ 3.&X&XoXoXoX.X.X3.3.<.<.*.*.*.*.<.<.*.$.` ) W R j t % * o   @ I (././.'.{.h.m ",
"_._.HXhXxXz.C ; q q z / 0.5XBXCXwX0X0X0X0X0X0X0X0X0X0X0X0X0X0X6X6X6X6X0X0X0X0XwXwXNXNXBXBXBXBXBXNXNXNXwXwXwX0X0X0X6X6X4X4X3X3X6XNXBXNXNXNXwX0X0X6X6X4X3X=X;X;X;X&X&X&X&X=X3X3X6X0XwXwXNXNXNXBXBXBXNX0X;X2.) d $ o     . : S H c ( +.,.2.+X3XNXCXBXBXNXwX6X3X&X&X3X3X3X=X=X&XoX.X<.*.$.` ] ] ) ) $.=.%.%.' _ Q E f y t % $ $ & , < < x c X.} >.XX-X4X0XwXNXNXNXNXNXwXwXwXwXwXwXwXwXwXwXwXwXwXwXwXwXwXwXwXNXNXNXBXBXCXCXCXZXZXZXZXSXSXZXZXCXCXBXNX0X6X=X=X&XoX&X;X3X3X3X3X3X=X=X&X&X&XoXoXoX.X.X.X.X.X3.3.5.<.2.2.*.$.$.$.` ` ` ` *.*.*.*.*.*.*.*.1.1.1.1.1.1.1.1.XXXXXXXXXXXXXXXXXXXXXXXXXXXXXXXX*X*X&X&XOXOXoXXX3.3.<.<.<.<.*.$._ E f t % $ o o   : K z a J v ~ .X3X3X=X=X=X&X&X;X&XoXoX.X3.3.<.*.$.$.*.$.$.$.$.$.$.*.$.$.$.$.$.) W W W W W W W W W W W W W W R f i & $ +         - K z a J v ~ 3.oXoXoXoXoX.X.X3.<.<.*.*.*.*.*.*.$.$.` ) W R g j % $ * o   @ I (././.'.{.h.m ",
"_.GXHXhXxXz.C ; q q p / 0.5XBXCXwX0X0X0X0X0X0X0X0X0X0X0X0X0X0X0X6X6X6X0X0X0X0XwXwXNXNXNXBXBXBXBXNXNXwXwXwXwX0X0X0X6X6X4X4X3X3X6XwXNXNXNXNXwX0X0X6X6X4X3X=X=X;X;X&X&X&X=X=X=X3X6X0X0XwXNXNXNXNXNXBXNX0X;X2.) d $ o     . : S H k ( @.{ -.@X=X0XNXNXNXwX6X3X&XoXoX&X&X&X&XoX.X3.<.*.$.` ] ) W ! W ` %.%.' _ _ Q E f y t % $ $ * , < < x c X.} >.XX-X4X0XwXNXNXBXNXNXwXwXwXwXwXwXwXwXwXwXwXwXwXwXwXwXwXwXwXNXNXNXBXBXBXCXCXZXZXZXZXZXZXZXZXCXBXBXNX0X6X3X=X&X&X&X;X3X3X3X3X3X=X=X&X&X&XoXoXoX.X.X.X.X.X.X3.5.5.<.2.*.$.$.$.` ` ` $.*.*.*.*.*.*.*.*.1.1.1.1.1.1.1.1.4.XXXXXXXXXXXXXXXXXXXXXXXXXXXXXXOX*X&X&XOXOXXXXX3.3.<.<.<.*.*.$._ E f y % $ o o   : K z a J v ~ .X3X3X3X=X=X=X&X;X&X&XoX.X.X.X3.<.*.*.*.*.*.=.=.*.*.*.*.*.*.*.$.) ) ) ) ) W ) ) ) ) ) ) ) ) ) R f i & $ +         - K z a J v ~ 3.oXoXoXoX.X.X.X3.<.<.*.*.*.*.*.*.$.$.` ) W R g j % $ * o   @ I (././.'.{.h.m ",
"_.GXHXlXxXz.C ; q q p / 0.5XBXCXwX0X0X0X0X0X0X0X0X0X0X0X0X0X0X0X6X6X6X0X0X0X0XwXwXNXNXNXBXBXBXBXNXNXNXwXwXwX0X0X0X6X6X4X4X3X3X6XwXNXNXNXwXwX0X0X6X6X6X4X3X=X=X=X&X&X=X=X=X3X3X6X0X0XwXwXNXNXNXNXBXNX0X;X2.) d $ o     . : S H k V @.^ { 2..X=X6X0X0X6X3X=XoX@X@X.X.X.X3.3.<.*.$.` ) ) ! ! R g ! ) ' ' _ _ Q E h d t % % $ $ * , < < x c ..} >.XX-X4X0XwXNXNXBXNXNXwXwXwXwXwXwXwXwXwXwXwXwXwXwXwXwXwXwXwXwXNXNXNXBXBXCXCXCXZXZXZXZXZXZXZXCXCXBXNX0X6X3X=X&X&X&X=X3X3X3X3X3X=X=X&X&X&XoXoXoX.X.X.X.X.X.X.X3.5.<.<.*.*.$.$.$.` ` $.*.*.*.*.*.*.*.*.1.1.1.1.1.1.1.1.4.XXXXXXXXXXXXXXXXXXXXXXXXXXXXXXOX*X&XOXOXOXXXXX3.<.<.<.*.*.*.$._ E f y % $ o +   : K z a H v ~ .X3X3X3X3X=X=X&X;X;X&XoX.X.X.X3.<.*.*.*.*.*.*.*.*.*.*.*.*.*.*.*.` ) ) ) ) ) ) ) ) ) ) ) ) ) ) W f i & $ +         - K z a J v ~ 3.oXoXoXoX.X.X.X3.<.<.*.*.*.*.*.*.$.$.` ) W R g j % $ * o   @ I (././.'.{.h.m ",
"_.).fXhXxXz.C ; q q p / 0.5XBXCXwX0X0X0X0X0X0X0X0X0X0X0X0X0X0X0X6X6X6X0X0X0X0XwXwXNXNXNXBXBXBXBXNXNXNXwXwXwX0X0X0X6X6X4X4X3X3X6XwXNXNXwXwXwX0X0X0X6X6X4X4X3X3X3X=X=X=X=X3X3X3X6X0X0XwXwXwXNXNXNXNXNX0X;X2.) d $ o     . : S c c V B B ! ] <.oX=X5X5X;X;X+X6.0.0.*.<.*.*.$.$.` ) W ! R g j j j g Q _ _ _ Q E h h u t % $ $ $ * , < < z c ..} >.XX-X4XqXwXNXNXBXNXNXwXwXwXwXwXwXwXwXwXwXwXwXwXwXwX0X0X0XwXwXwXNXNXBXBXBXCXCXCXCXZXZXZXZXCXCXBXNXwXwX6X3X=X&X&X=X=X3X3X3X3X3X=X=X&X&X&XoXoXoX.X.X.X.X.X.X.X3.3.5.<.*.*.$.$.$.$.$.$.*.*.*.*.*.*.*.*.1.1.1.1.1.1.1.1.4.4.4.4.4.4.4.4.4.4.4.4.4.4.4.XXOXOXOXOXOXXXXXXX<.<.<.*.*.*.*.$._ E f y % $ o +   : K z s H v ~ oX3X3X3X3X3X=X=X;X;X=XoXoX.X.X3.<.<.<.<.<.<.<.<.<.<.<.<.<.<.<.*.$.` ` ` ` ` ` ` ` ` ` ` ` ` ` ) f i & $ +         - K A a J  .~ 3.oXoXoXoX.X.X.X3.<.<.*.*.*.*.*.*.$.$.` ) W R g j % $ * o   @ I (././.'.{.h.m ",
"_.).GXhXxXz.C ; q q p / 0.5XBXCXwX0X0X0X0X0X0X0X0X0X0X0X0X0X0X0X6X6X6X0X0X0XwXwXwXNXNXNXBXBXBXBXNXNXNXwXwXwX0X0X0X6X6X4X4X3X3X4X0XwXwXwXwX0X0X0X0X6X6X6X4X4X4X4X3X3X3X3X3X3X6X6X0X0X0XwXwXwXwXNXNXNX0X;X2.) d $ o     . : S H x N M l j W ` 2.3.@X+X@X6.2.;.{ ,.) ` ` ) ) W R R R g j j i i i j E Q Q E E h h f t % $ $ $ * O , < < z c ..} >.XX-X4XqXwXNXNXBXNXNXwXwXwXwXwXwXwXwXwXwXwXwXwXwXwX0X0X0X0XwXwXwXNXNXBXBXBXCXCXCXCXZXCXCXCXBXBXNXwXwX0X3X3X=X=X=X3X3X3X3X3X3X=X=X&X&X&XoXoXoX.X.X.X.X.X.X.X.X3.3.5.<.*.*.$.$.$.$.$.*.*.*.*.*.*.*.*.1.1.1.1.1.1.1.1.4.4.4.4.4.4.4.4.4.4.4.4.4.4.4.XXOXOXOXoXXXXXXX4.<.<.*.*.*.*.$.` _ E f y % $ o +   : K z s H v ~ oX3X3X3X3X=X=X&X;X;X&XoXoX.X.X3.<.<.<.<.<.<.<.<.<.<.<.<.<.<.<.*.$.$.$.$.$.$.$.$.$.$.$.$.$.$.$.) h i & $ +         - K z a J  .~ 3.oXoXoXoX.X.X.X3.<.<.*.*.*.*.*.*.$.$.` ) W R g j % $ * o   @ I (././.'.{.h.m ",
"_.).fXhXxXz.#.; q q z / 0.5XBXCXwX0X0X0X0X0X0X0X0X0X0X0X0X0X0X0X6X6X6X0X0X0X0XwXwXNXNXNXBXBXBXBXNXNXNXwXwXwX0X0X0X6X6X4X4X3X3X4X0XwX0X0X0X0X0X0X0X6X6X6X6X6X6X6X3X3X3X3X3X6X6X6X0X0X0X0XwXwX0XwXNXNX0X;X2.) d $ o     . : S H z p ; = i g W ` $.$.$.` ` W W R R R R R R g g d d j i i i i = = i h E E h h f f u t % $ $ o * O , < < z c ..} >.XX-X4XqXwXNXNXNXNXNXwXwXwXwXwXwXwXwXwXwXwXwXwXwXwX0X0X0X0X0XwXwXNXNXNXBXBXBXBXCXCXCXCXCXBXBXNXNXwXwX0X6X3X=X=X3X4X3X3X3X3X3X=X=X&X&X&XoXoXoX.X.XoXoXoXoX.X.X.X.X3.<.<.*.*.*.$.$.$.*.*.*.*.*.*.*.*.1.1.1.1.1.1.1.1.1.4.4.4.4.4.4.4.4.4.4.4.4.4.4.4.XXXXXXXXXXXX4.4.<.*.*.*.$.$.$.` _ E f y % $ o +   : K z s H J ~ .X3X3X3X=X=X=X&X;X;X&XoX.X.X.X3.<.<.<.<.<.<.<.<.<.<.<.<.<.<.<.<.$.$.$.$.$.$.$.$.$.$.$.$.$.$.$.) h i & $ +         - K z a J  .~ 3.oXoXoXoX.X.X.X3.<.<.*.*.*.*.*.*.$.$.` ` W R g j % $ * o   @ I (././.'.{.h.m ",
"_.).GXhXxXz.#.; q q z / 0.5XBXCXwX0X0X0X0X0X0X0X0X0X0X0X0X0X0X0X6X6X6X0X0X0X0XwXwXNXNXNXBXBXBXBXNXNXNXwXwXwX0X0X0X6X6X4X4X3X3X4X6X0X0X0X0X0X0X0X0X0X0X0X6X6X6X6X6X6X6X6X6X6X6X6X0X0X0X0X0X0X0XwXNXNX0X;X2.) d $ o     . : S H z ; ; = i i g ! ) R R R g d y t t d d d y y y t t i i * * * = = * u f f f f u u i % $ $ o o * O , < < z c ..} >.XX-X4XqXwXNXNXNXNXNXwXwXwXwXwXwXwXwXwXwXwXwXwXwXwX0X6X0X0X0X0XwXwXwXNXNXBXBXBXBXBXBXBXBXBXBXNXNXwXwX0X6X3X3X3X3X6X3X3X3X3X3X=X=X&X&X&XoXoXoX.X.XoXoXoXoXoXoX.X.X.X<.<.<.*.*.*.*.*.*.*.*.*.*.*.*.*.1.1.1.1.1.1.1.1.1.1.1.1.1.1.1.1.1.1.1.1.1.1.1.4.XXXXXXXXXX4.4.1.*.*.*.$.$.$.$.` _ E f y % $ o +   : K z s H v ~ .X=X=X=X=X&X&XoX&X+XoX.X.X3.3.<.<.<.<.<.<.<.<.<.<.<.<.<.*.*.*.*.$.$.$.$.$.$.$.$.$.$.$.$.$.$.$.) h i & $ +         - K z a J  .~ 3.oXoXoXoX.X.X.X3.<.<.*.*.*.*.*.*.$.$.` ` W R g j % $ * o   @ I (././.'.{.h.m ",
"_.).fXhXxXz.C ; q q z / 0.5XBXCXwX0X0X0X0X0X0X0X0X0X0X0X0X0X0X0X6X6X6X0X0X0X0XwXwXNXNXBXBXBXBXBXNXNXNXwXwXwX0X0X6X3X3X3X3X=X=X=X3X6X6X6X6X6X6X6X0X0X0X0X0X0X0X0X0X0X0X0X0X0X0X0X6X6X6X6X6X6X6X6XNXNX0X;X2.) d $ o     . : S H z N 7 ; * % t t y d d y y t % % % % t % % % % $ $ $ o o o o o o o % t % % % % $ $ $ $ o o o o o O < < z c ..} >.XX-X4XqXwXNXNXNXNXNXwXwXwXwXwXwXwXwXwXwXwXwXwXwXwX6X6X6X6X0X0X0XwXwXNXNXNXNXBXBXBXBXBXBXNXNXNXNXwXwXwX0X0X0X0X0X6X3X3X3X3X3X=X=X&X&X&XoXoXoX.X.XoXoX&X&XoXoXoX.X.X3.5.5.<.<.2.2.2.*.*.*.*.*.*.*.*.*.*.*.*.*.*.*.*.*.*.*.*.*.*.*.*.*.*.*.*.*.*.*.<.3.3.3.3.<.<.<.*.*.*.$.$.$.` ` ) Q E f y % $ o +   : A p a #. .E <.oXoXoXoX.X.X3.3.3.<.<.<.*.*.*.<.1.1.1.1.1.1.1.*.*.*.*.*.*.*.$.$.$.$.$.$.$.$.$.$.` ` ` $.$.$.) h i & $ +         5 K z a J  .~ 3.oXoXoXoX.X.X.X3.<.<.*.*.*.*.*.*.$.$.` ) W R g j % $ * o   @ I (././.'.{.h.m ",
"_.).fXhXxXz.C ; q q z / 0.5XBXCXwX0X0X0X0X0X0X0X0X0X0X0X0X0X0X0X6X6X6X0X0X0XwXwXwXNXNXNXBXBXBXBXNXNXNXwXwXwX0X0X6X3X3X3X3X=X=X=X3X3X3X3X3X6X6X6X0X0X0X0X0X0X0X0XwX0X0X0X0X0X0X0X6X6X6X3X3X3X3X6XNXNX0X;X2.) d $ o     . : S H z N ; = * $ $ % % t t % % $ $ $ $ $ $ $ $ $ $ o o o o o o o o o o $ $ $ $ $ o o o o o o o o o + X < < z c ..} >.XX-X4XqXwXNXNXNXNXNXwXwXwXwXwXwXwXwXwXwXwXwXwXwXwX6X4X6X6X6X0X0X0XwXwXwXNXNXNXNXNXNXNXNXNXNXNXwXwXwXwX0X0X0X0X0X0X3X3X3X3X3X=X=X&X&X&XoXoX.X.X.XoX&X&X&X&XoXoXoX.X.X3.3.3.<.<.2.2.*.*.*.*.*.*.*.*.*.*.*.*.*.*.*.*.*.*.*.*.*.*.*.*.*.*.*.*.*.*.*.*.<.3.3.<.<.<.*.*.=.$.$.$.` ` ` ) Q E f t % $ o o   : S p a #. .! *..X.X.X3.3.3.<.<.*.-.*.$.$.$.$.$.%.%.%.%.%.%.%.$.` $.` $.` $.` ` ` ` ` ` ` ` ` ` ` ` ` ` ` ` W f i % $ +         5 K z a J v ~ 3.oXoXoXoXoX.X.X3.<.<.*.*.*.*.*.*.$.$.` ) W R g j % $ * o   @ I (././.'.{.h.m ",
"_.).fXhXxXz.C ; q q z / 0.5XBXCXwX0X0X0X0X0X0X0X0X0X0X0X0X0X0X0X6X6X6X0X0X0X0XwXwXNXNXNXBXBXBXBXNXNXNXwXwXwX0X0X6X3X3X3X3X=X=X=X=X3X3X3X3X3X6X6X0X0X0XwXwXwXwXwXwXwXwXwXwXwX0X0X6X6X3X3X3X=X=X3XwXwX0X;X2.) d $ o     . : S H x p ; = o o o $ $ $ $ $ $ o o o o o o o o o o o o o o o o o o o o o o o o o o o o o o o o o o + X < < z c ..} >.XX-X4XqXwXNXNXNXNXNXwXwXwXwXwXwXwXwXwXwXwXwXwXwX0X6X4X4X4X6X6X0X0X0XwXwXwXNXNXNXNXNXwXwXwXwXwXwXwXwXwXwXwXwXwXwX0X6X3X3X3X3X=X=X&X&X&XoXoXoX.X.XoX&X&X&X&X&XoXoX.X.X.X.X3.5.3.<.<.<.*.*.*.*.*.*.*.*.*.*.*.*.*.*.*.*.$.$.$.$.$.$.$.$.$.$.$.$.$.$.*.<.<.<.<.<.*.*.*.$.$.$.` ` ` ) ) Q E f y % $ o o   : S p a K  .j %.5.5.<.<.2.-.-.-.&.&.] ] ] ] ] ) ) ] ) ] ) ] ) ) ) ) ) ) ) ) ) W W W W W W W W W W W W W W W R f i & $ +         5 K z a J v ~ 3.oXoXoXoXoX.X.X3.<.<.*.*.*.*.*.*.$.$.` ) W R g j % $ * o   @ I (././.'.{.h.m ",
"_.).fXhXxXz.C ; q q z / 0.5XBXCXwX0X0X0X0X0X0X0X0X0X0X0X0X0X0X0X6X6X6X0X0X0X0XwXwXNXNXNXBXBXBXBXNXNXNXwXwXwX0X0X6X3X3X3X3X=X=X=X=X=X=X=X3X3X3X6X0X0XwXwXwXNXNXNXNXNXNXwXwXwX0X0X6X3X3X3X=X=X=X3XwXNX0X;X2.) d $ o     . : S c z s > , o o o o o o o o o o o o o o o o o o o o o o o o o o o o o o                           + X < < z c ..} >.XX-X4XqXwXNXNXNXNXNXwXwXwXwXwXwXwXwXwXwXwXwXwXwX0X6X3X4X4X4X6X6X0X0X0XwXwXwXNXNXNXwXwXwXwXwXwXwXwXwXwXwXwXwXwXwX0X6X3X3X3X3X=X=X&X&X&XoXoXoX.X.XoX&X=X=X&X&X&XoXoXoX.X.X.X3.3.5.5.<.*.*.*.*.*.*.*.*.*.*.*.*.*.*.*.$.$.$.$.$.$.$.$.$.$.$.$.$.$.$.*.<.<.<.<.*.*.*.$.$.$.` ` ) ) ) ) Q E f y % $ o +   : S p a K  .j ] -.-.&.&.&.&.] ] ] ] { ! ! ! ! W R R R R R R R R R R R R R R R R R R R R R R R R R R R R R R g f i & $ +         5 K z a J  .~ 3.oXoXoXoX.X.X.X3.<.<.*.*.*.*.*.*.$.$.` ) W R g j % $ * o   @ I (././.'.{.h.m ",
"_.).fXhXxXz.C ; q q p / 0.5XBXCXwX0X0X0X0X0X0X0X0X0X0X0X0X0X0X0X6X6X6X0X0X0X0XwXwXNXNXNXBXBXBXBXNXNXNXwXwXwX0X0X6X3X3X3X3X=X=X=X=X&X=X=X=X3X3X6X0X0XwXwXNXNXNXNXNXNXNXNXwXwX0X0X6X3X3X=X=X=X&X3XwXwX0X;X2.) d $ o     . : S H b a a & * $ o o O O + O O o O o o O O O O O * $ $ * * * * * * * *   . . . . . . .   .       O O , < < x c ..} >.XX-X4XqXwXNXNXNXNXNXwXwXwXwXwXwXwXwXwXwXwXwXwXwX0X4X3X3X3X4X4X6X6X0X0X0XwXwXwXwXwXwXwXwXwXwXwXwXwXwXwXwXwXNXNXNXwX6X3X3X3X3X=X=X&X&X&XoXoXoX.X.XoX&X=X=X=X&X&X&XoXoX.X.X.X3.3.3.5.<.*.*.*.*.*.*.*.*.*.*.*.*.*.*.*.$.$.$.$.$.$.$.$.$.$.$.$.$.$.$.$.*.<.<.*.*.*.$.$.$.` ` ) ) ) ) W Q E f y % $ o +   : S p s K J j W ] ] ] ) ) ! ! ! ! ! ! j j j j j g g g g g g g d d d d d d d d d d d d d d d d d d d d d d d y u i & $ +         - K z a J  .~ 3.oXoXoXoX.X.X.X3.<.<.*.*.*.*.*.*.$.$.` ) W R g j % $ * o   @ I (././.'.{.h.m ",
"_.).GXhXxXz.C ; q q p / 0.5XBXCXwX0X0X0X0X0X0X0X0X0X0X0X0X0X0X0X6X6X6X0X0X0X0XwXwXNXNXNXBXBXBXBXNXNXNXwXwXwX0X0X6X3X3X3X3X=X=X=X&X&X&X=X=X=X3X6X0X0XwXNXNXNXNXNXBXNXNXNXNXwX0X0X6X3X3X=X=X&X&X3XwXwX0X;X2.) d $ o     . : S H b b k a > & > > > , , , > > > > > , , , > > > > > > > > > a a a > , # # # # # , , , O O O O > : - < < x c ..} >.XX-X4XqXwXNXNXNXNXNXwXwXwXwXwXwXwXwXwXwXwXwXwXwX0X4X=X=X3X4X4X6X6X0X0X0X0XwXwXwXwX0X0X0XwX0XwXwXwXwXwXNXNXNXNXNXwX6X3X3X3X3X=X=X&X&X&XoXoXoX.X.XoX&X=X=X=X&X&X&XoXoXoX.X.X.X3.3.3.<.*.*.*.*.*.*.*.*.*.*.*.*.*.*.*.$.$.$.$.$.$.$.$.$.$.$.$.$.$.$.$.*.<.*.*.*.*.$.$.` ` ` ) ) ) ) W Q E f y % $ o +   : S p s K  .j g ! ! R R g g g j j i i i i i i y y y y y y y y t t t t t t t t t y y y y y y y y y y y y y y y u i & $ +         - K z a J  .~ 3.oXoXoXoX.X.X.X3.<.<.*.*.*.*.*.*.$.$.` ) W R g j % $ * o   @ I (././.'.{.h.m ",
"_.).fXhXxXz.C ; q q z / 0.5XBXCXwX0X0X0X0X0X0X0X0X0X0X0X0X0X0X0X6X6X6X0X0X0XwXwXwXNXNXNXBXBXBXBXNXNXNXwXwXwX0X0X6X3X3X3X=X=X=X=X&X&X&X&X=X3X3X6X0XwXwXNXNXNXBXBXBXBXNXNXNXwX0X0X6X3X3X=X&X&X&X=XwXNX0X;X2.) d $ o     . : S H b v v b a a a z z 1 1 1 z z x x x x z x x x x x x b b b b c b b x - 3 3 3 3 3 - - - - - > - : A A < < x c ..} >.XX-X4XqXwXNXNXNXNXNXwXwXwXwXwXwXwXwXwXwXwXwXwXwX0X4X=X=X3X3X4X6X6X6X0X0X0XwXwXwXwX0X0X0X0X0XwXwXwXwXwXNXNXNXNXNXwX6X3X3X3X3X=X=X&X&X&XoXoXoX.X.XoX=X=X=X=X=X&X&X&XoXoX.X.X.X.X3.3.<.*.*.*.*.*.*.*.*.*.*.*.*.*.*.*.$.` ` ` ` ` ` ` ` ` ` ` ` ` ` $.=.*.*.*.*.$.$.$.` ` ) ) ) ) ) W Q E f y % $ o +   : S p s K J u y d j d d y y y t t t % * * * * t t t t t t t t % % % % % % % % % t t t t t t t t t t t t t t t u i & $ +         - K z a J  .~ 3.oXoXoXoX.X.X.X3.<.<.*.*.*.*.*.*.$.$.` ) W R g j % $ * o   @ I (././.'.{.h.m ",
"_.).fXhXxXz.C ; q q z / 0.5XBXCXNX0X0X0X0X0X0X0X0X0X0X6X6X6X6X6X0X0X0X0X0XwXwXwXwXNXNXNXNXNXNXNXwXwXwX0X0X0X0X6X3X3X3X3X=X=X=X=X&X&X&X=X=X3X3X3X0X0XwXwXwXNXNXNXNXNXNXwXwX0X0X6X3X=X&X&X&XoXoX&X0XwX6X;X2.) d % o     . : S S x K D S x a x S A e q q q w A S S A A A A A A x A x A A A S S S A w 7 7 7 6 w w w w w : : w A D F < q x c ..} >.4.*X4X7XwXwXwXNXwXwXwXwXwXwXwXwXwXwXwXwXwXwXwXwX0X4X=X3X3X3X4X6X6X6X6X0X0X0X0X0X0X0X0X0X0X0X0X0XwXwXwXwXwXNXNXNXwX6X3X3X3X=X=X=X=X&X&X&X&X&X&XoX&X=X=X=X=X=X=X&X&X&XoXoXoXoX.X.X.X<.<.<.<.<.<.<.*.*.*.*.*.*.*.*.*.$.` ` $.$.$.` ` ` $.$.$.$.$.$.$.$.=.=.$.$.$.` ` ` ) ) ) W W W R Q h f t % $ o   . : A p p K J i t t t t t t % % % % $ $ $ $ o $ $ $ $ $ $ $ $ $ $ $ $ $ $ $ $ $ $ % % % % % % % % % % % % % % % i t & $ +         : K z s H v ~ 3.&X&X&XoXoXoX.X.X3.3.3.<.<.<.<.*.*.$.$.` ) R g j t % * o   @ I (././.'.{.h.m ",
"_.).fXhXxXz.C ; q q z / 0.5XBXZXNXwXwXwXwX0X0X0X0X6X6X6X4X4X4X6X6X0X0X0X0X0X0X0X0X0X0XwXwXwX0X0X0X6X6X6X6X6X6X6X3X3X3X=X=X=X=X=X=X=X=X=X=X3X3X3X3X3X3X3X6X6X6X6X0X0X0X6X6X4X3X=XoX.X.X3.3.<.<..X3X6X=XoX<.` g t % o   + - A A q 9 4 3 6 N V N 6 3 4 4 4 4 3 6 N w q q q q q q 3 0 3 0 4 0 4 0 3 7 7 7 7 7 7 7 7 N N A w w w w w < < x c ..} >.4.oX&X3X3X6X6X6X6XwXwXwXwXwXwXwXwXwXwXwXwXwXwXwX0X3X=X=X=X=X3X3X3X3X3X3X3X3X3X3X6X0X0X0X0X0X0X0X0X0X0X0X0X0X0X0X0X3X=X=X=X=X=X=X=X=X=X=X3X3X3X3X3X4X3X3X3X3X3X=X=X&X&X&X&X&X&X&XoXXXXX4.4.4.4.1.1.*.*.*.$.$.$.$.$.$.$.$.$.$.$.$.$.$.$.$.$.$.$.$.$.$.$.$.` ` ` ) ) ) W W R R R R R h f f t $ o       5 F 6 : S H a % % % % % % % $ $ $ $ $ $ $ $ $ + + + + + + + + + + + + + + + + $ $ $ $ $ $ $ $ $ $ $ $ $ $ $ $ $ $ $ $ o + + + , > x K K c a h <.&X&X&X&XoXoXoX&X&X&X&X&X&X&XoX3.1.1.=.$.' _ ! ^ t % $ o   = I (././.'.{.h.m ",
"_.).fXhXxXz.#.; q q z / 0.5XBXZXBXNXNXwXwXwX0X0X0X6X6X4X4X3X3X4X6X0X0X0X0X0X0X0X0X0X0X0X0X0X0X6X6X4X4X4X4X4X4X4X3X3X3X=X=X=X3X3X3X3X3X3X3X3X3X3X=X3X3X3X3X3X=X3X6X6X6X4X4X3X=X;X.X.X3.3.<.<.<.3.=X3X=XoX<.` R y % o o + - A A 0 4 4 3 N V / V V 7 4 4 4 3 6 N V N N N N 6 6 6 7 5 3 3 4 3 4 4 5 M M M M M M M s N N A A w w w w < q x c ..} >.1.XX&X=X3X3X3X3X6XwXwXwXwXwXwXwXwXwXwXwXwXwXwXwXwX3X3X3X3X3X3X=X=X3X3X3X3X=X=X3X3X6X0X0X0X0X0X0X0X0X0X0X0X0X0X0X6X=X&X=X=X=X=X=X3X3X3X3X3X3X6X6X3X4X3X=X3X3X3X3X3X=X=X=X=X=X=X=X&XoXXXXXXX4.4.4.1.*.*.$.$.$.$.` $.$.$.$.$.$.$.$.$.$.$.$.$.$.$.$.$.$.` ` ` ` ) ) W W W R R R g g g h f u t $ o       5 F 6 : S H a o o o o + o + + o + o o o o o +                                   + + + +   +   +   + + +   +   +   +   +   +   > > x K K x p j $..X.X.X.X.X.X.X.X.X.X.X.X.X.X3.<.*.$.$.` ) W R ^ t % $ o   = I (././.'.{.h.m ",
"_.).fXhXxXz.#.; q q z / 0.5XBXZXBXNXNXwXwXwX0X0X0X6X6X4X4X3X3X4X3X6X6X6X6X6X6X6X6X6X6X6X6X6X6X6X6X4X4X4X4X4X4X4X3X3X3X3X=X3X3X3X3X3X3X3X3X3X=X=X=X3X3X3X3X3X=X3X6X0X6X6X6X4X3X=X&XoX.X.X.X3.3.oX=X3X=XoX<.` R y % o o   - e A q 4 4 N / | :.:.| / V N N V ( | | | ( ( ( ( / / k V V V V N N N V B ^ B B B B M s N N A A w w w q < < x c ..} >.1.XX&X=X3X3X3X3X6XwXwXwXwXwXwXwXwXwXwXwXwXwXwXwX0X3X3X3X3X3X3X=X3X3X3X3X=X=X3X3X3X6X0X0X0X0X0X0X0X0X0X0X0X0X0X0X6X=X=X=X=X=X=X=X3X3X3X3X3X3X3X3X3X3X=X=X=X=X=X=X=X&X=X=X&X=X=X=X&XoXXXXXXX4.4.4.1.*.*.$.$.$.$.` $.$.$.$.$.$.$.$.$.$.$.$.$.$.$.$.$.$.` ` ` ` ) ) W W W R R R g g g h f u t $ o       5 F w : S H a o o o o o o o o o o o o                                                 o   o   o   o   o   o           o       , : z S S z : l W &.&.&.&.$.&.$.` ` ` ` ` ` ` ` ` ` ) ) W R g d l % $ o     = I (././.'.{.h.m ",
"_.).fXhXxXz.C ; q q z / 0.5XBXZXBXNXNXwXwXwX0X0X0X6X6X4X4X3X3X3X3X3X3X3X3X3X3X3X3X3X3X3X3X3X3X3X4X4X4X4X4X4X4X4X3X3X3X3X3X3X3X3X3X3X3X3X3X3X3X=X=X=X3X3X3X3X=X3X0X0X0X0X6X6X4X4X=X&X&XoXoXoX.X&X3X3X=XoX<.` R y % o o + - e A w 7 N / } 0.%X%X9.q.} | | :.q.%X%X9.q.q.q.q.q.:.:.:.} | | | | | | { { { ^ ^ ^ l l V V A A w w q q 2 < x c ..} >.1.XX&X=X3X3X3X3X6XwXwXwXwXwXwXwXwXwXwXwXwXwXwXwX0X3X3X3X3X3X3X3X3X3X3X3X=X=X3X3X3X6X0X0X0X0X0X0X0X0X0X0X0X0X0X0X6X3X=X=X=X=X=X=X3X3X3X3X3X3X3X3X3X=X=X=X=X=X=X=X=X&X&X&X&X&X&X&X&XoXXXXXXX4.4.4.1.*.*.$.$.$.$.` $.$.$.$.$.$.$.$.$.$.$.$.$.$.$.$.$.$.` ` ` ` ) ) W W W R R R g g g h f u t $ o       5 F w : S H a O O O O O O O O + + + + O O O X . X . . . . . . . . . . . . . . X O X X X X X X X X X O X O X X X X X X O X X X > - 1 A A 1 - s l ^ ^ ^ ^ ^ ^ ^ j j j j j j j ! ! ! ! ! ! j j j l $ o o     @ I (././.'.{.h.m ",
"_.).fXhXxXz.C ; q q z / 0.5XBXZXBXNXNXwXwXwX0X0X0X6X6X4X4X3X3X3X=X=X=X=X=X=X=X=X=X=X=X=X=X=X=X=X4X4X4X4X4X4X4X4X=X=X=X3X3X3X=X=X3X3X3X3X3X3X=X=X=X3X3X3X=X3X3X3X0XwXwX0X0X0X0X6X3X3X=X=X=X&X&X=X3X3X=XoX<.` R y % o o   - A A z p k | 0.,X9X7X9X,X%X%X%X,X9XqXqX9X>X>X,X,X,X,X<X%X%X%X%X9.9.0.0.2.2.-.&.{ { ^ ^ ( V S A w w q q 2 < x c ..} >.1.XX&X=X3X3X3X3X6XwXwXwXwXwXwXwXwXwXwXwXwXwXwXwX0X3X3X3X3X3X3X3X3X=X=X=X=X3X=X=X3X6X0X0X0X0X0X0X0X0X0X0X0X0X0X0X6X3X3X3X3X3X3X3X3X3X3X3X3X3X3X3X=X=X&X&X&X&X&X&X&X&X&X&X&X&X&X&X&XXXXXXXXX4.4.4.1.*.*.$.$.$.$.` ` $.$.$.$.$.$.$.$.$.$.$.$.$.$.$.$.$.` ` ` ` ) ) W W W R R R g g g h f u t $ o       - F w : A H s : - - - - - - > > > - - - - - - # # # # # # # # # # # # # # # - - - - - - - - - - - - - - - - - - - - - - - - - - : : 6 1 : - : p s s s s s p s s s s s s s s s k ( / / k k k s ; o   .   . @ I (./.^.'.{.h.m ",
"_.).fXhXxXz.C ; q q z / 0.5XBXZXBXNXNXwXwXwX0X0X0X6X6X4X4X3X3X=X&X&X&X&X&X&X&X&X&X&X&X&X&X&X&X&X3X4X4X4X4X4X3X3X=X=X=X=X3X=X=X=X3X3X=X=X3X3X=X3X=X3X3X3X=X3X3X3XwXwXwXwXwX0X0X0X6X6X6X3X3X3X3X3X3X3X=XoX<.` R y % o o   - e A z s ( >.%X9XVXVXVXqX9X9X9X7XVXAXZXVXqXqXqXqX7X7X7X4X4X-X-X-X*X*X;XoXoX.X3.2.;.] ! ( / H A A q q q 2 < x c ..} >.1.XX&X=X3X3X3X3X6XwXwXwXwXwXwXwXwXwXwXwXwXwXwXwX0X3X3X3X3X=X3X3X3X=X3X=X=X3X=X=X3X6X0X0X0X0X0X0X0X0X0X0X0X0X0X0X0X3X3X3X3X3X3X3X3X3X3X=X=X=X=X=X=X&XoXoXoXoXoXoXoX&X&X&X&X&X&X&XoXXXXXXXXX4.4.4.1.*.*.$.$.$.$.` ` $.$.$.$.$.$.$.$.$.$.$.$.$.$.$.$.$.` ` ` ` ) ) W W W R R R g g g h f u t $ o       - F w : A H s A 6 6 6 6 6 6 6 6 6 6 6 w 6 6 6 5 5 5 5 5 5 5 5 q q 5 q 5 5 5 5 6 6 N 6 N 6 A 6 N 6 N 6 6 6 N 6 A w N 6 N 6 N 6 6 : : : : - : : : - - - - - - - e e e w e e e A V V V V V V N N ;     .     @ I (./.^.'.{.h.m ",
"_.).fXhXxXz.C ; q q p / 0.5XBXZXBXNXNXwXwXwX0X0X0X6X6X4X4X3X3X=X&XoX&XoX&XoX&XoX&XoX&XoX&XoX&X&X3X3X4X4X4X4X3X3X3X3X3X3X3X3X=X=X3X=X=X=X3X3X3X3X=X=X3X3X3X3X3X3XwXwXwXwXwXwXwX0X0X0X0X0X0X0X0X0X6X3X=XoX<.` R y % o o   - e e z s ^ ;.OX7XVXAXAXVXeXqXqXVXAXSXSXVXVXVXeXeXeXeXqXqX7X7X7X4X5X5X4X3X3X=X&X.X5.=.] | ( v S A q q 0 2 q x c ..} >.1.XX&X=X3X3X3X3X6XwXwXwXwXwXwXwXwXwXwXwXwXwXwXwXwX3X=X3X3X3X=X=X=X3X3X3X3X3X3X3X3X6X0X0X0X0X0X0X0X0X0X0X0X0X0X0X0X6X6X3X3X3X3X3X3X3X=X=X=X=X=X=X&XoXoXoXoXoXoXoXoX&X&X&X&X&X&X&XoXXXXXXXXX4.4.4.1.*.*.*.$.$.$.` ` $.$.$.$.$.$.$.$.$.$.$.$.$.$.$.$.$.` ` ` ` ) ) W W W R R R g g g h f u t $ o       5 F 6 : A H s N 6 6 6 6 6 6 6 6 6 6 6 6 6 6 6 6 6 6 5 6 5 6 6 6 5 6 6 5 5 5 6 N N N N N N N N N N N N N N N N N N N N N N N N N : ; ; : ; p : w w w w 1 1 1 1 w w w w w w w A N V N N N N N N =     . . . @ I (././.'.{.h.m ",
"_.).fXhXxXz.C ; q q p / 0.5XBXZXBXNXNXwXwXwX0X0X0X6X6X4X4X3X3X=X&XoXoXoXoXoXoXoXoXoXoXoXoXoXoX&X5X3X4X4X4X3X3X3X3X3X3X3X3X3X=X3X=X=X=X=X3X3X3X3X=X=X3X3X3X3X3X3X0XwXwXwXwXwXwXwXwXwXwXwX0X0X0X0X6X3X=XoX<.` R y % o o   - A A w ; l [ XX7XVXZXZXVXVXqXeXVXAXSXZXVXNXNXNXwXwXwX0X0X6X6X6X4X4X4X6X6X0X6X3X&X.X<.$.:.| v S A q q 0 2 < x c ..} >.1.XX&X=X3X3X3X3X6XwXwXwXwXwXwXwXwXwXwXwXwXwXwXwXwX3X=X3X3X3X=X=X=X3X3X3X3X3X3X3X3X6X0X0X0X0X0X0X0X0X0X0X0X0X0X0X0X6X6X6X6X6X3X3X3X=X=X=X&X&X&X&X&XoX.X.X.X.X.X.X.XoXoXoXoXoXoXoXoXXXXXXXXX4.4.4.1.*.*.$.$.$.$.` $.$.$.$.$.$.$.$.$.$.$.$.$.$.$.$.$.$.` ` ` ` ) ) W W W R R R g g g h f u t $ o       - F 6 : A H a s N p N s N s N p N s N s N s p N N N N N N N N p N N N N N N N s s s s s s s s s s s s s s s s s s s s s s s s V s s s s s s N x x x x x x x x x x x x x x x p s s s s s s N 7 =     . . . @ I (././.'.{.h.m ",
"_.).fXhXxXz.C ; q q z / 0.5XBXZXBXNXwXwXwXwX0X0X6X3X3X3X3X=X=X&X&XoXoXoXoXoXoXoX&X&X&X&X&X&X&X;X=X3X3X3X3X3X3X3X=X=X=X=X3X3X3X3X4X4X4X4X3X3X3X4X4X4X4X4X3X3X3X6X6X0X0X0X0X0X0X0X0X0X0X0XwXwX0X0X0X6X8X+X5.` R y % o o X - A A w 7 s ~ =.-XeXVXVXeXqX4X4X7XwXNXBXNXwX0X0X0X6X6X6X3X=X=X=X&X&X&X=X0XwX0X6X=XoX3.=.[ | k c A < - # 2 < x c ..} >.1.OX*X4X4X6X8X8X6XwXwXwXwXwXwXwXwXwXwXwXwXwXwXwX0X3X=X3X3X3X3X3X3X=X=X=X=X3X3X3X3X6X0X0X0X0X0X0X0X0X0X0X0X0X0X0X0X0X0X0X0X0X6X6X4X4X=X=X&X&XoXoX.XoXoXoXoXoXoXoXoXoXoXoXoXoXoXoX.XXXXXXXXX4.4.4.1.*.*.$.$.$.$.` $.$.$.$.$.$.$.$.$.$.$.$.$.$.$.$.$.$.` ` ` ` ) ) W R R g g g g g d h f u t $ o       5 F w : A H a k k k k k s k k k k k k k k k k k k k k k k k k k k k k k k k k k k k k ( k ( k k k k k ( k k k k k k B ( k ( k k k ( k ( k k / / o.o.o.o.o.o.o.o.o.o.o.o.o.o./ k k k k s s s s ;     .     @ I (././.'.{.h.m ",
"_.).GXhXxXz.C ; q q z / 0.5XBXZXBXwXwXwXwXwX0X0X6X3X3X3X3X=X=X&X&XoX&XoX&XoX&XoX;X;X;X;X;X;X;X;X=X3X3X3X3X3X3X3X=X=X3X=X3X3X3X3X4X4X4X4X3X3X3X4X4X4X4X4X3X3X4X6X6X6X6X6X6X6X6X6X0X0X0X0XwXwXwX0XwX6X8X+X5.` R y % o o X - A e q 3 7 l %.*XqXVXVXqX7X-X*X=X3XqX0X0X6X6X8X8X3X5X5X&X&X&XoXoXoXoX&X0XNXwX6X3X&X.X*.' ~ k a p - # # 2 < x c ..} >.1.OX*X4X4X6X8X8X6XwXwXwXwXwXwXwXwXwXwXwXwXwXwXwX0X3X=X3X3X3X3X3X3X=X=X3X3X3X3X3X3X6X0X0X0X0X0X0X0X0X0X0X0X0X0X0X0XwXwXwXwX0X0X6X6X4X=X=X&XoX.X.X.XoX.X.X.X.X.X.X.X.X.X.X.X.X.X.X.XXXXXXXXX4.4.4.1.*.*.$.$.$.$.` $.$.$.$.$.$.$.$.$.$.$.$.$.$.$.$.$.$.` ` ` ` ) ) W R R g g g g g d h f u t $ o       - F w : A H a k ^ ^ ^ ^ ^ ^ ^ ^ ^ ^ ^ ^ ^ ^ ^ ^ ^ ^ ^ ^ ^ ^ ^ ^ ^ ^ ^ ^ ^ ^ ^ | | | | { | { | | | | | { | { { { | { { | | | | | | { | { | | | :.:.w.:.w.:.w.:.w.:.w.:.w.:.w.:.| ( ( ( ( k k a l o   .     @ I (././.'.{.h.m ",
"_.).fXhXxXz.C ; q q z / 0.5XBXZXBXNXwXwXwXwX0X0X6X3X3X3X3X=X=X=X&X&X&X&X&X&X&X&X;X;X;X;X;X;X;X=X=X3X3X3X3X3X3X3X3X3X3X3X3X3X3X=X3X3X4X4X4X4X4X4X4X4X4X4X4X4X4X4X3X3X3X3X3X3X3X6X6X0X0X0X0X0XwX0XwX6X8X+X5.` R y % o o   - A A q 4 7 k ' OX7XeXVX7X-XOXXXXXOX*X=X3X8X8X5X;X;X;X;XoXoX.X.X.X3..X&X0XwX0X6X3X&X3.*.) E j i > , X X 2 < x c ..} >.1.OX*X4X4X6X6X8X6XwXwXwXwXwXwXwXwXwXwXwXwXwXwXwX0X3X3X3X3X3X3X3X3X3X3X3X3X3X3X=X3X6X0X0X0X0X0X0X0X0X0X0X0X0X0X0X0XwXNXNXwX0X0X6X6X4X=X*XoX.X.X.X3..X.X.X.X.X.X.X.X.X.X.X.X.X.X.X.XXXXXXXXX4.4.4.1.*.*.$.$.$.$.` ` $.$.$.$.$.$.$.$.$.$.$.$.$.$.$.$.$.` ` ` ` ) ) W W R g g g g g d h f u t $ o       5 F w : S H l | ,.,.,.,.,.,.,.,.,.,.,.{ { ,.,.,.,.;.;.;.;.;.;.;.;.;.;.;.;.;.;.q.q.0.0.0.0.0.0.0.0.0.0.0.0.0.0.0.0.0.0.0.0.0.0.0.0.0.0.0.0.0.6.%X:X:X:X:X:X:X:X:X:X:X:X:X:X:X%X0.q.q.:.} | ( ( l % $ o     @ I (././.'.{.h.m ",
"_.).fXhXxXz.C ; q q z / 0.5XBXZXBXwXwXwXwXwX0X0X6X3X3X3X3X=X=X=X=X=X=X=X=X=X=X=X3X3X3X3X3X3X3X3X=X3X3X3X3X3X3X=X3X3X3X3X3X3X3X=X3X3X4X4X4X4X4X4X4X4X4X4X4X4X4X3X&X&X&X&X=X=X3X3X3X6X6X6X0X0X0X0X0X6X8X+X5.` R y % o o   - A A q 4 7 l %.OXqXVXVX7X-XOX4.4.4.XXoX=X8X8X5X;X;X;X;XoXoX.X@X@X@X@XoX6X0X6X3X=XoX3.=.) g y % o + . X < < x c ..} >.1.OX*X4X4X6X6X8X6XwXwXwXwXwXwXwXwXwXwXwXwXwXwXwX0X3X3X3X3X3X3X3X3X3X3X3X3X3X3X=X3X6X0X0X0X0X0X0X0X0X0X0X0X0X0X0X0XNXNXNXNXwX0X0X6X4X=X;XoX.X.X3.3..X.X.X.X.X.X.X.X.X.X.X.X.X.X.X.XXXXXXXXX4.4.4.1.*.*.$.$.$.$.` ` $.$.$.$.$.$.$.$.$.$.$.$.$.$.$.$.` ` ` ` ` ) ) W R R g g g g g d h f u t $ o       5 F w : A H k ;.5.5.5.5.5.5.5.5.5.5.5.5.5.5.5.@X@X@X@X@X@X@X@X@X@X@X@X@X@X@X@X+X+X+X+X+X;X+X+X+X+X+X+X+X;X;X;X+X+X+X+X+X+X+X+X+X+X+X+X+X+X+X;X-X9X9X9X9X9X9X9X9X9X9X9X9X9X9X>X,XOXXX6.6.;.;.[ ! y % $ o   = I (././.'.{.h.m ",
"_.).fXhXxXz.C ; q q z / 0.5XBXZXBXNXwXwXwXwX0X0X6X3X3X3X3X=X=X=X3X3X3X3X3X3X3X3X6X6X6X6X6X6X6X6X3X3X3X3X3X3X=X=X3X3X3X3X3X3X=X=X3X4X4X4X4X4X4X4X4X4X4X4X4X4X4X3XoXoXoXoXoX&X&X=X=X3X6X6X6X6X6X6X0X0X8X+X5.` R y % o o   - e A w 7 N ~ 1.-XeXAXAXeX4XOX4.1.1.4.oX3X8X6X8X8X8X5X;X=X&X&XoXoXoXoX&X3X6X3X=X&X.X<.$.W g t % o o + + < < x c ..} >.1.+X*X3X6X6X6X6X6XwXwXwXwXwXwXwXwXwXwXwXwXwXwXwX0X3X3X3X3X3X3X=X=X3X3X3X3X3X3X=X3X6X0X0X0X0X0X0X0X0X0X0X0X0X0X0X0XNXBXBXNXwXwX0X6X3X;X&XoX.X3.3.<.3.3.3.3.3.3.3.3.3.3.3.3.3.3.3..XXXXXXXXX4.4.4.1.*.*.$.$.$.$.` ` $.$.$.$.$.$.$.$.$.$.$.$.$.$.$.$.$.` ` ` ` ) ) W R R g g g g g d h f u t $ o       5 F w : S H ~ 6.=X;X=X=X=X=X=X=X=X=X=X;X=X=X;X=X3X3X3X3X3X3X3X5X5X5X5X3X3X3X3X6X6X6X6X6X6X6X6X6X6X6X6X6X6X6X6X6X6X6X6X6X6X6X6X6X6X6X6X6X6X6X6X0X0XqX0XqX0XqX0XqXqXqX0XqX0XqXqXqX7X4X-X*X@X4.;.] g y t $ o = d.(././.'.{.h.m ",
"_.).fXhXxXz.C ; q q z / 0.5XBXZXBXNXwXwXwXwX0X0X6X3X3X3X3X=X=X=X3X6X6X6X6X6X6X6X0X0X0X0X0X0X0X6X3X=X3X3X3X3X=X=X3X3X3X=X3X3X=X3X3X3X4X4X4X4X4X4X4X4X4X4X4X4X3X=X.X3..X.X.XoXoX&X&X=X3X3X3X6X6X6X0X0X8X+X5.` R y % o o   - e A w N k [ XXqXVXZXZXVX7X*XXX1.1.4.oX6XwXwX0X0X0X8X8X3X5X=X=X=X=X=X&X=X=X=X&X.X3.-.$.W g t % $ o + O < q x c ..} >.1.OX*X3X4X6X6X6X6XwXwXwXwXwXwXwXwXwXwXwXwXwXwXwX0X3X3X3X3X3X3X=X=X3X3X3X=X3X3X=X3X6X0X0X0X0X0X0X0X0X0X0X0X0X0X0XwXNXBXBXNXNXwX0X6X3X;X&XoX.X3.<.<.5.3.3.3.3.3.3.3.3.3.3.3.3.3.3.3.XXXXXXXX4.4.4.1.*.*.$.$.$.$.` $.$.$.$.$.$.$.$.$.$.$.$.$.$.$.$.$.$.` ` ` ` ) ) W R R g g g g g d h f u t $ o       5 F w : S H ~ .X6X6X6X6X6X6X6X6X6X6X6X6X6X6X6X0XwXwXwXwX0XwXwXwXwXwXwXwXwXwXwXNXNXNXNXNXNXNXNXNXNXNXNXNXNXNXNXNXNXNXNXNXNXNXNXNXNXNXNXNXNXNXNXwXwXwXwXwXwXwXwXwXwXwXwXwXwXwXwXVXVXVXeX7X-XOX4.=.W d y % $ = d.(././.'.{.h.m ",
"_.).fXhXxXz.#.; q q z / 0.5XBXZXBXNXNXwXwXwX0X0X6X3X3X3X3X=X=X3X6X0X0X0X0X0X0X0X0X0X0X0XwX0X0X0X3X=X=X3X3X3X3X=X3X=X=X=X3X3X3X3X4X4X4X4X4X4X4X4X4X4X4X4X4X4X4X=X.X<.5.5.3..X.XoX&X&X=X=X3X3X3X6X0X0X8X+X5.` R y % o o + - e A z V ( 0.-XVXSXSXSXCXeX-XOX4.4.4.oXwXBXBXNXNXNXwXwX0X6X6X6X3X3X3X3X=X&XoX.X3.<.*.' Q h t % $ o O , < < x c ..} >.1.OX*X4X4X6X8X8X6XwXwXwXwXwXwXwXwXwXwXwXwXwXwXwX0X3X=X3X3X3X=X=X=X3X=X=X=X3X3X3X3X6X0X0X0X0X0X0X0X0X0X0X0X0X0X0XwXNXBXBXNXNXwX0X6X3X;X&XoX3.<.<.<.5.5.5.5.3.3.5.5.5.5.5.5.3.3.5.3.XXXXXXXX4.4.4.1.*.*.$.$.$.$.` $.$.$.$.$.$.$.$.$.$.$.$.$.$.$.$.$.$.` ` ` ` ) ) W R R g g g g g d h f u t $ o       5 F w : A H ~ &XwXwXwXwXwXwXwXwXwXwXwXwXwXwXwXNXBXBXBXBXBXBXBXBXBXBXBXBXBXBXBXCXCXCXCXCXCXCXCXCXCXCXCXCXCXCXCXCXCXCXCXCXCXCXCXCXCXCXCXCXCXCXBXwX0X0X0X0X0X0X0X0X0X0X0X0X0X0XNXZXSXZXVXeX7X-XOX6.) R d t $ = d.(././.'.{.h.m ",
"_.).fXhXxXz.#.; q q z / 0.5XBXZXNXwXwXwXwX0X0X0X6X6X3X3X3X3X3X3X6X0X0X0X0X0X0X6X0X0X0X0X0X0X6X6X3X3X3X3X3X3X=X=X=X=X=X=X=X=X=X=X4X4X4X4X3X3X3X3X3X=X=X=X=X=X=X;X.X5.3.3..X.X.XoXoX&X&X&X=X=X=X3X0X0X4X+X5.` g t % o     - A A z V ( 0.-XNXZXSXSXBXwX3X&XoXXXOX=XwXNXNXNXNXNXNXNXwX0X0X6X6X6X3X3X&XoXoX.X5.2.$.] Q h t % $ o * , < < x c ..} >.4.OX-X4X6X0X0X0X0X0XwXwXwXwXwXwXwXwXwXwXwXwXwXwX0X3X=X3X3X3X3X=X=X=X=X=X=X3X3X3X3X6X6X6X6X6X0X0X0X0X0X0X0X0X0X0XwXNXBXBXNXNXwX0X6X4X=X&XoX.X.X3.3.3.3.3.3.3.3.3.3.3.3.3.3.3.3.3.3.3.3.3.3.4.1.1.1.*.$.$.$.$.$.$.$.$.$.$.$.$.$.$.$.$.$.$.$.$.$.$.$.$.$.$.$.` ` ) ) W W R R R g g g h f f t $ o       5 F w : S H ~ &XwXwXwXwXwXwXwXwXwXwXwXwXwXwXwXNXNXNXBXBXBXNXNXBXBXBXBXBXBXBXBXBXCXCXCXCXCXCXCXCXCXCXCXCXCXCXCXCXBXBXBXBXBXBXBXBXBXBXBXBXBXBXBXwX0X0X0X0X0X0X0X0X0X0X6X6X6X6XwXBXZXVXVXqX4X*XXX1.W g y % $ = d.(././.'.{.h.m ",
"_.).fXhXxXz.C ; q q z / 0.5XBXCXNX0X0X0X0X0X0X0X0X0X0X6X6X6X6X0XwXwXwXwXwX0X0X6X3X3X=X=X&X&X&X&X6X6X6X6X6X4X4X3X=X&X&X&X&X&X&X&X=X=X=X=X&X&X&X&XoXoXoXoX.X.X.X.XoXoXoXoXoXoXoXoXoXoXoXoXoXoXoX&X0XwX6X;X2.) d % o     . : S S z N B ,..X6XBXCXCXwX6X=X&X=X3X6X6X6X3X6X0X0XwXwXNXwX0X0X6X3X=X=X&X&XoXoX.X3.2.$.] ~ d t % $ o   - < < x c ..} >.4.*X4X7X0XwXwXNXwX0X0X0X0X0X0X0X0X6X6X6X6X6X6X6X6X6X4X4X4X3X3X3X4X3X3X4X4X4X4X3X3X4X4X4X4X6X6X6X0X0X0X0XwXwXwXwXNXNXNXNXNXwXwX0X0X6X6X4X3X=X;X;X;X.X.X.X.X.X.X.X.X.X.X.X.X.X.X.X3.*.*.*.*.*.*.$.$.$.$.$.$.$.$.$.$.$.$.$.$.$.$.$.$.$.$.$.$.$.$.$.$.*.*.*.*.*.$.$.$.` ` ) ) ) ) W W E h f u % $ o     : K z s H J ~ *X0X0X0X0X0X0X0X0X0X0XwX0X0X0X0X0X0X0X0X0X0XwXwXwX0X0X0X0X0X0XwXwXwXwXwXwXwXwXwXwXwXwXwXwXwXwXwX0X6X6X6X0X0X0X6X6X6X0X0X0X6X6X0XNXNXNXNXwXwXwX0X6X6X6X6X6X3X3X3X6X4X4X-X*XXX1.%.' g y y % o = I (././.'.{.h.m ",
"_.).fXhXxXz.C ; q q z / 0.5XBXCXwX0X0X0X0X0X0X0X0X0X0X0X0X0X0X0XwXwXwXwX0X0X6X6X=X=X&X&XoXoX.X&X6X0X0X6X6X6X4X3X=X&X&X&X&XoXoX&X=X=X=X=X&X&XoXoXoX.X.X.X3.3.5..XoX&X&X&X&XoXoXoXoXoX.X.X.X.X.X&XwXNX0X;X2.) d $ o     . : S H x N B { 5.3XwXBXBX0X6X=X=X3X6XwX0X3X;X=X4X6X0XwXwXwXwX6X6X3X=X&X&X&X&XoX.X3.2.$.] [ d t % $ o   - < < z c ..} >.XX-X7XqXwXNXNXNXNX0X0X0X0X0X0X0X0X6X6X6X6X6X6X6X6X6X4X4X4X3X3X3X4X3X4X4X4X4X3X3X3X3X3X4X4X4X6X6X0X0X0XwXwXwXwXNXNXNXNXNXwXwXwX0X0X0X6X6X4X4X3X3X;XoX.X.X.X.X.X.X.X.X.X.X.X.X.X.X3.*.$.$.$.$.$.$.$.$.$.$.$.$.$.$.$.$.$.$.$.$.$.$.$.$.$.$.$.$.$.$.$.<.<.<.<.*.*.*.$.$.` ` ` ) ) ) ) E E h y t $ o     : K z a H v ~ *X0X0X0X0X0X0X0X0X0X0X0X0X0X0X0X6X6X6X6X6X6X6X6X6X6X6X6X6X6X6X6X0X0X0X0X0X0X0X0X0X0X0X0X0X0X0X6X3X3X3X3X3X3X3X3X=X=X3X3X3X3X=X3XwXNXNXNXNXwXwX0X6X6X6X3X3X3X3X=X*X*XOXXX3.<.%.' ! d t t $ o = I (././.'.{.h.m ",
"_.).fXhXxXz.C ; q q p / 0.5XBXCXwX0X0X0X0X0X0X0X0X0X0X0X0X0X0X0XwXwXwX0X0X0X6X6X=X=X&X&XoXoXoX&X6X0X0X0X6X6X4X4X=X=X&X&X&XoXoX&X&X=X=X&X&X&X&XoXoX.X.X.X3.3.5..XoX&X&X&X&XoXoXoXoXoX.X.X.X.X.X&XwXNX0X;X2.) d $ o     . : S H s N B { 5.3XwXBXBX0X6X=X=X3X6XwX0X3X;X=X4X6X0XwXwXwX0X6X6X3X=X&X&X&X&XoX.X3.2.$.] [ d t % $ o   - < < z c X.} >.XX-X4XqXwXNXNXNXNX0X0X0X0X0X0X0X0X6X6X6X6X6X6X6X6X6X3X4X4X4X4X4X4X3X3X4X4X4X4X3X3X3X3X4X4X4X6X6X0X0X0XwXwXwXwXNXNXNXwXNXwXwXwX0X0X0X6X6X4X4X3X3X;XoX.XoX.X.XoX.X.X.X.X.X.X.X.X.X.X*.$.$.$.$.$.$.$.$.$.$.$.$.$.$.$.$.$.$.$.$.$.$.$.$.$.$.$.$.$.$.$.<.<.<.<.*.*.*.$.$.` ` ` ) ) ) ) E E h y t $ o     : K z a J v ~ *X0X0X0X0X0X0X0X0X0X0X0X0X0X0X0X6X6X6X6X6X6X6X6X6X6X6X6X6X6X6X6X0X0X0X0X0X0X0X0X0X0X0X0X0X0X0X6X3X3X3X3X3X3X3X3X=X3X3X3X3X3X=X3XwXNXNXNXwXwXwX0X6X6X3X3X3X3X3X=X*X*XOXXX4.1.%.' ! d t t $ o = I (././.'.{.h.m ",
"_.).fXhXxXz.C ; q q p / 0.5XBXCXwX0X0X0X0X0X0X0X0X0X0X0X0X0X0X0XwXwXwX0X0X0X6X6X=X=X&X&X&XoXoX&X6X0X0X0X6X6X6X4X=X=X&X&X&X&X&X&X&X=X=X&X&X&X&XoXoX.X.X.X3.3.5..XoXoXoXoXoXoXoXoXoXoXoX.X.X.X.X&XwXNX0X;X2.) d $ o     . : S H s N B { 5.3XwXBXBX0X6X=X=X3X6XwX0X3X;X=X4X6X0XwXwX0X0X6X3X=X&X&XoX&X&XoX.X3.2.$.] [ d t % $ o   > < < z c ..} >.XX-X4XqXwXNXNXNXNXwX0X0X0X0X0X0X0X6X6X6X6X6X6X6X6X6X3X4X4X4X4X4X4X4X3X4X4X4X4X4X4X3X3X4X4X4X6X6X0X0X0XwXwXwXwXNXNXNXNXNXwXwXwX0X0X0X6X6X4X4X3X3X;XoXoXoXoXoXoX.XoXoXoXoXoXoXoXoX.X*.$.$.$.$.$.$.$.$.$.$.$.$.$.$.$.$.$.$.$.$.$.$.$.$.$.$.$.$.$.$.*.<.<.<.<.*.*.*.$.$.` ` ` ) ) ) ) Q E h y t $ o     : K z a J v ~ *X0X0X0X0X0X0X0X0X0X0X0X0X0X0X0X0X0X0X0X0X0X0X0X0X0X0X0X0X0X0X0X0X0X0X0X0X0X0X0X0X0X0X0X0X0X0X6X3X3X3X3X3X3X3X=X=X=X3X3X3X3X=X3XwXNXNXNXwXwX0X0X6X6X3X3X3X=X=X=X*X&XOXXX4.1.%.' ! d t t $ o = I (././.'.{.h.m ",
"_.).fXhXxXz.C ; q q z / 0.5XBXCXwX0X0X0X0X0X0X0X0X0X0X0X0X0X0X0X0X0X0X0X0X6X6X4X3X=X=X&X&X&X&X=X6X0X0X0X0X6X6X4X3X=X=X&X&X&X&X&X=X=X=X&X&X&X&XoXoX.X.X.X3.3.5.3..XoXoXoXoXoXoXoXoXoXoXoXoXoXoX&XwXNX0X;X2.) d $ o     . : S H x N B { 5.3XwXBXBX0X6X=X=X3X6XwX0X=X;X;X3X6X0X0XwX0X0X6X3X=X&XoXoX&X&XoX.X3.2.$.] ~ d t % $ +   - < < z c ..} >.XX-X4X0XwXNXNXNXNX0X0X0X0X0X0X0X0X6X6X6X6X6X6X6X6X6X4X4X4X4X4X4X4X4X4X4X4X4X4X4X4X3X3X4X4X4X6X6X0X0X0XwXwXwXwXNXNXNXNXNXwXwXwX0X0X0X6X6X4X4X3X3X=XoXoXoXoXoXoXoXoXoXoXoXoXoXoXoX.X*.$.$.$.$.$.$.$.$.$.$.$.$.$.$.$.$.$.$.$.$.$.$.$.$.$.$.$.$.$.$.*.*.<.<.<.*.*.*.$.$.` ` ` ) ) ) ) Q E h y t $ o     : K A a J v ~ *X0X0X0X0X0X0X0X0X0X0X0X0X0X0X0X0X0X0X0X0X0X0X0X0X0X0X0X0X0X0X0X0X0X0X0X0X0X0X0X0X0X0X0X0X0X0X6X3X3X3X3X3X3X=X=X3X3X3X3X3X3X3X6XwXNXwXwXwXwX0X0X6X3X3X3X=X=X=X=X*X*XOXXX4.<.%.] ! d t t $ o = I (././.'.{.h.m ",
"_.).GXhXxXz.C ; q q z / 0.5XBXCXwX0X0X0X0X0X0X0X0X0X0X0X0X0X0X0X0X0X0X0X6X6X6X4X3X=X=X=X&X&X&X=X0XwX0X0X0X0X6X6X3X=X=X=X&X&X&X&X=X=X=X&X&X&X&XoXoX.X.X.X3.3.3.3..X.X.X.X.XoXoXoXoXoXoXoXoXoXoX=XwXNX0X;X2.) d $ o     . : S H x N B { 5.3XwXBXBX0X6X=X=X3X6XwX0X=X&X;X=X4X6X0X0X0X6X6X3X=X&XoXoX&X&XoX.X3.2.$.] ~ d t % $ o   - < < z c ..} >.XX-X4X0XwXNXNXBXNX0X0X0X0X0X0X0X0X6X6X6X6X6X6X6X6X6X4X4X4X4X4X4X4X4X4X4X4X4X4X4X4X3X3X4X4X4X6X6X0X0X0XwXwXwXwXNXNXNXNXNXwXwXwX0X0X0X6X6X4X4X3X3X=X&XoXoXoXoXoXoXoXoXoXoXoXoXoXoX.X*.$.$.$.$.$.$.$.$.$.$.$.$.$.$.$.$.$.$.$.$.$.$.$.$.$.$.$.$.$.$.*.*.<.<.<.*.*.*.$.$.` ` ` ) ) ) ) E E f y t $ o     : K A a J v ~ *X0X0X0X0X0X0X0X0X0X0X0X0X0X0X0X0X0X0X0X0X0X0X0X0X0X0X0X0X0X0X0X0X0X0X0X0X0X0X0X0X0X0X0X0X0X0X6X3X3X3X3X3X3X=X=X3X3X3X3X3X3X3X3XwXwXwXwXwX0X0X6X3X3X3X=X=X=X=X&X*X*XOXXX4.1.%.] ! y t t $ o = I (././.'.{.h.m ",
"_.).fXhXxXz.C ; q q z / 0.5XBXCXwX0X0X0X0X0X0X0X0X0X0X0X0X0X0X0X6X6X6X6X6X6X6X4X3X=X=X=X=X=X=X3X0XwXwXwX0X0X0X6X3X3X=X=X=X=X&X&X=X=X=X&X&X&X&XoXoX.X.X.X3.3.5.3..X.X.X.X.X.XoXoXoXoXoXoX&X&X&X=XwXNX0X;X2.) d $ o     . : S H x N B { 5.3XwXBXBX0X6X=X=X3X6XwX0X;X+X;X;X4X6X0X0X6X6X3X=X&XoXoXoX&X&XoX.X3.2.$.] ~ d t % $ +   - < < z c ..} >.XX-X4X0XwXNXNXNXNX0X0X0X0X0X0X0X0X6X6X6X6X6X6X6X6X6X4X4X4X4X4X3X3X4X4X4X4X4X4X4X3X3X=X4X4X4X6X6X0X0X0XwXwXwXwXNXNXNXNXNXwXwXwX0X0X0X6X6X4X4X3X3X=X&X&X&X&X&X&X&X&X&X&X&X&X&X&X&X.X*.$.$.$.$.$.$.$.$.$.$.$.$.$.$.$.$.$.$.$.$.$.$.$.$.$.$.$.$.$.$.$.<.<.<.<.*.*.*.$.$.` ` ` ) ) ) ) E h h y t $ o o   : K z a J v ~ *X0X0X0X0X0X0X0X0X0X0X0X0X0X0X0X0XwX0X0X0X0X0XwXwX0X0X0X0XwX0X0X0X0X0X0X0X0X0X0X0X0X0X0X0X0X0X6X3X=X=X3X3X3X3X=X3X3X3X3X=X=X3X3X0XwXwX0X0X0X0X6X3X3X=X=X=X&X&X&X&X*XOXXX4.1.%.] ! y t t $ o = I (././.'.{.h.m ",
"_.).fXhXxXz.C ; q q z / 0.5XBXCXwX0X0X0X0X0X0X0X0X0X0X0X0X0X0X0X6X6X6X6X4X4X4X4X3X3X3X3X=X=X=X3XwXwXwXwXwX0X0X0X6X3X3X=X=X=X=X=X=X=X=X&X&X&X&XoXoX.X.X.X3.3.5.5.3.3.3.3..X.X.XoXoXoX&X&X&X&X&X3XwXNX0X;X2.) d $ o     . : S H x N B { 5.3XwXBXBX0X6X=X=X3X6XwX0X;X@X&X;X3X6X6X0X6X6X3X=X&XoX.X.X&X&XoX.X3.<.$.] ~ d t % $ o   - < < z c ..} >.XX-X4X0XwXNXNXNXNX0X0X0X0X0X0X0X0X6X6X6X6X6X6X6X6X6X4X4X4X3X3X3X3X3X4X4X4X4X4X4X4X3X3X4X4X4X6X6X0X0X0XwXwXwXwXNXNXNXNXNXwXwXwX0X0X0X6X6X4X4X3X3X=X&X&X&X&X&X&X&X&X&X&X&X&X&X&X&XoX*.$.$.$.$.$.$.$.$.$.$.$.$.$.$.$.$.$.$.$.$.$.$.$.$.$.$.$.$.$.$.$.<.<.<.<.*.*.*.$.$.` ` ` ) ) ) ) E h h y t $ o o   : K z a H v ~ *X0X0X0X0X0X0X0X0X0X0X0X0X0X0X0XwXwXwXwXwXwXwXwXwXwXwXwXwXwXwXwX0X0X0X0X0X0X0X0X0X0X0X0X0X0X0X6X3X=X=X3X3X3X=X=X3X3X3X=X=X=X3X3X0X0X0X0X0X6X6X6X3X=X=X&X&X&X&X&X&X*XOXXX4.1.%.' ! d t t $ o = I (././.'.{.h.m ",
"_.).fXhXxXz.C ; q q z / 0.5XBXCXwX0X0X0X0X0X0X0X0X0X0X0X0X0X0X6X3X=X=X=X3X3X3X3X4X4X4X4X6X6X6X6XwXNXNXwXwXwX0X0X0X6X6X4X4X4X4X3X=X=X&X&X&X&X&XoXoX.X.X3.<.<.<.*.<.<.<.<.3.3..X.XoX&X&X&X=X=X=X3XwXNX0X;X2.) d $ o     . : S H x N B { 5.3XwXBXBXwX6X4X3X4X0XNX0X&X.X.XoX=X3X3X6X6X6X3X=XoX.X3..XoX&XoX.X3.2.$.] ~ d t % $ +   - < < x c X.} >.XX-X4XqXwXNXNXNXNX0X0X0X0X0X0X0X0X6X6X6X6X6X6X6X6X3X3X3X3X3X3X3X=X=X=X=X=X=X3X3X=X=X=X=X=X3X3X3X6X0X0XwXwXwXwXNXNXNXwXNXwXwXwX0X0X0X6X6X4X4X3X3X=X=X&X&X&X&X&X&X&X&X&X&X&X&X&X&XoX<.$.$.$.$.$.$.$.$.$.$.$.$.$.$.$.$.$.$.$.$.$.$.$.$.$.$.$.$.$.$.$.<.<.<.<.*.=.=.$.$.` ` ` ) ) ) ) Q E f y % $ o +   : K z s H v ~ *X0X0X0X0X0X0X0X0X0X0X0X0X0X0X0XwXwXwXwXwXwXwXwXwXwXwXwXwXwXwXwX0X0X0X0X0X0X0X0X0X0X0X0X0X0X0X6X3X3X3X3X=X=X3X3X=X=X3X3X3X3X3X3X6X6X6X6X6X6X3X3X=X=X&X&X&X&XoX&X&X*XOXXX4.<.%.' ! d t t $ o = I (././.'.{.h.m ",
"_.).fXhXxXz.#.; q q z / 0.5XBXCXwX0X0X0X0X0X0X0X0X0X0X0X0X0X0X6X=X=X=X=X=X=X=X3X4X6X6X6X6X6X6X0XNXNXNXNXNXwXwX0X0X0X6X6X6X4X4X4X=X=X=X&X&X&X&XoXoX.X.X3.<.<.<.*.<.*.<.<.<.3.3..XoX&X&X=X=X3X3X6XNXwX6X;X2.) d $ o     . : S H x N B { 5.3XwXBXBXwX6X4X3X4X0XNX0XoX.X.XoX&X=X3X3X6X4X3X&XoX.X3.3.oX&XoX.X3.2.$.] ~ d t % $ +   - < < x c X.} >.XX-X4XqXwXNXNXNXNX0X0X0X0X0X0X0X0X6X6X6X6X6X6X6X6X3X3X3X3X3X3X=X=X3X3X=X=X3X3X3X=X=X=X=X=X3X3X6X6X0X0XwXwXwXwXNXNXNXwXNXwXwXwX0X0X0X6X6X4X4X3X3X3X=X=X=X=X=X=X=X=X=X=X=X=X=X=X=XoX<.$.$.$.$.$.$.$.$.$.$.$.$.$.$.$.$.$.$.$.$.$.$.$.$.$.$.$.$.$.$.$.*.<.<.<.*.=.=.$.$.` ` ` ) ) ) ) Q E f y % $ o +   : K z s H v ~ *X0X0X0X0X0X0X0X0X0X0X0X0X0X0X0XwXNXNXNXNXNXNXNXNXNXNXNXNXNXNXwX0X0X0X0X0X0X0X0X0X0X0X0X0X0X0X6X3X3X3X3X=X3X3X3X=X=X3X3X3X3X3X3X6X6X6X6X3X3X3X=X=X&X&X&X&XoXoXoX&X*XOXXX4.1.%.' ! d t t $ o = I (././.'.{.h.m ",
"_.).fXhXxXz.#.; q q z / 0.5XBXCXwX0X0X0X0X0X0X0X0X0X0X0X0X0X0X6X=X&X&X&X=X=X=X3X4X6X6X6X0X0X0XwXNXBXNXNXNXNXwXwX0X0X0X6X6X6X6X6X=X=X=X&X&X&XoXoXoX.X.X3.<.<.<.*.*.*.*.*.<.<.3..XoX&X=X=X3X3X3X6XNXNX6X;X2.) d $ o     . : S H x N B { 5.3XwXBXBXwX6X4X3X4X0XNX0XoX3..XoX&X=X=X3X6X3X=X&X.X3.3.3.oX&XoX.X3.2.$.] [ d t % $ +   - < < x c X.} >.XX-X4XqXwXNXNXNXNX0X0X0X0X0X0X0X0X6X6X6X6X6X6X6X3X3X3X3X3X=X=X=X=X3X3X3X3X3X3X3X=X=X=X=X=X3X3X6X6X0X0XwXwXwXwXNXNXNXwXNXwXwXwX0X0X0X6X6X4X4X3X3X3X=X=X=X=X=X=X=X=X=X=X=X=X=X=X=X&X<.$.$.$.$.$.$.$.$.$.$.$.$.$.$.$.$.$.$.$.$.$.$.$.$.$.$.$.$.$.$.$.*.<.<.<.*.*.=.$.$.` ` ` ) ) ) ) Q E f y % $ o o   : K A s H v ~ *X0X0X0X0X0X0X0X0X0X0X0X0X0X0X0XNXNXNXNXNXNXNXNXNXNXNXNXNXNXNXNX0X0X0X0X0X0X0X0X0X0X0X0X0X0X0X6X3X3X3X3X=X=X3X3X=X=X3X3X=X=X=X3X3X6X3X3X3X3X=X=X&X&X&XoXoXoXoXoX&X*XOXXX3.1.%.' ! d t t $ o = I (././.'.{.h.m ",
"_.).fXhXxXz.C ; q q z / 0.5XBXCXwX0X0X0X0X0X0X0X0X0X0X0X0X0X0X6X&X&X&X&X&X=X=X3X4X6X6X0X0X0X0XwXNXBXBXBXNXNXNXwXwX0X0X0X6X6X6X6X=X=X=X&X&X&X&XoXoX.X.X3.<.<.<.*.*.$.$.*.<.<.3..XoX&X=X3X3X6X6X6XNXNX0X;X2.) d $ o     . : S H s N B { 5.3XwXBXBXwX6X4X3X4X0XNX0XoX5..X.X&X&X=X=X4X3X=X&X.X3.<.3.oX&XoX.X3.2.$.] [ d t % $ +   - < < x c ..} >.XX-X4XqXwXNXNXNXNX0X0X0X0X0X0X0X0X6X6X6X6X6X6X6X6X3X3X3X3X3X=X=X=X3X3X3X3X3X3X3X=X=X=X=X=X3X3X6X6X0X0XwXwXwXwXNXNXNXNXNXwXwXwX0X0X0X6X6X4X4X3X3X3X=X3X3X3X3X3X3X3X3X3X3X3X3X3X3X&X<.$.$.$.$.$.$.$.$.$.$.$.$.$.$.$.$.$.$.$.$.$.$.$.$.$.$.$.$.$.$.$.*.<.<.*.*.*.*.$.$.` ` ` ) ) ) ) Q E f y % $ o +   : K A s H v ~ *X0X0X0X0X0X0X0X0X0X0X0X0X0X0X0XNXNXNXNXNXNXNXNXBXBXNXNXNXNXNXNX0X0X0X0X0X0X0X0X0X0X0X0X0X0X0X6X3X3X3X=X=X=X3X3X=X=X3X3X3X=X=X3X3X3X3X3X3X=X=X&X&X&XoXoXoX.X.XoX&X*XOXXX3.<.%.' ! d t t $ o = I (././.'.{.h.m ",
"_.).fXhXxXz.C ; q q z / 0.5XBXCXwX0X0X0X0X0X0X0X0X0X0X0X0X0X0X6X&XoXoX&X&X&X=X=X6X6X0X0X0X0XwXNXBXBXBXBXNXNXNXwXwXwX0X0X0X6X6X6X=X=X=X&X&X&X&XoXoX.X.X3.<.<.<.*.$.$.$.$.*.<.3..XoX&X=X3X3X6X6X0XNXNX0X;X2.) d $ o     . : S H x N B { 5.3XwXBXBXwX6X4X3X4X0XNX0X.X<.3..XoX&X=X=X4X=X&XoX.X3.<.<.oX&XoX.X3.2.$.] [ d t % $ o   - < < z c ..} >.XX-X4X0XwXNXNXNXNX0X0X0X0X0X0X0X0X6X6X6X6X6X6X6X6X3X3X3X3X3X3X3X3X=X3X3X3X3X3X3X=X=X=X=X=X3X3X3X6X0X0XwXwXwXwXNXNXNXNXNXwXwXwX0X0X0X6X6X4X4X3X3X3X3X3X3X3X3X3X3X3X3X3X3X3X3X3X3X&X<.$.$.$.$.$.$.$.$.$.$.$.$.$.$.$.$.$.$.$.$.$.$.$.$.$.$.$.$.$.$.$.<.<.<.<.*.*.*.$.$.` ` ` ) ) ) ) Q E f t % $ o o   : K z a H v ~ *X0X0X0X0X0X0X0X0X0X0X0X0X0X0X0XNXBXBXBXBXBXBXBXBXBXBXBXBXBXBXNX0X0X0X0X0X0X0X0X0X0X0X0X0X0X0X6X3X=X=X3X3X3X3X3X3X3X=X=X3X3X3X3X3X3X3X3X=X=X=X&X&X&XoXoX.X.X.X.X&X*XOXXX4.<.%.' ! d t t $ o = I (././.'.{.h.m ",
"_.).fXhXxXz.C ; q q z / 0.5XBXCXwX0X0X0X0X0X0X0X0X0X0X0X0X0X0X6X&XoXoXoX&X&X=X=X6X6X0X0XwXwXwXNXBXBXBXBXBXBXNXNXwXwX0X0X0X0X0X6X=X=X=X&X&X&X&XoXoX.X.X3.<.<.<.*.$.` $.$.*.<.3..XoX&X=X3X6X6X0X0XNXNX0X;X2.) d $ o     . : S H s N B { 5.3XwXBXBXwX6X4X3X4X0XNX0X.X<.5..XoX&X=X=X3X=X&XoX.X3.<.<.oX&XoX.X3.2.$.] ~ d t % $ o   - < < z c ..} >.XX-X4X0XwXNXNXBXNX0X0X0X0X0X0X0X0X6X6X6X6X6X6X6X6X3X3X3X=X3X3X3X3X=X=X3X3X3X3X3X=X=X=X=X=X3X3X3X6X0X0XwXwXwXwXNXNXNXNXNXwXwXwX0X0X0X6X6X4X4X3X3X3X3X3X3X3X3X3X3X3X3X3X3X3X3X3X3X&X<.$.$.$.$.$.$.$.$.$.$.$.$.$.$.$.$.$.$.$.$.$.$.$.$.$.$.$.$.$.$.$.<.<.<.<.*.*.*.$.$.` ` ` ) ) ) ) Q E f y % $ o o   : K z a H v ~ *X0X0X0X0X0X0X0X0X0X0X0X0X0X0XwXNXBXBXBXBXBXBXBXBXBXBXBXBXBXBXNXwX0X0X0X0X0X0X0X0X0X0X0X0X0X0X6X3X=X3X3X=X=X3X3X3X3X3X=X3X3X3X3X3X3X3X=X=X=X&X&X&XoXoX.X.X.X.X.XOX*XOXXX4.1.%.' ! y t t $ o = I (././.'.{.h.m ",
"_.).fXhXxXz.C ; q q p / 0.5XBXCXwX0X0X0X0X0X0X0X0X0X0X0X0X0X0X6X&X.XoXoX&X&X=X=X6X6X0X0XwXwXwXNXBXCXBXBXBXBXNXNXNXwXwX0X0X0X0X6X=X=X=X&X&X&X&XoXoX.X.X3.<.<.<.*.$.` ` $.*.<.3..XoX&X=X3X6X6X0X0XNXNX0X;X2.) d $ o     . : S H x N B { 5.3XwXBXBXwX6X4X3X6X0XNX0X.X2.5..XoX&X=X=X3X=X&XoX.X<.*.<.oX&XoX.X3.2.$.] ~ d t % $ o   - < < z c ..} >.XX-X4X0XwXNXNXNXNX0X0X0X0X0X0X0X0X6X6X6X6X6X6X6X6X3X=X=X=X3X3X3X3X=X=X3X3X3X3X3X=X=X=X=X=X3X3X3X6X0X0XwXwXwXwXNXNXNXNXNXwXwXwX0X0X0X6X6X4X4X3X3X3X3X3X3X3X3X3X3X3X3X3X3X3X3X3X3X&X<.$.$.$.$.$.$.$.$.$.$.$.$.$.$.$.$.$.$.$.$.$.$.$.$.$.$.$.$.$.$.$.<.<.<.<.*.*.*.$.$.` ` ` ) ) ) ) Q E f y % $ o +   : K z a J v ~ *X0X0X0X0X0X0X0X0X0X0X0X0X0X0XwXNXBXBXBXBXBXBXBXBXBXBXBXBXBXBXNXwX0X0X0X0X0X0X0X0X0X0X0X0X0X0X6X3X3X3X3X3X=X3X3X3X3X=X=X=X3X3X3X3X3X3X=X=X=X&X&XoXoXoX.X.X.X.X.XOX*XOXXX4.1.%.' ! d t t $ o = I (././.'.{.h.m ",
"_.).fXhXxXz.C ; q q z / 0.5XBXCXwX0X0X0X0X0X0X0X0X0X0X0X0X0X0X6X&XoX&X&X&X=X=X3X6X0X0XwXwXNXNXNXCXCXCXCXBXBXNXNXwXwX0X0X0X6X6X4X=X=X=X&X&X&X&XoXoX.X.X.X3.3.<.*.*.$.$.*.<.<.3.oX&X=X3X3X6X0X0XwXNXNX6X;X5.` d % o     . - A S z N B { 5.3XwXBXBXwX6X4X3X4X0XNX0XoX.X.XoX&X&X&X=X=X;X;XoX.X3.<.3.oX&X&XoX.X<.*.' [ d y t $ o + > < < x c ..} >.4.*X4X6X0XwXwXNXwXwX0X0X0X0X0X0X0X6X6X6X6X6X6X6X3X3X3X3X3X3X3X3X=X=X=X=X=X=X=X=X=X&X&X&X&X=X=X3X3X6X0X0XwXwXNXNXNXwXwXwXwX0X0X0X0X6X6X6X4X4X4X4X4X3X3X3X3X3X3X3X3X3X3X3X3X3X3X3X&X<.$.$.$.$.$.$.$.$.$.$.$.` ` ` ` $.$.$.$.$.$.$.$.$.$.$.$.$.$.$.$.$.*.*.$.$.$.$.$.` ` ` ) ) ) ) W Q h y t $ o o o   : K z a J v ~ *X0X0X0X0X0X0X0X0X0X0X0X0X0X0X0XNXBXBXBXBXBXBXBXBXBXBXBXBXBXBXNXwX0X0X0X0X0X0X0X0X0X0X0X0X0X0X0X3X3X3X3X=X=X=X=X=X=X=X&X&X=X=X=X=X3X=X=X=X&X&X&XoXoXoX.X.X.X.X.XoXOXXXXX1.=.%.] ! y t t $ o = I (././.'.{.h.m ",
"_.).fXhXxXz.C ; q q z / 0.5XBXCXwX0X0X0X0X0X0X0X6X6X6X6X6X6X6X6X4X4X4X6X6X6X0X0X0XwXVXVXVXVXAXSXSXSXSXZXZXBXNXwX0X6X6X3X3X=X=X=X&X&X=X&X&X&X&X&X&X&X&X&X&XoXoXoX.X3.3..X.XoX&X=X=X3X6X6X0X0XwXwX0X0X6X&X3.$.R y % o   . - A e w N B { 5.3XwXBXBXwX6X4X3X4X0XNXwX3X=X=X=X=X=X=X&X&X&XoXoX.X.X.X.X&X=X=X&XoX3.<.%.>.g d u t $ $ > < < x c ..} >.4.OX-X4X6X0X0X0X0XwXwXwXwXwX0X0X0X6X6X3X3X3X3X3X3X3X3X3X3X3X3X3X=X=X=X&X&X&X&X&XoX.X3..X.X.XoX&X=X4X6X0XwXNXNXNXNX0X0X0X6X6X6X6X6X6X6X6X6X6X6X6X4X3X3X3X3X3X3X3X3X3X3X3X3X3X3X3X&X<.*.*.*.$.$.$.$.` ` ` ) ) ) ) ) ` ` ` ` ` ` ` ` ` ` ` ` ` ` ` ` ` ) ) ) ) ) ) ) ) ) ) ) ) ) ) W h u i $ $ o       : K z s J  .~ *X0X0X0X0X0X0X0X0X0X0X0X0X0X0X0XNXNXNXNXNXNXNXNXNXNXNXNXNXNXNXNXNXwXwXwXwXwXwXwXwXwXwXwXwXwXwX0X3X3X3X=X=X=X=X&X&X&XoXoXoXoXoXoX=X3X=X=X=X&X&X&XoXoX.X.X.X.X.X3.3.3.<.*.$.` ) W ! y t t $ o = I (././.'.{.h.m ",
"_.).GXhXxXz.C ; q q z / 0.5XBXCXwX0X0X0X0X0X0X0X6X6X6X6X6X6X6X6X6X6X6X0X0X0X0XwXwXVXVXVXBXBXBXCXZXZXZXCXCXBXNXVX0X6X3X3X=X=X=X&X&X&X&X&X&X&X&X&X&X&X&X&X&X&X&X&XoX.X.XoXoX&X&X=X3X3X6X6X0X0X0XwX0X0X6X&X3.$.W d % $ o   - e e w N B { 5.3XwXBXBXwX6X4X3X4X0XNXNX6X3X3X3X3X=X=X&X&X&XoXoXoX.X.XoX=X3X=X&XoX.X<.=.>.g d y t $ $ p < < x c ..} >.1.OX*X3X6X6X8X8X0XwXNXNXwXwXwX0X0X6X3X3X3X3X=X=X=X3X6X6X3X3X3X=X=X=X&X&X&XoXoXoX.X5.2.<.3..X.XoX&X4X6X0XwXNXNXNXNX0X6X6X6X6X6X6X6X6X6X6X6X6X6X6X6X3X=X=X=X=X=X=X=X=X=X=X=X=X=X=X&X3.*.*.*.*.$.$.$.` ` ) ) ) ) ) ) ) ` ` ` ` ` ` ` ` ` ` ` ` ` ` ) ) W W W W W W W W W W W W W W R f i & $ +         - K z a J  .~ *X0X0X0X0X0X0X0X0X0X0X0X0X0X0X0XwXNXNXNXNXNXNXNXNXNXNXNXNXNXNXNXNXNXNXNXNXNXNXNXNXNXNXNXNXNXNXwX6X3X3X=X=X=X&X&X&XoXoXoX.X.X.XoX=X=X=X=X=X&X&X&XoXoX.X.X.X.X3.3.<.<.*.*.$.` ) R ! y t t $ o = d.(././.'.{.h.m ",
"_.).fXhXxXz.C ; q q z / 0.5XBXCXwX0X0X0X0X0X0X0X6X6X6X6X6X6X6X6X6X6X6X0X0X0X0XwXVXVXVXBXBXBXBXBXZXZXCXCXBXBXVXVX0X6X3X3X=X=X&X&X&X&X&X&X&X&X&X&X&X&X&X&X&X&X&X&XoX.X.XoXoX&X&X=X=X3X3X6X6X0X0X0X0X6X3X&X3.$.R y % o o   - e e w N B { 5.3XwXBXBXwX6X4X3X4X0XNXNX6X3X3X3X3X=X=X&X&X&XoXoXoXoX.XoX=X3X=X&XoX.X<.%.>.g d u t $ $ p < < x c ..} >.1.OX*X4X4X6X6X8X0XwXNXNXwXwXwX0X0X6X3X3X3X3X=X=X=X3X6X3X3X3X3X=X=X&X&X&XoXoXoXoX.X<.<.<.3..X.XoX&X3X6X0X0XwXNXNXwX0X6X6X6X6X6X6X6X6X6X6X6X6X6X6X4X=X=X=X=X=X=X=X=X=X=X=X=X=X=X=X&X3.<.*.*.*.*.$.$.` ` ` ) ) ) ) ) ) ` ` ` ` ` ` ` ` ` ` ` ` ` ` ) ) W W W W W W W W W W W W W W R f i & $ +         - K z a J  .[ *X0X0X0X0X0X0X0X0X0X0X0X0X0X0X0XwXwXNXwXNXwXNXwXNXwXNXwXNXwXNXwXNXwXNXwXNXwXNXwXNXwXNXwXNXwXNXwX6X3X3X3X3X3X=X=X&X&X&XoXoXoXoXoX=X=X=X=X&X&X&XoXoXoX.X.X.X3.3.3.<.<.*.*.$.` ) R ! y t t $ o = d.(././.'.{.h.m ",
"_.).fXhXxXz.C ; q q z / 0.5XBXCXwX0X0X0X0X0X0X0X6X6X6X6X6X6X6X6X6X6X6X0X0X0X0XwXVXNXNXVXAXSXSXSXSXSXSXCXBXBXVXVX0X6X3X3X=X=X&X&X&X&X&X&X&X&X&X&X&X&X&X&X&X&X&X&X.X.X.XoXoXoX&X&X=X=X3X3X6X6X6X6X6X6X3X&X3.$.R y % o o   - e e w N B { 5.3XwXBXBXwX6X4X3X4X0XNXwX6X3X3X3X3X=X=X&X&X&XoXoXoX.X.XoX&X=X=X&XoX3.2.%.[ g d u t $ $ > < < x c ..} >.1.OX*X4X4X6X6X8X0XwXNXNXwXwXwX0X0X6X3X3X3X3X=X=X=X3X3X3X3X3X=X=X=X&X&XoXoXoXoX.X.X<.2.<.3..X.XoX&X=X3X6X0X0XwXwX0X6X4X4X4X4X4X4X4X4X4X4X4X4X4X4X4X=X=X=X=X=X=X=X=X=X=X=X=X&X=X=X&X3.<.<.*.*.*.$.$.$.` ` ) ) ) ) ) ) ` ` ` ` ` ` ` ` ` ` ` ` ` ` ) ) W W W W W W W W W W W W W W R f i & $ +         - K z a J  .[ *X0X0X0X0X0X0X0X0X0X0X0X0X0X0X0XwXwXwXwXwXwXwXwXwXwXwXwXwXwXwXwXwXwXwXwXwXwXwXwXwXwXwXwXwXwXwXwX6X6X6X6X6X3X3X3X=X=X&X&X&XoXoX&X=X=X=X=X&X&X&XoXoX.X.X.X3.3.3.3.<.<.*.*.$.` ) R ! y t t $ o = I (././.'.{.h.m ",
"_.).fXhXxXz.C ; q q p / 0.5XBXCXwX0X0X0X0X0X0X0X6X6X6X6X6X6X6X6X6X6X6X0X0X0X0XwXVXNXNXAXDXDXDXDXDXDXDXSXCXBXNXVX0X6X3X3X=X=X&X&X&X&X&X&X&X&X&X&X&X&X&X&X&X&X&X&X.X.X.X.XoXoXoX&X&X=X=X=X3X3X3X3X3X3X=XoX<.` R y % o o   - A A w N B { 5.3XwXBXBXwX6X4X3X4X0XNXNX6X3X3X3X3X=X=X&X&X&XoXoX.X.X.XoX&X=X&X&X.X3.2.$.[ g y t % $ o > < < x c ..} >.1.OX*X4X4X6X6X8X0XwXNXNXwXwXwX0X0X6X3X3X3X3X=X=X=X3X3X3X3X=X=X=X&X&X&XoXoX.X.X.X.X<.2.<.5..X.XoX&X&X=X3X6X6X0X0X6X6X4X4X4X4X4X4X4X4X4X4X4X4X4X4X3X&X&X&X&X&X&X&X&X&X&X&X&X&X&X&XoX3.<.<.<.*.*.*.$.$.$.` ` ) ) ) ) ) ` ` ` ` ` ` ` ` ` ` ` ` ` ` ) ) W W W W W W W W W W W W W W R f i & $ +         - K z a J  .[ *X0X0X0X0X0X0X0X0X0X0X0X0X0X0X0XwXwXwXwXwXwXwXwXwXwXwXwXwXwXwXwXwXwXwXwXwXwXwXwXwXwXwXwXwXwXwXwX0X0X0X6X6X6X6X3X3X=X=X=X&X&X&X&X=X=X=X&X&X&XoXoXoX.X.X.X3.5.5.3.<.<.*.*.$.` ) R ! y t t $ o = I (././.'.{.h.m ",
"_.).fXhXxXz.C ; q q p / 0.5XBXCXwX0X0X0X0X0X0X0X6X6X6X6X6X6X6X6X6X6X6X0X0X0XwXwXVXNXNXAXDXFXFXFXFXDXDXSXCXBXNXVX0X6X3X3X=X=X&X&X&X&X&X&X&X&X&X&X&X&X&X&X&X&X&X&X.X.X.X.X.XoXoXoX&X&X&X&X=X=X=X=X=X=X&X.X-.) g t % o o   - A A w N B { 5.3XwXBXBXwX6X3X=X4X0XNXwX6X3X3X3X3X=X=X&X&X&XoXoXoX.X.XoX&X=X&XoX.X3.-.$.[ d y t % $ o > < < x c ..} >.1.OX*X4X4X6X6X8X0XwXNXNXwXwXwX0X0X6X3X3X3X3X=X=X=X3X3X3X=X=X=X&X&X&XoXoX.X.X.X.X3.<.<.5.5..X.XoXoX&X&X=X3X3X6X6X3X4X3X3X3X3X3X3X3X3X3X3X3X3X3X3X=X&XoXoXoXoXoXoXoXoXoXoXoXoXoXoXoX3.<.<.<.<.*.*.*.$.$.$.` ` ` ) ) ` ` ` ` ` ` ` ` ` ` ` ` ` ` ` ) ) W W W W W W W W W W W W W W R f i & $ +         5 K z a J v ~ *X0X0X0X0X0X0X0X0X0X0X0X0X0X0X0X0XwXwXwXwXwXwXwXwXwXwXwXwXwXwXwXwXwXwXwXwXwXwXwXwXwXwXwXwXwXwXwX0XwX0X0X0X6X6X6X3X3X3X=X=X=X=X=X&X&X&X&X&XoXoXoX.X.X.X3.5.5.<.<.<.<.*.*.$.` ) R ! y t t $ o = I (././.'.{.h.m ",
"_.).fXhXxXz.#.; q q z / 0.5XBXCXwX0X0X0X0X0X0X0X6X6X6X6X6X6X6X6X6X6X6X0X0X0X0XwXVXwXNXAXDXFXFXDXFXDXDXSXBXBXVXVX0X6X3X3X=X=X&X&X&X&X&X&X&X&X&X&X&X&X&X&X&X&X&X&X.X.X.X.X.X.X.XoXoXoXoXoXoX&X&X&X&X&XoX3.*.) g t $ o o   - A A A N B { 5.3XwXBXBXwX6X3X=X4X0XNXNX6X3X3X3X3X=X=X&X&X&XoXoXoX.X.XoX&X&X&XoX.X3.*.' [ d t % $ o + : < < x c ..} >.1.OX*X3X4X6X6X6X0XwXNXNXwXwXwX0X0X6X3X3X3X3X=X=X=X=X=X=X=X=X&X&X&XoXoX.X.X.X.X3.3.5.<.5.3..X.X.XoXoX&X&X=X=X3X3X=X4X3X3X3X3X3X3X3X3X3X3X3X3X3X3X;XoXoXoXoX.XoXoXoXoXoXoXoX.XoXoX.X3.3.3.<.<.<.*.*.*.$.$.$.` ` ` ` ` ` ` ` ` ` ` ` ` ` ` ` ` ` ` ) ) W W W W W W W W W W W W W W R f i & $ +         5 K A a J v ~ *X0X0X0X0X0X0X0X0X0X0X0X0X0X0X0X0X0X0X0X0X0X0X0X0X0X0X0X0X0X0X0X0X0X0X0X0X0X0X0X0X0X0X0X0X0X0XwXwXwXwXwX0X0X6X6X6X3X3X3X3X=X=X=X&X&X&X&XoXoXoX.X.X3.3.5.<.<.2.<.<.<.*.*.$.` ) R ! y t t $ o = d.(././.'.{.h.m ",
"_.).fXhXxXz.#.; q q z / 0.5XBXCXwX0X0X0X0X0X0X0X6X6X6X6X6X6X6X6X6X6X6X0X0X0X0XwXAXwXwXAXDXFXFXDXDXDXSXZXBXNXVXAX0X6X3X3X=X=X&X&X&X&X&X&X&X&X&X&X&X&X&X&X&X&X&X&X.X.X.X.X.X.X.X.X.X.X.X.X.X.X.XoXoXoX.X5.$.W d t $ o     - A A A N B { 5.3XwXBXBXwX6X4X3X4X0XNXNX6X3X3X3X3X=X=X&X&X&XoXoXoX.X.XoX&X&XoX.X3.<.$.] [ d t % $ +   > < q x c ..} >.1.+X*X3X4X6X6X8X0XwXNXNXwXwXwX0X0X6X3X3X3X3X=X=X=X=X=X=X=X&X&X&XoXoX.X.X.X.X3.3.5.5.5.5.3..X.X.XoXoXoXoX&X&X&X=X&X=X=X=X=X=X=X=X=X=X=X=X=X=X=X=X;X.X.X.X.X.X.X.X.X.X.X.X.X.X.X.X.X3.3.3.3.<.<.<.*.*.*.$.$.$.` ` ` ` ` ` ` ` ` ` ` ` ` ` ` ` ` ` ) ) W W W W W W W W W W W W W W R f i & $ +         5 K z a J v [ *X0X0X0X0X0X0X0X0X0X0X0X0X0X0X0X0X0X0X0X0X0X0X0X0X0X0X0X0X0X0X0X0X0X0X0X0X0X0X0X0X0X0X0X0X0X0X0XwXwXwXwX0X0X6X6X6X3X3X3X3X=X=X=X&X&X&XoXoXoX.X.X3.5.5.<.<.2.2.2.<.<.*.*.$.` ) R ! y t t $ o = d.(././.'.{.h.m ",
"_.).fXhXxXz.C ; q q z / 0.5XBXCXwX0X0X0X0X0X0X0X0X0X0X0X0X0X0X0X6X6X6X0X0X0X0XwXVXVXVXAXDXDXFXFXFXDXDXSXZXBXNXVX0X6X3X3X=X=X&X&X&X&X&X&X&X&X&X&X&X&X&X&X&X&X&X&X@X@X.X.X3.3.3.<.<.<.<.<.<.<.<.3..X.X3.2.` R y % $ o   X - A A N N B { 5.3XwXBXBXwX6X4X3X6X0XNXNX0X6X6X4X4X3X3X=X&X&XoXoXoX.X.XoXoXoX.X3.<.*.` ) R f t $ o + O O < < x c ..} >.1.XX&X=X3X3X3X3X6XwXNXNXwXwXwX0X0X6X3X3X3X3X=X=X=X=X=X&X&X&X&XoXoX.X.X.X3.3.5.5.5.5.5.5.3.3..X.X.XoXoXoX&X&X&X&X&X&X&X&X&X&X&X&X&X&X&X&X&X&X&X&XoX.X3.3.3.<.<.<.<.<.<.<.<.<.<.<.3..X.X.X.X.X3.5.<.2.2.-.*.*.&.&.&.` ` ` ` ` ` ` ` ` ` ` ` ` ` ` ) ) W W W W W W W W W R R R R R g f i & $ +         - K z a J  .[ *X0X0X0X0X0X0X0X0X0X0X0X0X0X0X0X6X6X6X6X6X6X6X6X6X6X6X6X6X6X6X6X6X6X6X6X6X6X6X6X6X6X6X6X6X6X6X6X0XwX0X0X0X6X6X6X3X3X3X=X=X=X=X&X&XoXoXoXoX.X.X.X<.<.<.*.*.*.*.*.<.<.*.*.$.` ) R ! y t t $ o = d.(././.'.{.h.m ",
"_.).fXhXxXz.C ; q q z / 0.5XBXCXwX0X0X0X0X0X0X0X0X0X0X0X0X0X0X0X6X6X6X0X0X0X0XwXVXNXNXAXDXDXDXDXDXDXDXSXCXBXNXVX0X6X3X3X=X=X&X&X&X&X&X&X&X&X&X&X&X&X&X&X&X&X&X&X@X@X@X5.5.<.<.<.*.*.*.*.*.*.*.*.3.3.<.-.) R y % o o   X - A A p N B { 5.3XwXBXBXwX6X4X3X6X0XNXNX0X6X6X4X4X3X3X=X&X&XoXoXoXoX.X.X.X.X.X3.<.*.` W R f % $ o   O O < < x c ..} >.1.XX&X=X3X3X3X3X6XwXNXwXwXwXwX0X0X6X3X3X3X3X=X=X=X&X&X&X&X&XoXoXoX.X.X3.5.5.<.<.<.5.3.3.3..X.X.X.X.X.XoXoXoXoXoXoX&X&X&X&X&X&X&X&X&X&X&X&X&X&X&XoX3.<.<.<.*.*.*.*.<.<.<.<.<.<.<.<..XoX.X.X.X.X3.5.<.2.2.-.-.*.*.$.` ` ` ` ` ` ` ` ` ` ` ` ` ` ` ) ) W W W W W W W W W W W R R R g f i & $ +         - K z a J  .[ *X0X0X0X0X0X0X0X0X0X0X0X0X0X0X0X6X3X3X3X3X3X3X3X3X3X3X3X3X3X3X3X3X3X3X3X3X3X3X3X3X3X3X3X3X3X3X6X6X0X0X6X6X6X3X3X3X=X=X=X&X&X&X&XoXoXoX.X.X.X.X3.<.<.*.*.*.$.$.$.<.<.*.*.$.` ) R ! y t t $ o = d.(././.'.{.h.m ",
"_.).fXhXxXz.C ; q q z / 0.5XBXCXwX0X0X0X0X0X0X0X0X0X0X0X0X0X0X0X6X6X6X0X0X0XwXwXwXwXwXBXAXDXSXSXDXDXSXZXBXBXVXVX0X6X3X3X=X=X&X&X&X&X&X&X&X&X&X&X&X&X&X&X&X&X&X&X@X@X5.5.<.<.*.*.*.$.$.$.$.$.` $.<.<.2.&.) g t $ o o     : A S N N B { 5.3XwXBXBXwX6X4X3X4X0XNXNX0X6X6X4X4X3X3X=X&X&XoXoXoXoX.X.X.X.X3.<.<.$.` W R d % $ o   X X < < x c ..} >.1.XX&X=X3X3X3X3X6XwXNXNXwXwXwX0X0X6X3X3X3X3X=X=X=X&X&X&XoXoXoXoX.X.X3.5.<.<.2.2.<.3..X.X.X.X.X.X.X.X.X.X.X.X.X.X.XoXoXoXoXoXoXoXoXoXoXoXoXoXoXoX.X<.-.-.*.*.$.$.$.*.*.*.*.*.*.*.<..XoXoXoX.X.X.X3.5.<.2.2.2.-.-.$.` ` ` ` ` ` ` ` ` ` ` ` ` ` ` ) ) W W W W W W W W W W W W W R g f i & $ +         - K z a J  .[ *X0X0X0X0X0X0X0X0X0X0X0X0X0X0X0X3X3X3X3X3X3X3X3X3X3X3X3X3X3X3X3X3X3X3X3X3X3X3X3X3X3X3X3X3X3X3X3X6X6X3X3X3X3X=X=X&X&X&XoXoXoXoXoX.X.X.X.X.X3.3.5.<.*.*.$.$.$.$.$.*.<.*.*.$.` ) R ! y t t $ o = I (././.'.{.h.m ",
"_.).fXhXxXz.C ; q q z / 0.5XBXCXwX0X0X0X0X0X0X0X0X0X0X0X0X0X0X0X6X6X6X0X0X0XwXwXVXwXwXNXAXAXAXZXSXSXZXCXBXBXVXVX0X6X6X3X=X=X&X&X&X&X&X&X&X&X&X&X&X&X&X&X&X&X&XoX@X5.5.5.<.*.*.$.$.$.` ` ) ) ) ` *.-.-.] ! j t $ o       : S S p N B { 5.3XwXBXBXwX6X4X3X4X0XwXwX0X6X6X4X4X3X3X=X&X&XoXoXoXoX.XoX.X.X3.<.*.$.) W ! u % o o   X X < < x c ..} >.1.XX&X=X3X3X3X3X6XwXNXNXwXwXwX0X0X6X3X3X3X3X=X=X=X&X&XoXoXoX.X.X.X3.5.<.<.2.2.2.<.3..X.X.X.X.X.X.X.X.X.X.X.X3..X.XoXoXoXoXoXoXoXoXoXoXoXoXoXoXoX.X2.*.*.$.$.$.$.` $.$.$.$.$.$.$.*..XoXoXoXoX.X.X.X3.5.<.2.2.2.-.*.` ` ` ` ` ` ` ` ` ` ` ` ` ` ` ) ) W W W W W W W W W W W W W W g f i & $ +         5 K z a J  .[ *X0X0X0X0X0X0X0X0X0X0X0X0X0X0X6X3X3X3X3X3X3X3X3X3X3X3X3X3X3X3X3X3X3X3X3X3X3X3X3X3X3X3X3X3X3X3X3X3X=X=X=X=X&X&X&XoXoXoX.X.X.X.X.X.X.X.X.X3.3.5.<.*.*.$.$.$.$.$.$.*.<.*.*.$.` ) R ! y t t $ o = I (././.'.{.h.m ",
"_.).fXhXxXz.C ; q q p / 0.5XBXCXwX0X0X0X0X0X0X0X0X0X0X0X0X0X0X0X6X6X6X0X0X0X0XwXAXVXNXBXAXAXAXCXZXZXCXBXBXNXNXwX0X6X3X3X=X=X&X&X&X&X&X&X&X&X&X&X&X&X&X&X&X&X&XoX@X5.3.<.2.*.$.$.` ` ) ) ) W W ) $.*.&.] ! j & $ o       : S S p N B { 5.3XwXBXBXwX6X3X=X4X0XwXNX0X6X6X4X4X3X3X=X&X&XoXoXoX.X.X.X.X3.3.<.*.$.) R h i % o     X X 2 < x c ..} >.1.XX&X=X3X3X3X3X6XwXNXNXwXwXwX0X0X6X3X3X3X3X=X=X&X&XoXoXoX.X.X.X.X3.3.<.2.2.-.-.2.5..X.X.X.X.X3.3.3.3.5.5.5.5.5.3..XoX.XoXoXoXoXoXoXoXoXoXoXoXoX.X-.&.$.$.` ` ` ` $.$.$.$.$.$.$.*..X&X&XoXoXoX.X.X3.3.3.<.2.2.2.-.` ` ` ` ` ` ` ` ` ` ` ` ` ` ` ) ) W W W W W W W W W W W W W W g f i & $ +         5 K A a J  .[ *X0X0X0X0X0X0X0X0X0X0X0X0X0X0X6X3X=X3X=X3X=X3X=X3X=X3X=X3X=X3X=X3X=X3X=X3X=X3X=X3X=X3X=X3X=X3X=X=X&X&X&X&XoXoX.X.X.X3.5.5.<.<.<.3..X.X.X3.5.<.2.*.*.$.$.$.` ` $.*.<.*.*.$.` ) R ! y t t $ o = d.(././.'.{.h.m ",
"_.).GXhXxXz.C ; q q p / 0.5XBXCXwX0X0X0X0X0X0X0X0X0X0X0X0X0X0X0X6X6X6X0X0X0X0XwXAXVXNXVXAXAXAXCXCXCXCXCXBXBXNXwX0X6X3X3X=X=X&X&X&X&X&X&X&X&X&X&X&X&X&X&X&X&X&XoX@X5.5.<.2.*.$.` ` ) ) W ! ! ! W ` &.] ] ! i & o         : S S p N B { 5.3XwXBXBXwX6X3X3X4X0XNXNX0X6X6X4X4X3X3X=X&X&XoXoXoX.X.X.X.X3.3.<.*.` ) R j i $ o     X X 2 q x c ..} >.1.XX&X=X3X3X3X3X6XwXwXNXwXwXwX0X0X6X3X3X3X3X=X=X&X&XoXoXoX.X.X.X3.3.<.2.2.-.-.-.2.5..X.X.X.X.X3.3.5.5.5.<.<.<.<.5..X.X.X.X.XoX.X.X.X.XoX.X.X.X.X3.*.&.&.` ` ` ` ) ` ` ` ` ` ` ` *..X&X&X&XoXoX.X.X.X3.3.3.<.2.2.-.` ` ` ` ` ` ` ` ` ` ` ` ` ` ` ) ) W W W W W W W W W R W W W W g f i & $ +         5 K A a J  .[ *X0X0X0X0X0X0X0X0X0X0X0X0X0X0X6X3X=X=X=X=X=X=X=X=X=X=X=X=X=X=X=X=X=X=X=X=X=X=X=X=X=X=X=X=X=X=X=X&XoXoX.X.X.X.X3.5.<.2.2.-.-.*.-.3..X.X3.5.5.<.2.*.$.$.$.` ` ` $.*.<.*.*.$.` ) R ! y t t $ o = d.(././.'.{.h.m ",
"_.).fXhXxXz.C ; q q z / 0.5XBXCXwX0X0X0X0X0X0X0X0X0X0X0X0X0X0X0X6X6X6X0X0X0X0XwXAXVXNXBXAXAXAXCXCXZXZXCXCXBXNXwX0X6X3X3X=X=X&X&X&X&X&X&X&X&X&X&X&X&X&X&X&X&X&XoX@X5.5.<.-.*.$.` ) ) W ! ! ! R ! ` &.] ] ! i % o o     + : S S p N B { 5.3XwXBXBXwX6X4X3X4X0XNXNX0X6X6X4X4X3X3X=X&XoXoXoXoX.X.X.X3.3.<.<.$.` ) R j i $ o     X X 2 q x c ..} >.1.XX&X=X3X3X3X3X6XwXNXNXwXwXwX0X0X6X3X3X3X3X=X=X&XoXoXoX.X.X.X3.3.3.<.2.2.-.-.*.2.3..X.X.X.X.X3.3.5.<.<.2.<.<.2.<..X.X.X.X.X.X.X.X.X.X.X.X.X.X.X3.*.] ` ` ` ) ) ) ` ` ` ` ` ` ` $..X&X&X&XoXoXoX.X.X.X3.3.<.<.2.-.` ` ` ` ` ` ` ` ` ` ` ` ` ` ` ) ) W W W W W W W W W R W R R W g f i & $ +         - K z a J  .[ *X0X0X0X0X0X0X0X0X0X0X0X0X0X0X6X3X=X=X=X=X=X=X=X=X=X=X=X=X=X=X=X=X=X=X=X=X=X=X=X=X=X=X=X=X=X=X&XoX.X.X.X3.3.3.<.2.-.-.-.&.&.&.*.5..X3.3.5.<.2.2.*.$.$.$.` ` ` $.*.<.*.*.$.` ) R ! y t t $ o = d.(././.'.{.h.m ",
"_.).fXhXxXz.C ; q q z / 0.5XBXCXwX0X0X0X0X0X0X0X0X0X0X0X0X0X0X0X6X6X6X0X0X0X0XwXVXwXwXNXVXAXCXNXBXBXVXVXVXwX0X6X6X3X3X=X=X&X&X&X&X&X&X&X&X&X&X&X&X&X&X&X&X&X&XoX@X5.2.2.*.$.` ` ) ) W ! ! R R ! ` $.] ) R i & o o     + : S S p N B { 5.3XwXBXBXwX6X4X3X4X0XNXNX0X6X6X4X4X3X3X=X&XoXoXoXoX.X.X.X.X3.<.<.$.` ) R j i $ o     X X 2 < x c ..} >.1.XX&X=X3X3X3X3X6XwXwXwXwXwX0X0X0X6X6X3X3X3X3X3X=X&XoXoXoXoXoXoXoX.X.X3.3.<.2.-.2.3..X.X.X.X.X3.3.3.5.<.<.<.<.2.<..X.X.X.X.X.X.X.X.X.X.X.X.X.X.X3.-.$.$.` ` ` ` ) ` ` ` ` ` ) ) *.oX=X=X=X&X&X&XoXoX.X.X3.3.3.<.2.$.$.$.$.$.$.` ` ` ` ` ` ` ` ` ) ) ) ) ) ) W ) W W W W W W W W R f u t $ o         : K z a v  .[ *X0X0X0X0X0X0X0X0X0X0X0X0X0X0X6X=X=X=X=X=X=X=X=X=X=X=X=X=X=X=X=X=X=X=X=X=X=X=X=X=X=X=X&X&X&X&XoX.X3..X3.3.3.<.2.2.-.*.$.$.&.$.$.<.3.3.3.<.2.2.-.$.$.` ` ` ` ) ` *.*.*.$.` ) W R ! t % & $ o = I (././.'.{.h.m ",
"_.).fXhXxXz.C ; q q z / 0.5XBXCXwX0X0X0X0X0X0X0X0X0X0X0X0X0X0X0X6X6X6X6X0X0X0X0XwXwXwXNXNXNXNXwX3X=X=X=X=X=X&X&X&X&X&X&X&XoXoXoXoXoXoXoXoXoXoXoXoXoXoXoXoXoXoX.X*.$.$.$.$.` ` ) ) ) W W R R R W $.=.%.' Q f t $ o     + : A S N N B { 5.3XwXBXBXwX6X4X3X4X0XNXNX6X3X3X3X3X=X=X&X&X&XoXoXoXoX.X.X.X.X3.<.*.$.) R j u % o o   X X 2 < x c ..} >.1.XX&X=X3X3X3X3X6X0X0X0X0X0X0X0X0X0X0X0X6X6X6X6X6X=X=X=X3X3X3X6X6X6X4X=X&X.X3.<.<.3..X.X.X.X.X.X3.3.3.3.3.3.5.5.5..X.X.X.X.X.X.X.X.X.X.X.X.X.X.X3.<.<.<.<.*.=.=.%.$.` ` ` ) ) ) *.=X6X6X3X3X3X=X&X&XoXoX.X.X.X3.3.3.3.3.<.<.2.2.2.$.$.$.$.$.` ` ` ) ) ) ) ) ) ) ) ) ) ) ) ) ) ) W E f t $ o o   .   p K c a  . .[ *X0X0X0X0X0X0X0X0X0X0X0X0X0X0X6X=X&X&X&X=X=X=X=X=X=X&X&X&X&X=X&X&X&X=X=X3X3X3X3X3X3X=X&XoX.X3.3..XXXXXXX3.3.<.<.*.*.$.$.$.` ` $.*.<.<.*.*.*.$.$.$.` ` ) ) ) ) ) $.*.$.$.` ) R g j t $ * o   @ I (././.'.{.h.m ",
"_.).fXhXxXz.#.; q q z / 0.5XBXCXwX0X0X0X0X0X0X0X0X0X0X0X0X0X0X0X6X6X6X6X0X0X0X0X0XwXwXwXwXwXwX0X=XoXoXoXoXoXoXoXoXoXoXoXoXoXoX.X.X.X.X.X.X.X.X.X.X.X.X.X.X.X.X3.*.$.$.$.` ` ` ) ) W W W R R R ) %.=.=.' Q h t $ o     . : A S N N B { 5.3XwXBXBXwX6X4X3X4X0XNXNX6X3X3X3X3X=X=X&X&X&XoXoXoXoX.X.X.X.X3.<.*.$.) W ! u % o o   X X < < x c ..} >.1.XX&X=X3X3X3X3X6X0X0X0X0X0X0X0X0X0X0X0X0X0X0X0X6X3X=X3X6X6X0X0X0XwX0X6X=XoX.X3.<.3..X.X.X.X.X3.3.3.3..X.X.X.X3.3..X.X3.3.3.3..X.X.X.X3.3..X.X.X3.3.4.1.1.1.1.=.=.$.` ` ` ) ) ) *.=X0X0X6X6X3X3X=X&X&XoXoX.X.X.X.X.X.X.X.X3.3.3.<.*.*.$.$.$.$.` ` ` ` ` ` ` ` ` ` ` ` ` ` ` ` ` ) E f t % $ o o     p K c k  .X.[ *X0X0X0X0X0X0X0X0X0X0X0X0X0X0X6X=X&X&X&X&X&X&X&X&X&X&X&X&X&X&X&X&X&X=X=X3X6X6X6X6X3X=X&X.X5.2.<.3.XXXXXX4.4.4.1.*.*.$.$.$.$.` $.=.*.*.*.*.$.$.$.` ` ) ) ) ) ) ) $.$.$.` ) W R g j % $ * o   @ I (././.'.{.h.m ",
"_.).fXhXxXz.#.; q q z / 0.5XBXCXwX0X0X0X0X0X0X0X0X0X0X0X0X0X0X0X6X6X6X6X0X0X0X0X0X0X0XwXwXwXwX0X&XoXoXoXoXoXoXoXoXoXoXoXoXoXoX.X.X.X.X.X.XoX.X.X.X.X.X.X.XoX.X.X*.$.$.$.$.` ` ) ) ) W W W R R ) %.=.%.' Q f t $ o     . : A S N N B { 5.3XwXBXBXwX6X4X3X4X0XNXNX6X3X3X3X3X=X=X&X&X&XoXoXoXoX.X.X.X.X3.<.*.$.) W ! u % o o   X X < < x c ..} >.1.XX&X=X3X3X3X3X6X0X0X0X0X0X0X0X0X0X0X0X0X0X0X0X6X3X=X3X6X6X0X0X0XwX0X6X=XoX.X3.<.3..X.X.X.X.X.X.X.X.X.X.X.X.X3.3..X.X.X.X3..X.X.X.X.X3.3..X.X.X3.3.4.1.1.1.1.=.=.$.` ` ` ) ) ) *.=X6X6X6X3X3X3X=X&X&XoXoX.X.X.X.X.X.X.X.X3.3.3.<.*.*.$.$.$.$.` ` ` ` ` ` ` ` ` ` ` ` ` ` ` ` ` W E f u % $ o o     p K c k  . .[ *X0X0X0X0X0X0X0X0X0X0X0X0X0X0X6X=X&X&X&X&X&X&X&X&X&X&X&X&X&X&X&X&X&X=X=X3X6X6X6X3X3X=XoX.X5.2.<.3.XXXXXX4.4.4.1.*.*.$.$.$.$.` $.*.<.*.*.*.*.$.$.` ` ` ) ) ) ) ) $.$.$.` ) W R g j % $ * o   @ I (././.'.{.h.m ",
"_.).fXhXxXz.C ; q q z / 0.5XBXCXwX0X0X0X0X0X0X0X0X0X0X0X0X0X0X0X0X6X6X6X0X0X0X0X0X0X0X0X0X0X0X6X&XoXoXoXoXoXoXoXoXoXoXoXoXoXoXoXoXoXoXoXoXoX.X.XoXoXoXoXoXoX.X.X*.$.$.$.$.` ` ` ) ) ) W W R R ) %.=.%.' Q f t $ o     . : A S N N B { 5.3XwXBXBXwX6X4X3X4X0XNXwX6X3X3X3X3X=X=X&X&X&XoXoXoX.X.X.X.X.X3.<.*.$.) W ! u % o o   X X < < x c ..} >.1.XX&X=X3X3X3X3X6X0X0X0X0X0X0X0X0X0X0X0X0X0X0X0X6X3X=X3X6X6X0X0X0XwX0X6X=XoX.X3.<.3..X.X.X.X.X.X.X.X.X.X.X.X.X.X.X.X.X.X.X.X.X.X.X.X3.3.3..X3..X3.3.4.1.1.1.1.=.=.$.` ` ` ) ) ) *.&X6X6X3X3X3X=X=X&X&XoXoX.X.X.X.X.X.X.X.X3.3.5.<.*.*.$.$.$.$.` ` ` ` ` ` ` ` ` ` ` ` ` ` ` ` ` W E f u % $ o o     p K c k  . .[ *X0X0X0X0X0X0X0X0X0X0X0X0X0X0X6X=X&X&X&X&X&X&X&X&X&X&X&X&X&X&X&X&X&X=X=X3X6X6X6X3X3X=XoX.X5.2.<.3.XXXXXX4.4.4.1.*.*.$.$.$.$.` $.*.<.<.*.*.*.$.$.$.` ` ) ) ) ) ) $.$.$.` ) W R g j % $ * o   @ I (././.'.{.h.m ",
"_.).fXhXxXz.C ; q q z / 0.5XBXCXwX0X0X0X0X0X0X0X0X0X0X0X0X0X0X0X0X0X0X0X0X0X0X0X0X0X0X0X0X0X0X6X&XoXoXoXoXoXoXoXoXoXoXoXoXoXoXoXoXoXoXoXoXoXoXoXoXoXoXoXoXoXoX.X<.*.*.$.$.$.` ` ) ) ) W W W W ) %.=.=.' Q f t $ o     . : A S N N B { 5.3XwXBXBXwX6X4X3X4X0XwXwX6X3X3X3X3X=X=X&X&X&XoXoX.X.X.X.X.X3.3.<.*.$.) W g i % o o   + X < < x c ..} >.1.XX&X=X3X3X3X3X6X0X0X0X0X0X0X0X0X0X0X0X0X0X0X0X6X3X=X3X3X6X0X0XwXwX0X6X=XoX.X3.<.3..X.X.X.X.X.X.X.X.X.X.X.X.X.X.X3.3.3..X.X.X.X3..X.X3.3.3.3..X3.3.4.<.<.1.<.*.=.$.` ` ` ) ) ) $.&X3X3X3X3X=X=X&X&XoXoXoX.X.X.X.X.X.X.X.X3.5.5.<.*.*.*.$.$.$.` ` ` ` ` ` ` ` ` ` ` ` ` ` ` ` ` W E f u % $ o o     p K c k  .X.[ *X0X0X0X0X0X0X0X0X0X0X0X0X0X0X6X=X&X&X&X&X&X&X&X&X&X&X&X&X&X&X&X&X&X=X=X3X6X6X6X6X3X=XoX.X3.2.<.3.XXXXXX4.4.4.1.*.*.*.$.$.$.` $.*.<.<.<.*.*.*.$.$.$.` ` ) ) ) ` $.$.$.` ) W R g j % $ * o   @ I (././.'.{.h.m ",
"_.).fXhXxXz.C ; q q z / 0.5XBXCXwX0X0X0X0X0X0X0X0X0X0X0X0X0X0X0X0X6X0X0X0X0X6X6X6X6X6X6X6X6X6X4X&XoXoXoXoXoXoXoXoXoXoXoXoXoXoXoXoXoXoXoXoXoXoXoXoXoXoXoXoXoXoX.X<.*.*.*.$.$.$.` ` ) ) ) ) W W ) =.=.=.' Q f t $ o     . : A S N N B { 5.3XwXBXBXwX6X3X3X4X0XNXwX6X3X3X3X3X=X=X&X&X&XoXoXoX.X.X.X.X.X3.<.*.$.) W h u % o o   + X < < x c ..} >.1.XX&X=X3X3X3X3X6X0X0X0X0X0X0X0X0X0X0X0X0X0X0X0X6X3X=X3X3X6X0XwXwXwX0X6X=XoX.X3.<.3.3..X.X.X.X3.3..X.X.X.X.X.X.X.X3.3..X.X.X.X.X3..X.X3.3.3.3..X3.3.4.<.1.<.<.=.=.$.` ` ` ) ) ) $.oX=X=X=X=X=X&X&X&XoXoXoXoX.X.X.X.X.X.X.X3.5.5.<.*.*.*.$.$.$.` ` ` ` ` ` ` ` ` ` ` ` ` ` ` ` ` W E f t % $ o o     p K c k  .X.[ *X0X0X0X0X0X0X0X0X0X0X0X0X0X0X6X=X&X&X&X&X&X&X&X&X&X&X&X&X&X&X&X&X&X=X=X3X6X6X6X6X3X=XoX.X3.2.<.3.XXXXXX4.4.4.1.*.*.*.$.$.$.` $.<.<.<.<.<.*.*.*.$.$.$.` ` ` ) ` $.$.$.` ) W R g j % $ * o   @ I (././.'.{.h.m ",
"_.).fXhXxXz.C ; q q p / 0.5XBXCXwX0X0X0X0X0X0X0X0X0X0X0X0X0X0X0X0X0X0X0X0X6X6X6X6X6X4X4X4X4X3X=X&XoXoXoXoXoXoXoXoXoXoXoXoXoXoXoXoX&X&X&X&X&X&X&X&X&X&X&X&X&X&XoX<.*.*.*.*.$.$.$.` ` ) ) ) ) ) ) =.=.=.' Q f t $ o     . : A S N N B { 5.3XwXBXBXwX6X4X3X6X0XNXNX6X3X3X3X3X=X=X&X&X&XoXoXoX.X.X.X.X.X3.<.*.$.) W j i % o o   + X < < x c ..} >.1.XX&X=X3X3X3X3X3X6X0X0X0X0X0X0X0X0X0X0X0X0X0X0X6X3X=X3X6X6X0XwXwXwX0X6X=X&X.X3.<.3..X.X.X.X3.3.3..X.X.X.X3.3..X3.3.3..X.X.X.X3.3..X.X.X.X.X.X.X3.3.4.1.1.1.=.=.=.$.` ` ` ) ) ) $..X&X&X&X&X&X&X&XoXoXoXoXoXoXoX.X.X.X.X.X3.5.5.<.*.*.$.$.$.$.` ` ` ` ` ` ` ` ` ` ` ` ` ` ` ` ` W E f u % $ o o     p K c k  . .[ *X0X0X0X0X0X0X0X0X0X0X0X0X0X0X6X=X&X&X&X&X&X&X&X&X&X&X&X&X&X&X&X&X&X&X=X3X3X6X6X6X3X=X&X.X3.2.<.3.XXXXXX4.4.4.1.*.*.$.$.$.` ` $.<.3.3.<.<.<.*.*.*.$.$.$.` ` ` ` $.$.$.` ` W R g j % $ * o   @ I (././.'.{.h.m ",
"_.).fXhXxXz.C ; q q p / 0.5XBXCXwX0X0X0X0X0X0X0X0X0X0X0X0X0X0X0X0X0X0X0X0X6X6X6X4X4X3X3X=X;X;X;XoXoXoXoXoXoXoXoXoXoXoXoXoXoXoXoX&X&X&X&X&X&X&X&X&X&X&X&X&X&X&XoX3.<.<.*.*.*.$.$.$.` ` ) ) ) ) ` %.=.=.' Q f t $ o     . : A S N N B { 5.3XwXBXBXwX6X4X3X4X0XNXNX6X3X3X3X3X=X=X&X&X&XoXoXoX.X.X.X.X.X3.<.*.$.) W j i % o o   + X < < x c ..} >.1.XX&X=X3X3X3X3X3X6X0X0X0X0X0X0X0X0X0X0X0X0X0X0X6X3X=X3X6X6X0XwXwXwX0X6X=X&X.X3.<.3.3..X.X.X3.3.3..X.X.X3.3.3.3.3.3..X.X.X.X.X3.3..X.X.X.X.X.X.X3.3.4.1.1.1.=.=.=.$.` ` ` ) ) ) $..XoXoXoXoXoXoXoXoXoXoXoXoXoXoXoX.X.X.X.X3.5.5.<.*.*.$.$.$.` ` ` ` ` ` ` ` ` ` ` ` ` ` ` ` ` ` W E f u % $ o o     p K c k  .X.[ *X0X0X0X0X0X0X0X0X0X0X0X0X0X0X6X=X&X&X&X&X&X&X&X&X&X&X&X&X&X&X&X&X&X&X=X3X3X6X6X6X3X=X&X.X5.2.<.3.XXXXXX4.4.4.1.*.*.$.$.$.` ` $.<.3.3.3.<.<.<.*.*.*.$.$.$.` ` $.$.$.$.` ` W R g j % $ * o   @ I (././.'.{.h.m ",
"_.).fXhXxXz.C ; q q z / 0.5XBXCXwX0X0X0X0X0X0X0X0X0X0X0X0X0X0X0X0X0X0X0X0X6X6X4X=X=X&X&X&XoXoXoXoXoXoXoXoXoXoXoXoXoXoXoXoXoXoXoX&X&X&X&X&X&X&X&X&X&X&X&X&X&X&X&XXX4.4.1.1.1.1.=.$.$.` ` ` ) ) ` %.=.=.' Q f t $ o     . : A S N N B { 5.3XwXBXBXwX6X4X3X4X0XNXNX6X3X3X3X3X=X=X&X&X&XoXoXoX.X.X.XoX.X.X5.2.*.] ! ~ t % $ +     # < < x c ..} >.1.OX*X3X6X6X8X8X6X6X6X6X6X6X6X6X6X6X6X6X6X6X6X6X6X4X4X6X6X0XwXwXwX0X6X3X=X&XoX3.3.3..X.X.X3.3..X.X3.3..X.X.X.X.X.X3.3.3.3..X.X.X3.3.3..X.X.X.X3.3.<.<.<.<.*.*.*.$.$.` ` ` ` ) ) ` 3..X.X.X.X.X.XoXoXoXoXoXoXoXoXoX.X.X.X.X3.5.3.<.*.*.$.$.$.$.` ` ` ` ` ` ` ` ` ` ` ` ` ` ` ` ` W h f u t $ o o     p K c k  .X.[ *X0X0X0X0X0X0X0X6X6X6X6X6X6X6X3X=X&X&X&X&X&X&X&X&X&X&X&X&X&X&X&X&X&X=X=X3X3X6X6X6X3X=X&X.X5.2.<.3.XXXXXX4.4.4.1.*.*.$.$.$.$.` $.4.XXXXXXXX4.4.1.1.*.*.$.$.` ` ` $.*.$.` ) W R g j % $ * o   @ I (././.'.{.h.m ",
"_.).GXhXxXz.C ; q q z / 0.5XBXCXwX0X0X0X0X0X0X0X0X0X0X0X0X0X0X0X0XwX0X0X0X6X6X4X=X&X&XoXoX.X.X.XoXoXoXoXoXoXoXoXoXoXoXoXoXoXoXoX&X=X=X=X=X=X=X=X=X=X=X=X=X=X=X&XXX4.4.4.4.1.1.=.$.$.$.` ` ` ` ` %.=.=.' Q f t $ o     . : A S N N B { 5.3XwXBXBXwX6X4X3X4X0XNXNX6X3X3X3X3X=X=X&X&X&XoXoXoXoX.X.XoX.X.X5.2.*.] ! ~ t % $ +     # < q x c ..} >.1.OX*X3X6X6X8X8X6X6X6X6X6X6X6X6X6X6X6X6X6X6X6X6X6X4X4X6X6X0XwXwXwX0X6X3X=X&X.X3.3.3..X.X.X3.3..X.X3.3..X.X.X.X3.3.3.3.3.3..X.X.X.X3.3.3..X.X.X3.3.<.<.<.<.*.*.*.$.$.` ` ` ` ) ) ` <.3.3.3..X.X.X.X.XoXoXoXoXoXoXoX.X.X.X.X3.3.3.<.*.*.$.$.$.$.` ` ` ` ` ` ` ` ` ` ` ` ` ` ` ` ` W h f u t $ o o     p K c k  .X.[ *X0X0X0X0X0X0X0X6X6X6X6X6X6X6X3X=X&X&X&X&X&X&X&X&X&X&X&X&X&X&X&X&X&X=X=X3X3X6X6X6X3X=X&X.X3.2.<.3.XXXXXX4.4.4.1.*.*.$.$.$.$.` $.XXoXXXXXXXXX4.4.1.<.*.*.$.$.` ` $.$.$.` ) W R g j % $ * o   @ I (././.'.{.h.m ",
"_.).fXhXxXz.C ; q q z / 0.5XBXCXwX0X0X0X0X0X0X0X0X0X0X0X0X0X0X0XwXwX0X0X0X6X6X3X&X&XoX.X.X3.3.3..XoXoXoXoXoXoXoXoXoXoXoXoXoXoX&X=X=X=X=X=X=X=X=X=X=X=X=X=X=X=X&XXXXXXX4.4.1.1.1.*.$.$.$.` ` ` $.=.=.=.' Q f t $ o     . : A S N N B { 5.3XwXBXBXwX6X4X3X4X0XNXNX6X3X3X3X3X=X=X&X&X&XoXoXoXoX.X.XoX.X.X5.2.*.] ! ~ t % $ +     # < q x c ..} >.1.OX*X4X4X6X8X8X6X6X6X6X6X6X6X6X6X6X6X6X6X6X6X6X6X4X4X6X6X0XwXwXwX0X6X3X=X&X.X3.3.3..X.X.X3.3..X.X3..X.X.X.X3.3.3..X.X.X.X.X.X.X.X3.3..X.X.X.X.X3.<.<.<.<.*.*.*.$.$.` ` ` ) ) ) ` -.<.5.5.3.3.3..X.X.XoXoXoXoXoXoX.X.X.X.X3.5.5.<.*.*.$.$.$.$.` ` ` ` ` ` ` ` ` ` ` ` ` ` ` ` ` W h u u t $ o o     p K c k  .X.[ *X0X0X0X0X0X0X0X6X6X6X6X6X6X6X3X=X&X&X&X&X&X&X&X&X&X&X&X&X&X&X&X&X&X=X=X3X3X6X6X3X3X=X&X.X3.2.<.3.XXXXXX4.4.4.1.*.*.$.$.$.$.` *.XXOXOXXXXXXXXX4.4.<.<.*.*.$.$.$.*.*.$.` ) W R g j % $ * o   @ I (././.'.{.h.m ",
"_.).fXhXxXz.C ; q q z / 0.5XBXCXwX0X0X0X0X0X0X0X0X0X0X0X0X0X0X0XwXwXwX0X0X6X4X3X&XoX.X.X3.5.<.3..XoXoXoXoXoXoXoXoXoXoXoXoXoXoX&X=X3X3X3X3X3X3X3X3X3X3X3X3X3X3X=XoXXXXXXX4.4.4.1.*.*.$.$.$.` ` $.=.=.=.' Q f t $ o     . : A S N N B { 5.3XwXBXBXwX6X4X3X4X0XNXNX6X3X3X3X3X=X=X&X&X&XoXoXoXoX.X.XoX.X.X5.2.*.] ! ~ t % $ +     # < < x c ..} >.1.OX*X4X4X6X8X8X6X6X6X6X6X6X6X6X6X6X6X6X6X6X6X6X6X4X4X6X6X0XwXwXwX0X6X3X=X&X.X3.3.3..X.X.X3.3..X.X3.3..X.X.X3.3.3..X.X.X.X.X.X.X.X3.3..X.X.X.X.X3.<.<.<.<.*.*.*.$.$.` ` ` ) ) ) ` *.2.2.2.<.5.5.3..X.X.XoXoX&X&XoX.X.X.X.X3.5.5.<.*.*.$.$.$.$.` ` ` ` ` ` ` ` ` ` ` ` ` ` ` ` ` ) h u u t $ o o     p K c k  .X.[ *X0X0X0X0X0X0X0X6X6X6X6X6X6X6X3X=X&X&X&X&X&X&X&X&X&X&X&X&X&X&X&X&X&X=X=X3X6X6X6X3X3X=X&X.X3.2.<.3.XXXXXX4.4.4.1.*.*.$.$.$.$.` *.XXOXOXOXOXXXXXXX4.3.<.*.*.$.$.$.*.*.$.` ` W R g j % $ * o   @ I (././.'.{.h.m ",
"_.).fXhXxXz.C ; q q z / 0.5XBXCXwX0X0X0X0X0X0X0X0X0X0X0X0X0X0X0XwXwXwX0X0X6X4X=X&XoX.X3.<.2.2.<..XoXoXoXoXoXoXoXoXoXoXoXoXoXoX&X=X3X3X3X3X3X3X3X3X3X3X3X3X3X3X=XOXXXXXXXXX4.4.1.*.*.*.$.$.$.$.$.=.=.=.' Q f t $ o     . : A S N N B { 5.3XwXBXBXwX6X4X3X4X0XwXwX6X3X3X3X3X=X=X&X&X&XoXoXoX.X.X.XoX.X.X5.2.$.] ! ~ t % o +     # < < x c ..} >.1.OX*X4X4X6X6X8X6X6X6X6X6X6X6X6X6X6X6X6X6X6X6X6X3X4X4X6X6X0XwXwXwX0X6X3X=X&X.X3.3.3.3..X.X.X.X.X.X.X.X.X.X.X.X.X.X.X.X.X.X.X.X.X.X.X.X.X.X.X.X.X3.<.<.<.<.*.=.*.$.$.` ` ` ) ) ) ) $.*.*.-.2.2.<.3.3..X.XoXoX&X&XoX.X.X.X.X3.5.5.<.*.*.*.$.$.$.` ` ` ` ` ` ` ` ` ` ` ` ` ` ` ` ` ) h u u t $ o o     p K c k  .X.[ *X0X0X0X0X0X0X0X6X6X6X6X6X6X6X3X=X&X&X&X&X&X&X&X&X&X&X&X&X&X&X&X&X&X=X=X3X6X6X6X3X3X=X&X.X5.2.<.3.XXXXXX4.4.4.1.*.*.$.$.$.$.` *.XX*X*XOXOXOXXXXX4.4.<.<.*.*.$.$.*.$.$.` ) W R g j % $ * o   @ I (././.'.{.h.m ",
"_.).fXhXxXz.C ; q q z / 0.5XBXCXwX0X0X0X0X0X0X0X0X0X0X0X0X0X0X0XwXwXwX0X0X6X4X;XoX.X3.5.2.-.-.2..XoXoXoXoXoXoXoXoXoXoXoXoXoXoX&X=X3X3X3X3X3X3X3X3X3X3X3X3X3X3X=XOXXXXXXXXX4.4.4.<.*.*.$.$.$.$.$.=.=.=.' Q f t $ o     . : A S N N B { 5.3XwXBXBXwX6X4X3X4X0XwXwX6X3X3X3X3X=X=X&X&X&XoXoXoX.X.X.XoX.X.X5.2.$.] ! ~ t % $ +     # < < x c ..} >.1.OX*X4X4X6X6X8X6X6X6X6X6X6X6X6X6X6X6X6X6X6X6X6X3X4X4X6X6X0XwXwXwX0X6X3X=X&X.X3.3.3.3..X.X.X3..X.X.X.X.X.X.X.X.X.X.X3..X.X.X.X.X.X.X.X.X.X.X.X.X3.<.<.<.<.*.*.*.$.$.` ` ` ) ) ) ) $.&.&.*.-.2.<.5.3..X.XoXoX&X&X&X.X.X.X.X3.5.5.<.*.*.*.$.$.$.` ` ` ` ` ` ` ` ` ` ` ` ` ` ` ` ` ) h u u t $ o o     p K c k  .X.[ *X0X0X0X0X0X0X0X6X6X6X6X6X6X6X3X=X&X&X&X&X&X&X&X&X&X&X&X&X&X&X&X&X&X=X=X3X6X6X6X3X3X=X&X.X5.2.<.3.XXXXXX4.4.4.1.*.*.$.$.$.$.` *.XX*X*X*XOXOXXXXXXX4.3.<.*.*.*.$.*.$.$.` ) W R g j % $ * o   @ I (././.'.{.h.m ",
"_.).fXhXxXz.#.; q q z / 0.5XBXCXwX0X0X0X0X0X0X0X0X0X0X0X0X0X0X0XwXwXwX0X0X6X3X;XoX.X3.<.2.-.*.2..XoXoXoXoXoXoXoXoXoXoXoXoXoXoX&X=X3X3X3X3X3X3X3X3X3X3X3X3X3X3X=X&XXXXXXXXXXX4.4.<.*.*.*.$.$.$.$.=.=.=.' Q f t $ o     . : A S N N B { 5.3XwXBXBXwX6X4X3X6X0XNXNX6X3X3X3X3X=X=X&X&XoXoXoXoX.X.X.XoX.X.X5.2.$.] ! ~ t % $ +     # < < x c ..} >.1.+X*X3X4X6X6X8X6X6X6X6X6X6X6X6X6X6X6X6X6X6X6X6X3X4X4X6X6X0XwXwXwX0X6X3X=X&X.X3.3.3..X.X.X3.3..X.X.X.X3..X3..X.X.X3.3..X.X.X.X3.3..X.X.X.X.X.X.X3.<.<.<.<.*.=.*.$.$.` ` ` ) ) ) ) &.&.$.&.*.-.2.5.3..X.XoXoX&X&X&X.X.X.X.X3.5.5.<.*.*.$.$.$.` ` ` ` ` ` ` ` ` ` ` ` ` ` ` ` ` ` W h f u t $ o o     p K c k  .X.[ *X0X0X0X0X0X0X0X6X6X6X6X6X6X6X3X=X&X&X&X&X&X&X&X&X&X&X&X&X&X&X&X&X&X=X=X3X6X6X6X3X3X=X&X.X5.2.<.3.XXXXXX4.4.4.1.*.*.$.$.$.` ` *.OX*X*X*XOXOXOXXXXX4.3.<.<.*.*.$.*.$.$.` ) W R g j % $ * o   @ I (././.'.{.h.m ",
"_.).fXhXxXz.#.; q q z / 0.5XBXCXwX6X6X6X6X0X0X0X0X0X0X0XwXwXwXwXwXwXwX0X0X6X3X;XoX.X3.5.2.2.-.2..XoXoXoXoXoXoXoXoX.X.X.X.X.X.XoX3X6X3X3X3X3X3X3X3X3X3X3X3X3X3X=X&XOXOXoXXXXXXX3.<.<.<.*.*.*.*.*.1.=.=.' Q f t $ o     . : A S N N B { 5.3XwXBXBXwX6X4X3X4X0XNXNX6X3X3X3X3X=X=X&X&XoX.X.X.X.X3..X.X.X3.<.-.$.] ! ~ t % $ +     # < q x c ..} >.1.+X*X4X4X6X6X8X6X3X6X6X6X6X6X6X6X6X6X6X6X6X6X6X3X3X=X3X4X6X6X0X0X6X3X=X&XoX.X.X.X.X.X.X.X.X.X.X.X.X.X.X.X.X.X.X.X3.3.3.3.3.3.3.5.3.3.3.3.3.5.3.5.<.*.*.*.=.=.$.$.$.$.` ` ` ` ) ) ` ] $.&.&.*.2.<.3.3..X.XoXoX&XoX.X3.3.3.3.<.<.2.*.*.$.$.$.$.$.` ) ) ) ) ) ) ) ) ) ) ) ) ) ) ) W h u i % $ o       p K c a  . .[ *X0X0X0X0X0X0X0X6X6X6X6X6X6X6X6X3X=X=X=X=X=X=X&X&X&X&X&X&X&XoX&X&X=X=X3X3X6X6X6X3X3X=X&XoX.X.X.XXXXXXXXXXX3.3.<.*.*.*.$.$.$.$.*.oX*X&X&X&XOXoXXXXXXX3.<.<.*.*.*.*.$.$.` ) W R g j % $ * o   @ I (././.'.{.h.m ",
"_.).fXhXxXz.C ; q q z / 0.5XBXCX0X3X4X4X6X6X6X0X0XwXwXNXNXNXNXNX0X0X6X6X6X3X=X&X&XoX.X.X3.5.<.3.oX&X&X&XoXoXoX.X.X.X.X3.3.3.3..X3X6X6X6X6X6X3X3X3X3X3X3X3X=X=X=X=X&X&X&X&XoXoX.X.X3.3.<.<.<.<.<.1.=.=.' Q f t $ o     . : A S N N B { 5.3XwXBXBXwX6X4X3X4X0XNXNX0X6X6X3X=X=X&XoX.X3.3.<.<.*.*.*.<.<.<.*.$.` ) R ! d t $ o + O , < < x c ..} >.1.OX*X4X4X6X8X8X8X6X6X6X6X6X6X6X6X3X3X3X3X3X3X3X=X&XoXoXoX&X&X&X&X&X&XoXoXoX.X.X.XoX&XoX&X&X&X&X&X&X&X&X&X&X&X&XoX.X3.5.5.5.5.3.<.<.<.<.*.*.*.*.*.*.$.$.$.$.$.$.$.$.$.$.$.$.$.$.` ) ) ) ) ` ` $.*.1.3.4.XXXXoXoXXX3.<.<.<.<.1.<.1.*.*.*.$.$.$.*.` W R R R R R R R R R R R R R R R f u t $ o         : K z a v  .[ *X0X0X0X0X0X0X0X0X0X0X0X0X0X0X0X6X6X3X3X3X=X=X&X&X&XoXoX.X.X.XoX3X6X6X6X0X0X0X0X0X0X6X6X4X4X4X=XoXoX.X.X.X.X3.5.<.2.2.-.-.*.*.2.oX=X&X&X&X&XoXoX+X+X.X3.3.<.<.<.*.*.$.` ) W R g j % $ * o   @ I (././.'.{.h.m ",
"_.).fXhXxXz.C ; q q z / 0.5XBXBX6X=X3X3X4X6X6X0X0XwXNXNXBXBXBXBX0X6X6X6X3X3X=X&X&XoXoX.X.X3.3..XoX&X&X&XoXoXoX.X.X.X3.5.<.<.2..X3X6X6X6X6X6X3X3X3X3X3X3X=X=X=X=X=X=X=X&X&X&X&XoX.X.X3.3.3.<.<.<.1.=.=.' Q f t $ o     . : A S N N B { 5.3XwXBXBXwX6X4X3X4X0XNXNX0X6X6X3X=X&XoX.X.X3.<.<.*.*.$.$.*.<.*.*.$.` ) R ! d t % $ o O , < < x c ..} >.1.OX*X4X4X6X8X8X6X6X4X4X4X4X4X4X4X3X3X3X3X3X3X3X=XoX.X.X.X.X.X.X.X.X.X.X.X.X.X.XoX&X&X&X&X&X&X&X&X&X&X&X&X&X&X&XoX.X5.5.5.5.<.<.<.*.*.*.*.*.$.*.$.$.$.$.$.$.$.$.$.$.$.$.$.$.$.$.` ) ) ) ) ) ` $.$.1.1.4.4.XXXXXXXX1.=.=.=.*.*.*.=.*.*.*.*.*.*.*.` W R R R R R R R R R R R R R R g u i & $ +         - K z a J  .[ *X0X0X0X0X0X0X0X0X0X0X0X0X0X0X0X6X6X6X6X3X3X=X&X&XoXoX.X.X3.3..X4X0X0X0X0X0X0X0X0X0X0X0X0X0X0X6X&XoXoX.X.X.X3.3.5.<.2.2.-.-.*.<.oX=X=X=X&X&X&XoX+X+X.X.X3.3.<.<.*.*.$.` ) W R g j % $ * o   @ I (././.'.{.h.m ",
"_.).fXhXxXz.C ; q q p / 0.5XBXBX6X=X3X3X4X6X6X0X0XwXNXNXNXBXBXNX0X6X6X3X3X3X=X&X&XoXoXoX.X.X3..XoX&X&X&XoXoX.X.X.X3.3.5.<.2.2..X=X6X6X6X6X3X3X3X3X3X3X3X=X=X=X=X=X=X=X&X&X&X&XoX.X.X3.3.3.3.<.<.1.=.=.' Q f t $ o     . : A S N N B { 5.3XwXBXBXwX6X4X3X4X0XNXNX0X6X6X3X=X&X&X.X.X3.<.<.*.*.$.*.<.<.*.*.$.` ) R ! d t % $ o O , < < x c ..} >.1.OX*X4X4X6X6X8X6X3X3X4X4X4X4X4X4X3X3X3X3X3X3X=X&XoX.X.X.XoXoX.X.X.X.X.X.X.X.X.XoX&X&X&X&X&X&X&X&X&X&X&X&X&X&X&X&X.X3.3.5.5.<.<.<.*.*.*.*.$.$.$.$.$.$.$.$.$.$.$.$.$.$.$.$.$.$.$.` ) ) ) ) ) ` $.$.*.<.<.3.3.3.XX3.*.=.=.=.=.=.=.=.$.$.$.$.$.$.$.` W R R R R R R R R R R R R R R g u i & $ +         - K z a J  .[ *X0X0X0X0X0X0X0X0X0X0X0X0X0X0X0X6X6X6X3X3X3X=X&X&XoXoXoX.X.X3.oX4X0X0X0X0X0X0X0X0X0X0X0X0X0X0X6X&XoXoXoX.X.X.X3.5.<.2.2.-.-.-.<.oX=X&X&X&X&X&XoX+X+X.X.X3.3.<.<.*.$.$.` ) W R g j % $ * o   @ I (././.'.{.h.m ",
"_.).fXhXxXz.C ; q q p / 0.5XBXCX6X=X3X3X4X6X6X0X0XwXwXNXNXNXNXNX6X6X3X3X3X3X=X&X&XoXoXoX.X.X.X.XoXoX&XoXoXoX.X.X3.3.3.<.2.2.2.3.=X3X3X3X3X3X3X3X3X3X3X3X=X=X=X=X=X=X=X&X&X&X&XoX.X.X3.3.3.<.<.<.1.=.=.' Q f t $ o     . : A S N N B { 5.3XwXBXBXwX6X4X3X4X0XNXNX0X6X6X3X=X&X&X.X.X3.<.<.*.$.$.$.<.<.*.*.$.` ) R ! d t % $ o O , < < x c ..} >.1.OX*X4X4X6X6X8X6X3X4X4X4X4X4X4X4X3X3X3X3X3X3X3X=XoXoXoXoXoXoX.X.XoXoXoXoXoXoX.XoX&X&X&X&X&X&X&X&X&X&X&X&X&X&X&X&X.X.X3.3.3.3.<.<.*.*.*.$.$.$.$.$.$.$.$.$.$.$.$.$.$.$.$.$.$.$.$.` ) ) ) ) ) ` ` $.=.*.<.<.<.3.3.<.*.$.$.$.$.$.$.$.$.$.$.$.$.$.$.` W R R R R R R R R R R R R R R g u i & $ +         5 K z a J  .[ *X0X0X0X0X0X0X0X0X0X0X0X0X0X0X0X6X6X3X3X3X3X=X&X&XoXoXoX.X.X.XoX4X0X0X0X0X0X0X0X0X0X0X0X0X0X0X6X&XoXoXoX.X.X.X.X3.5.<.2.2.-.-.3.oX=X&X&X&X&X&XoX+X+X.X.X3.3.<.<.*.$.$.` ) W R g j % $ * o   @ I (././.'.{.h.m ",
"_.).fXhXxXz.C ; q q z / 0.5XBXCX0X3X3X4X4X6X6X6X0X0X0XwXwXNXNXwX6X3X3X3X3X=X=X&X&X&XoXoXoX.X.X.XoXoXoXoXoX.X.X.X3.3.<.2.2.2.-.3.&X3X3X3X3X3X=X3X3X3X=X3X3X3X3X=X=X=X=X&X&X&X&XoX.X.X3.3.3.<.<.<.1.=.=.' Q f t $ o     . : A S N N B { 5.3XwXBXBXwX6X3X=X4X0XwXNX0X6X6X3X=X&XoX.X.X3.<.<.*.$.$.$.<.<.*.*.$.` ) R ! d t % $ o O , < < x c ..} >.1.OX*X3X4X6X6X6X6X8X4X4X4X4X4X4X4X3X3X3X3X3X3X=X=X&XoXoXoXoXoXoXoXoXoXoXoXoXoXoXoX&X&X&X&X&X&X&X&X&X&X&X&X&X&X&X&XoX.X.X.X3.5.5.<.*.*.$.$.$.$.$.$.$.$.$.$.$.$.$.$.$.$.$.$.$.$.$.$.) ) ) ) ) ` ` $.$.$.*.*.*.<.<.*.$.$.$.$.$.$.$.$.$.$.$.$.$.$.$.` W R R R R R R R R R R R R R R g u i & $ +         - K A a J  .~ *X0X0X0X0X0X0X0X0X0X0X0X0X0X0X0X3X3X3X3X3X=X=X&X&X&XoXoX.X.X.XoX4X0X0X0X0X0X0X0X0X0X0X0X0X0X0X6X&X&XoXoXoX.X.X.X3.5.<.<.2.2.2.3.&X=X=X&X&X&XoXoX+X+XoX.X3.3.<.<.*.$.$.` ` W R g j % $ * o   @ I (././.'.{.h.m ",
"_.).GXhXxXz.C ; q q z / 0.5XBXCX0X3X3X4X4X4X6X6X6X0X0X0X0XwXwX0X3X3X3X=X=X=X=X&X&X&XoXoXoXoXoXoXoXoXoXoX.X.X.X3.5.<.2.2.2.-.-.<.oX=X=X=X=X=X=X=X=X=X=X3X3X3X3X3X=X=X=X&X&X&X&XoX.X.X3.3.3.<.<.<.1.=.=.' Q f t $ o     . : A S N N B { 5.3XwXBXBXwX6X3X3X4X0XNXNX0X6X6X3X=X&XoX.X.X3.<.<.*.$.$.$.<.<.*.*.$.` ) R ! d t % $ o O , < q x c ..} >.1.OX*X3X4X6X6X8X6X8X4X4X4X4X4X4X4X3X3X3X=X3X3X=X=X&XoXoXoXoXoXoXoXoXoXoXoXoXoXoX&X&X&X&X&X&X&X&X&X&X&X&X&X&X&X&X&XoX.X.X.X.X3.5.<.*.*.$.$.$.` ` ` $.$.$.$.$.$.$.$.$.$.$.$.$.$.$.$.` ) ) ) ` ` ` ` ` $.$.$.*.$.*.$.$.` ` ` ` ` ` ` $.$.$.$.$.$.$.` W R R R R R R R R R R R R R R g u i & $ +         5 K A a J v ~ *X0X0X0X0X0X0X0X0X0X0X0X0X0X0X6X3X3X3X=X=X=X=X&X&X&XoXoXoXoXoX&X6X0X0X0X0X0X0X0X0X0X0X0X0X0X0X6X=X&X&XoXoXoX.X.X.X3.5.<.<.2.2.3.&X=X=X&X&X&XoXoX+X+X.X.X3.3.<.<.*.$.$.` ` W R g j % $ * o   @ I (././.'.{.h.m ",
"_.).fXhXxXz.C ; q q z / 0.5XBXCX0X4X4X4X4X4X4X6X6X6X6X0X0X0X0X6X3X=X=X=X=X=X=X&X&X&X&X&X&XoXoXoXoXoX.X.X.X.X3.3.<.2.2.-.-.-.-.2..X&X&X&X&X&X&X&X=X=X=X3X3X3X3X3X=X=X=X&X&X&X&XoX.X.X3.3.3.<.<.<.1.=.=.' Q f t $ o     . : A S N N B { 5.3XwXBXBXwX6X4X3X4X0XNXNX0X6X6X3X=X&XoX.X.X3.<.<.*.$.$.$.*.<.*.*.$.` ) R ! d t % $ o O , < q x c ..} >.1.OX*X4X4X6X6X8X6X8X4X3X3X4X4X4X4X=X=X=X=X3X3X3X=X&X&X&X&X&X&X&X&X&X&X&X&X&X&X&X&X&X&X&X&X&X&X&X&X&X&X&X&X&X&X&X&X&XoXoX.X.X.X5.<.*.$.$.$.` ` ) ` $.$.$.$.$.$.$.$.$.$.$.$.$.$.$.$.` ) ) ) ` ` ` ` ` ` ` ` ` ` ` ` ` ` ` ` ` ` ` ` ` ` ` ` ` ` ` ) W R R R R R R R R R R R R R R g u i & $ +         - K z a J  .[ *X0X0X0X0X0X0X0X0X0X0X0X0X0X0X6X3X=X=X=X=X=X=X&X&X&X&X&X&XoXoX&X6X0X0X0X0X0X0X0X0X0X0X0X0X0X0X6X=X&X&X&X&XoXoX.X.X.X3.3.3.<.<.3.&X=X=X&X&X&X&XoX+X+X.X.X3.3.<.<.*.*.$.` ` W R g j % $ * o   @ I (././.'.{.h.m ",
"_.).fXhXxXz.C ; q q z / 0.5XBXCX0X4X4X4X4X4X4X4X4X6X6X6X6X6X6X4X=X&X&X&X&X&X&X&X&X&X&X&X&X&X&X&XoX.X.X.X.X3.3.<.2.2.-.*.-.&.&.-..XoXoXoXoX&X&X&X=X=X=X=X3X3X3X3X=X=X=X&X&X&X&XoX.X.X3.3.3.<.<.<.1.=.=.' Q f t $ o     . : A S N N B { 5.3XwXBXBXwX6X4X3X4X0XNXNX0X6X6X3X=X&XoX.X.X3.<.<.*.$.$.$.*.<.*.*.$.` ) R ! d t $ $ o O , < < x c ..} >.1.OX*X4X4X6X6X8X6X8X3X3X3X3X4X4X4X=X=X=X=X3X3X3X=X&X&X&X&X&X&X&X&X&X&X&X&X&X&X&X&X&X&X&X&X&X&X&X&X&X&X&X&X&X&X&X&X&X&XoXoX.X.X3.<.*.$.$.` ) ) ) ) ` $.$.$.$.$.$.$.$.$.$.$.$.$.$.$.` ) ) ) ` ` ` ` ) ) ) ) ) ) ) ) ) ) ) ) ) ) ) ) ` ` ` ` ` ` ` ) W R R R R R R R R R R R R R R g u i & $ +         - K z a J  .[ *X0X0X0X0X0X0X0X0X0X0X0X0X0X0X6X=X&X&X&X&X&X&X&X&X&X&X&X&X&X&X=X6X0X0X0X0X0X0X0X0X0X0X0X0X0X0X6X=X=X&X&X&X&XoXoX.X.X.X3.3.3.3..X&X=X=X&X&X&X&XoX+X+X.X.X3.3.<.<.*.*.$.` ) W R g j % $ * o   @ I (././.'.{.h.m ",
"_.).fXhXxXz.C ; q q z / 0.5XBXCX0X4X6X6X4X4X4X4X=X=X=X=X=X=X=X=X&X&X&X&X&X&X&X&X&X&X&X&X&X&X&X&X+X@X.X3.3.3.<.*.*.*.$.$.$.` ` $.<.3.3..X.X.XoXoX&X=X=X3X3X3X3X3X=X=X=X=X&X&XoXoXoX.X.X.X3.3.5.3.1.=.=.' Q f t $ o     . : A S N N B { 5.3XwXBXBXwX6X4X3X4X0XNXNX0X6X6X3X=X=X&XoX.X3.<.<.*.$.$.*.*.<.*.*.$.` ) R ! d t % $ o O , < < x c ..} >.1.+X*X4X4X6X8X8X8X3X=X=X=X=X=X3X3X=X=X3X3X3X=X=X=X=X&X&X&X&X&X&X&X&X&X&X&X&X&X&X&X&X&X&X&X&X&X&X&X&X&X&X&X&X&X&X&X=X=X;X;XoX.X3.*.*.$.` ` ) W W ) ` $.$.$.$.$.$.$.$.$.$.$.$.$.$.$.` ` ` ` ` ` ` ) ) ) ) ) ) ) ) ) ) ) ) ) ) ) ) ) ) ) ) ) ) ) ) ) R g g g g g g g g g g g g g g d u i & $ +         - K z a J  .[ *X0X0X0X0X0X0X0X0X0X0X0X0X0X0X6X=X&X&X&X&X&X&X&X&X&X&X&X&X=X&X=X6X0X0X0X0X0X0X0X0X0X0X0X0X0X0X6X3X=X=X=X&X&X&XoXoX.X.X.X.X3.3..X&X=X=X&X&X&X&XoXoX.X.X.X3.3.5.<.<.=.$.` ) W R d j % $ * o   @ I (././.'.{.h.m ",
"_.).fXhXxXz.#.; q q z / 0.5XBXCX0X6X4X4X4X4X4X3X=X=X=X&X&X&X&X&X&XoX&X&X&X&X&X&X&X=X=X=X=X=X=X&X+X@X.X3.3.<.*.*.*.$.$.$.` ` ` $.*.<.<.3.3..X.XoX&X&X=X3X3X3X3X3X=X=X=X=X&X&XoXoXoX.X.X.X3.3.5.3.1.=.=.' Q f t $ o     . : A S N N B { 5.3XwXBXBXwX6X4X3X6X0XNXNX6X6X3X3X=X=X&XoX.X3.<.<.*.$.$.*.<.<.*.*.$.` ) R ! d t % $ o O , < < x c ..} >.1.OX*X4X6X6X8X8X6X3X3X=X=X3X=X3X3X=X3X3X3X3X=X=X=X=X=X=X=X=X=X=X=X=X=X=X=X=X=X=X=X=X&X&X&X&X&X&X&X&X&X&X&X&X&X&X=X=X=X=X;X&X.X3.*.*.$.` ) ) ! ! W ` $.$.$.$.$.$.$.$.$.$.$.$.$.$.$.` ` ` ` ` ) ) ) ) ) ) W W W W W ) ) ) ) ) ) ) ) ) ) ) ) ) ) ) ) R g g g g g g g g g g g g g g g u i & $ +         - K z a J  .~ *X0X0X0X0X0X0X0X0X0X0X0X0X0X0X6X&XoX&X&X&X&X&X&X&X=X=X=X=X=X=X3X6X0X0X0X0X0X0X0X0X0X0X0X0X0X0X6X3X=X=X=X=X&X&X&XoXoX.X.X.X.X3..X&X=X=X&X&X&X&XoXoX.X.X.X3.3.5.<.<.=.$.` ) W R d j % $ * o   @ I (././.'.{.h.m ",
"_.).fXhXxXz.#.; q q z / 0.5XBXCX0X6X6X4X4X4X3X3X&X&X&X&XoXoXoXoXoXoXoXoXoXoX&X&X&X=X=X=X=X3X3X=X@X@X5.5.<.<.*.*.$.$.$.` ` ` ) ` $.*.*.<.<.3..X.X&X&X=X3X3X3X6X3X=X=X&X&X&X&X&XoXoX.X.X.X3.3.5.3.1.=.=.' Q f t $ o     . : A S N N B { 5.3XwXBXBXwX6X4X3X4X0XNXNX6X6X3X3X=X=X&XoX.X3.<.<.*.*.$.$.<.<.*.*.$.` ) R ! d t % $ o O , < < x c ..} >.1.OX*X4X4X6X6X8X6X3X3X3X3X3X3X3X3X=X=X3X3X3X3X=X=X=X=X=X=X=X=X=X=X=X=X=X=X=X=X=X=X=X&X&X&X&X&X&X&X&X&X&X&X&X&X&X=X=X3X3X=X=X.X3.*.*.$.` ) W ! ! ! ` $.$.$.$.$.$.$.$.$.$.$.$.$.$.$.` ` ` ` ` ) ) ) ) W W W R R R R W ) ) ) ) ) ) ) ) ) ) ) ) ) ) W g g g g g g g g g g g g g g g g u i & $ +         5 K A a J  .~ *X0X0X0X0X0X0X0X0X0X0X0X0X0X0X6X&XoXoXoXoXoX&X&X&X=X=X=X=X3X3X3X6X0X0X0X0X0X0X0X0X0X0X0X0X0X0X0X3X3X3X=X=X=X&X&X&XoXoX.X.X.X.X.X&X=X=X&X&X&X&XoXoX.X.X.X3.3.5.<.<.=.$.` ) W R d j % $ * o   @ I (././.'.{.h.m ",
"_.).fXhXxXz.C ; q q z / 0.5XBXCXwX6X6X6X4X4X3X=X&X&XoXoXoX.X.X.X.X.X.XoXoXoX&X&X&X=X=X3X3X3X3X=X@X5.5.5.2.-.*.$.$.$.` ` ) ) ) ) $.$.*.*.<.<.3..XoX&X=X3X3X6X6X3X=X=X=X&X&X&X&XoXoX.X.X.X3.3.5.3.1.=.=.' Q f t $ o     . : A S N N B { 5.3XwXBXBXwX6X4X3X4X0XNXNX6X6X3X3X=X=X&XoX.X3.<.<.*.*.$.$.<.<.*.*.$.` ) R ! d t % $ o O , < < x c ..} >.1.OX*X4X4X6X6X8X6X3X3X3X3X3X3X3X3X=X=X3X3X3X3X=X3X3X3X3X3X3X3X3X3X3X3X3X3X3X3X3X=X=X&X&X&X&X&X&X&X&X&X&X&X&X&X&X=X3X3X4X3X&XoX3.*.*.$.) ) ! ! g ! ` $.$.$.$.$.$.$.$.$.$.$.$.$.$.$.$.` ` ` ` ) ) ) W W R R R g g R W W W W W W W W W W W W W W W W R g g g g g g g g g g g g g g d u i & $ +         5 K A a J v ~ *X0X0X0X0X0X0X0X0X0X0X0X0X0X0X4XoX.X.XoXoXoX&X&X&X=X=X3X3X3X3X3X0X0X0X0X0X0X0X0X0X0X0X0X0X0X0X0X3X3X3X3X=X=X=X&X&X&XoXoX.X.X.XoX&X=X=X&X&X&X&XoXoX.X.X.X3.3.5.<.<.=.$.` ) W R d j % $ * o   @ I (././.'.{.h.m ",
"_.).fXhXxXz.C ; q q z / 0.5XBXCXwX6X6X6X4X4X3X=X&XoXoX.X.X.X.X.X.X.X.X.XoXoXoX&X&X=X3X3X3X3X6X=X@X5.5.<.2.*.*.$.$.` ` ) ) ) ) ) ` $.$.$.*.<.3..XoX&X=X3X3X6X6X6X3X=X=X&X&X&X&XoXoX.X.X.X3.3.5.3.1.=.=.' Q f t $ o     . : A S N N B { 5.3XwXBXBXwX6X4X3X4X0XwXNX6X6X3X3X=X&X&XoX.X3.<.<.*.$.$.$.<.<.*.*.$.` ) R ! d t % $ o O , < < x c ..} >.1.OX*X3X4X6X6X6X6X3X3X3X3X3X3X3X3X3X3X3X3X3X3X3X3X3X3X3X3X3X3X3X3X3X3X3X3X3X3X3X=X=X&X&X&X&X&X&X&X&X&X&X&X&X&X&X=X3X6X6X4X=XoX3.*.*.$.) W ! R g ! ` $.$.$.$.$.$.$.$.$.$.$.$.$.$.$.$.$.` ` ` ) ) W W R R g g g j g R W W W W W W W W W W W W W W W g g g g g g g g g g g g g g g d u i & $ +         - K z a J  .[ *X0X0X0X0X0X0X0X0X0X0X0X0X0X0X4XoX.X.X.XoXoXoX&X&X=X3X3X3X3X6X6X0X0X0X0X0X0X0X0X0X0X0X0X0X0X0X0X6X3X3X3X3X=X=X=X&X&XoXoXoXoX.XoX&X=X=X&X&X&X&XoXoX.X.X.X3.3.5.<.<.=.$.` ) W R d j % $ * o   @ I (././.'.{.h.m ",
"_.).fXhXxXz.C ; q q z / 0.5XBXCXwX6X6X6X4X4X=X;X&XoX.X.X.X3.3.5.3.3..X.X.XoXoX&X=X=X3X3X6X6X6X3X@X5.2.2.-.*.$.$.` ` ` ) ) ) ) ) ) ` ` $.*.*.<.3.oX&X=X3X3X6X6X6X3X=X=X&X&X&X&XoXoX.X.X.X3.3.5.3.1.=.=.' Q f t $ o     . : A S N N B { 5.3XwXBXBXwX6X4X3X4X0XNXNX0X6X3X3X=X=X&XoX.X3.<.<.*.$.$.$.<.<.*.*.$.` ) R ! d t % $ o O , < < x c ..} >.1.OX*X3X4X6X6X8X6X3X=X3X3X3X3X3X=X3X3X3X3X3X3X3X3X3X3X3X3X3X3X3X3X3X3X3X3X3X3X3X3X=X&X&X&X&X&X&X&X&X&X&X&X&X&X&X=X6X6X6X4X=XoX3.*.*.` ) ! ! g j R ` $.$.$.$.$.$.$.$.$.$.$.$.$.$.$.$.` ` ` ` ) ) W R R g g j j d g R W W W W W W W W W W W W W W W g g g g g g g g g g g g g g g d u i & $ +         - K A a J  .[ *X0X0X0X0X0X0X0X0X0X0X0X0X0X0X4XoX3..X.X.XoXoX&X=X=X3X3X3X6X6X6X0X0X0X0X0X0X0X0X0X0X0X0X0X0X0X0X6X6X3X3X3X3X=X=X&X&X&XoXoXoXoXoX&X=X=X&X&X&X&XoXoX.X.X.X3.3.5.<.<.=.$.` ) W R d j % $ * o   @ I (././.'.{.h.m ",
"_.).fXhXxXz.C ; q q z / 0.5XBXCXwX6X6X6X4X4X=X;XoXoX.X.X3.5.5.5.5.3.3..X.XoXoX&X=X=X3X3X6X6X6X3X@X5.2.2.-.*.$.$.` ` ) ) ) ) ) ) ) ` ` $.$.*.<.3.oX&X=X3X3X6X6X6X=X=X=X&X&X&X&XoXoX.X.X.X3.3.3.3.1.=.=.' Q f t $ o     . : A S N N B { 5.3XwXBXBXwX6X4X3X4X0XNXNX6X6X3X3X=X=X&XoX.X3.<.<.*.$.$.$.<.<.*.*.$.` ) R R d t % $ o O , < < x c ..} >.1.OX*X4X4X6X6X8X6X3X=X3X3X3X3X=X=X3X3X3X3X3X3X3X3X3X3X3X3X3X3X3X3X3X3X3X3X3X3X3X3X=X&X&X&X&X&X&X&X&X&X&X&X&X&X&X=X6X6X6X4X=XoX3.<.*.` ) ! R g j R ) $.$.$.$.$.$.$.$.$.$.$.$.$.$.$.$.$.$.` ` ) ) W R R g g j j j j R W W W W W W W W W W W W W W R g g g g g g g g g g g g g g g d u i & $ o         - K z a J  .[ *X0X0X0X0X0X0X0X0X0X0X0X0X0X0X4X.X3.3..X.XoXoX&X=X=X3X3X6X6X6X6X0X0X0X0X0X0X0X0X0X0X0X0X0X0X0X0X6X6X6X3X3X3X=X=X=X&X&X&XoXoXoXoX&X=X=X&X&X&X&XoXoX.X.X.X3.3.5.<.<.=.$.` ) W R d j % $ * o   @ I (././.'.{.h.m ",
"_.).fXhXxXz.C ; q q z / 0.5XBXCXwX6X6X6X4X3X=X;XoXoX.X.X3.3.5.5.5.3.3..X.X.XoXoX&X&X=X=X3X3X3X=X@X5.5.<.<.*.*.$.$.$.` ` ` ` ` ` ` $.$.$.*.<.<.3..XoX&X=X=X3X3X=X&XoXoX.X.X.X.X.X3.3.3.<.<.2.<.<.1.=.=.' Q f t $ o     . : A S N N B { 3.3XwXBXBXwX6X=X;X3X6XwX0X3X&X&X&X&XoX.X.X3.<.<.*.$.$.$.$.*.*.*.$.` ) W R g d t $ o + O , < < x c ..} >.1.OX*X4X4X6X6X8X6X3X3X3X3X3X3X3X=X3X=X=X=X=X=X=X=X3X6X6X6X6X6X6X6X3X3X3X3X3X3X3X3X=X&X&X&XoXoXoXoX.X.XoXoXoXoXoX&X=X3X=X;X&X.X3.*.$.$.) W W R R W ` $.$.$.$.$.$.$.$.$.` ` ` ` ` ` ` ` ` ` ) ) ) W R R g g j j j j R W W W W W W W W W W W W W W R g g g R R R g g g g g g g g g g f u t $ o         : K z a v  .[ *X0X0X0X0X0X0X0X0X0X0X0X0X0X0X6X&XoXoXoX&X&X&X=X=X3X3X6X6X6X6X6X0X0X0X0X0X0X6X6X6X6X6X6X6X6X6X6X3X3X=X=X=X=X&X&X&X&XoXoXoXoXoXoX&X&X&X&X&XoXoX.X.X.X3.3.3.<.<.<.*.$.$.` ) R g d j % $ *     @ I (././.'.{.h.m ",
"_.).fXhXxXz.C ; q q z / 0.5XBXCX0X3X3X3X3X=X=X&X&XoXoXoX.X.X.X.X3.3.3.3.3.3.3..X.XoXoXoXoXoXoXoX.X.X.X3.3.3.3.3.5.5.5.5.3.<.<.<.3.3.3.3.3.3.XXXXOX+XOXoXoXoXoX.X*.$.$.$.$.$.$.$.$.` ` ` ` ` ` $.=.=.=.' Q f t $ o     . : A S N N B { 5.3XwXNXNX6X=X&XoX&X=X3X=X3.*.*.*.*.*.*.*.$.$.$.$.$.$.` $.*.*.$.$.` ) ! g j y % $ o   X + < < x c ..} >.1.OX*X3X6X8X8X8X6X0XwX0X0X0X0X6X4X=X=X&X&X&XoXoX&X0XNXwXwXwXwX0X0X0X0X6X6X6X6X4X4X=X&XOX.X3.<.$.$.$.$.*.*.<.<.3.3.<.<.<.<.<.*.*.$.$.$.$.` ` ` ` ` $.$.*.$.$.$.$.` ` ) ) ) ) W W ) ) ) ) ) ) ) W W R R R g g g g g R W W W W W W W W W W W W W W W W W W W W W W W R R R R R R R g f u t % $ o       : K c a  . .[ *X0X0X0X0X0X0X0X0X0X0X0X0X0X0X0X6X6X6X6X6X6X6X6X6X6X6X6X6X0X0X6X6X6X6X6X3X3X3X3X=X=X=X&X&X&X&X&XoXoXoXoX.XoX.X.X.X3.3.3.3.3.3.3..XoXoXXXXXXX3.3.<.*.*.*.$.$.$.$.` ` ) ) W R g i l $ o @ .   @ U (./.^.'.{.h.m ",
"_.).GXhXxXz.C ; q q z / 0.5XBXCX0X3X3X3X3X=X=X&X&X&XoXoXoXoX.X.X3.3.3.3.3.3.3.3..X.X.X.X3.3..X.X.X.X.X.X.X.X.X.X.X.X.X.X.X.X.X.XXXXXXXXXXXXXXXXXOXXXXXXXXXXX3.<.` ) ) ) ) ) ) ) ) ) ) ) ) ) ) ` =.=.=.' Q f t $ o     . : A S N N B { 5.3XwXNXNX6X=XoX.XoX&X3X&X*.` ` ` ` ` ` ` ` ` ` ` ` ` ` $.$.$.$.` ) W ! g d t % o o + + + < < x c ..} >.1.OX*X3X6X6X8X8X0XwXwXwXwX0X0X6X6X=X=X&X&XoXoX.X&X0XNXNXNXNXwXwX0X0X0X6X6X6X4X4X4X=X*XOXXX<.$.` ) ` ` ` ` $.*.<.<.$.$.$.$.$.$.$.$.$.$.$.$.$.$.$.$.*.*.$.$.$.$.` ` ) ) ) W W W W W ) ) ) ) W W W W R R R R R R R R R W W W W W W W W W W W W W W W W W W W W W W W R R R R W W W R h u u t $ o o     p K c k  .X.[ *X0X0X0X0X0X0X0X0X0X0X0X0X0X0X0X0X0X0X0X0X0X0X0X6X0X0X6X6X6X6X6X6X6X6X3X3X3X=X=X=X&X&X&XoXoXoX.X.X3.3.3..X.X.X.X3.3.3.3.3.3.3.3.XXXXXXXX4.4.4.1.*.*.$.$.$.$.` ` ` ) ) W R g j i l o o . .   @ U (./.^.'.{.h.m ",
"_.).fXhXxXz.C ; q q z / 0.5XBXCX0X3X3X3X3X=X=X&X&X&XoXoXoXoX.X.X3.3.3.3.3.3.3.3..X.X.X.X3..X.X.X.X.X.X.X.X.X.X.X.X.X.X.X.X.X.X.XXXXXXXXXXXXXXXXXXXXXXXXXXX3.3.<.` ) ) ) ) ) ) ) ) ) ) ) ) ) ) ` =.=.=.' Q f t $ o     . : A S N N B { 3.3XwXNXNX6X=XoX.XoX&X=X&X<.$.$.$.$.$.$.$.$.$.$.$.$.$.$.$.$.$.$.` ` W R g d t % o o + + + < < x c ..} >.1.OX*X4X4X6X6X8X0XwXwXwX0X0X0X6X6X=X=X&X&XoXoXoX&X0XNXNXNXwXwXwX0X0X0X6X6X6X4X4X4X=X*XOXXX<.$.` ) ` ` ` $.$.*.<.<.$.$.$.$.$.$.$.$.$.$.$.$.$.$.$.$.$.*.*.$.$.$.` ` ) ) ) W W W W W W ) ) W W W W W W R R R R R R R W W W W W W W W W W W W W W W W W W W W W W W W R R W W W W W R h f u t $ o o     p K c k  .X.[ *X0X0X0X0X0X0X0X0X0X0X0X0X0X0X0X0X0X0X0X0X0X0X0X6X6X6X6X6X6X6X6X6X6X3X3X3X3X=X=X&X&X&XoXoXoXoX.X.X3..X.X.X.X.X.X3.3.3.3.3.3.3.3.XXXXXXXX4.4.4.1.*.*.$.$.$.$.` ` ` ) ) W W R j i i $ o . .   @ U (./.^.'.{.h.m ",
"_.).fXhXxXz.C ; q q z / 0.5XBXCX0X3X3X3X3X=X=X&X&X&XoXoXoX.X.X.X3.3.3.3.3.3.3.3..X.X.X3.3.3..X.X.X.X3.3..X.X.X.X.X.X.X.X.X.X.X.XXXXXXXXXXXXXXXXXXXXXXXXX4.3.3.<.$.) ) ) ) ) ) ) ) ) ) ) ) ) ) ` =.=.=.' Q f t $ o     . : A S N N B { 3.3XwXNXNX6X=XoX.XoX&X3X&X<.$.$.$.$.$.$.$.$.$.$.$.$.$.$.$.$.$.$.` ) W R g d t % o o   + X < < x c ..} >.1.OX*X4X4X6X8X8X6X0XwXwX0X0X0X6X6X=X=X&X&X&XoXoX=X0XNXNXNXwXwX0X0X0X6X6X6X4X4X4X4X=X*XOXXX<.$.` ) ` ` ` ` $.*.<.<.$.$.$.$.$.$.$.$.$.$.$.$.$.$.$.$.$.*.$.$.$.$.` ` ) ) ) W W W W W W ) ) ) W W W W W W W W W R W W W W W W W W W W W W W W W W W W W W W W W W W W W W W W W W W R h f u t $ o o     p K c k  . .[ *X0X0X0X0X0X0X0X0X0X0X0X0X0X0X0X0X0X0X0X0X0X0X0X6X6X6X6X6X6X6X6X6X3X3X3X3X=X=X=X&X&XoXoXoXoX.X.X.X.X.X.X.X.X.X.X3.3.3.3.3.3.3.3.XXXXXXXX4.4.4.1.*.*.$.$.$.$.` ` ` ` ) ) W R g j i $ o @ .   @ U (./.^.'.{.h.m ",
"_.).fXhXxXz.C ; q q p / 0.5XBXCX0X3X3X3X3X=X=X&X&X&XoXoX.X.X.X.X3.3.3.3.3.3.3.3.3.3.3.3..X3.3.3.3.3.3.3.3.3.3.3.3.3.3.3.3.3.3.3.3.4.4.4.4.4.4.4.XXXXXXXX4.3.3.<.$.` ` ` ` ` ` ` ` ` ` ` ` ` ` $.=.=.=.' Q f t $ o     . : A S N N B { 3.3XwXNXNX6X=XoX.XoX&X3X&X<.$.$.$.$.$.$.$.$.$.$.$.$.$.$.$.*.*.$.` ) W R g d t % o o   . X < < x c ..} >.1.OX*X4X4X6X6X8X6X0X0X0X0X0X6X6X4X3X=X=X&X&X&X&X=X0XNXwXwXwXwX0X0X6X6X6X4X4X3X3X3X=X*XOX.X<.$.` ) ` ` ` $.$.*.<.<.$.$.$.$.$.$.$.$.$.$.$.$.$.$.$.$.$.*.$.$.$.$.` ` ) ) ) W W W W W W W W W W W W W W W W W W W W W W W W W W W W W W W W W W W W W W W W W W W W W W W W W W W W R h f u t $ o o     p K c k  .X.[ *X0X0X0X0X0X0X0X0X0X0X0X0X0X0X0X0X0X0X0X0X0X0X0X6X6X6X6X6X6X6X6X3X3X3X3X=X=X=X&X&X&XoXoX.X.X.X.X.X.X.X.X.X.X.X.X3.3.3.3.3.3.3.3.XXXXXXXX3.3.4.1.*.*.$.$.$.$.` ` ` ` ` ) W R g j i $ o @ .   @ U (././.'.{.h.m ",
"_.).fXhXxXz.C ; q q p / 0.5XBXCX0X3X3X3X3X=X=X&X&X&XoXoXoX.X.X.X3.3.3.3.3.3.3.3.3..X3.3..X3.3.3.3.5.5.5.3.3.5.5.5.3.3.5.5.5.5.3.3.4.4.4.4.4.4.4.XXXX6.4.4.<.<.<.$.` ` ` ` ` ` ` ` ` ` ` ` ` ` $.=.=.=.' Q f t $ o     . : A S N N B { 3.3XwXNXNX6X=XoX.XoX&X3X&X<.$.$.$.$.$.$.$.$.$.$.$.$.$.$.$.*.*.$.` ) W R g d t % o o   . X < < x c ..} >.1.OX*X4X4X6X6X6X6X0X0X0X0X6X6X6X4X3X=X=X=X=X&X&X=X0XwXwXwXwX0X0X6X6X6X4X4X3X3X=X=X=X*XOX.X<.$.` ) ` ` ` $.$.*.<.<.$.$.$.$.$.$.$.$.$.$.$.$.$.$.$.$.$.*.$.$.$.$.` ` ) ) ) W W W W W W W W W W W ) ) ) ) ) ) ) ) ) ) ) ) ) ) ) ) ) ) ) ) ) ) ) ) ) ) W W W W W W W W W W W W W W W R h f u t $ o o     p K c k  .X.[ *X0X0X0X0X0X0X0X0X0X0X0X0X0X0X0X6X6X6X6X6X6X6X6X3X3X3X3X3X3X3X3X3X3X3X=X=X=X&X&X&XoXoX.X.X.X.X.X.X.X.X.X.X.X.X.X3.3.3.3.3.3.3.3.XXXXXXXX3.3.4.1.*.*.$.$.$.$.` ` $.` ` ) W R g j j $ o + .   @ U (././.'.{.h.m ",
"_.).fXhXxXz.#.; q q z / 0.5XBXCX0X3X3X3X3X=X=X&X&X&XoXoXoX.X.X.X3.3.3.3.3.3.3.3..X.X.X.X.X.X.X3.5.5.5.5.3.3.5.3.5.3.5.5.5.5.5.5.3.4.4.4.4.4.4.4.6.6.6.4.4.<.<.*.$.` ` ` ` ` ` ` ` ` ` ` ` ` ` $.=.=.=.' Q f t $ o     . : A S N N B { 3.3XwXNXNX6X=XoX.XoX&X3X&X<.*.*.*.*.*.*.*.*.*.*.*.*.*.*.*.*.*.$.` ) W ! g d t % o o   . X < < x c ..} >.1.OX*X4X4X6X6X6X6X6X6X6X6X6X6X6X4X3X=X=X=X=X=X=X3X0XwXwX0X0X0X0X6X6X4X4X3X=X=X;X;X*X*XOX.X<.$.` ) ` ` ` ` $.=.<.<.$.$.$.$.$.$.$.$.$.$.$.$.$.$.$.$.$.*.$.$.$.$.` ` ) ) ) W W W W W W W W W W ) ) ) ) ) ) ` ` ` ` ` ) ) ) ) ) ) ) ) ) ) ) ) ) ) ) ) ) W W W W W W W R R R R R R W R h u u t $ o o     p K c k  .X.[ *X0X0X0X0X0X0X0X0X0X0X0X0X0X0X0X6X6X6X6X6X6X6X6X3X3X3X3X3X3X3X3X3X=X=X=X=X&X&X&XoXoX.X.X.X.X3.3..X.X3.3..X.X.X.X3.3.3.3.3.3.3.3.XXXXXXXX4.4.4.1.*.*.$.$.$.$.` $.$.$.` ` ) W R j j % $ * .   @ I (././.'.{.h.m ",
"_.).fXhXxXz.#.; q q z / 0.5XBXCX0X3X3X3X3X=X=X&X&X&XoXoXoX.X.X.X3.3.3.3.3.3.3.3..X.X.X.X.X.X.X3.5.<.<.<.<.<.<.<.<.<.<.<.<.<.<.<.<.1.1.1.1.1.1.1.6.6.6.1.1.<.<.*.$.$.$.$.$.$.$.$.$.$.$.$.$.$.$.$.=.=.=.' Q f t $ o     . : A S N N B { 3.3XwXNXNX6X=XoX.XoX&X3X=X3.*.*.*.*.*.*.*.*.*.*.*.*.*.*.*.*.$.$.` ) W ! g d t % o o   . X < q x c ..} >.1.OX*X4X4X6X6X8X6X6X6X6X6X4X4X4X4X3X3X3X3X=X=X=X3X0X0X0X0X0X6X6X6X4X3X3X=X;X;X;X;X*X*XOX.X<.*.` ) ` ` ` $.$.*.<.*.$.$.$.$.$.$.$.$.$.$.$.$.$.$.$.$.$.*.$.$.$.$.` ` ) ) ) W W W W W W W W W W ) ) ) ` ` ` ` $.$.$.$.` ) ) ) ) ) ) ) ) ) ) ) ) ) ) ) ) W W W W W W W R R R R R R W R h u u t $ o o     p K c k  .X.[ *X0X0X0X0X0X0X0X0X0X0X0X0X0X0X6X6X4X4X4X4X4X4X4X3X3X3X3X3X3X3X3X=X=X=X=X&X&X&XoXoX.X.X.X.X3.3.3.3.3.3.3.3.3..X.X3.3.3.3.3.3.3.3.XXXXXXXX4.4.4.1.*.*.$.$.$.` ` $.$.$.$.` ) W R g j % $ * o   @ I (././.'.{.h.m ",
"_.).fXhXxXz.C ; q q z / 0.5XBXCX0X3X3X3X3X=X=X&X&X&XoXoXoX.X.X.X.X.X.X.X.X.X.X.X3.3.3.3..X.X.X3.<.*.*.*.*.*.*.*.*.*.*.*.*.*.*.*.*.*.*.*.*.*.*.*.*.*.*.*.*.*.*.*.$.$.$.$.$.$.$.$.$.$.$.$.$.$.$.=.1.=.%.) h y % $ > O X , : A A p N B { 5.3XwXNXNX6X=XoX.XoX&X=X=XXX1.1.1.1.1.1.1.<.<.<.<.<.<.<.*.*.$.$.` ) W ! g j t $ o o   , - < < x c ..} >.1.XX&X=X3X3X3X3X3X3X=X=X=X3X3X3X3X4X4X4X4X6X6X6X6X6X6X6X6X6X3X3X3X=X=X&X&X&X&XoX&X&X&XoX.X<.*.$.` ` ` ` $.$.=.<.*.$.$.$.$.$.$.$.$.$.$.$.$.$.$.$.$.*.*.*.$.$.$.` ` ) ) ) W W W W W R R W W W ) ) ` ` $.$.$.*.*.*.*.$.` ` ` ` ` ` ` ) ) ) ) ) ) ) ) ) W W W W W W W W W W W W W W W h f u t $ o o   > > p k v  ./ :.*X0X0X0X0X0X0X0X0X0X0X0X0X0X0X6X3X=X=X=X=X=X=X=X=X=X=X=X=X=X=X=X=X=X&X&X&X&XoXoX.X.X.X3.3.5.5.5.3..X.X.X.X.X3..X.X.X.X.X.X.X.X.X3.3.3.3.3.<.<.<.*.*.$.$.$.$.` $.$.$.$.` ) ) R g j t $ * o   @ I (././.'.{.h.m ",
"_.).fXhXxXz.C ; q q z / 0.5XBXCX0X3X3X3X3X=X=X&X&X&XoXoXoX.X.X.X.X.X.X.X.X.X.X.X3.3..X3..X.X.X3.*.*.*.*.*.*.*.*.*.*.*.*.*.*.*.*.*.*.*.*.*.*.*.*.*.*.*.*.*.*.*.*.*.*.*.*.*.*.*.*.*.*.*.*.=.=.*.*.1.=.%.) R y % $ , +   O : A A p N B { 5.3XwXNXNX6X=XoX.XoX&X=X=XXX4.4.4.4.4.4.4.<.<.<.<.<.<.<.<.*.*.$.` ) W ! g d t $ o o   O # < < x c ..} >.1.XX&X=X3X3X3X3X3X=X=X=X=X=X=X=X3X4X6X6X6X6X6X6X6X6X6X6X6X3X3X3X=X=X&X&X&X&XoXoXoX&X&XoX.X<.*.$.` ` ` ` $.$.*.<.*.$.$.$.$.$.$.$.$.$.$.$.$.$.$.$.$.*.*.*.$.$.$.` ` ) ) ) W W W W R R R R W W ) ) ` $.$.*.*.*.<.<.<.$.` ` ` ` ` ` ` ` ` ) ` ` ` ` ) ) W W W W W W W W W W W W W W W h f u % $ o o   > > p c v  ./ :.*X0X0X0X0X0X0X0X0X0X0X0X0X0X0X6X3X=X=X=X=X=X=X=X=X=X=X=X=X=X=X=X&X&X&X&X&XoXoX.X.X.X3.5.5.<.<.<.3..X.X.X3..X3.3..X.X.X.X3..X.X.X3.3.3.3.3.<.<.<.*.*.$.$.$.$.` $.=.=.$.$.` ) W R j t % * o o = I (././.'.{.h.m ",
"_.).fXhXxXz.C ; q q z / 0.5XBXCX0X3X3X3X3X=X=X&X&X&XoXoXoXoX.X.X.X3..X.X.X.X.X.X.X.X.X.X.X.X3.5.*.$.$.$.$.$.$.$.$.$.$.$.$.$.$.$.$.$.$.$.$.$.$.$.$.$.$.$.$.$.$.$.*.*.*.*.*.*.*.*.*.*.*.*.*.=.*.*.1.=.%._ R d t $ o     X : A A p N B { 3.3XwXNXNX6X=XoX.XoX&X3X=XXX4.4.4.4.4.4.3.<.<.<.<.<.<.<.<.*.*.$.` ) W R g y % $ o o   X , < < x c ..} >.1.XX&X=X3X3X3X3X3X=X&X&X&X=X=X=X3X4X6X6X6X0X0X0X0X6X3X3X3X3X3X=X=X&X&X&XoXoXoXoXoX&X&XoX.X<.*.$.` ` ` ` $.$.*.<.<.$.$.$.$.$.$.$.$.$.$.$.$.$.$.$.$.$.*.$.$.$.` ` ` ) ) ) W W W W R R R R W W ) ) ` $.*.*.<.<.3.3.<.$.$.$.$.$.$.$.$.` ` ` ` ` ` ` ` ) W W W W W W W W W W W W W W R h y t % $ o o   > > p c v  ./ :.*X0X0X0X0X0X0X0X0X0X0X0X0X0X0X6X=X=X=X=X=X=X=X=X=X=X=X=X=X=X=X&X&X&X&XoXoXoX.X.X.X3.5.<.<.2.2.<.3..X3.3..X3..X3..X.X.X.X3.3..X.X3.3.3.3.3.<.<.<.*.*.$.$.$.$.` $.*.*.*.$.` ) W R ! t % % $ o = I (././.'.{.h.m ",
"_.).fXhXxXz.C ; q q z / 0.5XBXCX0X3X3X3X3X=X=X&X&X&XoXoXoX.X.X.X.X.X.X.X.X.X.X3..X.X.X.X.X3.3.5.*.$.$.$.$.$.$.$.$.$.$.$.$.$.$.$.$.$.$.$.$.$.$.$.$.$.$.$.$.$.$.$.*.*.*.*.*.*.*.*.*.*.*.*.*.*.*.*.1.=.%._ E f i & o     . > A A p N B { 3.3XwXNXNX6X=XoX.XoX&X3X=XXX4.4.4.4.4.4.3.3.3.3.3.3.3.3.<.*.$.$.` ) W R g y % $ o o   X X < < x c ..} >.1.XX&X=X3X3X3X3X3X&X&X&X&X&X=X=X3X4X6X6X0X0X0X0X0X6X3X3X3X3X=X=X&X&X&XoXoXoX.X.XoXoX&XoX.X<.*.$.` ` ` ` $.$.*.<.<.$.$.$.$.$.$.$.$.$.$.$.$.$.$.$.$.$.*.$.$.$.` ` ` ) ) ) W W W W R R R R W W ) ` ` $.*.<.3.3..X.X3.*.$.$.$.$.$.$.$.$.$.$.$.$.$.$.` ) W W W W W W W W W W W W W W R d y t % $ o o   > > p c v  ./ :.*X0X0X0X0X0X0X0X0X0X0X0X0X0X0X6X=X&X&X&X&X&X&X&X&X&X&X&X&X&X&X&X&X&XoXoXoX.X.X.X3.5.<.<.2.2.2.<.3..X.X3..X.X.X3..X.X3.3.3.3..X.X3.3.3.3.3.<.<.<.*.*.$.$.$.$.` $.*.<.*.$.$.` ) R ! y t t $ o = I (./.^.'.{.h.m ",
"_.).fXhXxXz.C ; q q p / 0.5XBXCX0X3X3X3X3X=X=X&X&X&XoXoXoX.X.X.X.X3..X.X.X.X3.3..X.X.X.X.X.X3.5.$.$.$.$.$.$.$.$.$.$.$.$.$.$.$.$.$.$.$.$.$.$.$.$.$.$.$.$.$.$.$.$.*.<.<.<.<.<.*.*.<.<.<.<.<.<.*.*.1.=.%._ Q h i & o     X : A A p N B { 3.3XwXNXNX6X=XoX.XoX&X3X=XoXXXXXXXXXXXXXXX3.3.3.3.3.3.3.<.*.$.$.` ` W R g y t $ o + + O O < < x c ..} >.1.XX&X=X3X3X3X3X=X&XoXoX&X&X&X=X=X6X6X0X0X0X0XwX0X6X3X3X3X=X=X=X&X&X&XoXoX.X.X.XoXoXOXoX.X<.*.$.` ` ` ` ` $.*.<.<.$.$.$.$.$.$.$.$.$.$.$.$.$.$.$.$.$.*.$.$.$.$.` ` ) ) ) W W W W R R R R W W ) ` $.*.<.<.3.XXXXoXXX*.$.$.$.$.$.$.$.$.$.$.$.$.$.$.$.) W W W W W W W W W W W W W W R f y t t & * O O > > p c v  .X.:.*X0X0X0X0X0X0X0X0X0X0X0X0X0X0X6X=X&X&X&X&X&X&X&X&X&X&X&X&X&X&X&X&XoXoXoX.X.X.X.X3.3.<.2.2.-.-.2.5..X.X3.3.3..X.X.X3.3.3.3.3..X.X3.3.3.3.3.<.<.<.*.*.$.$.$.$.` $.*.<.<.*.$.` ) W ! y t t $ o = d.(././.'.{.h.m ",
"_.).GXhXxXz.C ; q q p / 0.5XBXCX0X3X3X3X3X=X=X&X&X&XoXoXoX.X.X.X.X3..X.X.X.X3.3..X.X3.3..X.X.X5.$.$.$.$.$.$.$.$.$.$.$.$.$.$.$.$.$.$.$.$.$.$.$.$.$.$.$.$.$.$.$.$.*.<.<.<.<.<.<.<.<.<.<.<.<.<.<.<.1.=.%.' Q ~ l a > O X , : A A p N B { 3.3XwXNXNX6X=XoX.XoX&X3X=XoXXXXXXXXXXXXXXX3.3.3.3.3.3.3.<.*.$.$.` ) W R g d i i , > > , # < q x c ..} >.1.XX&X=X3X3X3X3X=X&XoXoXoX&X&X=X=X6X6X0X0XwXwXwX0X6X3X3X=X=X=X&X&X&XoXoX.X.X.X.X.XoXOXoX.X<.*.$.` ` ` ` ` $.*.<.<.$.$.$.$.$.$.$.$.$.$.$.$.$.$.$.$.$.*.$.$.$.$.` ` ) ) ) W W W W R R R R R W ) ` $.*.<.3..XXXoXOXXX<.$.$.$.$.$.$.$.=.=.=.=.=.=.=.$.) W W W W W W W W W W W W W W W h f u i i & > > > > p c v  ./ :.*X0X0X0X0X0X0X0X0X0X0X0X0X0X0X6X=X&X&X&X&X&X&X&X&X&X&X&X&X&X&XoXoXoXoXoX.X.X.X3.3.<.2.2.-.-.-.2.5..X.X.X3.3..X.X3.3.3.3.3.3..X.X3.3.3.3.3.<.<.<.*.*.$.$.$.$.` $.<.<.<.*.$.` ) W ! y t t $ o = d.(././.'.{.h.m ",
"_.).fXhXxXz.C ; q q z / 0.5XBXCX0X3X3X3X3X=X=X&X&XoXoXoXoX.X.X.X.X3.3..X.X.X.X3..X3.3.3..X.X.X5.$.` ` ` ` ` ` ` ` ` ` ` ` ` ` ` ` ` ` ` ` ` ` ` ` ` ` ` ` ` ` $.*.<.<.<.<.<.<.<.<.<.<.<.<.<.<.<.=.=.%.' ~ ~ k a S : > - A S p ; N B { 3.3XwXNXNX6X=XoX.XoX&X3X=XOXXXXXXXXXXXXXXX3.3.3.3.3.3.3.3.*.$.$.` ` W R g j l a p p : - - < q x c ..} >.1.XX&X=X3X3X3X3X=XoX.XoXoX&X&X=X=X6X6X0X0XwXwXwXwX3X3X3X=X=X=X&X&XoXoXoX.X.X.X.X.XoXOXoX.X<.*.$.` ` ` ` ` $.*.<.<.*.$.$.$.$.$.$.$.$.$.$.$.$.$.$.$.$.*.$.$.$.$.` ` ) ) ) W W W W R R R R R W ) ` $.*.<.3..XoXoX&X.X<.*.*.*.*.=.*.*.*.*.*.*.=.=.=.%.) W W W W W W W W W W W W W W W E h l a a p p p , > p c v  ./ :.*X0X0X0X0X0X0X0X0X0X0X0X0X0X0X6X&X&X&X&X&XoX&XoX&X&X&X&X&XoX&XoXoXoXoX.X.X.X3.3.3.<.2.2.-.-.*.2.5..X.X.X3.3..X.X.X.X3..X3.3..X.X3.3.3.3.3.<.<.<.*.*.$.$.$.` ` $.<.<.<.*.$.` ) W ! y t t % o = d.(././.'.{.h.m ",
"HXGXfXhXxXx.C ; q w z / 0.-XNXBX6X=X=X=X=X=X&X&X&XoXoXoXoX.X.X.X.X3.3..X.X.X3.3..X3.3.3..X.X.X5.*.$.$.$.$.$.$.$.$.$.$.$.$.$.$.$.$.$.$.$.$.$.$.$.$.$.$.$.$.$.$.*.<.<.<.<.<.<.<.<.<.<.<.<.<.<.<.<.<.=.%.' _ ~ k a K S : w A D z ; N B { 2.&X6XwXwX6X3X&XoXoX&X&X&XoXXXXXXXXXXXXXXX3.3.3.3.3.3.3.3.<.<.*.$.` ) W R j l k N A w w 5 3 3 w H ( } ;.4.oX=X3X3X3X3X3X=X&XoX&X&X&X=X=X3X6X6X0X0X0XwXwX0X3X=X=X=X&X&X&X&XoXoXoX.X.X.X.X.XoXoX.X3.<.*.$.$.$.$.$.$.*.<.<.<.*.*.*.*.*.*.*.*.*.*.*.*.*.*.*.$.$.$.$.$.$.` ` ` ) ) ) ) W W W W W W ) ) ` ` $.*.<.<.3..X.XoXoX.X<.*.*.*.*.*.*.*.<.1.<.1.<.1.2.=.` ) ) ) ) ) ) ) ) ) ) ) ) ) ) W ~ ~ / k k S A A , > p c v X./ :.-X0X0X0X0X0X0X0X0X6X6X6X6X6X6X4X&XoXoXoXoXoXoXoXoXoXoXoXoXoXoXoXoXoXoX.X.X.X.X3.3.5.3.<.<.2.2.<.3..X.X.X.X3..X.X.X.X.X.X3.3..X.X3.3.3.3.3.<.<.<.<.*.*.*.$.$.$.*.<.<.*.*.$.` ) W ! y t y % $ i d.(././.'.{.h.m ",
"kXgXfXJXC.k.8 @ # 6 v | 1.oX7XqX=X&X&X&X&X&XoXoXoXoXoXoXoXoXoX.X.X3..X3..X.X3..X.X.X3..X3..X.X3.5.5.5.5.5.5.5.5.5.5.5.5.5.5.5.5.5.5.5.5.5.5.5.5.5.5.5.5.5.5.5.5.3.3.3.3.3.3.3.3.3.3.3.3.3.3.3..X<.8.8.>._ h f a S A A w w A A N M B ^ ] 5.=X6XwX0X0X6X=X&XoX.X.X.X3..X.X.X3..X3..X.X.X3..X3..X.X.XXXXX3.<.%.] ! j k J K N 7 7 r 0 4 5 N ( ,.<X<X=X8X6X8X8X;X;X;X=X=X=X=X3X3X3X3X3X3X6X6X6X6X6X3X&X&X&X&XoXoXoXoXoXoXoXoXoXoXoX.X.X.X.X.X3.3.5.5.<.<.5.5.5.3.3.3.5.5.5.5.5.5.5.5.5.5.5.5.5.5.5.2.$.` ` ` ` ` ) ) ) ) ) ) ) ) ) ` $.*.*.*.<.<.<.<.3.3..X.X.X.X.X.X3.5.3.5.3.5.5.5.3.5.3.5.3.5.3.2.` ) ) ) ) ) ) ) ) ) ) ) ) ) ) ) ' ' } X.J S q # q q A K  ...| >.=XwX0X0X0X0X0X6X3X3X3X3X=X=X=X&X&XoXoXoXoXoXoXoXoXoXoXoXoXoXoXoXoXoXoXoXoXoX.X.X.X.X.X.X.X.X.X.X.X.X3.3..X.X.X.X.X.X.X3.3.3..X.X.X.X.X.X3.3.3.3.3.3.5.5.5.5.5.<.*.=.%.%.%.' _ ! ! d y y t % l d.'././.'.{.h.m ",
"kXkXgX].b.k.8 @ 8 N  .} 7.XX4X7X&XoXoXoXoXoXoXoXoXoXoXoXoXoXoXoX.X3.3.3..X.X.X.X3.3.3..X.X.X.X.X.X3..X.X.X.X3.3..X.X.X.X3.3.3.3..X.X.X.X3.3.3.3..X.X.X3..X.X3.3.3..X.X.X.X.X.X.X3..X.X.X.X.X.X.X3.#X8.=._ E l k s p : : : : : N M B ^ { 2.oX5X0X0X0X0X3X&XoX3.5.3.3..X.X.X.X3.3..X.X.X.X3.3..X.X&X*XOXXX4.=.%._ g l V V 7 7 3 4 4 4 4 7 B { 6.;X3X0X0X8X8X;X;X;X3X3X3X3X3X3X3X3X3X3X3X3X3X3X3X=X&XoXoXoXoXoXoXoXoXoXoXoXoXoXoXoX.X.X3.3..X.X.X.X3.3.3..X.X.X.X.X.X.X.X.X3.3.3.3..X.X.X.X3.3..X<.$.` ` ` ` ` ` ` ` ` ` ` ` ` ` $.<.3.3.3.3.3.3.3..X.X.X.X3..X3.3..X.X.X.X3.3..X3..X.X.X.X3..X3.<.$.` ` ` ` ` ` ` ` ` ` ` ` ` ` ` ` ' [ | v A - # 4 3 q A v / ~ =.3XwXwX0X0X0X0X6X3X3X=X=X=X&X&X&XoXoXoXoXoXoXoXoXoXoXoXoXoXoXoXoXoXoXoXoXoXoXoXoXoXoXoXoXoXoXoXoX.X.X.X3..X.X.X.X.X.X.X.X3.3..X.X.X.X.X.X3.3..X.X.X.X.X.X3.3..X5.1.=.%.$.' ' _ ! ! d y t t % i @.'././.'.{.h.m ",
"kXkXfXB.b.k.8 @ 8 N  .O.7.XX-X4X&XoXoXoXoXoXoXoXoXoXoXoXoXoXoXoX.X.X.X.X.X.X.X.X.X.X.X.X.X.X.X.X.X.X.X.X.X.X.X.X.X.X.X.X.X.X.X.X.X.X.X.X.X.X.X.X.X.X.X.X.X.X.X.X.X.X.X.X.X.X.X.X.X.X.X.X.X.X.X.X3.8.7.>.Q E k b p p : : : : : p V @.^ { 2.oX5X0X0X0X6X3X&XoX.X3..X.X.X.X.X.X.X.X.X.X.X.X.X.X.X.X&X*XOXXX4.1.%.] R j V V s ; 7 3 4 4 4 7 B { 5.&X3X0X0X0X8X8X5X5X3X3X3X3X3X3X3X3X3X3X3X3X3X3X3X=X&XoXoXoXoXoXoXoXoXoXoXoXoXoXoXoX.X.X.X.X.X.X.X.X.X.X.X.X.X.X.X.X.X.X.X.X.X.X.X.X.X.X.X.X.X.X.X5.*.$.$.$.$.$.$.$.$.$.$.$.$.$.$.$.<.3.3.3.3.3.3.3..X.X.X.X.X.X.X.X.X.X.X.X.X.X.X.X.X.X.X.X.X.X.X5.*.$.$.$.$.$.$.$.$.$.$.$.$.$.$.$.` ` _ / v z - # # 3 5 z k k ~ %.3XwXwX0X0X0X0X6X3X3X=X=X=X&X&X&XoXoXoXoXoXoXoXoXoXoXoXoXoXoXoXoXoXoXoXoXoXoXoXoXoXoXoXoXoXoXoXoX.X.X.X.X.X.X.X.X.X.X.X.X.X.X.X.X.X.X.X.X.X.X.X.X.X.X.X.X.X.X.X3.3.1.1.*.%.$.' _ R d y t t % t @.'././.'.{.h.m ",
"kXkXfXB.b.k.U 8 7 D #.O.>.4.*X4X&XoXoXoXoXoXoXoXoXoXoXoXoXoXoXoX.X.X.X.X.X.X.X.X.X.X.X.X.X.X.X.X.X.X.X.X.X.X.X.X.X.X.X.X.X.X.X.X.X.X.X.X.X.X.X.X.X.X.X.X.X.X.X.X.X.X.X.X.X.X.X.X.X.X.X.X.X.X.X.X4.8.7.>.Q h v K S S A A A A S S  .@.{ ,.2.oX3X0X0X0X6X3X&XoX.X3..X.X.X.X.X.X.X.X.X.X.X.X.X.X.X.X&X*X*XOX4.1.%.' ! (  . .V N N e 4 4 r N ( } 6.&X3X0X0XwX0X8X8X8X3X3X3X3X3X3X3X3X3X3X3X3X3X3X3X=X&XoXoXoXoXoXoXoXoXoXoXoXoXoXoXoX.X.X.X.X.X.X.X.X.X.X.X.X.X.X.X.X.X.X.X.X.X.X.X.X.X.X.X.X.X.X.X3.*.*.*.*.*.*.*.*.*.=.=.=.*.*.*.*.<.3.3.3.3.3.3.3..X.X.X.X.X.X.X.X.X.X.X.X.X.X.X.X.X.X.X.X.X.X.X3.*.*.*.*.*.*.*.=.*.*.*.*.*.*.=.$.` _ [ X. .D e 0 0 q e S H  ./ >.-XwXwX0X0X0X6X6X3X=X=X=X&X&X&X&XoXoXoXoXoXoXoXoXoXoXoXoXoXoXoXoXoXoXoXoXoXoXoXoXoXoXoXoXoXoXoXoX.X.X.X.X.X.X.X.X.X.X.X.X.X.X.X.X.X.X.X.X.X.X.X.X.X.X.X.X.X.X.X.XXX4.4.1.*.%.%.] ! d y j i % l d.(././.'.{.h.m ",
"LXkXfXB.b.k.U 8 7 K #.O.>.1.OX-XOXoXoXoXoXoXoXoXoXoXoXoXoXoXoXoX.X.X.X.X.X.X.X.X.X.X.X.X.X.X.X.X.X.X.X.X.X.X.X.X.X.X.X.X.X.X.X.X.X.X.X.X.X.X.X.X3.3..X.X.X.X.X.X.X.X.X.X.X.X.X.X.X.X.X.X.X.X.X3.1.7.>._ E h  .#.L L L L L L L #.#.@.| ,.5.oX=X6X6X6X3X=X&X.X3.5.3..X.X.X.X.X.X.X.X.X.X.X.X.X.X.X&X*X&XoXXX1.=.' | O.u.#.#.K K G r r G L #.p.0.<X3X0XwXwXwXwX0X6X3X3X3X3X3X3X3X3X3X3X3X3X3X3X3X=X&XoXoXoXoXoXoXoXoXoXoXoXoXoXoXoX.X.X.X.X.X.X.X.X.X.X.X.X.X.X.X.X.X.X.X.X.X.X.X.X.X.X.X.X.X.X.X3.<.<.<.<.<.<.<.<.<.<.<.<.<.<.<.<.3.3.3.3.3.3.3.3..X.X.X.X.X.X.X.X.X.X.X.X.X.X.X.X.X.X.X.X.X.X.X3.<.<.<.<.<.<.<.<.<.<.<.<.<.<.<.*.%.[ O.O.#.L L F r F F L #.#.X.w.-X0X0X0X0X6X6X6X3X=X=X&X&X&X&X&XoXoXoXoXoXoXoXoXoXoXoXoXoXoXoXoXoXoXoXoXoXoXoXoXoXoXoXoXoXoXoXoX.X.X.X.X3.3.3.3..X.X.X.X.X.X.X.X.X.X.X.X.X.X.X3..X.X.X.X.X.X.X.XoXOXXXXX3.1.%.' } ! ^ ( k i V g.(././.'.{.h.m ",
"LXHXfXV.b.k.U Z G L #.O.:.=.XXOXoX.X.X.XoX.XoX.XoX.X.X.XoX.XoX.X.X3.3.3.3.3.3.3.3.3.3.3.3.3.3.3.3.3.3.3.3.3.3.3.3.3.3.3.3.3.3.3.3.3.3.3.3.3.3.3.3.3.3.3.3.3.3.3.3.3.3.3.3.3.3.3.3.3.3.3.3.3.3.3.1.7.>._ E k #.a.f.J.L L L L L #.#.p.q.q.6.+X*X3X3X3X=X&XoX.X3.3.3.3.3.3.3.3.3.3.3.3.3.3.3.3.3.XXOX&XOXXXXX<.=.] :.p.u.u.#.#.#.Y r r Y f.u.p.0.<X=X6X0XwXwXwXwX0X3X=X=X=X=X=X=X=X=X=X=X=X=X=X=X=XoX.X.X.XoX.XoX.XoX.XoX.XoX.XoX.X.X3.3.3.3.3.3.3.3.3.3.3.3.3.3.3.3.3.3.3.3.3.3.3.3.3.3.3.3.3.3.3.3.3.3.3.3.3.3.3.3.3.3.3.3.3.3.3.3.<.<.<.<.<.<.<.3.3.3.3.3.3.3.3.3.3.3.3.3.3.3.3.3.3.3.3.3.3.3.3.3.3.3.3.3.3.3.3.3.3.3.3.3.3.3.<.>.} O.u.#.f.T L F L L L #.#.#.p.*XqXqX7X7X7X4X4X=X&X&X&XoXoXoXoXoX.XoX.X.X.XoX.XoX.XoX.XoX.XoX.XoX.XoX.XoX.XoX.XoX.X.X.XoX.XoX.X.X3.3.3.3.3.3.3.3.3.3.3.3.3.3.3.3.3.3.3.3.3.3.3.3.3.3.3.3.3.3..X&X*XOXXX3.<.=.' :.( ( #. .s V g.(././.'.{.h.m ",
"LXHXN.V.b.k.I U G L #.O.[ %.1.XXXXXXXX.X.X.X.X.X.XXX.X.X.XXXXXXX3.<.<.<.3.3.<.<.<.<.<.<.<.<.<.<.<.<.<.<.<.<.<.<.<.3.<.<.<.<.<.<.<.<.<.<.<.<.<.<.<.<.<.<.3.<.<.<.<.<.<.<.3.3.<.<.<.<.<.<.<.<.<.<.7.>.[ Q h l #.J.J.L T T L L #.#.u.p.p.q.6.@XOX*X&X&X&XoXXX3.<.2.<.3.<.<.<.<.<.<.<.<.<.<.<.<.<.3.oXOXOXXX4.1.%.' :.p.u.u.#.#.#.L r r T H.u.p.q.4.*X4X0XwXwXNXwX0X=X&X&X&X&X&X&X&X&X&X&X&X&X&X&XoXXXXX.X.X.X.XXXXX.X.X.X.XXXXXXX.X3.<.<.<.3.3.<.<.<.<.<.<.<.<.<.<.<.3.<.<.<.<.<.<.<.<.<.<.<.<.<.3.3.3.3.3.3.3.3.3.3.3.3.3.3.3.3.3.<.<.<.<.<.<.<.<.<.<.<.<.<.<.<.<.<.3.<.<.<.<.<.<.<.<.<.<.<.<.<.3.3.3.3.3.3.3.3.3.3.3.3.3.3.3.3.<._ [ X.#.#.f.L L F F L L #.#.#.p.OX4X4X4X4X4X-X-X&XoXoXoX.XXXXX.X.X.X.X.XXXXX.XXX.X.X.X.XXX.XXXXXXXXXXX.X.X.X.X.X.XXX.X.X.XXXXXXX3.<.3.3.<.<.<.<.<.<.<.<.<.<.<.<.3.3.<.<.<.<.<.<.<.<.<.<.<.<.<.XX&X*X*XoXXX1.=.' } ~ ( #.J s N g.(././.'.{.h.m ",
"LXHXN.A.b.k.k.I G L #.#.[ ' %.1.1.3.3.3.3.3.3.3.3.3.3.3.3.3.3.<.<.=.=.=.*.*.*.*.*.=.=.=.*.*.=.=.=.=.=.*.*.*.*.*.*.*.*.*.*.=.*.=.*.*.*.*.*.*.=.=.*.=.*.*.*.*.*.*.*.=.=.=.*.*.*.*.*.=.=.=.*.*.*.=.>.[ _ E f k #.J.L L L L L L #.#.u.p.p.q.0.6.@XXXXXXXXXXX<.<.=.=.=.*.*.*.*.=.=.=.*.*.*.*.*.*.*.<.XXXXXX4.1.=.%.' | O.u.#.#. .#.L r r Y T #.O.[ =.+X;X4X6X0XwXwX6X&XXXXXXXXXXXXXXXXXXXXXXXXXXXXXXX3.3.3.3.3.3.3.3.3.3.3.3.3.3.3.<.<.*.=.*.*.*.*.*.*.=.=.=.*.*.=.=.*.*.*.*.*.*.*.=.*.*.*.*.*.*.*.<.<.3.3.3.3.3.3.3.3.3.3.3.3.3.3.<.*.$.*.$.*.$.*.$.*.*.*.*.*.=.*.*.*.*.*.*.*.*.*.=.*.*.*.*.*.*.*.<.<.3.3.3.3.3.3.3.3.3.3.3.3.3.3.*.W h / #.#.#.L L F F L L L K J O.8.-X-X-X*X*X*XOXXXXX3.3.3.<.<.<.3.3.3.3.3.3.3.3.3.3.3.3.3.3.3.3.3.3.3.3.3.3.3.3.3.3.3.3.3.3.3.<.<.*.*.*.*.=.=.=.*.*.*.*.*.=.*.*.=.*.*.*.*.=.=.=.*.*.*.*.*.*.*.<.OX*XOXXX4.1.%.' | ! ( #.V ; N g.(././.'.{.h.m ",
"HXHXGXV.b.j.I Y G G H k ~ Q ) ` =.=.=.=.=.=.=.=.=.=.=.=.=.=.=.%.$.` %.' %.` $.` $.` $.` $.` %.' %.' %.' $.` $.` %.' %.` $.` $.` $.` $.` $.` %.' %.' %.' $.` $.` $.` %.' %.` $.` $.` $.` $.` %.' _ W g d u a K L L L L L L L L #.u.p.| } ' $.$.*.<.<.<.*.$.$.` ` ' ` $.` $.` $.` $.' %.' $.` $.$.<.3.<.*.=.$.] ] p.O.#.#.#.#.#.L r r L L #./ Q ) *.3.oX&X=X=X=X&X3.1.1.1.1.1.<.<.<.<.1.1.1.1.1.=.=.=.=.=.=.=.=.=.=.=.=.=.=.=.=.=.$.` %.' %.` $.` $.` $.` $.` %.' %.` $.` $.` $.` $.' %.' $.` $.$.*.<.<.<.<.<.<.<.<.<.<.<.<.<.<.*.$.` $.` $.` $.` $.' %.' $.` $.` %.` $.` $.` $.` $.' %.' $.` $.$.*.<.<.<.<.<.<.<.<.<.<.<.<.<.<.$.g f k #.#.#.L F F F F L L L L #.=.OXOXXXXXXX4.6.1.=.=.=.$.$.$.$.=.=.=.=.=.=.=.=.=.=.=.=.=.=.=.=.=.=.=.=.=.=.=.=.=.=.=.=.=.=.=.%.%.` $.` $.` $.` $.' %.' $.` $.` %.` $.` $.` $.` $.' %.' $.` $.=.3.XXXX3.<.=.' _ p.( l V H N D g.A.^.V.V.b.s.m ",
"HXHXGXV.b.j.g.Y Y L #.#.O.O.} :.' ' ' ' ' ' ' ' ' ' ' ' ' ' ' ' _ _ _ _ _ _ _ _ _ _ _ _ _ _ _ _ _ _ _ _ _ _ _ _ _ _ _ _ _ _ _ _ _ _ _ _ _ _ _ _ _ _ _ _ _ _ _ _ _ _ _ _ _ _ _ _ _ _ _ _ _ _ _ [ w.O.| / k K #.H.L L L L f.#.J.u.y.u.p.p.O.:.:.w.%.%.' ' _ _ _ Q _ _ _ _ _ _ _ _ _ _ _ _ _ _ _ ' =.=.=.%.;.] ] ! u.u.u.u.g.g.f.H.P T T H.J.#.O.} 0.0.<X<X<X<X<X<X=.%.%.%.%.%.%.%.%.%.%.%.%.%.%.%.%.' ' ' ' ' ' ' ' ' ' ' ' ' ' ' _ _ _ _ _ _ _ _ _ _ _ _ _ _ _ _ _ _ _ _ _ _ _ _ _ _ _ _ _ _ _ ' %.=.=.=.=.=.=.=.=.=.=.=.=.=.=.%.' _ _ _ _ _ _ _ _ _ _ _ _ _ _ _ _ _ _ _ _ _ _ _ _ _ _ _ _ _ _ ' %.=.=.=.=.=.=.=.=.=.=.=.=.=.=.' /  .#.K.J.J.J.L T Y T T L L L u.:.8.8.9.9.9.9.>.%.%.' ' ' _ _ _ ' ' ' ' ' ' ' ' ' ' ' ' ' ' ' ' ' ' ' ' ' ' ' ' ' ' ' ' ' ' ' ' _ _ _ _ _ _ _ _ _ _ _ _ _ _ _ _ _ _ _ _ _ _ _ _ _ _ _ _ _ _ _ ' 1.1.1.=.%.] ] ! u.( k J K N G g.A.^./.(.b.s.m ",
"HXGXGXB.b.j.G.f.f.J.J.K.E.y.y.i.i.i.i.i.i.i.i.i.i.i.i.i.i.i.i.i.y.y.y.y.y.y.y.y.y.y.y.y.y.y.y.y.y.y.y.y.y.y.y.y.y.y.y.y.y.y.y.y.y.y.y.y.y.y.y.y.y.y.y.y.y.y.y.y.y.y.y.y.y.y.y.y.y.y.y.y.y.y.y.y.i.i.y.u.u.J.P.Y.H.H.H.H.J.J.L.E.!.E.E.y.u.y.y.i.i.i.i.i.y.y.y.y.y.y.y.y.y.y.y.y.y.y.y.y.y.y.y.i.2X2X2X2X2Xi.y.y.c.E.E.K.K.P.P.P.T T U.Y.T.L.E.y.i.2X2X2X2X2X2X2X2Xi.i.i.i.i.i.i.i.i.i.i.i.i.i.i.i.i.i.i.i.i.i.i.i.i.i.i.i.i.i.i.y.y.y.y.y.y.y.y.y.y.y.y.y.y.y.y.y.y.y.y.y.y.y.y.y.y.y.y.y.y.y.y.i.2X2X2X2X2X2X2X2X2X2X2X2X2X2Xi.y.y.y.y.y.y.y.y.y.y.y.y.y.y.y.y.y.y.y.y.y.y.y.y.y.y.y.y.y.y.y.y.i.2X2X2X2X2X2X2X2X2X2X2X2X2X2Xi.u.E.E.!.~.L.P.H.H.H.H.H.H.H.H.J.i.2X2X2X2X2X2X2Xi.i.i.y.y.y.y.y.i.i.i.i.i.i.i.i.i.i.i.i.i.i.i.i.i.i.i.i.i.i.i.i.i.i.i.i.i.i.i.i.y.y.y.y.y.y.y.y.y.y.y.y.y.y.y.y.y.y.y.y.y.y.y.y.y.y.y.y.y.y.y.i.2X2X2X2Xi.i.y.u.c.#.V #.#.K L G.A././.(.C.h.Z ",
"HXHXGXB.C.D.G.f.P.P.L.!.!.Q.Q.Q.nXnXnXnXnXnXnXnXnXnXnXnXnXnXnXnXW.W.W.W.W.W.W.W.W.W.W.W.W.W.W.W.W.W.W.W.W.W.W.W.W.W.W.W.W.W.W.W.W.W.W.W.W.W.W.W.W.W.W.W.W.W.W.W.W.W.W.W.W.W.W.W.W.W.W.W.W.W.W.W.MXnXQ.!.!.L.Y.Y.H.H.P.P.P.L.!.!.!.!.E.E.E.!.Q.Q.W.W.W.W.W.W.W.W.W.W.W.W.W.W.W.W.W.W.W.W.W.W.W.nXmXmXmXmXmXnXnXQ.!.!.K.P.P.P.R.P.H.U.Y.Y.Y.~.!.!.Q.Q.nXmXmXmXmXmXnXnXnXnXnXnXnXnXnXnXnXnXnXnXnXnXnXnXnXnXnXnXnXnXnXnXnXnXnXnXnXnXW.W.W.W.W.W.W.W.W.W.W.W.W.W.W.W.W.W.W.W.W.W.W.W.W.W.W.W.W.W.W.W.nXnXnXnXnXnXnXnXnXnXnXnXnXnXnXnXW.W.W.W.W.W.W.W.W.W.W.W.W.W.W.W.W.W.W.W.W.W.W.W.W.W.W.W.W.W.W.W.nXnXnXnXnXnXnXnXnXnXnXnXnXnXnXnX!.!.~.~.~.~.L.P.P.P.P.H.H.H.H.P.MXMXMXMXMXMXMXMXnXW.W.W.W.W.W.W.nXnXnXnXnXnXnXnXnXnXnXnXnXnXnXnXnXnXnXnXnXnXnXnXnXnXnXnXnXnXnXnXW.W.W.W.W.W.W.W.W.W.W.W.W.W.W.W.W.W.W.W.W.W.W.W.W.W.W.W.W.W.W.W.nXnXnXnXnXnXQ.Q.E.#.#.#.g.K #.G.A././.'.Z.D.d.",
"GXGX).'.C.D.G.G.P.P.L.!.!.Q.Q.Q.E.E.E.E.E.E.E.E.E.E.E.E.E.E.E.K.J.J.J.J.J.J.J.J.J.J.J.J.J.J.J.J.J.J.J.J.J.J.J.J.J.J.J.J.J.J.J.J.J.J.J.J.J.J.J.J.J.J.J.J.J.J.J.J.J.J.J.J.J.J.J.J.J.J.J.J.J.J.J.K.nXnXW.!.!.L.Y.I.H.H.H.P.P.L.E.E.!.!.E.K.L.!.!.~.J.J.J.J.J.J.J.J.J.J.J.J.J.J.J.J.J.J.J.J.J.J.J.K.E.E.E.E.E.E.E.K.K.P.P.P.P.P.P.P.H.T.T.Y.Y.Y.Y.~.~.!.!.Q.Q.Q.Q.Q.E.E.E.E.E.E.E.E.E.E.E.E.E.E.E.E.E.E.E.E.E.E.E.E.E.E.E.E.E.E.E.K.J.J.J.J.J.J.J.J.J.J.J.J.J.J.J.J.J.J.J.J.J.J.J.J.J.J.J.J.J.J.J.K.K.E.E.E.E.K.K.K.E.E.K.K.K.K.E.K.K.J.J.J.J.J.J.J.J.J.J.J.J.J.J.J.J.J.J.J.J.J.J.J.J.J.J.J.J.J.J.K.K.K.K.K.E.E.E.E.K.K.K.K.E.E.E.K.!.~.~.~.~.L.L.P.P.P.H.H.H.T T H.!.Q.Q.Q.!.!.!.!.K.K.J.J.J.J.J.J.K.E.E.E.E.E.E.E.E.E.E.E.E.E.E.E.E.E.E.E.E.E.E.E.E.E.E.E.E.E.E.K.J.J.J.J.J.J.J.J.J.J.J.J.J.J.J.J.J.J.J.J.J.J.J.J.J.J.J.J.J.J.J.K.K.K.K.K.K.K.K.K.!.g.#.g.g.#.#.G.V./.^.(.Z.F.g.",
").).).'.C.F.G.G.P.P.L.L.!.!.!.!.L.L.L.L.L.L.L.L.L.L.L.L.L.L.L.L.H.H.H.H.H.H.H.H.H.H.H.H.H.H.H.H.H.H.H.H.H.H.H.H.H.H.H.H.H.H.H.H.H.H.H.H.H.H.H.H.H.H.H.H.H.H.H.H.H.H.H.H.H.H.H.H.H.H.H.H.H.H.H.L.Q.Q.Q.!.L.L.H.H.T H.H.H.J.L.K.K.L.L.L.J.H.P.I.I.H.H.H.H.H.H.H.H.H.H.H.H.H.H.H.H.H.H.H.H.H.H.H.J.E.E.E.E.E.E.K.K.P.P.P.P.T T T T H.T.T.T.H.T.T.Y.Y.P.P.P.!.!.!.!.L.L.L.L.L.L.L.L.L.L.L.L.L.L.L.L.L.L.L.L.L.L.L.L.L.L.L.L.L.L.L.L.H.H.H.H.H.H.H.H.H.H.H.H.H.H.H.H.H.H.H.H.H.H.H.H.H.H.H.H.H.H.H.H.P.P.P.P.P.P.P.P.P.P.P.P.P.P.P.P.H.H.H.H.H.H.H.H.H.H.H.H.H.H.H.H.H.H.H.H.H.H.H.H.H.H.H.H.H.H.H.H.P.P.P.P.P.P.P.P.P.P.P.P.P.P.P.P.L.L.L.L.L.L.L.L.J.H.H.H.T T T T L.!.!.!.!.!.L.L.L.H.H.H.H.H.H.H.L.L.L.L.L.L.L.L.L.L.L.L.L.L.L.L.L.L.L.L.L.L.L.L.L.L.L.L.L.L.L.L.H.H.H.H.H.H.H.H.H.H.H.H.H.H.H.H.H.H.H.H.H.H.H.H.H.H.H.H.H.H.H.H.P.P.P.P.P.P.P.P.~.f.#.f.g.#.#.G.(./.V.V.C.D.g.",
").).).'.Z.F.D.G.P.P.L.L.!.!.!.L.Y.Y.Y.Y.Y.Y.Y.Y.Y.Y.Y.Y.Y.Y.Y.Y.I.I.I.I.I.I.I.I.I.I.I.I.I.I.I.I.I.I.I.I.I.I.I.I.I.I.I.I.I.I.I.I.I.I.I.I.I.I.I.I.I.I.I.I.I.I.I.I.I.I.I.I.I.I.I.I.I.I.I.I.I.I.I.Y.K.E.!.!.L.L.H.H.H.H.H.P.P.L.!.!.~.Y.L.H.H.H.U.U.U.U.U.U.U.U.I.I.I.I.I.I.I.I.I.I.I.I.I.I.I.I.I.Y.~.~.~.~.~.~.~.~.R.R.R.R.T T T T Y.T.T.L.H.H.H.U.U.U.U.U.R.R.R.P.I.I.Y.I.Y.I.Y.I.Y.I.Y.I.Y.I.Y.Y.Y.Y.Y.Y.Y.Y.Y.Y.Y.Y.Y.Y.Y.Y.Y.Y.I.I.I.I.I.I.I.I.I.I.I.I.I.I.I.I.I.I.I.I.I.I.I.I.I.I.I.I.I.I.I.I.R.R.R.R.R.R.R.R.R.R.R.R.R.R.R.R.I.I.I.I.I.I.I.I.I.I.I.I.I.I.I.I.I.I.I.I.I.I.I.I.I.I.I.I.I.I.I.I.R.R.R.R.R.R.R.R.R.R.R.R.R.R.R.R.P.L.P.L.L.L.L.~.P.P.H.H.T T T T ~.~.~.~.~.~.Y.Y.I.I.I.U.U.U.U.U.Y.Y.Y.Y.Y.Y.Y.Y.Y.Y.Y.Y.Y.Y.Y.Y.Y.Y.Y.Y.Y.Y.Y.Y.Y.Y.Y.Y.Y.Y.Y.Y.I.I.I.I.I.I.I.I.I.I.I.I.I.I.I.I.I.I.I.I.I.I.I.I.I.I.I.I.I.I.I.I.R.R.R.R.R.R.R.R.R.f.L f.g.K #.x.'./.V.A.b.v.d.",
").).).'.].F.F.D.D.G.!.!.!.c.c.G.f.f.f.f.f.f.f.f.f.f.f.f.f.f.f.f.f.f.f.f.f.f.f.f.f.f.f.f.f.f.f.f.f.f.f.f.f.f.f.f.f.f.f.f.f.f.f.f.f.f.f.f.f.f.f.f.f.f.f.f.f.f.f.f.f.f.f.f.f.f.f.f.f.f.f.f.f.f.f.f.g.c.c.!.!.P.P.f.R.R.R.R.!.!.!.!.~.~.R.P.f.P.R.R.f.f.f.f.f.f.f.f.f.f.f.f.f.f.f.f.f.f.f.f.f.f.f.f.g.g.g.g.g.g.g.g.R.R.R.G.G.f.f.f.~.~.!.!.P.P.P.R.R.R.R.R.G.G.G.R.f.f.f.f.f.f.f.f.f.f.f.f.f.f.f.f.f.f.f.f.f.f.f.f.f.f.f.f.f.f.f.f.f.f.f.f.f.f.f.f.f.f.f.f.f.f.f.f.f.f.f.f.f.f.f.f.f.f.f.f.f.f.f.f.f.f.f.f.f.f.f.f.f.f.f.f.f.f.f.f.f.f.f.f.f.f.f.f.f.f.f.f.f.f.f.f.f.f.f.f.f.f.f.f.f.f.f.f.f.f.f.f.f.f.f.f.f.f.f.f.f.f.f.f.f.f.f.f.R.K.K.G.K.!.~.~.!.R.R.R.R.R.R.R.f.K.K.f.P.P.P.P.f.f.f.f.f.f.f.f.f.f.f.f.f.f.f.f.f.f.f.f.f.f.f.f.f.f.f.f.f.f.f.f.f.f.f.f.f.f.f.f.f.f.f.f.f.f.f.f.f.f.f.f.f.f.f.f.f.f.f.f.f.f.f.f.f.f.f.f.f.f.f.f.f.f.f.f.f.f.f.g.R.g.d.g.g.C #.h.].`.V.A.A.h.d.",
"GX).).).].B.Z.Z.C.C.C.C.C.C.Z.C.n.S.S.S.b.b.b.b.S.S.S.S.b.b.b.b.S.S.S.S.S.S.S.S.b.b.b.S.S.S.S.S.S.S.S.S.b.b.b.S.S.S.S.S.S.S.S.S.b.b.b.S.S.S.S.S.S.S.S.S.b.b.b.S.S.S.S.S.S.S.S.S.b.b.b.S.S.S.S.S.n.n.n.n.n.n.b.b.b.b.b.C.n.n.n.n.S.S.S.S.b.b.b.b.S.S.S.S.S.S.b.b.S.S.S.S.b.b.b.b.S.S.S.S.b.b.b.b.n.C.C.n.n.n.n.b.b.b.b.b.b.b.b.b.S.F.S.S.S.S.S.S.b.b.b.b.b.b.b.b.b.S.S.S.b.b.b.S.S.S.S.S.S.S.S.S.b.b.b.S.S.S.S.S.S.S.S.S.b.b.b.S.S.S.S.S.S.S.S.S.b.b.b.S.S.S.S.S.S.S.S.S.b.b.b.b.S.S.S.S.b.b.b.b.b.b.b.b.b.b.b.b.b.b.b.b.b.b.b.b.b.S.S.S.b.b.b.b.S.S.S.S.b.b.b.b.S.S.S.S.b.b.b.b.S.S.S.S.b.b.b.b.b.b.b.b.b.b.b.b.b.b.b.b.b.b.b.b.n.n.n.n.n.n.n.n.n.n.b.b.b.b.b.b.n.n.n.S.S.S.S.S.S.S.S.S.b.b.b.S.S.S.S.S.S.S.S.S.b.b.b.S.S.S.S.S.S.S.S.S.b.b.b.b.S.S.S.S.b.b.b.b.S.S.S.S.b.b.b.b.S.S.S.S.b.b.b.b.S.S.S.S.b.b.b.b.S.S.S.S.b.b.b.b.b.b.b.b.b.b.b.b.s.s.s.h.h.h.h.s.V./.V.V.B.B.M.",
").).).).GXGXGXGXN.N.N.N.N.N.N.N.B.M.M.M.M.M.M.M.M.M.M.M.M.M.M.M.M.M.M.M.M.M.M.M.M.M.M.M.M.M.M.M.M.M.M.M.M.M.M.M.M.M.M.M.M.M.M.M.M.M.M.M.M.M.M.M.M.M.M.M.M.M.M.M.M.M.M.M.M.M.M.M.M.M.M.M.M.M.M.M.M.M.M.M.M.M.M.M.M.M.M.B.M.M.M.M.M.M.M.M.M.M.M.M.M.M.M.M.M.M.M.B.M.M.M.M.M.M.M.M.M.M.M.M.M.M.M.M.M.M.M.M.M.M.M.M.M.M.M.M.M.M.M.M.M.M.M.M.M.M.M.M.M.M.M.M.M.M.M.M.M.M.M.M.M.M.M.M.M.M.M.M.M.M.M.M.M.M.M.M.M.M.M.M.M.M.M.M.M.M.M.M.M.M.M.M.M.M.M.M.M.M.M.M.M.M.M.M.M.M.M.M.M.M.M.M.M.M.M.M.M.M.M.M.M.M.M.M.M.M.M.M.M.M.M.M.M.M.M.M.M.M.M.M.M.M.M.M.M.M.M.M.M.M.M.M.M.M.M.M.M.M.M.M.M.M.M.M.M.M.M.M.M.M.M.M.M.M.M.M.M.M.M.M.M.M.M.M.M.M.M.M.M.M.M.M.M.M.M.B.M.M.M.M.M.M.M.M.M.M.M.M.M.M.M.M.M.M.M.M.M.M.M.M.M.M.M.M.M.M.M.M.M.M.M.M.M.M.M.M.M.M.M.M.M.M.M.M.M.M.M.M.M.M.M.M.M.M.M.M.M.M.M.M.M.M.M.M.M.M.M.M.M.M.M.M.M.M.M.M.M.M.M.M.M.M.M.M.M.B.M.B.A.m.A.m.m.m.m.m.N.N.N.N.N.N.N.",
"GXGX).).GX).GXGXN.N.N.N.N.N.N.N.B.B.M.B.M.B.M.B.M.B.M.B.M.B.M.B.M.B.M.B.M.B.M.B.M.B.M.B.M.B.M.B.M.B.M.B.M.B.M.B.M.B.M.B.M.B.M.B.M.B.M.B.M.B.M.B.M.B.M.B.M.B.M.B.M.B.M.B.M.B.M.B.M.B.M.B.M.B.M.B.M.B.M.B.M.B.M.B.M.B.M.B.M.B.M.B.M.B.M.B.M.B.M.B.M.B.M.B.M.B.M.B.M.B.M.B.M.B.M.B.M.B.M.B.M.B.M.B.M.B.M.B.M.B.M.B.M.B.M.B.M.B.M.B.M.B.M.B.M.B.M.B.M.B.M.B.M.B.M.B.M.B.M.B.M.B.M.B.M.B.M.B.M.B.M.B.M.B.M.B.M.B.M.M.M.B.M.B.M.B.M.B.M.B.M.B.M.B.M.B.M.B.M.B.M.B.M.B.M.B.M.B.M.B.M.B.M.B.M.B.M.B.M.B.M.B.M.B.M.B.M.B.M.B.M.B.M.B.M.B.M.B.M.B.M.B.M.B.M.B.M.B.M.B.M.B.M.B.M.B.M.B.M.B.M.B.M.B.M.B.M.B.M.B.M.B.M.B.M.B.M.B.M.B.M.B.M.B.M.B.M.B.M.B.M.B.M.B.B.B.M.M.M.B.M.B.M.B.M.B.M.B.M.B.M.B.M.B.M.B.M.B.M.B.M.B.M.B.M.B.M.B.M.B.M.M.M.B.M.B.M.B.M.B.M.B.M.B.M.B.M.B.M.B.M.B.M.B.M.B.M.B.M.B.M.B.M.B.M.B.M.B.M.B.M.B.M.B.M.B.M.B.M.B.M.B.M.B.M.B.B.B.M.M.hXhXhXB.M.B.N.N.N.N.N.N.N.",
"GXGX).).).).).).N.N.N.N.N.N.N.N.B.B.B.B.B.B.B.B.B.B.B.B.B.B.B.B.B.B.B.B.B.B.B.B.B.B.B.B.B.B.B.B.B.B.B.B.B.B.B.B.B.B.B.B.B.B.B.B.B.B.B.B.B.B.B.B.B.B.B.B.B.B.B.B.B.B.B.B.B.B.B.B.B.B.B.B.B.B.B.B.B.B.B.B.B.B.B.B.B.B.B.B.B.B.B.B.B.B.B.B.B.B.B.B.B.B.B.B.B.B.B.B.B.B.B.B.B.B.B.B.B.B.B.B.B.B.B.B.B.B.B.B.B.B.B.B.B.B.B.B.B.B.B.B.B.B.B.B.B.B.B.B.B.B.B.B.B.B.B.M.B.B.B.B.B.B.B.B.B.B.B.B.B.B.B.B.B.B.B.B.B.B.M.M.B.B.B.B.B.B.B.B.B.B.M.M.B.B.B.B.B.B.B.B.B.B.B.B.B.B.B.B.B.B.B.B.B.B.B.B.B.B.B.B.B.B.B.B.B.B.B.B.B.B.B.B.B.B.B.B.B.B.B.B.B.B.B.B.B.B.B.B.B.B.B.B.B.B.B.B.B.B.B.B.B.B.B.B.B.B.B.B.B.B.B.B.B.B.B.B.B.B.B.B.B.B.B.B.B.B.B.B.B.B.B.B.B.B.B.B.B.B.B.B.B.B.B.B.B.B.B.B.B.B.B.B.B.B.B.B.B.B.B.B.B.B.B.B.B.B.B.B.B.B.M.M.B.B.B.B.B.B.B.B.B.B.B.B.B.B.B.B.B.B.B.B.B.B.B.B.B.B.B.B.B.B.B.B.B.B.B.B.B.B.B.B.B.B.B.B.B.B.B.B.B.B.B.B.B.B.B.B.JXJXJXJXJXJXJXJXN.N.N.N.N.N.N.",
"GX).).).).).).).N.N.N.N.N.N.N.N.B.B.B.B.B.B.B.B.B.B.B.B.B.B.B.B.B.B.B.B.B.B.B.B.B.B.B.B.B.B.B.B.B.B.B.B.B.B.B.B.B.B.B.B.B.B.B.B.B.B.B.B.B.B.B.B.B.B.B.B.B.B.B.B.B.B.B.B.B.B.B.B.B.B.B.B.B.B.B.B.B.B.B.B.B.B.B.B.B.B.B.B.B.B.B.B.B.B.B.B.B.B.B.B.B.B.B.B.B.B.B.B.B.B.B.B.B.B.B.B.B.B.B.B.B.B.B.B.B.B.B.B.B.B.B.B.B.B.B.B.B.B.B.B.B.B.B.B.B.B.B.B.B.B.B.B.B.B.B.B.B.B.B.B.B.B.B.B.B.B.B.B.B.B.B.B.B.B.B.B.B.B.B.B.B.B.B.B.B.B.B.B.B.B.B.B.B.B.B.B.B.B.B.B.B.B.B.B.B.B.B.B.B.B.B.B.B.B.B.B.B.B.B.B.B.B.B.B.B.B.B.B.B.B.B.B.B.B.B.B.B.B.B.B.B.B.B.B.B.B.B.B.B.B.B.B.B.B.B.B.B.B.B.B.B.B.B.B.B.B.B.B.B.B.B.B.B.B.B.B.B.B.B.B.B.B.B.B.B.B.B.B.B.B.B.B.B.B.B.B.B.B.B.B.B.B.B.B.B.B.B.B.B.B.B.B.B.B.B.B.B.B.B.B.B.B.B.B.B.B.B.B.B.B.B.B.B.B.B.B.B.B.B.B.B.B.B.B.B.B.B.B.B.B.B.B.B.B.B.B.B.B.B.B.B.B.B.B.B.B.B.B.B.B.B.B.B.B.B.B.B.B.B.B.B.B.B.B.B.B.B.B.B.B.B.B.B.B.B.B.N.N.N.N.N.N.N.",
"GX).).).).).).).N.N.N.N.N.N.N.N.B.B.B.B.B.B.B.B.B.B.B.B.B.B.B.B.B.B.B.B.B.B.B.B.B.B.B.B.B.B.B.B.B.B.B.B.B.B.B.B.B.B.B.B.B.B.B.B.B.B.B.B.B.B.B.B.B.B.B.B.B.B.B.B.B.B.B.B.B.B.B.B.B.B.B.B.B.B.B.B.B.B.B.B.B.B.B.B.B.B.B.B.B.B.B.B.B.B.B.B.B.B.B.B.B.B.B.B.B.B.B.B.B.B.B.B.B.B.B.B.B.B.B.B.B.B.B.B.B.B.B.B.B.B.B.B.B.B.B.B.B.B.B.B.B.B.B.B.B.B.B.B.B.B.B.B.B.B.B.B.B.B.B.B.B.B.B.B.B.B.B.B.B.B.B.B.B.B.B.B.B.B.B.B.B.B.B.B.B.B.B.B.B.B.B.B.B.B.B.B.B.B.B.B.B.B.B.B.B.B.B.B.B.B.B.B.B.B.B.B.B.B.B.B.B.B.B.B.B.B.B.B.B.B.B.B.B.B.B.B.B.B.B.B.B.B.B.B.B.B.B.B.B.B.B.B.B.B.B.B.B.B.B.B.B.B.B.B.B.B.B.B.B.B.B.B.B.B.B.B.B.B.B.B.B.B.B.B.B.B.B.B.B.B.B.B.B.B.B.B.B.B.B.B.B.B.B.B.B.B.B.B.B.B.B.B.B.B.B.B.B.B.B.B.B.B.B.B.B.B.B.B.B.B.B.B.B.B.B.B.B.B.B.B.B.B.B.B.B.B.B.B.B.B.B.B.B.B.B.B.B.B.B.B.B.B.B.B.B.B.B.B.B.B.B.B.B.B.B.B.B.B.B.B.B.B.B.B.B.B.B.B.B.B.B.B.B.B.B.N.N.N.N.N.N.N.N.",
").).).).).).).).N.N.N.N.N.N.N.N.N.N.N.N.N.N.N.N.N.N.N.N.N.N.N.N.N.N.N.N.N.N.N.N.N.N.N.N.N.N.N.N.N.N.N.N.N.N.N.N.N.N.N.N.N.N.N.N.N.N.N.N.N.N.N.N.N.N.N.N.N.N.N.N.N.N.N.N.N.N.N.N.N.N.N.N.N.N.N.N.N.N.N.N.N.N.N.N.N.N.N.N.N.N.N.N.N.N.N.N.N.N.N.N.N.N.N.N.B.B.B.B.N.N.N.N.N.N.N.N.N.N.N.N.N.N.N.N.N.N.N.N.N.N.N.N.N.N.N.N.N.N.N.N.N.N.N.N.N.N.N.N.N.N.N.N.N.N.N.N.N.N.N.N.N.N.N.N.N.N.N.N.N.N.N.N.N.N.N.N.N.N.N.N.N.N.N.N.N.N.N.N.N.N.N.N.N.N.N.N.N.N.N.N.N.N.N.N.N.N.N.N.N.N.N.N.N.N.N.N.N.N.N.N.N.N.N.N.N.N.N.N.N.N.N.N.N.N.N.N.N.N.N.N.N.N.N.N.N.N.N.N.N.N.N.N.N.N.N.N.N.N.N.N.N.N.N.N.N.N.N.N.N.N.N.N.N.N.N.N.N.N.N.N.N.N.N.N.N.N.N.N.N.N.N.N.N.N.N.N.N.N.N.N.N.N.N.N.N.N.N.N.N.N.N.N.N.N.N.N.N.N.N.N.N.N.N.N.N.N.N.N.N.N.N.N.N.N.N.N.N.N.N.N.N.N.N.N.N.N.N.N.N.N.N.N.N.N.N.N.N.N.N.N.N.N.N.N.N.N.N.N.N.N.N.N.N.N.N.N.N.N.N.N.N.N.N.N.N.N.N.N.N.N.N.N.N.N.N.N.N.N.N.N.N.N.N."
};
